%
(Header)
(Generated by gcodetools from Inkscape.)
(Using default header. To add your own header create file "header" in the output dir.)
M3
(Header end.)
G21 (All units in mm)

(Start cutting path id: path58342)
(Change tool to Default tool)

G00 Z5.000000
G00 X16.778961 Y78.024529

G01 Z-0.125000 F100.0(Penetrate)
G01 X1.864306 Y74.295865 Z-0.125000 F400.000000
G00 Z5.000000

(End cutting path id: path58342)


(Start cutting path id: path58340)
(Change tool to Default tool)

G00 Z5.000000
G00 X20.507625 Y100.396511

G01 Z-0.125000 F100.0(Penetrate)
G01 X24.236288 Y85.481856 Z-0.125000 F400.000000
G01 X16.778961 Y78.024529 Z-0.125000
G00 Z5.000000

(End cutting path id: path58340)


(Start cutting path id: path58338)
(Change tool to Default tool)

G00 Z5.000000
G00 X35.422280 Y115.311166

G01 Z-0.125000 F100.0(Penetrate)
G01 X31.693616 Y104.125175 Z-0.125000 F400.000000
G01 X20.507625 Y100.396511 Z-0.125000
G00 Z5.000000

(End cutting path id: path58338)


(Start cutting path id: path58336)
(Change tool to Default tool)

G00 Z5.000000
G00 X42.879607 Y126.497157

G01 Z-0.125000 F100.0(Penetrate)
G01 X27.964952 Y130.225821 Z-0.125000 F400.000000
G01 X35.422280 Y115.311166 Z-0.125000
G00 Z5.000000

(End cutting path id: path58336)


(Start cutting path id: path58334)
(Change tool to Default tool)

G00 Z5.000000
G00 X68.980253 Y122.768493

G01 Z-0.125000 F100.0(Penetrate)
G01 X54.065598 Y130.225821 Z-0.125000 F400.000000
G01 X42.879607 Y126.497157 Z-0.125000
G00 Z5.000000

(End cutting path id: path58334)


(Start cutting path id: path58332)
(Change tool to Default tool)

G00 Z5.000000
G00 X91.352235 Y130.225821

G01 Z-0.125000 F100.0(Penetrate)
G01 X80.166244 Y126.497157 Z-0.125000 F400.000000
G01 X68.980253 Y122.768493 Z-0.125000
G00 Z5.000000

(End cutting path id: path58332)


(Start cutting path id: path58330)
(Change tool to Default tool)

G00 Z5.000000
G00 X102.538226 Y119.039829

G01 Z-0.125000 F100.0(Penetrate)
G01 X102.538226 Y133.954484 Z-0.125000 F400.000000
G01 X91.352235 Y130.225821 Z-0.125000
G00 Z5.000000

(End cutting path id: path58330)


(Start cutting path id: path58328)
(Change tool to Default tool)

G00 Z5.000000
G00 X117.452881 Y130.225821

G01 Z-0.125000 F100.0(Penetrate)
G01 X113.724217 Y122.768493 Z-0.125000 F400.000000
G01 X102.538226 Y119.039829 Z-0.125000
G00 Z5.000000

(End cutting path id: path58328)


(Start cutting path id: path58326)
(Change tool to Default tool)

G00 Z5.000000
G00 X132.367536 Y145.140475

G01 Z-0.125000 F100.0(Penetrate)
G01 X128.638872 Y133.954484 Z-0.125000 F400.000000
G01 X117.452881 Y130.225821 Z-0.125000
G00 Z5.000000

(End cutting path id: path58326)


(Start cutting path id: path58324)
(Change tool to Default tool)

G00 Z5.000000
G00 X154.739518 Y152.597803

G01 Z-0.125000 F100.0(Penetrate)
G01 X143.553527 Y148.869139 Z-0.125000 F400.000000
G01 X132.367536 Y145.140475 Z-0.125000
G00 Z5.000000

(End cutting path id: path58324)


(Start cutting path id: path58322)
(Change tool to Default tool)

G00 Z5.000000
G00 X169.654173 Y167.512458

G01 Z-0.125000 F100.0(Penetrate)
G01 X162.196845 Y160.055130 Z-0.125000 F400.000000
G01 X154.739518 Y152.597803 Z-0.125000
G00 Z5.000000

(End cutting path id: path58322)


(Start cutting path id: path58320)
(Change tool to Default tool)

G00 Z5.000000
G00 X151.010854 Y178.698449

G01 Z-0.125000 F100.0(Penetrate)
G01 X169.654173 Y182.427112 Z-0.125000 F400.000000
G01 X169.654173 Y167.512458 Z-0.125000
G00 Z5.000000

(End cutting path id: path58320)


(Start cutting path id: path58318)
(Change tool to Default tool)

G00 Z5.000000
G00 X136.096199 Y163.783794

G01 Z-0.125000 F100.0(Penetrate)
G01 X139.824863 Y171.241121 Z-0.125000 F400.000000
G01 X151.010854 Y178.698449 Z-0.125000
G00 Z5.000000

(End cutting path id: path58318)


(Start cutting path id: path58316)
(Change tool to Default tool)

G00 Z5.000000
G00 X117.452881 Y152.597803

G01 Z-0.125000 F100.0(Penetrate)
G01 X124.910208 Y160.055130 Z-0.125000 F400.000000
G01 X136.096199 Y163.783794 Z-0.125000
G00 Z5.000000

(End cutting path id: path58316)


(Start cutting path id: path58314)
(Change tool to Default tool)

G00 Z5.000000
G00 X98.809562 Y156.326466

G01 Z-0.125000 F100.0(Penetrate)
G01 X109.995554 Y145.140475 Z-0.125000 F400.000000
G01 X117.452881 Y152.597803 Z-0.125000
G00 Z5.000000

(End cutting path id: path58314)


(Start cutting path id: path58312)
(Change tool to Default tool)

G00 Z5.000000
G00 X83.894908 Y156.326466

G01 Z-0.125000 F100.0(Penetrate)
G01 X91.352235 Y145.140475 Z-0.125000 F400.000000
G01 X98.809562 Y156.326466 Z-0.125000
G00 Z5.000000

(End cutting path id: path58312)


(Start cutting path id: path58310)
(Change tool to Default tool)

G00 Z5.000000
G00 X76.437580 Y141.411812

G01 Z-0.125000 F100.0(Penetrate)
G01 X72.708916 Y152.597803 Z-0.125000 F400.000000
G01 X83.894908 Y156.326466 Z-0.125000
G00 Z5.000000

(End cutting path id: path58310)


(Start cutting path id: path58308)
(Change tool to Default tool)

G00 Z5.000000
G00 X57.794262 Y152.597803

G01 Z-0.125000 F100.0(Penetrate)
G01 X65.251589 Y137.683148 Z-0.125000 F400.000000
G01 X76.437580 Y141.411812 Z-0.125000
G00 Z5.000000

(End cutting path id: path58308)


(Start cutting path id: path58306)
(Change tool to Default tool)

G00 Z5.000000
G00 X35.422280 Y141.411812

G01 Z-0.125000 F100.0(Penetrate)
G01 X50.336934 Y145.140475 Z-0.125000 F400.000000
G01 X57.794262 Y152.597803 Z-0.125000
G00 Z5.000000

(End cutting path id: path58306)


(Start cutting path id: path58304)
(Change tool to Default tool)

G00 Z5.000000
G00 X42.879607 Y163.783794

G01 Z-0.125000 F100.0(Penetrate)
G01 X35.422280 Y156.326466 Z-0.125000 F400.000000
G01 X35.422280 Y141.411812 Z-0.125000
G00 Z5.000000

(End cutting path id: path58304)


(Start cutting path id: path58302)
(Change tool to Default tool)

G00 Z5.000000
G00 X65.251589 Y167.512458

G01 Z-0.125000 F100.0(Penetrate)
G01 X54.065598 Y167.512458 Z-0.125000 F400.000000
G01 X42.879607 Y163.783794 Z-0.125000
G00 Z5.000000

(End cutting path id: path58302)


(Start cutting path id: path58300)
(Change tool to Default tool)

G00 Z5.000000
G00 X83.894908 Y174.969785

G01 Z-0.125000 F100.0(Penetrate)
G01 X72.708916 Y174.969785 Z-0.125000 F400.000000
G01 X65.251589 Y167.512458 Z-0.125000
G00 Z5.000000

(End cutting path id: path58300)


(Start cutting path id: path58298)
(Change tool to Default tool)

G00 Z5.000000
G00 X106.266890 Y167.512458

G01 Z-0.125000 F100.0(Penetrate)
G01 X95.080899 Y163.783794 Z-0.125000 F400.000000
G01 X83.894908 Y174.969785 Z-0.125000
G00 Z5.000000

(End cutting path id: path58298)


(Start cutting path id: path58296)
(Change tool to Default tool)

G00 Z5.000000
G00 X117.452881 Y182.427112

G01 Z-0.125000 F100.0(Penetrate)
G01 X113.724217 Y174.969785 Z-0.125000 F400.000000
G01 X106.266890 Y167.512458 Z-0.125000
G00 Z5.000000

(End cutting path id: path58296)


(Start cutting path id: path58294)
(Change tool to Default tool)

G00 Z5.000000
G00 X139.824863 Y193.613103

G01 Z-0.125000 F100.0(Penetrate)
G01 X128.638872 Y186.155776 Z-0.125000 F400.000000
G01 X117.452881 Y182.427112 Z-0.125000
G00 Z5.000000

(End cutting path id: path58294)


(Start cutting path id: path58292)
(Change tool to Default tool)

G00 Z5.000000
G00 X158.468182 Y212.256422

G01 Z-0.125000 F100.0(Penetrate)
G01 X147.282191 Y201.070431 Z-0.125000 F400.000000
G01 X139.824863 Y193.613103 Z-0.125000
G00 Z5.000000

(End cutting path id: path58292)


(Start cutting path id: path58290)
(Change tool to Default tool)

G00 Z5.000000
G00 X162.196845 Y234.628404

G01 Z-0.125000 F100.0(Penetrate)
G01 X151.010854 Y227.171077 Z-0.125000 F400.000000
G01 X158.468182 Y212.256422 Z-0.125000
G00 Z5.000000

(End cutting path id: path58290)


(Start cutting path id: path58288)
(Change tool to Default tool)

G00 Z5.000000
G00 X173.382836 Y260.729050

G01 Z-0.125000 F100.0(Penetrate)
G01 X165.925509 Y249.543059 Z-0.125000 F400.000000
G01 X162.196845 Y234.628404 Z-0.125000
G00 Z5.000000

(End cutting path id: path58288)


(Start cutting path id: path58286)
(Change tool to Default tool)

G00 Z5.000000
G00 X195.754819 Y283.101032

G01 Z-0.125000 F100.0(Penetrate)
G01 X184.568827 Y275.643705 Z-0.125000 F400.000000
G01 X173.382836 Y260.729050 Z-0.125000
G00 Z5.000000

(End cutting path id: path58286)


(Start cutting path id: path58284)
(Change tool to Default tool)

G00 Z5.000000
G00 X214.398137 Y301.744351

G01 Z-0.125000 F100.0(Penetrate)
G01 X203.212146 Y290.558360 Z-0.125000 F400.000000
G01 X195.754819 Y283.101032 Z-0.125000
G00 Z5.000000

(End cutting path id: path58284)


(Start cutting path id: path58282)
(Change tool to Default tool)

G00 Z5.000000
G00 X236.770119 Y312.930342

G01 Z-0.125000 F100.0(Penetrate)
G01 X225.584128 Y309.201678 Z-0.125000 F400.000000
G01 X214.398137 Y301.744351 Z-0.125000
G00 Z5.000000

(End cutting path id: path58282)


(Start cutting path id: path58280)
(Change tool to Default tool)

G00 Z5.000000
G00 X266.599429 Y320.387669

G01 Z-0.125000 F100.0(Penetrate)
G01 X255.413438 Y309.201678 Z-0.125000 F400.000000
G01 X236.770119 Y312.930342 Z-0.125000
G00 Z5.000000

(End cutting path id: path58280)


(Start cutting path id: path58278)
(Change tool to Default tool)

G00 Z5.000000
G00 X281.514084 Y339.030988

G01 Z-0.125000 F100.0(Penetrate)
G01 X281.514084 Y324.116333 Z-0.125000 F400.000000
G01 X266.599429 Y320.387669 Z-0.125000
G00 Z5.000000

(End cutting path id: path58278)


(Start cutting path id: path58276)
(Change tool to Default tool)

G00 Z5.000000
G00 X300.157402 Y327.844997

G01 Z-0.125000 F100.0(Penetrate)
G01 X292.700075 Y350.216979 Z-0.125000 F400.000000
G01 X281.514084 Y339.030988 Z-0.125000
G00 Z5.000000

(End cutting path id: path58276)


(Start cutting path id: path58274)
(Change tool to Default tool)

G00 Z5.000000
G00 X311.343393 Y350.216979

G01 Z-0.125000 F100.0(Penetrate)
G01 X311.343393 Y335.302324 Z-0.125000 F400.000000
G01 X300.157402 Y327.844997 Z-0.125000
G00 Z5.000000

(End cutting path id: path58274)


(Start cutting path id: path58272)
(Change tool to Default tool)

G00 Z5.000000
G00 X326.258048 Y365.131634

G01 Z-0.125000 F100.0(Penetrate)
G01 X322.529384 Y357.674306 Z-0.125000 F400.000000
G01 X311.343393 Y350.216979 Z-0.125000
G00 Z5.000000

(End cutting path id: path58272)


(Start cutting path id: path58270)
(Change tool to Default tool)

G00 Z5.000000
G00 X344.901367 Y376.317625

G01 Z-0.125000 F100.0(Penetrate)
G01 X333.715376 Y372.588961 Z-0.125000 F400.000000
G01 X326.258048 Y365.131634 Z-0.125000
G00 Z5.000000

(End cutting path id: path58270)


(Start cutting path id: path58268)
(Change tool to Default tool)

G00 Z5.000000
G00 X359.816021 Y383.774952

G01 Z-0.125000 F100.0(Penetrate)
G01 X352.358694 Y380.046288 Z-0.125000 F400.000000
G01 X344.901367 Y376.317625 Z-0.125000
G00 Z5.000000

(End cutting path id: path58268)


(Start cutting path id: path58266)
(Change tool to Default tool)

G00 Z5.000000
G00 X371.002013 Y391.232280

G01 Z-0.125000 F100.0(Penetrate)
G01 X363.544685 Y391.232280 Z-0.125000 F400.000000
G01 X359.816021 Y383.774952 Z-0.125000
G00 Z5.000000

(End cutting path id: path58266)


(Start cutting path id: path58264)
(Change tool to Default tool)

G00 Z5.000000
G00 X385.916667 Y383.774952

G01 Z-0.125000 F100.0(Penetrate)
G01 X378.459340 Y394.960943 Z-0.125000 F400.000000
G01 X371.002013 Y391.232280 Z-0.125000
G00 Z5.000000

(End cutting path id: path58264)


(Start cutting path id: path58262)
(Change tool to Default tool)

G00 Z5.000000
G00 X378.459340 Y380.046288

G01 Z-0.125000 F100.0(Penetrate)
G01 X382.188004 Y372.588961 Z-0.125000 F400.000000
G01 X385.916667 Y383.774952 Z-0.125000
G00 Z5.000000

(End cutting path id: path58262)


(Start cutting path id: path58260)
(Change tool to Default tool)

G00 Z5.000000
G00 X367.273349 Y372.588961

G01 Z-0.125000 F100.0(Penetrate)
G01 X371.002013 Y376.317625 Z-0.125000 F400.000000
G01 X378.459340 Y380.046288 Z-0.125000
G00 Z5.000000

(End cutting path id: path58260)


(Start cutting path id: path58258)
(Change tool to Default tool)

G00 Z5.000000
G00 X352.358694 Y365.131634

G01 Z-0.125000 F100.0(Penetrate)
G01 X359.816021 Y368.860297 Z-0.125000 F400.000000
G01 X367.273349 Y372.588961 Z-0.125000
G00 Z5.000000

(End cutting path id: path58258)


(Start cutting path id: path58256)
(Change tool to Default tool)

G00 Z5.000000
G00 X359.816021 Y353.945643

G01 Z-0.125000 F100.0(Penetrate)
G01 X348.630030 Y350.216979 Z-0.125000 F400.000000
G01 X352.358694 Y365.131634 Z-0.125000
G00 Z5.000000

(End cutting path id: path58256)


(Start cutting path id: path58254)
(Change tool to Default tool)

G00 Z5.000000
G00 X374.730676 Y357.674306

G01 Z-0.125000 F100.0(Penetrate)
G01 X367.273349 Y357.674306 Z-0.125000 F400.000000
G01 X359.816021 Y353.945643 Z-0.125000
G00 Z5.000000

(End cutting path id: path58254)


(Start cutting path id: path58252)
(Change tool to Default tool)

G00 Z5.000000
G00 X389.645331 Y361.402970

G01 Z-0.125000 F100.0(Penetrate)
G01 X378.459340 Y361.402970 Z-0.125000 F400.000000
G01 X374.730676 Y357.674306 Z-0.125000
G00 Z5.000000

(End cutting path id: path58252)


(Start cutting path id: path58250)
(Change tool to Default tool)

G00 Z5.000000
G00 X397.102658 Y350.216979

G01 Z-0.125000 F100.0(Penetrate)
G01 X400.831322 Y357.674306 Z-0.125000 F400.000000
G01 X389.645331 Y361.402970 Z-0.125000
G00 Z5.000000

(End cutting path id: path58250)


(Start cutting path id: path58248)
(Change tool to Default tool)

G00 Z5.000000
G00 X378.459340 Y342.759651

G01 Z-0.125000 F100.0(Penetrate)
G01 X385.916667 Y350.216979 Z-0.125000 F400.000000
G01 X397.102658 Y350.216979 Z-0.125000
G00 Z5.000000

(End cutting path id: path58248)


(Start cutting path id: path58246)
(Change tool to Default tool)

G00 Z5.000000
G00 X367.273349 Y339.030988

G01 Z-0.125000 F100.0(Penetrate)
G01 X371.002013 Y342.759651 Z-0.125000 F400.000000
G01 X378.459340 Y342.759651 Z-0.125000
G00 Z5.000000

(End cutting path id: path58246)


(Start cutting path id: path58244)
(Change tool to Default tool)

G00 Z5.000000
G00 X378.459340 Y327.844997

G01 Z-0.125000 F100.0(Penetrate)
G01 X363.544685 Y327.844997 Z-0.125000 F400.000000
G01 X367.273349 Y339.030988 Z-0.125000
G00 Z5.000000

(End cutting path id: path58244)


(Start cutting path id: path58242)
(Change tool to Default tool)

G00 Z5.000000
G00 X389.645331 Y339.030988

G01 Z-0.125000 F100.0(Penetrate)
G01 X385.916667 Y331.573660 Z-0.125000 F400.000000
G01 X378.459340 Y327.844997 Z-0.125000
G00 Z5.000000

(End cutting path id: path58242)


(Start cutting path id: path58240)
(Change tool to Default tool)

G00 Z5.000000
G00 X408.288650 Y339.030988

G01 Z-0.125000 F100.0(Penetrate)
G01 X397.102658 Y339.030988 Z-0.125000 F400.000000
G01 X389.645331 Y339.030988 Z-0.125000
G00 Z5.000000

(End cutting path id: path58240)


(Start cutting path id: path58238)
(Change tool to Default tool)

G00 Z5.000000
G00 X400.831322 Y327.844997

G01 Z-0.125000 F100.0(Penetrate)
G01 X412.017313 Y327.844997 Z-0.125000 F400.000000
G01 X408.288650 Y339.030988 Z-0.125000
G00 Z5.000000

(End cutting path id: path58238)


(Start cutting path id: path58236)
(Change tool to Default tool)

G00 Z5.000000
G00 X389.645331 Y316.659006

G01 Z-0.125000 F100.0(Penetrate)
G01 X393.373995 Y320.387669 Z-0.125000 F400.000000
G01 X400.831322 Y327.844997 Z-0.125000
G00 Z5.000000

(End cutting path id: path58236)


(Start cutting path id: path58234)
(Change tool to Default tool)

G00 Z5.000000
G00 X367.273349 Y305.473014

G01 Z-0.125000 F100.0(Penetrate)
G01 X382.188004 Y309.201678 Z-0.125000 F400.000000
G01 X389.645331 Y316.659006 Z-0.125000
G00 Z5.000000

(End cutting path id: path58234)


(Start cutting path id: path58232)
(Change tool to Default tool)

G00 Z5.000000
G00 X359.816021 Y316.659006

G01 Z-0.125000 F100.0(Penetrate)
G01 X356.087358 Y298.015687 Z-0.125000 F400.000000
G01 X367.273349 Y305.473014 Z-0.125000
G00 Z5.000000

(End cutting path id: path58232)


(Start cutting path id: path58230)
(Change tool to Default tool)

G00 Z5.000000
G00 X344.901367 Y327.844997

G01 Z-0.125000 F100.0(Penetrate)
G01 X344.901367 Y312.930342 Z-0.125000 F400.000000
G01 X359.816021 Y316.659006 Z-0.125000
G00 Z5.000000

(End cutting path id: path58230)


(Start cutting path id: path58228)
(Change tool to Default tool)

G00 Z5.000000
G00 X329.986712 Y339.030988

G01 Z-0.125000 F100.0(Penetrate)
G01 X344.901367 Y342.759651 Z-0.125000 F400.000000
G01 X344.901367 Y327.844997 Z-0.125000
G00 Z5.000000

(End cutting path id: path58228)


(Start cutting path id: path58226)
(Change tool to Default tool)

G00 Z5.000000
G00 X322.529384 Y312.930342

G01 Z-0.125000 F100.0(Penetrate)
G01 X329.986712 Y324.116333 Z-0.125000 F400.000000
G01 X329.986712 Y339.030988 Z-0.125000
G00 Z5.000000

(End cutting path id: path58226)


(Start cutting path id: path58224)
(Change tool to Default tool)

G00 Z5.000000
G00 X296.428739 Y305.473014

G01 Z-0.125000 F100.0(Penetrate)
G01 X311.343393 Y305.473014 Z-0.125000 F400.000000
G01 X322.529384 Y312.930342 Z-0.125000
G00 Z5.000000

(End cutting path id: path58224)


(Start cutting path id: path58222)
(Change tool to Default tool)

G00 Z5.000000
G00 X277.785420 Y286.829696

G01 Z-0.125000 F100.0(Penetrate)
G01 X277.785420 Y301.744351 Z-0.125000 F400.000000
G01 X296.428739 Y305.473014 Z-0.125000
G00 Z5.000000

(End cutting path id: path58222)


(Start cutting path id: path58220)
(Change tool to Default tool)

G00 Z5.000000
G00 X266.599429 Y260.729050

G01 Z-0.125000 F100.0(Penetrate)
G01 X277.785420 Y268.186377 Z-0.125000 F400.000000
G01 X277.785420 Y286.829696 Z-0.125000
G00 Z5.000000

(End cutting path id: path58220)


(Start cutting path id: path58218)
(Change tool to Default tool)

G00 Z5.000000
G00 X255.413438 Y242.085732

G01 Z-0.125000 F100.0(Penetrate)
G01 X259.142102 Y249.543059 Z-0.125000 F400.000000
G01 X266.599429 Y260.729050 Z-0.125000
G00 Z5.000000

(End cutting path id: path58218)


(Start cutting path id: path58216)
(Change tool to Default tool)

G00 Z5.000000
G00 X236.770119 Y249.543059

G01 Z-0.125000 F100.0(Penetrate)
G01 X244.227447 Y234.628404 Z-0.125000 F400.000000
G01 X255.413438 Y242.085732 Z-0.125000
G00 Z5.000000

(End cutting path id: path58216)


(Start cutting path id: path58214)
(Change tool to Default tool)

G00 Z5.000000
G00 X247.956110 Y268.186377

G01 Z-0.125000 F100.0(Penetrate)
G01 X236.770119 Y264.457714 Z-0.125000 F400.000000
G01 X236.770119 Y249.543059 Z-0.125000
G00 Z5.000000

(End cutting path id: path58214)


(Start cutting path id: path58212)
(Change tool to Default tool)

G00 Z5.000000
G00 X259.142102 Y290.558360

G01 Z-0.125000 F100.0(Penetrate)
G01 X255.413438 Y279.372369 Z-0.125000 F400.000000
G01 X247.956110 Y268.186377 Z-0.125000
G00 Z5.000000

(End cutting path id: path58212)


(Start cutting path id: path58210)
(Change tool to Default tool)

G00 Z5.000000
G00 X218.126801 Y286.829696

G01 Z-0.125000 F100.0(Penetrate)
G01 X236.770119 Y290.558360 Z-0.125000 F400.000000
G01 X259.142102 Y290.558360 Z-0.125000
G00 Z5.000000

(End cutting path id: path58210)


(Start cutting path id: path58208)
(Change tool to Default tool)

G00 Z5.000000
G00 X203.212146 Y264.457714

G01 Z-0.125000 F100.0(Penetrate)
G01 X218.126801 Y268.186377 Z-0.125000 F400.000000
G01 X218.126801 Y286.829696 Z-0.125000
G00 Z5.000000

(End cutting path id: path58208)


(Start cutting path id: path58206)
(Change tool to Default tool)

G00 Z5.000000
G00 X184.568827 Y242.085732

G01 Z-0.125000 F100.0(Penetrate)
G01 X192.026155 Y257.000386 Z-0.125000 F400.000000
G01 X203.212146 Y264.457714 Z-0.125000
G00 Z5.000000

(End cutting path id: path58206)


(Start cutting path id: path58204)
(Change tool to Default tool)

G00 Z5.000000
G00 X177.111500 Y219.713749

G01 Z-0.125000 F100.0(Penetrate)
G01 X184.568827 Y227.171077 Z-0.125000 F400.000000
G01 X184.568827 Y242.085732 Z-0.125000
G00 Z5.000000

(End cutting path id: path58204)


(Start cutting path id: path58202)
(Change tool to Default tool)

G00 Z5.000000
G00 X177.111500 Y193.613103

G01 Z-0.125000 F100.0(Penetrate)
G01 X188.297491 Y204.799095 Z-0.125000 F400.000000
G01 X177.111500 Y219.713749 Z-0.125000
G00 Z5.000000

(End cutting path id: path58202)


(Start cutting path id: path58200)
(Change tool to Default tool)

G00 Z5.000000
G00 X206.940810 Y189.884440

G01 Z-0.125000 F100.0(Penetrate)
G01 X195.754819 Y178.698449 Z-0.125000 F400.000000
G01 X177.111500 Y193.613103 Z-0.125000
G00 Z5.000000

(End cutting path id: path58200)


(Start cutting path id: path58198)
(Change tool to Default tool)

G00 Z5.000000
G00 X225.584128 Y204.799095

G01 Z-0.125000 F100.0(Penetrate)
G01 X221.855465 Y189.884440 Z-0.125000 F400.000000
G01 X206.940810 Y189.884440 Z-0.125000
G00 Z5.000000

(End cutting path id: path58198)


(Start cutting path id: path58196)
(Change tool to Default tool)

G00 Z5.000000
G00 X206.940810 Y223.442413

G01 Z-0.125000 F100.0(Penetrate)
G01 X206.940810 Y208.527758 Z-0.125000 F400.000000
G01 X225.584128 Y204.799095 Z-0.125000
G00 Z5.000000

(End cutting path id: path58196)


(Start cutting path id: path58194)
(Change tool to Default tool)

G00 Z5.000000
G00 X221.855465 Y245.814395

G01 Z-0.125000 F100.0(Penetrate)
G01 X206.940810 Y238.357068 Z-0.125000 F400.000000
G01 X206.940810 Y223.442413 Z-0.125000
G00 Z5.000000

(End cutting path id: path58194)


(Start cutting path id: path58192)
(Change tool to Default tool)

G00 Z5.000000
G00 X225.584128 Y219.713749

G01 Z-0.125000 F100.0(Penetrate)
G01 X225.584128 Y234.628404 Z-0.125000 F400.000000
G01 X221.855465 Y245.814395 Z-0.125000
G00 Z5.000000

(End cutting path id: path58192)


(Start cutting path id: path58190)
(Change tool to Default tool)

G00 Z5.000000
G00 X244.227447 Y204.799095

G01 Z-0.125000 F100.0(Penetrate)
G01 X244.227447 Y219.713749 Z-0.125000 F400.000000
G01 X225.584128 Y219.713749 Z-0.125000
G00 Z5.000000

(End cutting path id: path58190)


(Start cutting path id: path58188)
(Change tool to Default tool)

G00 Z5.000000
G00 X240.498783 Y182.427112

G01 Z-0.125000 F100.0(Penetrate)
G01 X251.684774 Y186.155776 Z-0.125000 F400.000000
G01 X244.227447 Y204.799095 Z-0.125000
G00 Z5.000000

(End cutting path id: path58188)


(Start cutting path id: path58186)
(Change tool to Default tool)

G00 Z5.000000
G00 X214.398137 Y167.512458

G01 Z-0.125000 F100.0(Penetrate)
G01 X233.041456 Y167.512458 Z-0.125000 F400.000000
G01 X240.498783 Y182.427112 Z-0.125000
G00 Z5.000000

(End cutting path id: path58186)


(Start cutting path id: path58184)
(Change tool to Default tool)

G00 Z5.000000
G00 X184.568827 Y148.869139

G01 Z-0.125000 F100.0(Penetrate)
G01 X192.026155 Y160.055130 Z-0.125000 F400.000000
G01 X214.398137 Y167.512458 Z-0.125000
G00 Z5.000000

(End cutting path id: path58184)


(Start cutting path id: path58182)
(Change tool to Default tool)

G00 Z5.000000
G00 X165.925509 Y130.225821

G01 Z-0.125000 F100.0(Penetrate)
G01 X169.654173 Y141.411812 Z-0.125000 F400.000000
G01 X184.568827 Y148.869139 Z-0.125000
G00 Z5.000000

(End cutting path id: path58182)


(Start cutting path id: path58180)
(Change tool to Default tool)

G00 Z5.000000
G00 X173.382836 Y115.311166

G01 Z-0.125000 F100.0(Penetrate)
G01 X184.568827 Y130.225821 Z-0.125000 F400.000000
G01 X165.925509 Y130.225821 Z-0.125000
G00 Z5.000000

(End cutting path id: path58180)


(Start cutting path id: path58178)
(Change tool to Default tool)

G00 Z5.000000
G00 X151.010854 Y133.954484

G01 Z-0.125000 F100.0(Penetrate)
G01 X158.468182 Y119.039829 Z-0.125000 F400.000000
G01 X173.382836 Y115.311166 Z-0.125000
G00 Z5.000000

(End cutting path id: path58178)


(Start cutting path id: path58176)
(Change tool to Default tool)

G00 Z5.000000
G00 X132.367536 Y119.039829

G01 Z-0.125000 F100.0(Penetrate)
G01 X143.553527 Y126.497157 Z-0.125000 F400.000000
G01 X151.010854 Y133.954484 Z-0.125000
G00 Z5.000000

(End cutting path id: path58176)


(Start cutting path id: path58174)
(Change tool to Default tool)

G00 Z5.000000
G00 X121.181545 Y107.853838

G01 Z-0.125000 F100.0(Penetrate)
G01 X136.096199 Y107.853838 Z-0.125000 F400.000000
G01 X132.367536 Y119.039829 Z-0.125000
G00 Z5.000000

(End cutting path id: path58174)


(Start cutting path id: path58172)
(Change tool to Default tool)

G00 Z5.000000
G00 X106.266890 Y100.396511

G01 Z-0.125000 F100.0(Penetrate)
G01 X109.995554 Y104.125175 Z-0.125000 F400.000000
G01 X121.181545 Y107.853838 Z-0.125000
G00 Z5.000000

(End cutting path id: path58172)


(Start cutting path id: path58170)
(Change tool to Default tool)

G00 Z5.000000
G00 X87.623571 Y115.311166

G01 Z-0.125000 F100.0(Penetrate)
G01 X95.080899 Y100.396511 Z-0.125000 F400.000000
G01 X106.266890 Y100.396511 Z-0.125000
G00 Z5.000000

(End cutting path id: path58170)


(Start cutting path id: path58168)
(Change tool to Default tool)

G00 Z5.000000
G00 X76.437580 Y100.396511

G01 Z-0.125000 F100.0(Penetrate)
G01 X80.166244 Y107.853838 Z-0.125000 F400.000000
G01 X87.623571 Y115.311166 Z-0.125000
G00 Z5.000000

(End cutting path id: path58168)


(Start cutting path id: path58166)
(Change tool to Default tool)

G00 Z5.000000
G00 X61.522925 Y115.311166

G01 Z-0.125000 F100.0(Penetrate)
G01 X65.251589 Y100.396511 Z-0.125000 F400.000000
G01 X76.437580 Y100.396511 Z-0.125000
G00 Z5.000000

(End cutting path id: path58166)


(Start cutting path id: path58164)
(Change tool to Default tool)

G00 Z5.000000
G00 X50.336934 Y100.396511

G01 Z-0.125000 F100.0(Penetrate)
G01 X50.336934 Y111.582502 Z-0.125000 F400.000000
G01 X61.522925 Y115.311166 Z-0.125000
G00 Z5.000000

(End cutting path id: path58164)


(Start cutting path id: path58162)
(Change tool to Default tool)

G00 Z5.000000
G00 X39.150943 Y85.481856

G01 Z-0.125000 F100.0(Penetrate)
G01 X46.608271 Y92.939184 Z-0.125000 F400.000000
G01 X50.336934 Y100.396511 Z-0.125000
G00 Z5.000000

(End cutting path id: path58162)


(Start cutting path id: path58160)
(Change tool to Default tool)

G00 Z5.000000
G00 X57.794262 Y78.024529

G01 Z-0.125000 F100.0(Penetrate)
G01 X39.150943 Y74.295865 Z-0.125000 F400.000000
G01 X39.150943 Y85.481856 Z-0.125000
G00 Z5.000000

(End cutting path id: path58160)


(Start cutting path id: path58158)
(Change tool to Default tool)

G00 Z5.000000
G00 X80.166244 Y85.481856

G01 Z-0.125000 F100.0(Penetrate)
G01 X65.251589 Y85.481856 Z-0.125000 F400.000000
G01 X57.794262 Y78.024529 Z-0.125000
G00 Z5.000000

(End cutting path id: path58158)


(Start cutting path id: path58156)
(Change tool to Default tool)

G00 Z5.000000
G00 X95.080899 Y85.481856

G01 Z-0.125000 F100.0(Penetrate)
G01 X91.352235 Y78.024529 Z-0.125000 F400.000000
G01 X80.166244 Y85.481856 Z-0.125000
G00 Z5.000000

(End cutting path id: path58156)


(Start cutting path id: path58154)
(Change tool to Default tool)

G00 Z5.000000
G00 X113.724217 Y74.295865

G01 Z-0.125000 F100.0(Penetrate)
G01 X109.995554 Y85.481856 Z-0.125000 F400.000000
G01 X95.080899 Y85.481856 Z-0.125000
G00 Z5.000000

(End cutting path id: path58154)


(Start cutting path id: path58152)
(Change tool to Default tool)

G00 Z5.000000
G00 X132.367536 Y92.939184

G01 Z-0.125000 F100.0(Penetrate)
G01 X124.910208 Y85.481856 Z-0.125000 F400.000000
G01 X113.724217 Y74.295865 Z-0.125000
G00 Z5.000000

(End cutting path id: path58152)


(Start cutting path id: path58150)
(Change tool to Default tool)

G00 Z5.000000
G00 X151.010854 Y107.853838

G01 Z-0.125000 F100.0(Penetrate)
G01 X147.282191 Y92.939184 Z-0.125000 F400.000000
G01 X132.367536 Y92.939184 Z-0.125000
G00 Z5.000000

(End cutting path id: path58150)


(Start cutting path id: path58148)
(Change tool to Default tool)

G00 Z5.000000
G00 X180.840164 Y96.667847

G01 Z-0.125000 F100.0(Penetrate)
G01 X165.925509 Y100.396511 Z-0.125000 F400.000000
G01 X151.010854 Y107.853838 Z-0.125000
G00 Z5.000000

(End cutting path id: path58148)


(Start cutting path id: path58146)
(Change tool to Default tool)

G00 Z5.000000
G00 X192.026155 Y111.582502

G01 Z-0.125000 F100.0(Penetrate)
G01 X192.026155 Y100.396511 Z-0.125000 F400.000000
G01 X180.840164 Y96.667847 Z-0.125000
G00 Z5.000000

(End cutting path id: path58146)


(Start cutting path id: path58144)
(Change tool to Default tool)

G00 Z5.000000
G00 X203.212146 Y122.768493

G01 Z-0.125000 F100.0(Penetrate)
G01 X206.940810 Y107.853838 Z-0.125000 F400.000000
G01 X192.026155 Y111.582502 Z-0.125000
G00 Z5.000000

(End cutting path id: path58144)


(Start cutting path id: path58142)
(Change tool to Default tool)

G00 Z5.000000
G00 X214.398137 Y148.869139

G01 Z-0.125000 F100.0(Penetrate)
G01 X206.940810 Y130.225821 Z-0.125000 F400.000000
G01 X203.212146 Y122.768493 Z-0.125000
G00 Z5.000000

(End cutting path id: path58142)


(Start cutting path id: path58140)
(Change tool to Default tool)

G00 Z5.000000
G00 X236.770119 Y137.683148

G01 Z-0.125000 F100.0(Penetrate)
G01 X221.855465 Y130.225821 Z-0.125000 F400.000000
G01 X214.398137 Y148.869139 Z-0.125000
G00 Z5.000000

(End cutting path id: path58140)


(Start cutting path id: path58138)
(Change tool to Default tool)

G00 Z5.000000
G00 X251.684774 Y163.783794

G01 Z-0.125000 F100.0(Penetrate)
G01 X247.956110 Y152.597803 Z-0.125000 F400.000000
G01 X236.770119 Y137.683148 Z-0.125000
G00 Z5.000000

(End cutting path id: path58138)


(Start cutting path id: path58136)
(Change tool to Default tool)

G00 Z5.000000
G00 X274.056756 Y178.698449

G01 Z-0.125000 F100.0(Penetrate)
G01 X262.870765 Y171.241121 Z-0.125000 F400.000000
G01 X251.684774 Y163.783794 Z-0.125000
G00 Z5.000000

(End cutting path id: path58136)


(Start cutting path id: path58134)
(Change tool to Default tool)

G00 Z5.000000
G00 X262.870765 Y208.527758

G01 Z-0.125000 F100.0(Penetrate)
G01 X262.870765 Y193.613103 Z-0.125000 F400.000000
G01 X274.056756 Y178.698449 Z-0.125000
G00 Z5.000000

(End cutting path id: path58134)


(Start cutting path id: path58132)
(Change tool to Default tool)

G00 Z5.000000
G00 X277.785420 Y227.171077

G01 Z-0.125000 F100.0(Penetrate)
G01 X262.870765 Y223.442413 Z-0.125000 F400.000000
G01 X262.870765 Y208.527758 Z-0.125000
G00 Z5.000000

(End cutting path id: path58132)


(Start cutting path id: path58130)
(Change tool to Default tool)

G00 Z5.000000
G00 X288.971411 Y249.543059

G01 Z-0.125000 F100.0(Penetrate)
G01 X281.514084 Y242.085732 Z-0.125000 F400.000000
G01 X277.785420 Y227.171077 Z-0.125000
G00 Z5.000000

(End cutting path id: path58130)


(Start cutting path id: path58128)
(Change tool to Default tool)

G00 Z5.000000
G00 X296.428739 Y271.915041

G01 Z-0.125000 F100.0(Penetrate)
G01 X300.157402 Y257.000386 Z-0.125000 F400.000000
G01 X288.971411 Y249.543059 Z-0.125000
G00 Z5.000000

(End cutting path id: path58128)


(Start cutting path id: path58126)
(Change tool to Default tool)

G00 Z5.000000
G00 X322.529384 Y283.101032

G01 Z-0.125000 F100.0(Penetrate)
G01 X303.886066 Y286.829696 Z-0.125000 F400.000000
G01 X296.428739 Y271.915041 Z-0.125000
G00 Z5.000000

(End cutting path id: path58126)


(Start cutting path id: path58124)
(Change tool to Default tool)

G00 Z5.000000
G00 X337.444039 Y301.744351

G01 Z-0.125000 F100.0(Penetrate)
G01 X329.986712 Y290.558360 Z-0.125000 F400.000000
G01 X322.529384 Y283.101032 Z-0.125000
G00 Z5.000000

(End cutting path id: path58124)


(Start cutting path id: path58122)
(Change tool to Default tool)

G00 Z5.000000
G00 X341.172703 Y275.643705

G01 Z-0.125000 F100.0(Penetrate)
G01 X344.901367 Y286.829696 Z-0.125000 F400.000000
G01 X337.444039 Y301.744351 Z-0.125000
G00 Z5.000000

(End cutting path id: path58122)


(Start cutting path id: path58120)
(Change tool to Default tool)

G00 Z5.000000
G00 X315.072057 Y271.915041

G01 Z-0.125000 F100.0(Penetrate)
G01 X333.715376 Y268.186377 Z-0.125000 F400.000000
G01 X341.172703 Y275.643705 Z-0.125000
G00 Z5.000000

(End cutting path id: path58120)


(Start cutting path id: path58118)
(Change tool to Default tool)

G00 Z5.000000
G00 X318.800721 Y242.085732

G01 Z-0.125000 F100.0(Penetrate)
G01 X315.072057 Y260.729050 Z-0.125000 F400.000000
G01 X315.072057 Y271.915041 Z-0.125000
G00 Z5.000000

(End cutting path id: path58118)


(Start cutting path id: path58116)
(Change tool to Default tool)

G00 Z5.000000
G00 X296.428739 Y223.442413

G01 Z-0.125000 F100.0(Penetrate)
G01 X307.614730 Y230.899740 Z-0.125000 F400.000000
G01 X318.800721 Y242.085732 Z-0.125000
G00 Z5.000000

(End cutting path id: path58116)


(Start cutting path id: path58114)
(Change tool to Default tool)

G00 Z5.000000
G00 X281.514084 Y208.527758

G01 Z-0.125000 F100.0(Penetrate)
G01 X296.428739 Y208.527758 Z-0.125000 F400.000000
G01 X296.428739 Y223.442413 Z-0.125000
G00 Z5.000000

(End cutting path id: path58114)


(Start cutting path id: path58112)
(Change tool to Default tool)

G00 Z5.000000
G00 X292.700075 Y193.613103

G01 Z-0.125000 F100.0(Penetrate)
G01 X277.785420 Y193.613103 Z-0.125000 F400.000000
G01 X281.514084 Y208.527758 Z-0.125000
G00 Z5.000000

(End cutting path id: path58112)


(Start cutting path id: path58110)
(Change tool to Default tool)

G00 Z5.000000
G00 X315.072057 Y212.256422

G01 Z-0.125000 F100.0(Penetrate)
G01 X311.343393 Y197.341767 Z-0.125000 F400.000000
G01 X292.700075 Y193.613103 Z-0.125000
G00 Z5.000000

(End cutting path id: path58110)


(Start cutting path id: path58108)
(Change tool to Default tool)

G00 Z5.000000
G00 X337.444039 Y230.899740

G01 Z-0.125000 F100.0(Penetrate)
G01 X329.986712 Y219.713749 Z-0.125000 F400.000000
G01 X315.072057 Y212.256422 Z-0.125000
G00 Z5.000000

(End cutting path id: path58108)


(Start cutting path id: path58106)
(Change tool to Default tool)

G00 Z5.000000
G00 X348.630030 Y249.543059

G01 Z-0.125000 F100.0(Penetrate)
G01 X337.444039 Y245.814395 Z-0.125000 F400.000000
G01 X337.444039 Y230.899740 Z-0.125000
G00 Z5.000000

(End cutting path id: path58106)


(Start cutting path id: path58104)
(Change tool to Default tool)

G00 Z5.000000
G00 X363.544685 Y264.457714

G01 Z-0.125000 F100.0(Penetrate)
G01 X359.816021 Y253.271723 Z-0.125000 F400.000000
G01 X348.630030 Y249.543059 Z-0.125000
G00 Z5.000000

(End cutting path id: path58104)


(Start cutting path id: path58102)
(Change tool to Default tool)

G00 Z5.000000
G00 X374.730676 Y283.101032

G01 Z-0.125000 F100.0(Penetrate)
G01 X363.544685 Y279.372369 Z-0.125000 F400.000000
G01 X363.544685 Y264.457714 Z-0.125000
G00 Z5.000000

(End cutting path id: path58102)


(Start cutting path id: path58100)
(Change tool to Default tool)

G00 Z5.000000
G00 X389.645331 Y298.015687

G01 Z-0.125000 F100.0(Penetrate)
G01 X382.188004 Y290.558360 Z-0.125000 F400.000000
G01 X374.730676 Y283.101032 Z-0.125000
G00 Z5.000000

(End cutting path id: path58100)


(Start cutting path id: path58098)
(Change tool to Default tool)

G00 Z5.000000
G00 X404.559986 Y316.659006

G01 Z-0.125000 F100.0(Penetrate)
G01 X400.831322 Y309.201678 Z-0.125000 F400.000000
G01 X389.645331 Y298.015687 Z-0.125000
G00 Z5.000000

(End cutting path id: path58098)


(Start cutting path id: path58096)
(Change tool to Default tool)

G00 Z5.000000
G00 X419.474641 Y320.387669

G01 Z-0.125000 F100.0(Penetrate)
G01 X412.017313 Y316.659006 Z-0.125000 F400.000000
G01 X404.559986 Y316.659006 Z-0.125000
G00 Z5.000000

(End cutting path id: path58096)


(Start cutting path id: path58094)
(Change tool to Default tool)

G00 Z5.000000
G00 X415.745977 Y305.473014

G01 Z-0.125000 F100.0(Penetrate)
G01 X426.931968 Y309.201678 Z-0.125000 F400.000000
G01 X419.474641 Y320.387669 Z-0.125000
G00 Z5.000000

(End cutting path id: path58094)


(Start cutting path id: path58092)
(Change tool to Default tool)

G00 Z5.000000
G00 X404.559986 Y290.558360

G01 Z-0.125000 F100.0(Penetrate)
G01 X408.288650 Y298.015687 Z-0.125000 F400.000000
G01 X415.745977 Y305.473014 Z-0.125000
G00 Z5.000000

(End cutting path id: path58092)


(Start cutting path id: path58090)
(Change tool to Default tool)

G00 Z5.000000
G00 X389.645331 Y271.915041

G01 Z-0.125000 F100.0(Penetrate)
G01 X393.373995 Y279.372369 Z-0.125000 F400.000000
G01 X404.559986 Y290.558360 Z-0.125000
G00 Z5.000000

(End cutting path id: path58090)


(Start cutting path id: path58088)
(Change tool to Default tool)

G00 Z5.000000
G00 X378.459340 Y257.000386

G01 Z-0.125000 F100.0(Penetrate)
G01 X378.459340 Y268.186377 Z-0.125000 F400.000000
G01 X389.645331 Y271.915041 Z-0.125000
G00 Z5.000000

(End cutting path id: path58088)


(Start cutting path id: path58086)
(Change tool to Default tool)

G00 Z5.000000
G00 X363.544685 Y238.357068

G01 Z-0.125000 F100.0(Penetrate)
G01 X374.730676 Y245.814395 Z-0.125000 F400.000000
G01 X378.459340 Y257.000386 Z-0.125000
G00 Z5.000000

(End cutting path id: path58086)


(Start cutting path id: path58084)
(Change tool to Default tool)

G00 Z5.000000
G00 X348.630030 Y215.985086

G01 Z-0.125000 F100.0(Penetrate)
G01 X352.358694 Y230.899740 Z-0.125000 F400.000000
G01 X363.544685 Y238.357068 Z-0.125000
G00 Z5.000000

(End cutting path id: path58084)


(Start cutting path id: path58082)
(Change tool to Default tool)

G00 Z5.000000
G00 X337.444039 Y193.613103

G01 Z-0.125000 F100.0(Penetrate)
G01 X341.172703 Y204.799095 Z-0.125000 F400.000000
G01 X348.630030 Y215.985086 Z-0.125000
G00 Z5.000000

(End cutting path id: path58082)


(Start cutting path id: path58080)
(Change tool to Default tool)

G00 Z5.000000
G00 X311.343393 Y182.427112

G01 Z-0.125000 F100.0(Penetrate)
G01 X326.258048 Y186.155776 Z-0.125000 F400.000000
G01 X337.444039 Y193.613103 Z-0.125000
G00 Z5.000000

(End cutting path id: path58080)


(Start cutting path id: path58078)
(Change tool to Default tool)

G00 Z5.000000
G00 X292.700075 Y167.512458

G01 Z-0.125000 F100.0(Penetrate)
G01 X296.428739 Y174.969785 Z-0.125000 F400.000000
G01 X311.343393 Y182.427112 Z-0.125000
G00 Z5.000000

(End cutting path id: path58078)


(Start cutting path id: path58076)
(Change tool to Default tool)

G00 Z5.000000
G00 X274.056756 Y148.869139

G01 Z-0.125000 F100.0(Penetrate)
G01 X285.242747 Y156.326466 Z-0.125000 F400.000000
G01 X292.700075 Y167.512458 Z-0.125000
G00 Z5.000000

(End cutting path id: path58076)


(Start cutting path id: path58074)
(Change tool to Default tool)

G00 Z5.000000
G00 X266.599429 Y126.497157

G01 Z-0.125000 F100.0(Penetrate)
G01 X270.328093 Y141.411812 Z-0.125000 F400.000000
G01 X274.056756 Y148.869139 Z-0.125000
G00 Z5.000000

(End cutting path id: path58074)


(Start cutting path id: path58072)
(Change tool to Default tool)

G00 Z5.000000
G00 X300.157402 Y141.411812

G01 Z-0.125000 F100.0(Penetrate)
G01 X296.428739 Y126.497157 Z-0.125000 F400.000000
G01 X266.599429 Y126.497157 Z-0.125000
G00 Z5.000000

(End cutting path id: path58072)


(Start cutting path id: path58070)
(Change tool to Default tool)

G00 Z5.000000
G00 X315.072057 Y163.783794

G01 Z-0.125000 F100.0(Penetrate)
G01 X307.614730 Y152.597803 Z-0.125000 F400.000000
G01 X300.157402 Y141.411812 Z-0.125000
G00 Z5.000000

(End cutting path id: path58070)


(Start cutting path id: path58068)
(Change tool to Default tool)

G00 Z5.000000
G00 X333.715376 Y156.326466

G01 Z-0.125000 F100.0(Penetrate)
G01 X326.258048 Y171.241121 Z-0.125000 F400.000000
G01 X315.072057 Y163.783794 Z-0.125000
G00 Z5.000000

(End cutting path id: path58068)


(Start cutting path id: path58066)
(Change tool to Default tool)

G00 Z5.000000
G00 X356.087358 Y178.698449

G01 Z-0.125000 F100.0(Penetrate)
G01 X341.172703 Y171.241121 Z-0.125000 F400.000000
G01 X333.715376 Y156.326466 Z-0.125000
G00 Z5.000000

(End cutting path id: path58066)


(Start cutting path id: path58064)
(Change tool to Default tool)

G00 Z5.000000
G00 X367.273349 Y197.341767

G01 Z-0.125000 F100.0(Penetrate)
G01 X356.087358 Y193.613103 Z-0.125000 F400.000000
G01 X356.087358 Y178.698449 Z-0.125000
G00 Z5.000000

(End cutting path id: path58064)


(Start cutting path id: path58062)
(Change tool to Default tool)

G00 Z5.000000
G00 X374.730676 Y212.256422

G01 Z-0.125000 F100.0(Penetrate)
G01 X363.544685 Y208.527758 Z-0.125000 F400.000000
G01 X367.273349 Y197.341767 Z-0.125000
G00 Z5.000000

(End cutting path id: path58062)


(Start cutting path id: path58060)
(Change tool to Default tool)

G00 Z5.000000
G00 X385.916667 Y227.171077

G01 Z-0.125000 F100.0(Penetrate)
G01 X371.002013 Y223.442413 Z-0.125000 F400.000000
G01 X374.730676 Y212.256422 Z-0.125000
G00 Z5.000000

(End cutting path id: path58060)


(Start cutting path id: path58058)
(Change tool to Default tool)

G00 Z5.000000
G00 X404.559986 Y242.085732

G01 Z-0.125000 F100.0(Penetrate)
G01 X393.373995 Y238.357068 Z-0.125000 F400.000000
G01 X385.916667 Y227.171077 Z-0.125000
G00 Z5.000000

(End cutting path id: path58058)


(Start cutting path id: path58056)
(Change tool to Default tool)

G00 Z5.000000
G00 X412.017313 Y257.000386

G01 Z-0.125000 F100.0(Penetrate)
G01 X400.831322 Y253.271723 Z-0.125000 F400.000000
G01 X404.559986 Y242.085732 Z-0.125000
G00 Z5.000000

(End cutting path id: path58056)


(Start cutting path id: path58054)
(Change tool to Default tool)

G00 Z5.000000
G00 X423.203304 Y275.643705

G01 Z-0.125000 F100.0(Penetrate)
G01 X412.017313 Y271.915041 Z-0.125000 F400.000000
G01 X412.017313 Y257.000386 Z-0.125000
G00 Z5.000000

(End cutting path id: path58054)


(Start cutting path id: path58052)
(Change tool to Default tool)

G00 Z5.000000
G00 X419.474641 Y294.287023

G01 Z-0.125000 F100.0(Penetrate)
G01 X426.931968 Y286.829696 Z-0.125000 F400.000000
G01 X423.203304 Y275.643705 Z-0.125000
G00 Z5.000000

(End cutting path id: path58052)


(Start cutting path id: path58050)
(Change tool to Default tool)

G00 Z5.000000
G00 X434.389295 Y298.015687

G01 Z-0.125000 F100.0(Penetrate)
G01 X426.931968 Y298.015687 Z-0.125000 F400.000000
G01 X419.474641 Y294.287023 Z-0.125000
G00 Z5.000000

(End cutting path id: path58050)


(Start cutting path id: path58048)
(Change tool to Default tool)

G00 Z5.000000
G00 X438.117959 Y309.201678

G01 Z-0.125000 F100.0(Penetrate)
G01 X441.846623 Y301.744351 Z-0.125000 F400.000000
G01 X434.389295 Y298.015687 Z-0.125000
G00 Z5.000000

(End cutting path id: path58048)


(Start cutting path id: path58046)
(Change tool to Default tool)

G00 Z5.000000
G00 X471.675932 Y335.302324

G01 Z-0.125000 F100.0(Penetrate)
G01 X453.032614 Y327.844997 Z-0.125000 F400.000000
G01 X438.117959 Y309.201678 Z-0.125000
G00 Z5.000000

(End cutting path id: path58046)


(Start cutting path id: path58044)
(Change tool to Default tool)

G00 Z5.000000
G00 X486.590587 Y361.402970

G01 Z-0.125000 F100.0(Penetrate)
G01 X475.404596 Y346.488315 Z-0.125000 F400.000000
G01 X471.675932 Y335.302324 Z-0.125000
G00 Z5.000000

(End cutting path id: path58044)


(Start cutting path id: path58042)
(Change tool to Default tool)

G00 Z5.000000
G00 X516.419897 Y383.774952

G01 Z-0.125000 F100.0(Penetrate)
G01 X501.505242 Y368.860297 Z-0.125000 F400.000000
G01 X486.590587 Y361.402970 Z-0.125000
G00 Z5.000000

(End cutting path id: path58042)


(Start cutting path id: path58040)
(Change tool to Default tool)

G00 Z5.000000
G00 X501.505242 Y387.503616

G01 Z-0.125000 F100.0(Penetrate)
G01 X512.691233 Y391.232280 Z-0.125000 F400.000000
G01 X516.419897 Y383.774952 Z-0.125000
G00 Z5.000000

(End cutting path id: path58040)


(Start cutting path id: path58038)
(Change tool to Default tool)

G00 Z5.000000
G00 X490.319251 Y387.503616

G01 Z-0.125000 F100.0(Penetrate)
G01 X497.776578 Y394.960943 Z-0.125000 F400.000000
G01 X501.505242 Y387.503616 Z-0.125000
G00 Z5.000000

(End cutting path id: path58038)


(Start cutting path id: path58036)
(Change tool to Default tool)

G00 Z5.000000
G00 X482.861924 Y398.689607

G01 Z-0.125000 F100.0(Penetrate)
G01 X479.133260 Y391.232280 Z-0.125000 F400.000000
G01 X490.319251 Y387.503616 Z-0.125000
G00 Z5.000000

(End cutting path id: path58036)


(Start cutting path id: path58034)
(Change tool to Default tool)

G00 Z5.000000
G00 X486.590587 Y413.604262

G01 Z-0.125000 F100.0(Penetrate)
G01 X490.319251 Y402.418271 Z-0.125000 F400.000000
G01 X482.861924 Y398.689607 Z-0.125000
G00 Z5.000000

(End cutting path id: path58034)


(Start cutting path id: path58032)
(Change tool to Default tool)

G00 Z5.000000
G00 X471.675932 Y413.604262

G01 Z-0.125000 F100.0(Penetrate)
G01 X479.133260 Y413.604262 Z-0.125000 F400.000000
G01 X486.590587 Y413.604262 Z-0.125000
G00 Z5.000000

(End cutting path id: path58032)


(Start cutting path id: path58030)
(Change tool to Default tool)

G00 Z5.000000
G00 X460.489941 Y417.332925

G01 Z-0.125000 F100.0(Penetrate)
G01 X467.947269 Y406.146934 Z-0.125000 F400.000000
G01 X471.675932 Y413.604262 Z-0.125000
G00 Z5.000000

(End cutting path id: path58030)


(Start cutting path id: path58028)
(Change tool to Default tool)

G00 Z5.000000
G00 X456.761278 Y398.689607

G01 Z-0.125000 F100.0(Penetrate)
G01 X456.761278 Y409.875598 Z-0.125000 F400.000000
G01 X460.489941 Y417.332925 Z-0.125000
G00 Z5.000000

(End cutting path id: path58028)


(Start cutting path id: path58026)
(Change tool to Default tool)

G00 Z5.000000
G00 X434.389295 Y353.945643

G01 Z-0.125000 F100.0(Penetrate)
G01 X456.761278 Y376.317625 Z-0.125000 F400.000000
G01 X456.761278 Y398.689607 Z-0.125000
G00 Z5.000000

(End cutting path id: path58026)


(Start cutting path id: path58024)
(Change tool to Default tool)

G00 Z5.000000
G00 X434.389295 Y406.146934

G01 Z-0.125000 F100.0(Penetrate)
G01 X415.745977 Y383.774952 Z-0.125000 F400.000000
G01 X434.389295 Y353.945643 Z-0.125000
G00 Z5.000000

(End cutting path id: path58024)


(Start cutting path id: path58022)
(Change tool to Default tool)

G00 Z5.000000
G00 X438.117959 Y424.790253

G01 Z-0.125000 F100.0(Penetrate)
G01 X441.846623 Y413.604262 Z-0.125000 F400.000000
G01 X434.389295 Y406.146934 Z-0.125000
G00 Z5.000000

(End cutting path id: path58022)


(Start cutting path id: path58020)
(Change tool to Default tool)

G00 Z5.000000
G00 X441.846623 Y454.619562

G01 Z-0.125000 F100.0(Penetrate)
G01 X423.203304 Y447.162235 Z-0.125000 F400.000000
G01 X438.117959 Y424.790253 Z-0.125000
G00 Z5.000000

(End cutting path id: path58020)


(Start cutting path id: path58018)
(Change tool to Default tool)

G00 Z5.000000
G00 X445.575287 Y488.177536

G01 Z-0.125000 F100.0(Penetrate)
G01 X445.575287 Y469.534217 Z-0.125000 F400.000000
G01 X441.846623 Y454.619562 Z-0.125000
G00 Z5.000000

(End cutting path id: path58018)


(Start cutting path id: path58016)
(Change tool to Default tool)

G00 Z5.000000
G00 X467.947269 Y503.092191

G01 Z-0.125000 F100.0(Penetrate)
G01 X464.218605 Y491.906199 Z-0.125000 F400.000000
G01 X445.575287 Y488.177536 Z-0.125000
G00 Z5.000000

(End cutting path id: path58016)


(Start cutting path id: path58014)
(Change tool to Default tool)

G00 Z5.000000
G00 X494.047915 Y525.464173

G01 Z-0.125000 F100.0(Penetrate)
G01 X479.133260 Y518.006845 Z-0.125000 F400.000000
G01 X467.947269 Y503.092191 Z-0.125000
G00 Z5.000000

(End cutting path id: path58014)


(Start cutting path id: path58012)
(Change tool to Default tool)

G00 Z5.000000
G00 X516.419897 Y521.735509

G01 Z-0.125000 F100.0(Penetrate)
G01 X523.877224 Y536.650164 Z-0.125000 F400.000000
G01 X494.047915 Y525.464173 Z-0.125000
G00 Z5.000000

(End cutting path id: path58012)


(Start cutting path id: path58010)
(Change tool to Default tool)

G00 Z5.000000
G00 X497.776578 Y491.906199

G01 Z-0.125000 F100.0(Penetrate)
G01 X512.691233 Y503.092191 Z-0.125000 F400.000000
G01 X516.419897 Y521.735509 Z-0.125000
G00 Z5.000000

(End cutting path id: path58010)


(Start cutting path id: path58008)
(Change tool to Default tool)

G00 Z5.000000
G00 X475.404596 Y465.805554

G01 Z-0.125000 F100.0(Penetrate)
G01 X494.047915 Y473.262881 Z-0.125000 F400.000000
G01 X497.776578 Y491.906199 Z-0.125000
G00 Z5.000000

(End cutting path id: path58008)


(Start cutting path id: path58006)
(Change tool to Default tool)

G00 Z5.000000
G00 X471.675932 Y443.433571

G01 Z-0.125000 F100.0(Penetrate)
G01 X490.319251 Y447.162235 Z-0.125000 F400.000000
G01 X475.404596 Y465.805554 Z-0.125000
G00 Z5.000000

(End cutting path id: path58006)


(Start cutting path id: path58004)
(Change tool to Default tool)

G00 Z5.000000
G00 X475.404596 Y424.790253

G01 Z-0.125000 F100.0(Penetrate)
G01 X456.761278 Y432.247580 Z-0.125000 F400.000000
G01 X471.675932 Y443.433571 Z-0.125000
G00 Z5.000000

(End cutting path id: path58004)


(Start cutting path id: path58002)
(Change tool to Default tool)

G00 Z5.000000
G00 X494.047915 Y424.790253

G01 Z-0.125000 F100.0(Penetrate)
G01 X486.590587 Y424.790253 Z-0.125000 F400.000000
G01 X475.404596 Y424.790253 Z-0.125000
G00 Z5.000000

(End cutting path id: path58002)


(Start cutting path id: path58000)
(Change tool to Default tool)

G00 Z5.000000
G00 X508.962569 Y432.247580

G01 Z-0.125000 F100.0(Penetrate)
G01 X501.505242 Y428.518917 Z-0.125000 F400.000000
G01 X494.047915 Y424.790253 Z-0.125000
G00 Z5.000000

(End cutting path id: path58000)


(Start cutting path id: path57998)
(Change tool to Default tool)

G00 Z5.000000
G00 X505.233906 Y417.332925

G01 Z-0.125000 F100.0(Penetrate)
G01 X512.691233 Y421.061589 Z-0.125000 F400.000000
G01 X508.962569 Y432.247580 Z-0.125000
G00 Z5.000000

(End cutting path id: path57998)


(Start cutting path id: path57996)
(Change tool to Default tool)

G00 Z5.000000
G00 X501.505242 Y402.418271

G01 Z-0.125000 F100.0(Penetrate)
G01 X497.776578 Y413.604262 Z-0.125000 F400.000000
G01 X505.233906 Y417.332925 Z-0.125000
G00 Z5.000000

(End cutting path id: path57996)


(Start cutting path id: path57994)
(Change tool to Default tool)

G00 Z5.000000
G00 X516.419897 Y406.146934

G01 Z-0.125000 F100.0(Penetrate)
G01 X508.962569 Y402.418271 Z-0.125000 F400.000000
G01 X501.505242 Y402.418271 Z-0.125000
G00 Z5.000000

(End cutting path id: path57994)


(Start cutting path id: path57992)
(Change tool to Default tool)

G00 Z5.000000
G00 X523.877224 Y421.061589

G01 Z-0.125000 F100.0(Penetrate)
G01 X520.148561 Y413.604262 Z-0.125000 F400.000000
G01 X516.419897 Y406.146934 Z-0.125000
G00 Z5.000000

(End cutting path id: path57992)


(Start cutting path id: path57990)
(Change tool to Default tool)

G00 Z5.000000
G00 X531.334552 Y432.247580

G01 Z-0.125000 F100.0(Penetrate)
G01 X520.148561 Y432.247580 Z-0.125000 F400.000000
G01 X523.877224 Y421.061589 Z-0.125000
G00 Z5.000000

(End cutting path id: path57990)


(Start cutting path id: path57988)
(Change tool to Default tool)

G00 Z5.000000
G00 X538.791879 Y424.790253

G01 Z-0.125000 F100.0(Penetrate)
G01 X531.334552 Y421.061589 Z-0.125000 F400.000000
G01 X531.334552 Y432.247580 Z-0.125000
G00 Z5.000000

(End cutting path id: path57988)


(Start cutting path id: path57986)
(Change tool to Default tool)

G00 Z5.000000
G00 X553.706534 Y435.976244

G01 Z-0.125000 F100.0(Penetrate)
G01 X542.520543 Y432.247580 Z-0.125000 F400.000000
G01 X538.791879 Y424.790253 Z-0.125000
G00 Z5.000000

(End cutting path id: path57986)


(Start cutting path id: path57984)
(Change tool to Default tool)

G00 Z5.000000
G00 X561.163861 Y424.790253

G01 Z-0.125000 F100.0(Penetrate)
G01 X549.977870 Y424.790253 Z-0.125000 F400.000000
G01 X553.706534 Y435.976244 Z-0.125000
G00 Z5.000000

(End cutting path id: path57984)


(Start cutting path id: path57982)
(Change tool to Default tool)

G00 Z5.000000
G00 X549.977870 Y413.604262

G01 Z-0.125000 F100.0(Penetrate)
G01 X557.435197 Y417.332925 Z-0.125000 F400.000000
G01 X561.163861 Y424.790253 Z-0.125000
G00 Z5.000000

(End cutting path id: path57982)


(Start cutting path id: path57980)
(Change tool to Default tool)

G00 Z5.000000
G00 X535.063215 Y409.875598

G01 Z-0.125000 F100.0(Penetrate)
G01 X542.520543 Y409.875598 Z-0.125000 F400.000000
G01 X549.977870 Y413.604262 Z-0.125000
G00 Z5.000000

(End cutting path id: path57980)


(Start cutting path id: path57978)
(Change tool to Default tool)

G00 Z5.000000
G00 X527.605888 Y394.960943

G01 Z-0.125000 F100.0(Penetrate)
G01 X527.605888 Y406.146934 Z-0.125000 F400.000000
G01 X535.063215 Y409.875598 Z-0.125000
G00 Z5.000000

(End cutting path id: path57978)


(Start cutting path id: path57976)
(Change tool to Default tool)

G00 Z5.000000
G00 X535.063215 Y394.960943

G01 Z-0.125000 F100.0(Penetrate)
G01 X523.877224 Y391.232280 Z-0.125000 F400.000000
G01 X527.605888 Y394.960943 Z-0.125000
G00 Z5.000000

(End cutting path id: path57976)


(Start cutting path id: path57974)
(Change tool to Default tool)

G00 Z5.000000
G00 X553.706534 Y398.689607

G01 Z-0.125000 F100.0(Penetrate)
G01 X542.520543 Y398.689607 Z-0.125000 F400.000000
G01 X535.063215 Y394.960943 Z-0.125000
G00 Z5.000000

(End cutting path id: path57974)


(Start cutting path id: path57972)
(Change tool to Default tool)

G00 Z5.000000
G00 X568.621189 Y402.418271

G01 Z-0.125000 F100.0(Penetrate)
G01 X557.435197 Y402.418271 Z-0.125000 F400.000000
G01 X553.706534 Y398.689607 Z-0.125000
G00 Z5.000000

(End cutting path id: path57972)


(Start cutting path id: path57970)
(Change tool to Default tool)

G00 Z5.000000
G00 X572.349852 Y413.604262

G01 Z-0.125000 F100.0(Penetrate)
G01 X564.892525 Y409.875598 Z-0.125000 F400.000000
G01 X568.621189 Y402.418271 Z-0.125000
G00 Z5.000000

(End cutting path id: path57970)


(Start cutting path id: path57968)
(Change tool to Default tool)

G00 Z5.000000
G00 X568.621189 Y424.790253

G01 Z-0.125000 F100.0(Penetrate)
G01 X579.807180 Y421.061589 Z-0.125000 F400.000000
G01 X572.349852 Y413.604262 Z-0.125000
G00 Z5.000000

(End cutting path id: path57968)


(Start cutting path id: path57966)
(Change tool to Default tool)

G00 Z5.000000
G00 X564.892525 Y447.162235

G01 Z-0.125000 F100.0(Penetrate)
G01 X572.349852 Y432.247580 Z-0.125000 F400.000000
G01 X568.621189 Y424.790253 Z-0.125000
G00 Z5.000000

(End cutting path id: path57966)


(Start cutting path id: path57964)
(Change tool to Default tool)

G00 Z5.000000
G00 X579.807180 Y480.720208

G01 Z-0.125000 F100.0(Penetrate)
G01 X572.349852 Y462.076890 Z-0.125000 F400.000000
G01 X564.892525 Y447.162235 Z-0.125000
G00 Z5.000000

(End cutting path id: path57964)


(Start cutting path id: path57962)
(Change tool to Default tool)

G00 Z5.000000
G00 X594.721835 Y510.549518

G01 Z-0.125000 F100.0(Penetrate)
G01 X579.807180 Y499.363527 Z-0.125000 F400.000000
G01 X579.807180 Y480.720208 Z-0.125000
G00 Z5.000000

(End cutting path id: path57962)


(Start cutting path id: path57960)
(Change tool to Default tool)

G00 Z5.000000
G00 X609.636489 Y532.921500

G01 Z-0.125000 F100.0(Penetrate)
G01 X605.907826 Y518.006845 Z-0.125000 F400.000000
G01 X594.721835 Y510.549518 Z-0.125000
G00 Z5.000000

(End cutting path id: path57960)


(Start cutting path id: path57958)
(Change tool to Default tool)

G00 Z5.000000
G00 X579.807180 Y532.921500

G01 Z-0.125000 F100.0(Penetrate)
G01 X587.264507 Y540.378828 Z-0.125000 F400.000000
G01 X609.636489 Y532.921500 Z-0.125000
G00 Z5.000000

(End cutting path id: path57958)


(Start cutting path id: path57956)
(Change tool to Default tool)

G00 Z5.000000
G00 X561.163861 Y503.092191

G01 Z-0.125000 F100.0(Penetrate)
G01 X572.349852 Y518.006845 Z-0.125000 F400.000000
G01 X579.807180 Y532.921500 Z-0.125000
G00 Z5.000000

(End cutting path id: path57956)


(Start cutting path id: path57954)
(Change tool to Default tool)

G00 Z5.000000
G00 X549.977870 Y473.262881

G01 Z-0.125000 F100.0(Penetrate)
G01 X561.163861 Y484.448872 Z-0.125000 F400.000000
G01 X561.163861 Y503.092191 Z-0.125000
G00 Z5.000000

(End cutting path id: path57954)


(Start cutting path id: path57952)
(Change tool to Default tool)

G00 Z5.000000
G00 X531.334552 Y450.890899

G01 Z-0.125000 F100.0(Penetrate)
G01 X542.520543 Y462.076890 Z-0.125000 F400.000000
G01 X549.977870 Y473.262881 Z-0.125000
G00 Z5.000000

(End cutting path id: path57952)


(Start cutting path id: path57950)
(Change tool to Default tool)

G00 Z5.000000
G00 X516.419897 Y469.534217

G01 Z-0.125000 F100.0(Penetrate)
G01 X508.962569 Y450.890899 Z-0.125000 F400.000000
G01 X531.334552 Y450.890899 Z-0.125000
G00 Z5.000000

(End cutting path id: path57950)


(Start cutting path id: path57948)
(Change tool to Default tool)

G00 Z5.000000
G00 X535.063215 Y495.634863

G01 Z-0.125000 F100.0(Penetrate)
G01 X523.877224 Y484.448872 Z-0.125000 F400.000000
G01 X516.419897 Y469.534217 Z-0.125000
G00 Z5.000000

(End cutting path id: path57948)


(Start cutting path id: path57946)
(Change tool to Default tool)

G00 Z5.000000
G00 X546.249206 Y525.464173

G01 Z-0.125000 F100.0(Penetrate)
G01 X538.791879 Y510.549518 Z-0.125000 F400.000000
G01 X535.063215 Y495.634863 Z-0.125000
G00 Z5.000000

(End cutting path id: path57946)


(Start cutting path id: path57944)
(Change tool to Default tool)

G00 Z5.000000
G00 X564.892525 Y551.564819

G01 Z-0.125000 F100.0(Penetrate)
G01 X557.435197 Y536.650164 Z-0.125000 F400.000000
G01 X546.249206 Y525.464173 Z-0.125000
G00 Z5.000000

(End cutting path id: path57944)


(Start cutting path id: path57942)
(Change tool to Default tool)

G00 Z5.000000
G00 X579.807180 Y570.208137

G01 Z-0.125000 F100.0(Penetrate)
G01 X576.078516 Y562.750810 Z-0.125000 F400.000000
G01 X564.892525 Y551.564819 Z-0.125000
G00 Z5.000000

(End cutting path id: path57942)


(Start cutting path id: path57940)
(Change tool to Default tool)

G00 Z5.000000
G00 X587.264507 Y585.122792

G01 Z-0.125000 F100.0(Penetrate)
G01 X583.535843 Y577.665465 Z-0.125000 F400.000000
G01 X579.807180 Y570.208137 Z-0.125000
G00 Z5.000000

(End cutting path id: path57940)


(Start cutting path id: path57938)
(Change tool to Default tool)

G00 Z5.000000
G00 X602.179162 Y592.580119

G01 Z-0.125000 F100.0(Penetrate)
G01 X594.721835 Y588.851456 Z-0.125000 F400.000000
G01 X587.264507 Y585.122792 Z-0.125000
G00 Z5.000000

(End cutting path id: path57938)


(Start cutting path id: path57936)
(Change tool to Default tool)

G00 Z5.000000
G00 X602.179162 Y577.665465

G01 Z-0.125000 F100.0(Penetrate)
G01 X594.721835 Y577.665465 Z-0.125000 F400.000000
G01 X602.179162 Y592.580119 Z-0.125000
G00 Z5.000000

(End cutting path id: path57936)


(Start cutting path id: path57934)
(Change tool to Default tool)

G00 Z5.000000
G00 X613.365153 Y588.851456

G01 Z-0.125000 F100.0(Penetrate)
G01 X609.636489 Y581.394128 Z-0.125000 F400.000000
G01 X602.179162 Y577.665465 Z-0.125000
G00 Z5.000000

(End cutting path id: path57934)


(Start cutting path id: path57932)
(Change tool to Default tool)

G00 Z5.000000
G00 X624.551144 Y585.122792

G01 Z-0.125000 F100.0(Penetrate)
G01 X617.093817 Y600.037447 Z-0.125000 F400.000000
G01 X613.365153 Y588.851456 Z-0.125000
G00 Z5.000000

(End cutting path id: path57932)


(Start cutting path id: path57930)
(Change tool to Default tool)

G00 Z5.000000
G00 X628.279808 Y577.665465

G01 Z-0.125000 F100.0(Penetrate)
G01 X635.737135 Y581.394128 Z-0.125000 F400.000000
G01 X624.551144 Y585.122792 Z-0.125000
G00 Z5.000000

(End cutting path id: path57930)


(Start cutting path id: path57928)
(Change tool to Default tool)

G00 Z5.000000
G00 X613.365153 Y570.208137

G01 Z-0.125000 F100.0(Penetrate)
G01 X620.822480 Y573.936801 Z-0.125000 F400.000000
G01 X628.279808 Y577.665465 Z-0.125000
G00 Z5.000000

(End cutting path id: path57928)


(Start cutting path id: path57926)
(Change tool to Default tool)

G00 Z5.000000
G00 X594.721835 Y566.479473

G01 Z-0.125000 F100.0(Penetrate)
G01 X605.907826 Y566.479473 Z-0.125000 F400.000000
G01 X613.365153 Y570.208137 Z-0.125000
G00 Z5.000000

(End cutting path id: path57926)


(Start cutting path id: path57924)
(Change tool to Default tool)

G00 Z5.000000
G00 X598.450498 Y555.293482

G01 Z-0.125000 F100.0(Penetrate)
G01 X587.264507 Y559.022146 Z-0.125000 F400.000000
G01 X594.721835 Y566.479473 Z-0.125000
G00 Z5.000000

(End cutting path id: path57924)


(Start cutting path id: path57922)
(Change tool to Default tool)

G00 Z5.000000
G00 X613.365153 Y547.836155

G01 Z-0.125000 F100.0(Penetrate)
G01 X605.907826 Y555.293482 Z-0.125000 F400.000000
G01 X598.450498 Y555.293482 Z-0.125000
G00 Z5.000000

(End cutting path id: path57922)


(Start cutting path id: path57920)
(Change tool to Default tool)

G00 Z5.000000
G00 X617.093817 Y559.022146

G01 Z-0.125000 F100.0(Penetrate)
G01 X620.822480 Y551.564819 Z-0.125000 F400.000000
G01 X613.365153 Y547.836155 Z-0.125000
G00 Z5.000000

(End cutting path id: path57920)


(Start cutting path id: path57918)
(Change tool to Default tool)

G00 Z5.000000
G00 X632.008472 Y566.479473

G01 Z-0.125000 F100.0(Penetrate)
G01 X628.279808 Y559.022146 Z-0.125000 F400.000000
G01 X617.093817 Y559.022146 Z-0.125000
G00 Z5.000000

(End cutting path id: path57918)


(Start cutting path id: path57916)
(Change tool to Default tool)

G00 Z5.000000
G00 X646.923126 Y570.208137

G01 Z-0.125000 F100.0(Penetrate)
G01 X639.465799 Y570.208137 Z-0.125000 F400.000000
G01 X632.008472 Y566.479473 Z-0.125000
G00 Z5.000000

(End cutting path id: path57916)


(Start cutting path id: path57914)
(Change tool to Default tool)

G00 Z5.000000
G00 X639.465799 Y555.293482

G01 Z-0.125000 F100.0(Penetrate)
G01 X650.651790 Y559.022146 Z-0.125000 F400.000000
G01 X646.923126 Y570.208137 Z-0.125000
G00 Z5.000000

(End cutting path id: path57914)


(Start cutting path id: path57912)
(Change tool to Default tool)

G00 Z5.000000
G00 X624.551144 Y540.378828

G01 Z-0.125000 F100.0(Penetrate)
G01 X632.008472 Y547.836155 Z-0.125000 F400.000000
G01 X639.465799 Y555.293482 Z-0.125000
G00 Z5.000000

(End cutting path id: path57912)


(Start cutting path id: path57910)
(Change tool to Default tool)

G00 Z5.000000
G00 X639.465799 Y536.650164

G01 Z-0.125000 F100.0(Penetrate)
G01 X632.008472 Y532.921500 Z-0.125000 F400.000000
G01 X624.551144 Y540.378828 Z-0.125000
G00 Z5.000000

(End cutting path id: path57910)


(Start cutting path id: path57908)
(Change tool to Default tool)

G00 Z5.000000
G00 X650.651790 Y547.836155

G01 Z-0.125000 F100.0(Penetrate)
G01 X643.194463 Y544.107491 Z-0.125000 F400.000000
G01 X639.465799 Y536.650164 Z-0.125000
G00 Z5.000000

(End cutting path id: path57908)


(Start cutting path id: path57906)
(Change tool to Default tool)

G00 Z5.000000
G00 X661.837781 Y536.650164

G01 Z-0.125000 F100.0(Penetrate)
G01 X658.109117 Y547.836155 Z-0.125000 F400.000000
G01 X650.651790 Y547.836155 Z-0.125000
G00 Z5.000000

(End cutting path id: path57906)


(Start cutting path id: path57904)
(Change tool to Default tool)

G00 Z5.000000
G00 X650.651790 Y529.192836

G01 Z-0.125000 F100.0(Penetrate)
G01 X654.380454 Y532.921500 Z-0.125000 F400.000000
G01 X661.837781 Y536.650164 Z-0.125000
G00 Z5.000000

(End cutting path id: path57904)


(Start cutting path id: path57902)
(Change tool to Default tool)

G00 Z5.000000
G00 X632.008472 Y518.006845

G01 Z-0.125000 F100.0(Penetrate)
G01 X643.194463 Y525.464173 Z-0.125000 F400.000000
G01 X650.651790 Y529.192836 Z-0.125000
G00 Z5.000000

(End cutting path id: path57902)


(Start cutting path id: path57900)
(Change tool to Default tool)

G00 Z5.000000
G00 X617.093817 Y495.634863

G01 Z-0.125000 F100.0(Penetrate)
G01 X624.551144 Y506.820854 Z-0.125000 F400.000000
G01 X632.008472 Y518.006845 Z-0.125000
G00 Z5.000000

(End cutting path id: path57900)


(Start cutting path id: path57898)
(Change tool to Default tool)

G00 Z5.000000
G00 X598.450498 Y476.991545

G01 Z-0.125000 F100.0(Penetrate)
G01 X602.179162 Y491.906199 Z-0.125000 F400.000000
G01 X617.093817 Y495.634863 Z-0.125000
G00 Z5.000000

(End cutting path id: path57898)


(Start cutting path id: path57896)
(Change tool to Default tool)

G00 Z5.000000
G00 X587.264507 Y443.433571

G01 Z-0.125000 F100.0(Penetrate)
G01 X590.993171 Y458.348226 Z-0.125000 F400.000000
G01 X598.450498 Y476.991545 Z-0.125000
G00 Z5.000000

(End cutting path id: path57896)


(Start cutting path id: path57894)
(Change tool to Default tool)

G00 Z5.000000
G00 X590.993171 Y421.061589

G01 Z-0.125000 F100.0(Penetrate)
G01 X587.264507 Y428.518917 Z-0.125000 F400.000000
G01 X587.264507 Y443.433571 Z-0.125000
G00 Z5.000000

(End cutting path id: path57894)


(Start cutting path id: path57892)
(Change tool to Default tool)

G00 Z5.000000
G00 X605.907826 Y417.332925

G01 Z-0.125000 F100.0(Penetrate)
G01 X602.179162 Y424.790253 Z-0.125000 F400.000000
G01 X590.993171 Y421.061589 Z-0.125000
G00 Z5.000000

(End cutting path id: path57892)


(Start cutting path id: path57890)
(Change tool to Default tool)

G00 Z5.000000
G00 X590.993171 Y409.875598

G01 Z-0.125000 F100.0(Penetrate)
G01 X598.450498 Y413.604262 Z-0.125000 F400.000000
G01 X605.907826 Y417.332925 Z-0.125000
G00 Z5.000000

(End cutting path id: path57890)


(Start cutting path id: path57888)
(Change tool to Default tool)

G00 Z5.000000
G00 X579.807180 Y402.418271

G01 Z-0.125000 F100.0(Penetrate)
G01 X583.535843 Y409.875598 Z-0.125000 F400.000000
G01 X590.993171 Y409.875598 Z-0.125000
G00 Z5.000000

(End cutting path id: path57888)


(Start cutting path id: path57886)
(Change tool to Default tool)

G00 Z5.000000
G00 X568.621189 Y391.232280

G01 Z-0.125000 F100.0(Penetrate)
G01 X579.807180 Y391.232280 Z-0.125000 F400.000000
G01 X579.807180 Y402.418271 Z-0.125000
G00 Z5.000000

(End cutting path id: path57886)


(Start cutting path id: path57884)
(Change tool to Default tool)

G00 Z5.000000
G00 X549.977870 Y391.232280

G01 Z-0.125000 F100.0(Penetrate)
G01 X561.163861 Y383.774952 Z-0.125000 F400.000000
G01 X568.621189 Y391.232280 Z-0.125000
G00 Z5.000000

(End cutting path id: path57884)


(Start cutting path id: path57882)
(Change tool to Default tool)

G00 Z5.000000
G00 X538.791879 Y376.317625

G01 Z-0.125000 F100.0(Penetrate)
G01 X542.520543 Y383.774952 Z-0.125000 F400.000000
G01 X549.977870 Y391.232280 Z-0.125000
G00 Z5.000000

(End cutting path id: path57882)


(Start cutting path id: path57880)
(Change tool to Default tool)

G00 Z5.000000
G00 X520.148561 Y350.216979

G01 Z-0.125000 F100.0(Penetrate)
G01 X531.334552 Y361.402970 Z-0.125000 F400.000000
G01 X538.791879 Y376.317625 Z-0.125000
G00 Z5.000000

(End cutting path id: path57880)


(Start cutting path id: path57878)
(Change tool to Default tool)

G00 Z5.000000
G00 X501.505242 Y327.844997

G01 Z-0.125000 F100.0(Penetrate)
G01 X505.233906 Y339.030988 Z-0.125000 F400.000000
G01 X520.148561 Y350.216979 Z-0.125000
G00 Z5.000000

(End cutting path id: path57878)


(Start cutting path id: path57876)
(Change tool to Default tool)

G00 Z5.000000
G00 X479.133260 Y301.744351

G01 Z-0.125000 F100.0(Penetrate)
G01 X486.590587 Y312.930342 Z-0.125000 F400.000000
G01 X501.505242 Y327.844997 Z-0.125000
G00 Z5.000000

(End cutting path id: path57876)


(Start cutting path id: path57874)
(Change tool to Default tool)

G00 Z5.000000
G00 X456.761278 Y286.829696

G01 Z-0.125000 F100.0(Penetrate)
G01 X467.947269 Y290.558360 Z-0.125000 F400.000000
G01 X479.133260 Y301.744351 Z-0.125000
G00 Z5.000000

(End cutting path id: path57874)


(Start cutting path id: path57872)
(Change tool to Default tool)

G00 Z5.000000
G00 X445.575287 Y286.829696

G01 Z-0.125000 F100.0(Penetrate)
G01 X453.032614 Y294.287023 Z-0.125000 F400.000000
G01 X456.761278 Y286.829696 Z-0.125000
G00 Z5.000000

(End cutting path id: path57872)


(Start cutting path id: path57870)
(Change tool to Default tool)

G00 Z5.000000
G00 X438.117959 Y275.643705

G01 Z-0.125000 F100.0(Penetrate)
G01 X438.117959 Y286.829696 Z-0.125000 F400.000000
G01 X445.575287 Y286.829696 Z-0.125000
G00 Z5.000000

(End cutting path id: path57870)


(Start cutting path id: path57868)
(Change tool to Default tool)

G00 Z5.000000
G00 X449.303950 Y264.457714

G01 Z-0.125000 F100.0(Penetrate)
G01 X445.575287 Y275.643705 Z-0.125000 F400.000000
G01 X438.117959 Y275.643705 Z-0.125000
G00 Z5.000000

(End cutting path id: path57868)


(Start cutting path id: path57866)
(Change tool to Default tool)

G00 Z5.000000
G00 X456.761278 Y275.643705

G01 Z-0.125000 F100.0(Penetrate)
G01 X456.761278 Y264.457714 Z-0.125000 F400.000000
G01 X449.303950 Y264.457714 Z-0.125000
G00 Z5.000000

(End cutting path id: path57866)


(Start cutting path id: path57864)
(Change tool to Default tool)

G00 Z5.000000
G00 X467.947269 Y279.372369

G01 Z-0.125000 F100.0(Penetrate)
G01 X464.218605 Y271.915041 Z-0.125000 F400.000000
G01 X456.761278 Y275.643705 Z-0.125000
G00 Z5.000000

(End cutting path id: path57864)


(Start cutting path id: path57862)
(Change tool to Default tool)

G00 Z5.000000
G00 X482.861924 Y286.829696

G01 Z-0.125000 F100.0(Penetrate)
G01 X475.404596 Y279.372369 Z-0.125000 F400.000000
G01 X467.947269 Y279.372369 Z-0.125000
G00 Z5.000000

(End cutting path id: path57862)


(Start cutting path id: path57860)
(Change tool to Default tool)

G00 Z5.000000
G00 X490.319251 Y275.643705

G01 Z-0.125000 F100.0(Penetrate)
G01 X497.776578 Y279.372369 Z-0.125000 F400.000000
G01 X482.861924 Y286.829696 Z-0.125000
G00 Z5.000000

(End cutting path id: path57860)


(Start cutting path id: path57858)
(Change tool to Default tool)

G00 Z5.000000
G00 X475.404596 Y264.457714

G01 Z-0.125000 F100.0(Penetrate)
G01 X482.861924 Y271.915041 Z-0.125000 F400.000000
G01 X490.319251 Y275.643705 Z-0.125000
G00 Z5.000000

(End cutting path id: path57858)


(Start cutting path id: path57856)
(Change tool to Default tool)

G00 Z5.000000
G00 X460.489941 Y253.271723

G01 Z-0.125000 F100.0(Penetrate)
G01 X467.947269 Y257.000386 Z-0.125000 F400.000000
G01 X475.404596 Y264.457714 Z-0.125000
G00 Z5.000000

(End cutting path id: path57856)


(Start cutting path id: path57854)
(Change tool to Default tool)

G00 Z5.000000
G00 X441.846623 Y245.814395

G01 Z-0.125000 F100.0(Penetrate)
G01 X453.032614 Y249.543059 Z-0.125000 F400.000000
G01 X460.489941 Y253.271723 Z-0.125000
G00 Z5.000000

(End cutting path id: path57854)


(Start cutting path id: path57852)
(Change tool to Default tool)

G00 Z5.000000
G00 X426.931968 Y260.729050

G01 Z-0.125000 F100.0(Penetrate)
G01 X441.846623 Y260.729050 Z-0.125000 F400.000000
G01 X441.846623 Y245.814395 Z-0.125000
G00 Z5.000000

(End cutting path id: path57852)


(Start cutting path id: path57850)
(Change tool to Default tool)

G00 Z5.000000
G00 X419.474641 Y242.085732

G01 Z-0.125000 F100.0(Penetrate)
G01 X426.931968 Y249.543059 Z-0.125000 F400.000000
G01 X426.931968 Y260.729050 Z-0.125000
G00 Z5.000000

(End cutting path id: path57850)


(Start cutting path id: path57848)
(Change tool to Default tool)

G00 Z5.000000
G00 X423.203304 Y227.171077

G01 Z-0.125000 F100.0(Penetrate)
G01 X434.389295 Y234.628404 Z-0.125000 F400.000000
G01 X419.474641 Y242.085732 Z-0.125000
G00 Z5.000000

(End cutting path id: path57848)


(Start cutting path id: path57846)
(Change tool to Default tool)

G00 Z5.000000
G00 X404.559986 Y219.713749

G01 Z-0.125000 F100.0(Penetrate)
G01 X412.017313 Y227.171077 Z-0.125000 F400.000000
G01 X423.203304 Y227.171077 Z-0.125000
G00 Z5.000000

(End cutting path id: path57846)


(Start cutting path id: path57844)
(Change tool to Default tool)

G00 Z5.000000
G00 X389.645331 Y212.256422

G01 Z-0.125000 F100.0(Penetrate)
G01 X404.559986 Y208.527758 Z-0.125000 F400.000000
G01 X404.559986 Y219.713749 Z-0.125000
G00 Z5.000000

(End cutting path id: path57844)


(Start cutting path id: path57842)
(Change tool to Default tool)

G00 Z5.000000
G00 X382.188004 Y193.613103

G01 Z-0.125000 F100.0(Penetrate)
G01 X393.373995 Y197.341767 Z-0.125000 F400.000000
G01 X389.645331 Y212.256422 Z-0.125000
G00 Z5.000000

(End cutting path id: path57842)


(Start cutting path id: path57840)
(Change tool to Default tool)

G00 Z5.000000
G00 X371.002013 Y160.055130

G01 Z-0.125000 F100.0(Penetrate)
G01 X378.459340 Y178.698449 Z-0.125000 F400.000000
G01 X382.188004 Y193.613103 Z-0.125000
G00 Z5.000000

(End cutting path id: path57840)


(Start cutting path id: path57838)
(Change tool to Default tool)

G00 Z5.000000
G00 X348.630030 Y148.869139

G01 Z-0.125000 F100.0(Penetrate)
G01 X356.087358 Y160.055130 Z-0.125000 F400.000000
G01 X371.002013 Y160.055130 Z-0.125000
G00 Z5.000000

(End cutting path id: path57838)


(Start cutting path id: path57836)
(Change tool to Default tool)

G00 Z5.000000
G00 X337.444039 Y130.225821

G01 Z-0.125000 F100.0(Penetrate)
G01 X352.358694 Y133.954484 Z-0.125000 F400.000000
G01 X348.630030 Y148.869139 Z-0.125000
G00 Z5.000000

(End cutting path id: path57836)


(Start cutting path id: path57834)
(Change tool to Default tool)

G00 Z5.000000
G00 X318.800721 Y130.225821

G01 Z-0.125000 F100.0(Penetrate)
G01 X326.258048 Y145.140475 Z-0.125000 F400.000000
G01 X337.444039 Y130.225821 Z-0.125000
G00 Z5.000000

(End cutting path id: path57834)


(Start cutting path id: path57832)
(Change tool to Default tool)

G00 Z5.000000
G00 X303.886066 Y107.853838

G01 Z-0.125000 F100.0(Penetrate)
G01 X315.072057 Y119.039829 Z-0.125000 F400.000000
G01 X318.800721 Y130.225821 Z-0.125000
G00 Z5.000000

(End cutting path id: path57832)


(Start cutting path id: path57830)
(Change tool to Default tool)

G00 Z5.000000
G00 X341.172703 Y107.853838

G01 Z-0.125000 F100.0(Penetrate)
G01 X326.258048 Y100.396511 Z-0.125000 F400.000000
G01 X303.886066 Y107.853838 Z-0.125000
G00 Z5.000000

(End cutting path id: path57830)


(Start cutting path id: path57828)
(Change tool to Default tool)

G00 Z5.000000
G00 X359.816021 Y104.125175

G01 Z-0.125000 F100.0(Penetrate)
G01 X344.901367 Y89.210520 Z-0.125000 F400.000000
G01 X341.172703 Y107.853838 Z-0.125000
G00 Z5.000000

(End cutting path id: path57828)


(Start cutting path id: path57826)
(Change tool to Default tool)

G00 Z5.000000
G00 X371.002013 Y126.497157

G01 Z-0.125000 F100.0(Penetrate)
G01 X363.544685 Y115.311166 Z-0.125000 F400.000000
G01 X359.816021 Y104.125175 Z-0.125000
G00 Z5.000000

(End cutting path id: path57826)


(Start cutting path id: path57824)
(Change tool to Default tool)

G00 Z5.000000
G00 X385.916667 Y145.140475

G01 Z-0.125000 F100.0(Penetrate)
G01 X371.002013 Y141.411812 Z-0.125000 F400.000000
G01 X371.002013 Y126.497157 Z-0.125000
G00 Z5.000000

(End cutting path id: path57824)


(Start cutting path id: path57822)
(Change tool to Default tool)

G00 Z5.000000
G00 X404.559986 Y133.954484

G01 Z-0.125000 F100.0(Penetrate)
G01 X389.645331 Y130.225821 Z-0.125000 F400.000000
G01 X385.916667 Y145.140475 Z-0.125000
G00 Z5.000000

(End cutting path id: path57822)


(Start cutting path id: path57820)
(Change tool to Default tool)

G00 Z5.000000
G00 X415.745977 Y160.055130

G01 Z-0.125000 F100.0(Penetrate)
G01 X408.288650 Y141.411812 Z-0.125000 F400.000000
G01 X404.559986 Y133.954484 Z-0.125000
G00 Z5.000000

(End cutting path id: path57820)


(Start cutting path id: path57818)
(Change tool to Default tool)

G00 Z5.000000
G00 X389.645331 Y160.055130

G01 Z-0.125000 F100.0(Penetrate)
G01 X404.559986 Y160.055130 Z-0.125000 F400.000000
G01 X415.745977 Y160.055130 Z-0.125000
G00 Z5.000000

(End cutting path id: path57818)


(Start cutting path id: path57816)
(Change tool to Default tool)

G00 Z5.000000
G00 X404.559986 Y178.698449

G01 Z-0.125000 F100.0(Penetrate)
G01 X393.373995 Y174.969785 Z-0.125000 F400.000000
G01 X389.645331 Y160.055130 Z-0.125000
G00 Z5.000000

(End cutting path id: path57816)


(Start cutting path id: path57814)
(Change tool to Default tool)

G00 Z5.000000
G00 X415.745977 Y193.613103

G01 Z-0.125000 F100.0(Penetrate)
G01 X408.288650 Y186.155776 Z-0.125000 F400.000000
G01 X404.559986 Y178.698449 Z-0.125000
G00 Z5.000000

(End cutting path id: path57814)


(Start cutting path id: path57812)
(Change tool to Default tool)

G00 Z5.000000
G00 X430.660632 Y208.527758

G01 Z-0.125000 F100.0(Penetrate)
G01 X419.474641 Y208.527758 Z-0.125000 F400.000000
G01 X415.745977 Y193.613103 Z-0.125000
G00 Z5.000000

(End cutting path id: path57812)


(Start cutting path id: path57810)
(Change tool to Default tool)

G00 Z5.000000
G00 X449.303950 Y219.713749

G01 Z-0.125000 F100.0(Penetrate)
G01 X438.117959 Y215.985086 Z-0.125000 F400.000000
G01 X430.660632 Y208.527758 Z-0.125000
G00 Z5.000000

(End cutting path id: path57810)


(Start cutting path id: path57808)
(Change tool to Default tool)

G00 Z5.000000
G00 X464.218605 Y238.357068

G01 Z-0.125000 F100.0(Penetrate)
G01 X453.032614 Y230.899740 Z-0.125000 F400.000000
G01 X449.303950 Y219.713749 Z-0.125000
G00 Z5.000000

(End cutting path id: path57808)


(Start cutting path id: path57806)
(Change tool to Default tool)

G00 Z5.000000
G00 X475.404596 Y249.543059

G01 Z-0.125000 F100.0(Penetrate)
G01 X467.947269 Y242.085732 Z-0.125000 F400.000000
G01 X464.218605 Y238.357068 Z-0.125000
G00 Z5.000000

(End cutting path id: path57806)


(Start cutting path id: path57804)
(Change tool to Default tool)

G00 Z5.000000
G00 X490.319251 Y260.729050

G01 Z-0.125000 F100.0(Penetrate)
G01 X482.861924 Y257.000386 Z-0.125000 F400.000000
G01 X475.404596 Y249.543059 Z-0.125000
G00 Z5.000000

(End cutting path id: path57804)


(Start cutting path id: path57802)
(Change tool to Default tool)

G00 Z5.000000
G00 X505.233906 Y271.915041

G01 Z-0.125000 F100.0(Penetrate)
G01 X497.776578 Y264.457714 Z-0.125000 F400.000000
G01 X490.319251 Y260.729050 Z-0.125000
G00 Z5.000000

(End cutting path id: path57802)


(Start cutting path id: path57800)
(Change tool to Default tool)

G00 Z5.000000
G00 X512.691233 Y283.101032

G01 Z-0.125000 F100.0(Penetrate)
G01 X512.691233 Y271.915041 Z-0.125000 F400.000000
G01 X505.233906 Y271.915041 Z-0.125000
G00 Z5.000000

(End cutting path id: path57800)


(Start cutting path id: path57798)
(Change tool to Default tool)

G00 Z5.000000
G00 X531.334552 Y305.473014

G01 Z-0.125000 F100.0(Penetrate)
G01 X512.691233 Y305.473014 Z-0.125000 F400.000000
G01 X512.691233 Y283.101032 Z-0.125000
G00 Z5.000000

(End cutting path id: path57798)


(Start cutting path id: path57796)
(Change tool to Default tool)

G00 Z5.000000
G00 X535.063215 Y331.573660

G01 Z-0.125000 F100.0(Penetrate)
G01 X531.334552 Y320.387669 Z-0.125000 F400.000000
G01 X531.334552 Y305.473014 Z-0.125000
G00 Z5.000000

(End cutting path id: path57796)


(Start cutting path id: path57794)
(Change tool to Default tool)

G00 Z5.000000
G00 X553.706534 Y357.674306

G01 Z-0.125000 F100.0(Penetrate)
G01 X546.249206 Y342.759651 Z-0.125000 F400.000000
G01 X535.063215 Y331.573660 Z-0.125000
G00 Z5.000000

(End cutting path id: path57794)


(Start cutting path id: path57792)
(Change tool to Default tool)

G00 Z5.000000
G00 X579.807180 Y368.860297

G01 Z-0.125000 F100.0(Penetrate)
G01 X568.621189 Y361.402970 Z-0.125000 F400.000000
G01 X553.706534 Y357.674306 Z-0.125000
G00 Z5.000000

(End cutting path id: path57792)


(Start cutting path id: path57790)
(Change tool to Default tool)

G00 Z5.000000
G00 X590.993171 Y394.960943

G01 Z-0.125000 F100.0(Penetrate)
G01 X594.721835 Y376.317625 Z-0.125000 F400.000000
G01 X579.807180 Y368.860297 Z-0.125000
G00 Z5.000000

(End cutting path id: path57790)


(Start cutting path id: path57788)
(Change tool to Default tool)

G00 Z5.000000
G00 X605.907826 Y402.418271

G01 Z-0.125000 F100.0(Penetrate)
G01 X598.450498 Y398.689607 Z-0.125000 F400.000000
G01 X590.993171 Y394.960943 Z-0.125000
G00 Z5.000000

(End cutting path id: path57788)


(Start cutting path id: path57786)
(Change tool to Default tool)

G00 Z5.000000
G00 X617.093817 Y413.604262

G01 Z-0.125000 F100.0(Penetrate)
G01 X617.093817 Y402.418271 Z-0.125000 F400.000000
G01 X605.907826 Y402.418271 Z-0.125000
G00 Z5.000000

(End cutting path id: path57786)


(Start cutting path id: path57784)
(Change tool to Default tool)

G00 Z5.000000
G00 X628.279808 Y413.604262

G01 Z-0.125000 F100.0(Penetrate)
G01 X617.093817 Y424.790253 Z-0.125000 F400.000000
G01 X617.093817 Y413.604262 Z-0.125000
G00 Z5.000000

(End cutting path id: path57784)


(Start cutting path id: path57782)
(Change tool to Default tool)

G00 Z5.000000
G00 X650.651790 Y428.518917

G01 Z-0.125000 F100.0(Penetrate)
G01 X639.465799 Y417.332925 Z-0.125000 F400.000000
G01 X628.279808 Y413.604262 Z-0.125000
G00 Z5.000000

(End cutting path id: path57782)


(Start cutting path id: path57780)
(Change tool to Default tool)

G00 Z5.000000
G00 X673.023772 Y447.162235

G01 Z-0.125000 F100.0(Penetrate)
G01 X658.109117 Y439.704908 Z-0.125000 F400.000000
G01 X650.651790 Y428.518917 Z-0.125000
G00 Z5.000000

(End cutting path id: path57780)


(Start cutting path id: path57778)
(Change tool to Default tool)

G00 Z5.000000
G00 X684.209763 Y465.805554

G01 Z-0.125000 F100.0(Penetrate)
G01 X680.481100 Y458.348226 Z-0.125000 F400.000000
G01 X673.023772 Y447.162235 Z-0.125000
G00 Z5.000000

(End cutting path id: path57778)


(Start cutting path id: path57776)
(Change tool to Default tool)

G00 Z5.000000
G00 X687.938427 Y484.448872

G01 Z-0.125000 F100.0(Penetrate)
G01 X691.667091 Y473.262881 Z-0.125000 F400.000000
G01 X684.209763 Y465.805554 Z-0.125000
G00 Z5.000000

(End cutting path id: path57776)


(Start cutting path id: path57774)
(Change tool to Default tool)

G00 Z5.000000
G00 X673.023772 Y484.448872

G01 Z-0.125000 F100.0(Penetrate)
G01 X680.481100 Y488.177536 Z-0.125000 F400.000000
G01 X687.938427 Y484.448872 Z-0.125000
G00 Z5.000000

(End cutting path id: path57774)


(Start cutting path id: path57772)
(Change tool to Default tool)

G00 Z5.000000
G00 X673.023772 Y473.262881

G01 Z-0.125000 F100.0(Penetrate)
G01 X680.481100 Y476.991545 Z-0.125000 F400.000000
G01 X673.023772 Y484.448872 Z-0.125000
G00 Z5.000000

(End cutting path id: path57772)


(Start cutting path id: path57770)
(Change tool to Default tool)

G00 Z5.000000
G00 X646.923126 Y458.348226

G01 Z-0.125000 F100.0(Penetrate)
G01 X661.837781 Y465.805554 Z-0.125000 F400.000000
G01 X673.023772 Y473.262881 Z-0.125000
G00 Z5.000000

(End cutting path id: path57770)


(Start cutting path id: path57768)
(Change tool to Default tool)

G00 Z5.000000
G00 X628.279808 Y439.704908

G01 Z-0.125000 F100.0(Penetrate)
G01 X632.008472 Y450.890899 Z-0.125000 F400.000000
G01 X646.923126 Y458.348226 Z-0.125000
G00 Z5.000000

(End cutting path id: path57768)


(Start cutting path id: path57766)
(Change tool to Default tool)

G00 Z5.000000
G00 X605.907826 Y462.076890

G01 Z-0.125000 F100.0(Penetrate)
G01 X609.636489 Y443.433571 Z-0.125000 F400.000000
G01 X628.279808 Y439.704908 Z-0.125000
G00 Z5.000000

(End cutting path id: path57766)


(Start cutting path id: path57764)
(Change tool to Default tool)

G00 Z5.000000
G00 X632.008472 Y476.991545

G01 Z-0.125000 F100.0(Penetrate)
G01 X620.822480 Y469.534217 Z-0.125000 F400.000000
G01 X605.907826 Y462.076890 Z-0.125000
G00 Z5.000000

(End cutting path id: path57764)


(Start cutting path id: path57762)
(Change tool to Default tool)

G00 Z5.000000
G00 X646.923126 Y495.634863

G01 Z-0.125000 F100.0(Penetrate)
G01 X643.194463 Y484.448872 Z-0.125000 F400.000000
G01 X632.008472 Y476.991545 Z-0.125000
G00 Z5.000000

(End cutting path id: path57762)


(Start cutting path id: path57760)
(Change tool to Default tool)

G00 Z5.000000
G00 X673.023772 Y499.363527

G01 Z-0.125000 F100.0(Penetrate)
G01 X665.566445 Y491.906199 Z-0.125000 F400.000000
G01 X646.923126 Y495.634863 Z-0.125000
G00 Z5.000000

(End cutting path id: path57760)


(Start cutting path id: path57758)
(Change tool to Default tool)

G00 Z5.000000
G00 X680.481100 Y514.278182

G01 Z-0.125000 F100.0(Penetrate)
G01 X684.209763 Y499.363527 Z-0.125000 F400.000000
G01 X673.023772 Y499.363527 Z-0.125000
G00 Z5.000000

(End cutting path id: path57758)


(Start cutting path id: path57756)
(Change tool to Default tool)

G00 Z5.000000
G00 X665.566445 Y506.820854

G01 Z-0.125000 F100.0(Penetrate)
G01 X673.023772 Y510.549518 Z-0.125000 F400.000000
G01 X680.481100 Y514.278182 Z-0.125000
G00 Z5.000000

(End cutting path id: path57756)


(Start cutting path id: path57754)
(Change tool to Default tool)

G00 Z5.000000
G00 X650.651790 Y514.278182

G01 Z-0.125000 F100.0(Penetrate)
G01 X658.109117 Y503.092191 Z-0.125000 F400.000000
G01 X665.566445 Y506.820854 Z-0.125000
G00 Z5.000000

(End cutting path id: path57754)


(Start cutting path id: path57752)
(Change tool to Default tool)

G00 Z5.000000
G00 X665.566445 Y521.735509

G01 Z-0.125000 F100.0(Penetrate)
G01 X658.109117 Y518.006845 Z-0.125000 F400.000000
G01 X650.651790 Y514.278182 Z-0.125000
G00 Z5.000000

(End cutting path id: path57752)


(Start cutting path id: path57750)
(Change tool to Default tool)

G00 Z5.000000
G00 X673.023772 Y536.650164

G01 Z-0.125000 F100.0(Penetrate)
G01 X669.295108 Y525.464173 Z-0.125000 F400.000000
G01 X665.566445 Y521.735509 Z-0.125000
G00 Z5.000000

(End cutting path id: path57750)


(Start cutting path id: path57748)
(Change tool to Default tool)

G00 Z5.000000
G00 X710.310409 Y559.022146

G01 Z-0.125000 F100.0(Penetrate)
G01 X684.209763 Y551.564819 Z-0.125000 F400.000000
G01 X673.023772 Y536.650164 Z-0.125000
G00 Z5.000000

(End cutting path id: path57748)


(Start cutting path id: path57746)
(Change tool to Default tool)

G00 Z5.000000
G00 X732.682391 Y592.580119

G01 Z-0.125000 F100.0(Penetrate)
G01 X714.039073 Y577.665465 Z-0.125000 F400.000000
G01 X710.310409 Y559.022146 Z-0.125000
G00 Z5.000000

(End cutting path id: path57746)


(Start cutting path id: path57744)
(Change tool to Default tool)

G00 Z5.000000
G00 X769.969028 Y611.223438

G01 Z-0.125000 F100.0(Penetrate)
G01 X743.868383 Y607.494774 Z-0.125000 F400.000000
G01 X732.682391 Y592.580119 Z-0.125000
G00 Z5.000000

(End cutting path id: path57744)


(Start cutting path id: path57742)
(Change tool to Default tool)

G00 Z5.000000
G00 X766.240365 Y566.479473

G01 Z-0.125000 F100.0(Penetrate)
G01 X769.969028 Y585.122792 Z-0.125000 F400.000000
G01 X769.969028 Y611.223438 Z-0.125000
G00 Z5.000000

(End cutting path id: path57742)


(Start cutting path id: path57740)
(Change tool to Default tool)

G00 Z5.000000
G00 X747.597046 Y532.921500

G01 Z-0.125000 F100.0(Penetrate)
G01 X755.054374 Y551.564819 Z-0.125000 F400.000000
G01 X766.240365 Y566.479473 Z-0.125000
G00 Z5.000000

(End cutting path id: path57740)


(Start cutting path id: path57738)
(Change tool to Default tool)

G00 Z5.000000
G00 X721.496400 Y506.820854

G01 Z-0.125000 F100.0(Penetrate)
G01 X721.496400 Y525.464173 Z-0.125000 F400.000000
G01 X747.597046 Y532.921500 Z-0.125000
G00 Z5.000000

(End cutting path id: path57738)


(Start cutting path id: path57736)
(Change tool to Default tool)

G00 Z5.000000
G00 X728.953728 Y465.805554

G01 Z-0.125000 F100.0(Penetrate)
G01 X721.496400 Y488.177536 Z-0.125000 F400.000000
G01 X721.496400 Y506.820854 Z-0.125000
G00 Z5.000000

(End cutting path id: path57736)


(Start cutting path id: path57734)
(Change tool to Default tool)

G00 Z5.000000
G00 X691.667091 Y454.619562

G01 Z-0.125000 F100.0(Penetrate)
G01 X695.395754 Y462.076890 Z-0.125000 F400.000000
G01 X728.953728 Y465.805554 Z-0.125000
G00 Z5.000000

(End cutting path id: path57734)


(Start cutting path id: path57732)
(Change tool to Default tool)

G00 Z5.000000
G00 X699.124418 Y443.433571

G01 Z-0.125000 F100.0(Penetrate)
G01 X687.938427 Y447.162235 Z-0.125000 F400.000000
G01 X691.667091 Y454.619562 Z-0.125000
G00 Z5.000000

(End cutting path id: path57732)


(Start cutting path id: path57730)
(Change tool to Default tool)

G00 Z5.000000
G00 X687.938427 Y435.976244

G01 Z-0.125000 F100.0(Penetrate)
G01 X695.395754 Y435.976244 Z-0.125000 F400.000000
G01 X699.124418 Y443.433571 Z-0.125000
G00 Z5.000000

(End cutting path id: path57730)


(Start cutting path id: path57728)
(Change tool to Default tool)

G00 Z5.000000
G00 X673.023772 Y421.061589

G01 Z-0.125000 F100.0(Penetrate)
G01 X684.209763 Y428.518917 Z-0.125000 F400.000000
G01 X687.938427 Y435.976244 Z-0.125000
G00 Z5.000000

(End cutting path id: path57728)


(Start cutting path id: path57726)
(Change tool to Default tool)

G00 Z5.000000
G00 X650.651790 Y398.689607

G01 Z-0.125000 F100.0(Penetrate)
G01 X665.566445 Y406.146934 Z-0.125000 F400.000000
G01 X673.023772 Y421.061589 Z-0.125000
G00 Z5.000000

(End cutting path id: path57726)


(Start cutting path id: path57724)
(Change tool to Default tool)

G00 Z5.000000
G00 X628.279808 Y380.046288

G01 Z-0.125000 F100.0(Penetrate)
G01 X639.465799 Y387.503616 Z-0.125000 F400.000000
G01 X650.651790 Y398.689607 Z-0.125000
G00 Z5.000000

(End cutting path id: path57724)


(Start cutting path id: path57722)
(Change tool to Default tool)

G00 Z5.000000
G00 X613.365153 Y361.402970

G01 Z-0.125000 F100.0(Penetrate)
G01 X613.365153 Y376.317625 Z-0.125000 F400.000000
G01 X628.279808 Y380.046288 Z-0.125000
G00 Z5.000000

(End cutting path id: path57722)


(Start cutting path id: path57720)
(Change tool to Default tool)

G00 Z5.000000
G00 X587.264507 Y346.488315

G01 Z-0.125000 F100.0(Penetrate)
G01 X598.450498 Y357.674306 Z-0.125000 F400.000000
G01 X613.365153 Y361.402970 Z-0.125000
G00 Z5.000000

(End cutting path id: path57720)


(Start cutting path id: path57718)
(Change tool to Default tool)

G00 Z5.000000
G00 X568.621189 Y327.844997

G01 Z-0.125000 F100.0(Penetrate)
G01 X572.349852 Y339.030988 Z-0.125000 F400.000000
G01 X587.264507 Y346.488315 Z-0.125000
G00 Z5.000000

(End cutting path id: path57718)


(Start cutting path id: path57716)
(Change tool to Default tool)

G00 Z5.000000
G00 X557.435197 Y301.744351

G01 Z-0.125000 F100.0(Penetrate)
G01 X557.435197 Y320.387669 Z-0.125000 F400.000000
G01 X568.621189 Y327.844997 Z-0.125000
G00 Z5.000000

(End cutting path id: path57716)


(Start cutting path id: path57714)
(Change tool to Default tool)

G00 Z5.000000
G00 X568.621189 Y275.643705

G01 Z-0.125000 F100.0(Penetrate)
G01 X561.163861 Y286.829696 Z-0.125000 F400.000000
G01 X557.435197 Y301.744351 Z-0.125000
G00 Z5.000000

(End cutting path id: path57714)


(Start cutting path id: path57712)
(Change tool to Default tool)

G00 Z5.000000
G00 X553.706534 Y271.915041

G01 Z-0.125000 F100.0(Penetrate)
G01 X561.163861 Y271.915041 Z-0.125000 F400.000000
G01 X568.621189 Y275.643705 Z-0.125000
G00 Z5.000000

(End cutting path id: path57712)


(Start cutting path id: path57710)
(Change tool to Default tool)

G00 Z5.000000
G00 X542.520543 Y283.101032

G01 Z-0.125000 F100.0(Penetrate)
G01 X542.520543 Y271.915041 Z-0.125000 F400.000000
G01 X553.706534 Y271.915041 Z-0.125000
G00 Z5.000000

(End cutting path id: path57710)


(Start cutting path id: path57708)
(Change tool to Default tool)

G00 Z5.000000
G00 X531.334552 Y271.915041

G01 Z-0.125000 F100.0(Penetrate)
G01 X527.605888 Y279.372369 Z-0.125000 F400.000000
G01 X542.520543 Y283.101032 Z-0.125000
G00 Z5.000000

(End cutting path id: path57708)


(Start cutting path id: path57706)
(Change tool to Default tool)

G00 Z5.000000
G00 X531.334552 Y260.729050

G01 Z-0.125000 F100.0(Penetrate)
G01 X523.877224 Y268.186377 Z-0.125000 F400.000000
G01 X531.334552 Y271.915041 Z-0.125000
G00 Z5.000000

(End cutting path id: path57706)


(Start cutting path id: path57704)
(Change tool to Default tool)

G00 Z5.000000
G00 X520.148561 Y249.543059

G01 Z-0.125000 F100.0(Penetrate)
G01 X523.877224 Y257.000386 Z-0.125000 F400.000000
G01 X531.334552 Y260.729050 Z-0.125000
G00 Z5.000000

(End cutting path id: path57704)


(Start cutting path id: path57702)
(Change tool to Default tool)

G00 Z5.000000
G00 X512.691233 Y260.729050

G01 Z-0.125000 F100.0(Penetrate)
G01 X508.962569 Y249.543059 Z-0.125000 F400.000000
G01 X520.148561 Y249.543059 Z-0.125000
G00 Z5.000000

(End cutting path id: path57702)


(Start cutting path id: path57700)
(Change tool to Default tool)

G00 Z5.000000
G00 X497.776578 Y249.543059

G01 Z-0.125000 F100.0(Penetrate)
G01 X505.233906 Y257.000386 Z-0.125000 F400.000000
G01 X512.691233 Y260.729050 Z-0.125000
G00 Z5.000000

(End cutting path id: path57700)


(Start cutting path id: path57698)
(Change tool to Default tool)

G00 Z5.000000
G00 X482.861924 Y242.085732

G01 Z-0.125000 F100.0(Penetrate)
G01 X490.319251 Y245.814395 Z-0.125000 F400.000000
G01 X497.776578 Y249.543059 Z-0.125000
G00 Z5.000000

(End cutting path id: path57698)


(Start cutting path id: path57696)
(Change tool to Default tool)

G00 Z5.000000
G00 X479.133260 Y230.899740

G01 Z-0.125000 F100.0(Penetrate)
G01 X486.590587 Y234.628404 Z-0.125000 F400.000000
G01 X482.861924 Y242.085732 Z-0.125000
G00 Z5.000000

(End cutting path id: path57696)


(Start cutting path id: path57694)
(Change tool to Default tool)

G00 Z5.000000
G00 X464.218605 Y219.713749

G01 Z-0.125000 F100.0(Penetrate)
G01 X471.675932 Y227.171077 Z-0.125000 F400.000000
G01 X479.133260 Y230.899740 Z-0.125000
G00 Z5.000000

(End cutting path id: path57694)


(Start cutting path id: path57692)
(Change tool to Default tool)

G00 Z5.000000
G00 X486.590587 Y219.713749

G01 Z-0.125000 F100.0(Penetrate)
G01 X475.404596 Y215.985086 Z-0.125000 F400.000000
G01 X464.218605 Y219.713749 Z-0.125000
G00 Z5.000000

(End cutting path id: path57692)


(Start cutting path id: path57690)
(Change tool to Default tool)

G00 Z5.000000
G00 X494.047915 Y212.256422

G01 Z-0.125000 F100.0(Penetrate)
G01 X486.590587 Y208.527758 Z-0.125000 F400.000000
G01 X486.590587 Y219.713749 Z-0.125000
G00 Z5.000000

(End cutting path id: path57690)


(Start cutting path id: path57688)
(Change tool to Default tool)

G00 Z5.000000
G00 X505.233906 Y208.527758

G01 Z-0.125000 F100.0(Penetrate)
G01 X497.776578 Y201.070431 Z-0.125000 F400.000000
G01 X494.047915 Y212.256422 Z-0.125000
G00 Z5.000000

(End cutting path id: path57688)


(Start cutting path id: path57686)
(Change tool to Default tool)

G00 Z5.000000
G00 X523.877224 Y219.713749

G01 Z-0.125000 F100.0(Penetrate)
G01 X516.419897 Y212.256422 Z-0.125000 F400.000000
G01 X505.233906 Y208.527758 Z-0.125000
G00 Z5.000000

(End cutting path id: path57686)


(Start cutting path id: path57684)
(Change tool to Default tool)

G00 Z5.000000
G00 X505.233906 Y219.713749

G01 Z-0.125000 F100.0(Penetrate)
G01 X512.691233 Y223.442413 Z-0.125000 F400.000000
G01 X523.877224 Y219.713749 Z-0.125000
G00 Z5.000000

(End cutting path id: path57684)


(Start cutting path id: path57682)
(Change tool to Default tool)

G00 Z5.000000
G00 X497.776578 Y234.628404

G01 Z-0.125000 F100.0(Penetrate)
G01 X494.047915 Y223.442413 Z-0.125000 F400.000000
G01 X505.233906 Y219.713749 Z-0.125000
G00 Z5.000000

(End cutting path id: path57682)


(Start cutting path id: path57680)
(Change tool to Default tool)

G00 Z5.000000
G00 X516.419897 Y234.628404

G01 Z-0.125000 F100.0(Penetrate)
G01 X505.233906 Y238.357068 Z-0.125000 F400.000000
G01 X497.776578 Y234.628404 Z-0.125000
G00 Z5.000000

(End cutting path id: path57680)


(Start cutting path id: path57678)
(Change tool to Default tool)

G00 Z5.000000
G00 X527.605888 Y238.357068

G01 Z-0.125000 F100.0(Penetrate)
G01 X523.877224 Y234.628404 Z-0.125000 F400.000000
G01 X516.419897 Y234.628404 Z-0.125000
G00 Z5.000000

(End cutting path id: path57678)


(Start cutting path id: path57676)
(Change tool to Default tool)

G00 Z5.000000
G00 X535.063215 Y245.814395

G01 Z-0.125000 F100.0(Penetrate)
G01 X538.791879 Y238.357068 Z-0.125000 F400.000000
G01 X527.605888 Y238.357068 Z-0.125000
G00 Z5.000000

(End cutting path id: path57676)


(Start cutting path id: path57674)
(Change tool to Default tool)

G00 Z5.000000
G00 X542.520543 Y260.729050

G01 Z-0.125000 F100.0(Penetrate)
G01 X542.520543 Y249.543059 Z-0.125000 F400.000000
G01 X535.063215 Y245.814395 Z-0.125000
G00 Z5.000000

(End cutting path id: path57674)


(Start cutting path id: path57672)
(Change tool to Default tool)

G00 Z5.000000
G00 X564.892525 Y260.729050

G01 Z-0.125000 F100.0(Penetrate)
G01 X553.706534 Y260.729050 Z-0.125000 F400.000000
G01 X542.520543 Y260.729050 Z-0.125000
G00 Z5.000000

(End cutting path id: path57672)


(Start cutting path id: path57670)
(Change tool to Default tool)

G00 Z5.000000
G00 X579.807180 Y271.915041

G01 Z-0.125000 F100.0(Penetrate)
G01 X576.078516 Y264.457714 Z-0.125000 F400.000000
G01 X564.892525 Y260.729050 Z-0.125000
G00 Z5.000000

(End cutting path id: path57670)


(Start cutting path id: path57668)
(Change tool to Default tool)

G00 Z5.000000
G00 X579.807180 Y283.101032

G01 Z-0.125000 F100.0(Penetrate)
