%
(Header)
(Generated by gcodetools from Inkscape.)
(Using default header. To add your own header create file "header" in the output dir.)
M3
(Header end.)
G21 (All units in mm)

(Start cutting path id: path25086)
(Change tool to Default tool)

G00 Z5.000000
G00 X333.642542 Y268.458012

G01 Z-0.125000 F100.0(Penetrate)
G01 X341.098242 Y275.913711 Z-0.125000 F400.000000
G01 X344.826091 Y287.097260 Z-0.125000
G01 X356.009640 Y298.280808 Z-0.125000
G01 X367.193188 Y305.736507 Z-0.125000
G01 X382.104586 Y309.464357 Z-0.125000
G01 X389.560285 Y316.920056 Z-0.125000
G01 X393.288135 Y320.647905 Z-0.125000
G01 X378.376737 Y328.103604 Z-0.125000
G01 X385.832436 Y331.831454 Z-0.125000
G01 X389.560285 Y339.287153 Z-0.125000
G01 X397.015984 Y339.287153 Z-0.125000
G01 X400.743834 Y328.103604 Z-0.125000
G01 X404.471683 Y316.920056 Z-0.125000
G01 X400.743834 Y309.464357 Z-0.125000
G01 X389.560285 Y298.280808 Z-0.125000
G01 X382.104586 Y290.825109 Z-0.125000
G01 X374.648887 Y283.369410 Z-0.125000
G01 X363.465339 Y279.641561 Z-0.125000
G01 X363.465339 Y264.730163 Z-0.125000
G01 X359.737489 Y253.546614 Z-0.125000
G01 X348.553941 Y249.818765 Z-0.125000
G01 X337.370392 Y246.090915 Z-0.125000
G01 X318.731145 Y242.363066 Z-0.125000
G01 X307.547596 Y231.179517 Z-0.125000
G01 X296.364048 Y223.723818 Z-0.125000
G01 X296.364048 Y208.812420 Z-0.125000
G01 X281.452650 Y208.812420 Z-0.125000
G01 X277.724800 Y193.901022 Z-0.125000
G01 X292.636198 Y193.901022 Z-0.125000
G01 X311.275446 Y197.628872 Z-0.125000
G01 X315.003295 Y212.540270 Z-0.125000
G01 X329.914693 Y219.995969 Z-0.125000
G01 X337.370392 Y231.179517 Z-0.125000
G01 X352.281790 Y231.179517 Z-0.125000
G01 X348.553941 Y216.268119 Z-0.125000
G01 X341.098242 Y205.084571 Z-0.125000
G01 X337.370392 Y193.901022 Z-0.125000
G01 X326.186844 Y186.445323 Z-0.125000
G01 X311.275446 Y182.717474 Z-0.125000
G01 X296.364048 Y175.261775 Z-0.125000
G01 X292.636198 Y167.806076 Z-0.125000
G01 X285.180499 Y156.622527 Z-0.125000
G01 X273.996951 Y149.166828 Z-0.125000
G01 X270.269101 Y141.711129 Z-0.125000
G01 X266.541252 Y126.799731 Z-0.125000
G01 X236.718456 Y137.983280 Z-0.125000
G01 X247.902004 Y152.894678 Z-0.125000
G01 X251.629854 Y164.078226 Z-0.125000
G01 X262.813402 Y171.533925 Z-0.125000
G01 X273.996951 Y178.989624 Z-0.125000
G01 X262.813402 Y193.901022 Z-0.125000
G01 X251.629854 Y186.445323 Z-0.125000
G01 X240.446305 Y182.717474 Z-0.125000
G01 X232.990606 Y167.806076 Z-0.125000
G01 X214.351359 Y167.806076 Z-0.125000
G01 X214.351359 Y149.166828 Z-0.125000
G01 X221.807058 Y130.527581 Z-0.125000
G01 X206.895660 Y130.527581 Z-0.125000
G01 X203.167810 Y123.071882 Z-0.125000
G01 X206.895660 Y108.160484 Z-0.125000
G01 X191.984262 Y111.888333 Z-0.125000
G01 X191.984262 Y100.704785 Z-0.125000
G01 X180.800713 Y96.976935 Z-0.125000
G01 X165.889315 Y100.704785 Z-0.125000
G01 X150.977917 Y108.160484 Z-0.125000
G01 X147.250068 Y93.249086 Z-0.125000
G01 X132.338670 Y93.249086 Z-0.125000
G01 X124.882971 Y85.793387 Z-0.125000
G01 X113.699422 Y74.609838 Z-0.125000
G01 X109.971573 Y85.793387 Z-0.125000
G01 X95.060175 Y85.793387 Z-0.125000
G01 X91.332325 Y78.337688 Z-0.125000
G01 X80.148777 Y85.793387 Z-0.125000
G01 X65.237379 Y85.793387 Z-0.125000
G01 X57.781680 Y78.337688 Z-0.125000
G01 X39.142432 Y74.609838 Z-0.125000
G01 X39.142432 Y85.793387 Z-0.125000
G01 X46.598131 Y93.249086 Z-0.125000
G01 X50.325981 Y100.704785 Z-0.125000
G01 X50.325981 Y111.888333 Z-0.125000
G01 X61.509529 Y115.616183 Z-0.125000
G01 X65.237379 Y100.704785 Z-0.125000
G01 X76.420927 Y100.704785 Z-0.125000
G01 X80.148777 Y108.160484 Z-0.125000
G01 X87.604476 Y115.616183 Z-0.125000
G01 X95.060175 Y100.704785 Z-0.125000
G01 X106.243723 Y100.704785 Z-0.125000
G01 X109.971573 Y104.432634 Z-0.125000
G01 X121.155121 Y108.160484 Z-0.125000
G01 X136.066519 Y108.160484 Z-0.125000
G01 X132.338670 Y119.344032 Z-0.125000
G01 X143.522218 Y126.799731 Z-0.125000
G01 X150.977917 Y134.255430 Z-0.125000
G01 X158.433616 Y119.344032 Z-0.125000
G01 X173.345014 Y115.616183 Z-0.125000
G01 X165.889315 Y130.527581 Z-0.125000
G01 X169.617165 Y141.711129 Z-0.125000
G01 X184.528563 Y130.527581 Z-0.125000
G01 X184.528563 Y149.166828 Z-0.125000
G01 X191.984262 Y160.350377 Z-0.125000
G01 X195.712111 Y178.989624 Z-0.125000
G01 X206.895660 Y190.173173 Z-0.125000
G01 X221.807058 Y190.173173 Z-0.125000
G01 X225.534907 Y205.084571 Z-0.125000
G01 X225.534907 Y219.995969 Z-0.125000
G01 X225.534907 Y234.907367 Z-0.125000
G01 X221.807058 Y246.090915 Z-0.125000
G01 X206.895660 Y238.635216 Z-0.125000
G01 X206.895660 Y223.723818 Z-0.125000
G01 X206.895660 Y208.812420 Z-0.125000
G01 X188.256412 Y205.084571 Z-0.125000
G01 X177.072864 Y193.901022 Z-0.125000
G01 X169.617165 Y182.717474 Z-0.125000
G01 X169.617165 Y167.806076 Z-0.125000
G01 X162.161466 Y160.350377 Z-0.125000
G01 X154.705766 Y152.894678 Z-0.125000
G01 X143.522218 Y149.166828 Z-0.125000
G01 X132.338670 Y145.438979 Z-0.125000
G01 X128.610820 Y134.255430 Z-0.125000
G01 X117.427272 Y130.527581 Z-0.125000
G01 X113.699422 Y123.071882 Z-0.125000
G01 X102.515873 Y119.344032 Z-0.125000
G01 X102.515873 Y134.255430 Z-0.125000
G01 X109.971573 Y145.438979 Z-0.125000
G01 X117.427272 Y152.894678 Z-0.125000
G01 X124.882971 Y160.350377 Z-0.125000
G01 X136.066519 Y164.078226 Z-0.125000
G01 X139.794369 Y171.533925 Z-0.125000
G01 X150.977917 Y178.989624 Z-0.125000
G01 X147.250068 Y201.356721 Z-0.125000
G01 X139.794369 Y193.901022 Z-0.125000
G01 X128.610820 Y186.445323 Z-0.125000
G01 X117.427272 Y182.717474 Z-0.125000
G01 X113.699422 Y175.261775 Z-0.125000
G01 X106.243723 Y167.806076 Z-0.125000
G01 X98.788024 Y156.622527 Z-0.125000
G01 X95.060175 Y164.078226 Z-0.125000
G01 X83.876626 Y175.261775 Z-0.125000
G01 X72.693078 Y175.261775 Z-0.125000
G01 X65.237379 Y167.806076 Z-0.125000
G01 X54.053830 Y167.806076 Z-0.125000
G01 X42.870282 Y164.078226 Z-0.125000
G01 X35.414583 Y156.622527 Z-0.125000
G01 X35.414583 Y141.711129 Z-0.125000
G01 X50.325981 Y145.438979 Z-0.125000
G01 X57.781680 Y152.894678 Z-0.125000
G01 X65.237379 Y137.983280 Z-0.125000
G01 X76.420927 Y141.711129 Z-0.125000
G01 X72.693078 Y152.894678 Z-0.125000
G01 X83.876626 Y156.622527 Z-0.125000
G01 X91.332325 Y145.438979 Z-0.125000
G01 X91.332325 Y130.527581 Z-0.125000
G01 X80.148777 Y126.799731 Z-0.125000
G01 X68.965228 Y123.071882 Z-0.125000
G01 X54.053830 Y130.527581 Z-0.125000
G01 X42.870282 Y126.799731 Z-0.125000
G01 X27.958884 Y130.527581 Z-0.125000
G01 X35.414583 Y115.616183 Z-0.125000
G01 X31.686733 Y104.432634 Z-0.125000
G01 X20.503185 Y100.704785 Z-0.125000
G01 X24.231034 Y85.793387 Z-0.125000
G01 X16.775335 Y78.337688 Z-0.125000
G01 X1.863937 Y74.609838 Z-0.125000
G00 Z5.000000

(End cutting path id: path25086)


(Start cutting path id: path25084)
(Change tool to Default tool)

G00 Z5.000000
G00 X561.041362 Y484.673283

G01 Z-0.125000 F100.0(Penetrate)
G01 X549.857814 Y473.489735 Z-0.125000 F400.000000
G01 X542.402115 Y462.306186 Z-0.125000
G01 X531.218566 Y451.122638 Z-0.125000
G01 X531.218566 Y432.483390 Z-0.125000
G01 X520.035018 Y432.483390 Z-0.125000
G01 X523.762867 Y421.299842 Z-0.125000
G01 X531.218566 Y421.299842 Z-0.125000
G01 X538.674265 Y425.027691 Z-0.125000
G01 X542.402115 Y432.483390 Z-0.125000
G01 X549.857814 Y425.027691 Z-0.125000
G01 X553.585663 Y436.211240 Z-0.125000
G01 X564.769212 Y447.394788 Z-0.125000
G01 X572.224911 Y462.306186 Z-0.125000
G01 X590.864158 Y458.578337 Z-0.125000
G01 X587.136309 Y443.666939 Z-0.125000
G01 X587.136309 Y428.755541 Z-0.125000
G01 X590.864158 Y421.299842 Z-0.125000
G01 X602.047707 Y425.027691 Z-0.125000
G01 X605.775556 Y417.571992 Z-0.125000
G01 X598.319857 Y413.844143 Z-0.125000
G01 X590.864158 Y410.116293 Z-0.125000
G01 X583.408459 Y410.116293 Z-0.125000
G01 X579.680610 Y402.660594 Z-0.125000
G01 X579.680610 Y391.477046 Z-0.125000
G01 X568.497061 Y391.477046 Z-0.125000
G01 X561.041362 Y384.021347 Z-0.125000
G01 X553.585663 Y398.932745 Z-0.125000
G01 X557.313513 Y402.660594 Z-0.125000
G01 X568.497061 Y402.660594 Z-0.125000
G01 X564.769212 Y410.116293 Z-0.125000
G01 X572.224911 Y413.844143 Z-0.125000
G01 X579.680610 Y421.299842 Z-0.125000
G01 X572.224911 Y432.483390 Z-0.125000
G01 X568.497061 Y425.027691 Z-0.125000
G01 X561.041362 Y425.027691 Z-0.125000
G01 X557.313513 Y417.571992 Z-0.125000
G01 X549.857814 Y413.844143 Z-0.125000
G01 X542.402115 Y410.116293 Z-0.125000
G01 X534.946416 Y410.116293 Z-0.125000
G01 X527.490717 Y406.388444 Z-0.125000
G01 X520.035018 Y413.844143 Z-0.125000
G01 X516.307168 Y406.388444 Z-0.125000
G01 X508.851469 Y402.660594 Z-0.125000
G01 X501.395770 Y402.660594 Z-0.125000
G01 X497.667921 Y395.204895 Z-0.125000
G01 X501.395770 Y387.749196 Z-0.125000
G01 X490.212222 Y387.749196 Z-0.125000
G01 X479.028673 Y391.477046 Z-0.125000
G01 X482.756523 Y398.932745 Z-0.125000
G01 X490.212222 Y402.660594 Z-0.125000
G01 X486.484372 Y413.844143 Z-0.125000
G01 X497.667921 Y413.844143 Z-0.125000
G01 X505.123620 Y417.571992 Z-0.125000
G01 X512.579318 Y421.299842 Z-0.125000
G01 X508.851469 Y432.483390 Z-0.125000
G01 X501.395770 Y428.755541 Z-0.125000
G01 X493.940071 Y425.027691 Z-0.125000
G01 X486.484372 Y425.027691 Z-0.125000
G01 X475.300824 Y425.027691 Z-0.125000
G01 X479.028673 Y413.844143 Z-0.125000
G01 X471.572974 Y413.844143 Z-0.125000
G01 X467.845125 Y406.388444 Z-0.125000
G01 X456.661576 Y398.932745 Z-0.125000
G01 X456.661576 Y376.565648 Z-0.125000
G01 X434.294479 Y354.198551 Z-0.125000
G01 X452.933727 Y328.103604 Z-0.125000
G01 X471.572974 Y335.559303 Z-0.125000
G01 X475.300824 Y346.742852 Z-0.125000
G01 X486.484372 Y361.654250 Z-0.125000
G01 X501.395770 Y369.109949 Z-0.125000
G01 X516.307168 Y384.021347 Z-0.125000
G01 X512.579318 Y391.477046 Z-0.125000
G01 X523.762867 Y391.477046 Z-0.125000
G01 X527.490717 Y395.204895 Z-0.125000
G01 X534.946416 Y395.204895 Z-0.125000
G01 X542.402115 Y398.932745 Z-0.125000
G01 X549.857814 Y391.477046 Z-0.125000
G01 X542.402115 Y384.021347 Z-0.125000
G01 X538.674265 Y376.565648 Z-0.125000
G01 X531.218566 Y361.654250 Z-0.125000
G01 X520.035018 Y350.470701 Z-0.125000
G01 X505.123620 Y339.287153 Z-0.125000
G01 X501.395770 Y328.103604 Z-0.125000
G01 X486.484372 Y313.192206 Z-0.125000
G01 X479.028673 Y302.008658 Z-0.125000
G01 X467.845125 Y290.825109 Z-0.125000
G01 X456.661576 Y287.097260 Z-0.125000
G01 X452.933727 Y294.552959 Z-0.125000
G01 X445.478028 Y287.097260 Z-0.125000
G01 X445.478028 Y275.913711 Z-0.125000
G01 X438.022329 Y275.913711 Z-0.125000
G01 X438.022329 Y287.097260 Z-0.125000
G01 X426.838780 Y287.097260 Z-0.125000
G01 X423.110930 Y275.913711 Z-0.125000
G01 X411.927382 Y272.185862 Z-0.125000
G01 X411.927382 Y257.274464 Z-0.125000
G01 X400.743834 Y253.546614 Z-0.125000
G01 X404.471683 Y242.363066 Z-0.125000
G01 X393.288135 Y238.635216 Z-0.125000
G01 X385.832436 Y227.451668 Z-0.125000
G01 X389.560285 Y212.540270 Z-0.125000
G01 X404.471683 Y219.995969 Z-0.125000
G01 X404.471683 Y208.812420 Z-0.125000
G01 X393.288135 Y197.628872 Z-0.125000
G01 X382.104586 Y193.901022 Z-0.125000
G01 X378.376737 Y178.989624 Z-0.125000
G01 X393.288135 Y175.261775 Z-0.125000
G01 X404.471683 Y178.989624 Z-0.125000
G01 X408.199533 Y186.445323 Z-0.125000
G01 X415.655232 Y193.901022 Z-0.125000
G01 X419.383081 Y208.812420 Z-0.125000
G01 X430.566630 Y208.812420 Z-0.125000
G01 X438.022329 Y216.268119 Z-0.125000
G01 X449.205877 Y219.995969 Z-0.125000
G01 X452.933727 Y231.179517 Z-0.125000
G01 X464.117275 Y238.635216 Z-0.125000
G01 X467.845125 Y242.363066 Z-0.125000
G01 X475.300824 Y249.818765 Z-0.125000
G01 X467.845125 Y257.274464 Z-0.125000
G01 X460.389426 Y253.546614 Z-0.125000
G01 X452.933727 Y249.818765 Z-0.125000
G01 X441.750178 Y246.090915 Z-0.125000
G01 X434.294479 Y234.907367 Z-0.125000
G01 X423.110930 Y227.451668 Z-0.125000
G01 X411.927382 Y227.451668 Z-0.125000
G01 X419.383081 Y242.363066 Z-0.125000
G01 X426.838780 Y249.818765 Z-0.125000
G01 X426.838780 Y261.002313 Z-0.125000
G01 X441.750178 Y261.002313 Z-0.125000
G01 X449.205877 Y264.730163 Z-0.125000
G01 X456.661576 Y264.730163 Z-0.125000
G01 X456.661576 Y275.913711 Z-0.125000
G01 X464.117275 Y272.185862 Z-0.125000
G01 X467.845125 Y279.641561 Z-0.125000
G01 X475.300824 Y279.641561 Z-0.125000
G01 X482.756523 Y287.097260 Z-0.125000
G01 X497.667921 Y279.641561 Z-0.125000
G01 X490.212222 Y275.913711 Z-0.125000
G01 X482.756523 Y272.185862 Z-0.125000
G01 X475.300824 Y264.730163 Z-0.125000
G01 X482.756523 Y257.274464 Z-0.125000
G01 X490.212222 Y261.002313 Z-0.125000
G01 X497.667921 Y264.730163 Z-0.125000
G01 X505.123620 Y272.185862 Z-0.125000
G01 X512.579318 Y272.185862 Z-0.125000
G01 X512.579318 Y283.369410 Z-0.125000
G01 X512.579318 Y305.736507 Z-0.125000
G01 X531.218566 Y305.736507 Z-0.125000
G01 X531.218566 Y320.647905 Z-0.125000
G01 X534.946416 Y331.831454 Z-0.125000
G01 X546.129964 Y343.015002 Z-0.125000
G01 X553.585663 Y357.926400 Z-0.125000
G01 X568.497061 Y361.654250 Z-0.125000
G01 X579.680610 Y369.109949 Z-0.125000
G01 X594.592008 Y376.565648 Z-0.125000
G01 X590.864158 Y395.204895 Z-0.125000
G01 X598.319857 Y398.932745 Z-0.125000
G01 X605.775556 Y402.660594 Z-0.125000
G01 X616.959105 Y402.660594 Z-0.125000
G01 X616.959105 Y413.844143 Z-0.125000
G01 X616.959105 Y425.027691 Z-0.125000
G01 X628.142653 Y413.844143 Z-0.125000
G01 X639.326202 Y417.571992 Z-0.125000
G01 X650.509750 Y428.755541 Z-0.125000
G01 X657.965449 Y439.939089 Z-0.125000
G01 X672.876847 Y447.394788 Z-0.125000
G01 X680.332546 Y458.578337 Z-0.125000
G01 X684.060396 Y466.034036 Z-0.125000
G01 X680.332546 Y477.217584 Z-0.125000
G01 X672.876847 Y473.489735 Z-0.125000
G01 X661.693299 Y466.034036 Z-0.125000
G01 X646.781901 Y458.578337 Z-0.125000
G01 X631.870503 Y451.122638 Z-0.125000
G01 X628.142653 Y439.939089 Z-0.125000
G01 X609.503406 Y443.666939 Z-0.125000
G01 X605.775556 Y462.306186 Z-0.125000
G01 X620.686954 Y469.761885 Z-0.125000
G01 X631.870503 Y477.217584 Z-0.125000
G01 X643.054051 Y484.673283 Z-0.125000
G01 X646.781901 Y495.856832 Z-0.125000
G01 X657.965449 Y503.312531 Z-0.125000
G01 X665.421148 Y507.040380 Z-0.125000
G01 X672.876847 Y510.768230 Z-0.125000
G01 X680.332546 Y514.496079 Z-0.125000
G01 X684.060396 Y499.584681 Z-0.125000
G01 X672.876847 Y499.584681 Z-0.125000
G01 X665.421148 Y492.128982 Z-0.125000
G01 X672.876847 Y484.673283 Z-0.125000
G01 X680.332546 Y488.401133 Z-0.125000
G01 X687.788245 Y484.673283 Z-0.125000
G01 X691.516095 Y473.489735 Z-0.125000
G01 X695.243944 Y462.306186 Z-0.125000
G01 X691.516095 Y454.850487 Z-0.125000
G01 X687.788245 Y447.394788 Z-0.125000
G01 X687.788245 Y436.211240 Z-0.125000
G01 X684.060396 Y428.755541 Z-0.125000
G01 X672.876847 Y421.299842 Z-0.125000
G01 X665.421148 Y406.388444 Z-0.125000
G01 X650.509750 Y398.932745 Z-0.125000
G01 X639.326202 Y387.749196 Z-0.125000
G01 X628.142653 Y380.293497 Z-0.125000
G01 X613.231255 Y376.565648 Z-0.125000
G01 X613.231255 Y361.654250 Z-0.125000
G01 X598.319857 Y357.926400 Z-0.125000
G01 X587.136309 Y346.742852 Z-0.125000
G01 X572.224911 Y339.287153 Z-0.125000
G01 X568.497061 Y328.103604 Z-0.125000
G01 X557.313513 Y320.647905 Z-0.125000
G01 X557.313513 Y302.008658 Z-0.125000
G01 X561.041362 Y287.097260 Z-0.125000
G01 X568.497061 Y275.913711 Z-0.125000
G01 X561.041362 Y272.185862 Z-0.125000
G01 X553.585663 Y272.185862 Z-0.125000
G01 X542.402115 Y272.185862 Z-0.125000
G01 X542.402115 Y283.369410 Z-0.125000
G01 X527.490717 Y279.641561 Z-0.125000
G01 X531.218566 Y272.185862 Z-0.125000
G01 X523.762867 Y268.458012 Z-0.125000
G01 X531.218566 Y261.002313 Z-0.125000
G01 X523.762867 Y257.274464 Z-0.125000
G01 X520.035018 Y249.818765 Z-0.125000
G01 X508.851469 Y249.818765 Z-0.125000
G01 X512.579318 Y261.002313 Z-0.125000
G01 X505.123620 Y257.274464 Z-0.125000
G01 X497.667921 Y249.818765 Z-0.125000
G01 X490.212222 Y246.090915 Z-0.125000
G01 X482.756523 Y242.363066 Z-0.125000
G01 X486.484372 Y234.907367 Z-0.125000
G01 X479.028673 Y231.179517 Z-0.125000
G01 X471.572974 Y227.451668 Z-0.125000
G01 X464.117275 Y219.995969 Z-0.125000
G01 X475.300824 Y216.268119 Z-0.125000
G01 X486.484372 Y219.995969 Z-0.125000
G01 X493.940071 Y223.723818 Z-0.125000
G01 X497.667921 Y234.907367 Z-0.125000
G01 X505.123620 Y238.635216 Z-0.125000
G01 X516.307168 Y234.907367 Z-0.125000
G01 X523.762867 Y234.907367 Z-0.125000
G01 X527.490717 Y238.635216 Z-0.125000
G01 X534.946416 Y227.451668 Z-0.125000
G01 X523.762867 Y219.995969 Z-0.125000
G01 X516.307168 Y212.540270 Z-0.125000
G01 X512.579318 Y223.723818 Z-0.125000
G01 X505.123620 Y219.995969 Z-0.125000
G01 X505.123620 Y208.812420 Z-0.125000
G01 X497.667921 Y201.356721 Z-0.125000
G01 X493.940071 Y212.540270 Z-0.125000
G01 X486.484372 Y208.812420 Z-0.125000
G01 X475.300824 Y205.084571 Z-0.125000
G01 X482.756523 Y201.356721 Z-0.125000
G01 X486.484372 Y193.901022 Z-0.125000
G01 X486.484372 Y182.717474 Z-0.125000
G01 X482.756523 Y171.533925 Z-0.125000
G01 X482.756523 Y160.350377 Z-0.125000
G01 X497.667921 Y156.622527 Z-0.125000
G01 X501.395770 Y167.806076 Z-0.125000
G01 X508.851469 Y175.261775 Z-0.125000
G01 X505.123620 Y186.445323 Z-0.125000
G01 X516.307168 Y190.173173 Z-0.125000
G01 X520.035018 Y197.628872 Z-0.125000
G01 X534.946416 Y205.084571 Z-0.125000
G01 X542.402115 Y212.540270 Z-0.125000
G01 X549.857814 Y223.723818 Z-0.125000
G01 X557.313513 Y227.451668 Z-0.125000
G01 X564.769212 Y234.907367 Z-0.125000
G01 X579.680610 Y234.907367 Z-0.125000
G01 X583.408459 Y223.723818 Z-0.125000
G01 X575.952760 Y216.268119 Z-0.125000
G01 X568.497061 Y208.812420 Z-0.125000
G01 X557.313513 Y205.084571 Z-0.125000
G01 X546.129964 Y193.901022 Z-0.125000
G01 X534.946416 Y190.173173 Z-0.125000
G01 X534.946416 Y175.261775 Z-0.125000
G01 X523.762867 Y171.533925 Z-0.125000
G01 X520.035018 Y156.622527 Z-0.125000
G01 X516.307168 Y145.438979 Z-0.125000
G01 X501.395770 Y141.711129 Z-0.125000
G01 X493.940071 Y134.255430 Z-0.125000
G01 X479.028673 Y130.527581 Z-0.125000
G01 X464.117275 Y126.799731 Z-0.125000
G01 X449.205877 Y123.071882 Z-0.125000
G01 X438.022329 Y111.888333 Z-0.125000
G01 X452.933727 Y100.704785 Z-0.125000
G01 X464.117275 Y104.432634 Z-0.125000
G01 X475.300824 Y108.160484 Z-0.125000
G01 X486.484372 Y115.616183 Z-0.125000
G01 X493.940071 Y100.704785 Z-0.125000
G01 X493.940071 Y85.793387 Z-0.125000
G01 X490.212222 Y74.609838 Z-0.125000
G01 X497.667921 Y59.698440 Z-0.125000
G01 X482.756523 Y59.698440 Z-0.125000
G01 X467.845125 Y59.698440 Z-0.125000
G01 X475.300824 Y78.337688 Z-0.125000
G01 X475.300824 Y89.521236 Z-0.125000
G01 X460.389426 Y85.793387 Z-0.125000
G01 X449.205877 Y74.609838 Z-0.125000
G01 X441.750178 Y67.154139 Z-0.125000
G01 X441.750178 Y93.249086 Z-0.125000
G01 X426.838780 Y93.249086 Z-0.125000
G01 X423.110930 Y78.337688 Z-0.125000
G01 X411.927382 Y74.609838 Z-0.125000
G01 X408.199533 Y93.249086 Z-0.125000
G01 X411.927382 Y108.160484 Z-0.125000
G01 X419.383081 Y115.616183 Z-0.125000
G01 X426.838780 Y130.527581 Z-0.125000
G01 X430.566630 Y137.983280 Z-0.125000
G01 X449.205877 Y141.711129 Z-0.125000
G01 X464.117275 Y145.438979 Z-0.125000
G01 X475.300824 Y149.166828 Z-0.125000
G01 X467.845125 Y164.078226 Z-0.125000
G01 X452.933727 Y160.350377 Z-0.125000
G01 X441.750178 Y160.350377 Z-0.125000
G01 X445.478028 Y175.261775 Z-0.125000
G01 X456.661576 Y175.261775 Z-0.125000
G01 X467.845125 Y178.989624 Z-0.125000
G01 X471.572974 Y186.445323 Z-0.125000
G01 X475.300824 Y193.901022 Z-0.125000
G01 X456.661576 Y190.173173 Z-0.125000
G01 X460.389426 Y205.084571 Z-0.125000
G01 X449.205877 Y201.356721 Z-0.125000
G01 X441.750178 Y193.901022 Z-0.125000
G01 X430.566630 Y190.173173 Z-0.125000
G01 X430.566630 Y178.989624 Z-0.125000
G01 X423.110930 Y171.533925 Z-0.125000
G01 X430.566630 Y156.622527 Z-0.125000
G01 X415.655232 Y160.350377 Z-0.125000
G01 X404.471683 Y160.350377 Z-0.125000
G01 X408.199533 Y141.711129 Z-0.125000
G01 X404.471683 Y134.255430 Z-0.125000
G01 X389.560285 Y130.527581 Z-0.125000
G01 X393.288135 Y111.888333 Z-0.125000
G01 X385.832436 Y100.704785 Z-0.125000
G01 X389.560285 Y85.793387 Z-0.125000
G01 X370.921038 Y85.793387 Z-0.125000
G01 X344.826091 Y89.521236 Z-0.125000
G01 X326.186844 Y100.704785 Z-0.125000
G01 X341.098242 Y108.160484 Z-0.125000
G01 X359.737489 Y104.432634 Z-0.125000
G01 X363.465339 Y115.616183 Z-0.125000
G01 X370.921038 Y126.799731 Z-0.125000
G01 X370.921038 Y141.711129 Z-0.125000
G01 X385.832436 Y145.438979 Z-0.125000
G01 X389.560285 Y160.350377 Z-0.125000
G01 X370.921038 Y160.350377 Z-0.125000
G01 X356.009640 Y160.350377 Z-0.125000
G01 X348.553941 Y149.166828 Z-0.125000
G01 X352.281790 Y134.255430 Z-0.125000
G01 X337.370392 Y130.527581 Z-0.125000
G01 X326.186844 Y145.438979 Z-0.125000
G01 X318.731145 Y130.527581 Z-0.125000
G01 X315.003295 Y119.344032 Z-0.125000
G01 X303.819747 Y108.160484 Z-0.125000
G01 X296.364048 Y126.799731 Z-0.125000
G01 X300.091897 Y141.711129 Z-0.125000
G01 X307.547596 Y152.894678 Z-0.125000
G01 X315.003295 Y164.078226 Z-0.125000
G01 X326.186844 Y171.533925 Z-0.125000
G01 X333.642542 Y156.622527 Z-0.125000
G01 X341.098242 Y171.533925 Z-0.125000
G01 X356.009640 Y178.989624 Z-0.125000
G01 X356.009640 Y193.901022 Z-0.125000
G01 X367.193188 Y197.628872 Z-0.125000
G01 X363.465339 Y208.812420 Z-0.125000
G01 X374.648887 Y212.540270 Z-0.125000
G01 X370.921038 Y223.723818 Z-0.125000
G01 X363.465339 Y238.635216 Z-0.125000
G01 X374.648887 Y246.090915 Z-0.125000
G01 X378.376737 Y257.274464 Z-0.125000
G01 X378.376737 Y268.458012 Z-0.125000
G01 X389.560285 Y272.185862 Z-0.125000
G01 X393.288135 Y279.641561 Z-0.125000
G01 X404.471683 Y290.825109 Z-0.125000
G01 X408.199533 Y298.280808 Z-0.125000
G01 X419.383081 Y294.552959 Z-0.125000
G01 X426.838780 Y298.280808 Z-0.125000
G01 X434.294479 Y298.280808 Z-0.125000
G01 X441.750178 Y302.008658 Z-0.125000
G01 X438.022329 Y309.464357 Z-0.125000
G01 X426.838780 Y309.464357 Z-0.125000
G01 X415.655232 Y305.736507 Z-0.125000
G01 X411.927382 Y316.920056 Z-0.125000
G01 X419.383081 Y320.647905 Z-0.125000
G01 X411.927382 Y328.103604 Z-0.125000
G01 X408.199533 Y339.287153 Z-0.125000
G01 X397.015984 Y350.470701 Z-0.125000
G01 X400.743834 Y357.926400 Z-0.125000
G01 X389.560285 Y361.654250 Z-0.125000
G01 X385.832436 Y350.470701 Z-0.125000
G01 X378.376737 Y343.015002 Z-0.125000
G01 X370.921038 Y343.015002 Z-0.125000
G01 X367.193188 Y339.287153 Z-0.125000
G01 X363.465339 Y328.103604 Z-0.125000
G01 X359.737489 Y316.920056 Z-0.125000
G01 X344.826091 Y328.103604 Z-0.125000
G01 X344.826091 Y313.192206 Z-0.125000
G01 X337.370392 Y302.008658 Z-0.125000
G01 X329.914693 Y290.825109 Z-0.125000
G01 X322.458994 Y283.369410 Z-0.125000
G01 X315.003295 Y272.185862 Z-0.125000
G01 X315.003295 Y261.002313 Z-0.125000
G01 X333.642542 Y268.458012 Z-0.125000
G00 Z5.000000

(End cutting path id: path25084)


(Start cutting path id: path25082)
(Change tool to Default tool)

G00 Z5.000000
G00 X1466.908791 Y1207.876086

G01 Z-0.125000 F100.0(Penetrate)
G01 X1478.092339 Y1211.603936 Z-0.125000 F400.000000
G01 X1489.275888 Y1215.331785 Z-0.125000
G01 X1504.187286 Y1219.059635 Z-0.125000
G01 X1519.098684 Y1219.059635 Z-0.125000
G01 X1526.554383 Y1226.515334 Z-0.125000
G01 X1537.737931 Y1230.243183 Z-0.125000
G01 X1541.465781 Y1237.698882 Z-0.125000
G01 X1556.377179 Y1237.698882 Z-0.125000
G01 X1567.560727 Y1237.698882 Z-0.125000
G01 X1567.560727 Y1252.610280 Z-0.125000
G01 X1552.649329 Y1260.065979 Z-0.125000
G01 X1545.193630 Y1252.610280 Z-0.125000
G01 X1530.282232 Y1252.610280 Z-0.125000
G01 X1519.098684 Y1248.882431 Z-0.125000
G01 X1511.642985 Y1241.426732 Z-0.125000
G01 X1507.915135 Y1233.971033 Z-0.125000
G01 X1493.003737 Y1241.426732 Z-0.125000
G01 X1489.275888 Y1230.243183 Z-0.125000
G01 X1478.092339 Y1230.243183 Z-0.125000
G01 X1466.908791 Y1226.515334 Z-0.125000
G01 X1455.725242 Y1226.515334 Z-0.125000
G01 X1448.269543 Y1219.059635 Z-0.125000
G01 X1433.358145 Y1219.059635 Z-0.125000
G01 X1422.174597 Y1211.603936 Z-0.125000
G01 X1425.902446 Y1200.420387 Z-0.125000
G01 X1414.718898 Y1192.964688 Z-0.125000
G01 X1403.535349 Y1189.236839 Z-0.125000
G01 X1392.351801 Y1189.236839 Z-0.125000
G01 X1377.440403 Y1200.420387 Z-0.125000
G01 X1369.984704 Y1189.236839 Z-0.125000
G01 X1381.168252 Y1178.053290 Z-0.125000
G01 X1373.712553 Y1170.597591 Z-0.125000
G01 X1358.801155 Y1174.325441 Z-0.125000
G01 X1355.073306 Y1185.508989 Z-0.125000
G01 X1343.889757 Y1178.053290 Z-0.125000
G01 X1332.706209 Y1174.325441 Z-0.125000
G01 X1332.706209 Y1159.414043 Z-0.125000
G01 X1343.889757 Y1159.414043 Z-0.125000
G01 X1351.345456 Y1163.141892 Z-0.125000
G01 X1362.529005 Y1159.414043 Z-0.125000
G01 X1355.073306 Y1148.230494 Z-0.125000
G01 X1340.161908 Y1148.230494 Z-0.125000
G01 X1336.434058 Y1140.774795 Z-0.125000
G01 X1325.250510 Y1137.046946 Z-0.125000
G01 X1325.250510 Y1148.230494 Z-0.125000
G01 X1314.066961 Y1148.230494 Z-0.125000
G01 X1314.066961 Y1137.046946 Z-0.125000
G01 X1302.883413 Y1137.046946 Z-0.125000
G01 X1295.427714 Y1133.319096 Z-0.125000
G01 X1306.611262 Y1125.863397 Z-0.125000
G01 X1295.427714 Y1122.135548 Z-0.125000
G01 X1284.244165 Y1125.863397 Z-0.125000
G01 X1280.516316 Y1133.319096 Z-0.125000
G01 X1273.060617 Y1118.407698 Z-0.125000
G01 X1284.244165 Y1114.679849 Z-0.125000
G01 X1280.516316 Y1103.496300 Z-0.125000
G01 X1276.788466 Y1096.040601 Z-0.125000
G01 X1261.877068 Y1099.768451 Z-0.125000
G01 X1250.693520 Y1096.040601 Z-0.125000
G01 X1239.509971 Y1096.040601 Z-0.125000
G01 X1235.782122 Y1084.857053 Z-0.125000
G01 X1232.054272 Y1077.401354 Z-0.125000
G01 X1232.054272 Y1066.217805 Z-0.125000
G01 X1220.870724 Y1066.217805 Z-0.125000
G01 X1213.415025 Y1058.762106 Z-0.125000
G01 X1202.231476 Y1055.034257 Z-0.125000
G01 X1191.047928 Y1055.034257 Z-0.125000
G01 X1187.320078 Y1047.578558 Z-0.125000
G01 X1176.136530 Y1043.850708 Z-0.125000
G01 X1172.408680 Y1040.122859 Z-0.125000
G01 X1172.408680 Y1028.939310 Z-0.125000
G01 X1164.952981 Y1025.211461 Z-0.125000
G01 X1157.497282 Y1021.483611 Z-0.125000
G01 X1157.497282 Y1010.300063 Z-0.125000
G01 X1168.680830 Y1010.300063 Z-0.125000
G01 X1176.136530 Y1014.027912 Z-0.125000
G01 X1187.320078 Y1014.027912 Z-0.125000
G01 X1194.775777 Y1021.483611 Z-0.125000
G01 X1183.592229 Y1025.211461 Z-0.125000
G01 X1187.320078 Y1036.395009 Z-0.125000
G01 X1198.503627 Y1032.667160 Z-0.125000
G01 X1202.231476 Y1043.850708 Z-0.125000
G01 X1213.415025 Y1040.122859 Z-0.125000
G01 X1220.870724 Y1043.850708 Z-0.125000
G01 X1228.326423 Y1051.306407 Z-0.125000
G01 X1243.237820 Y1051.306407 Z-0.125000
G01 X1246.965670 Y1062.489956 Z-0.125000
G01 X1250.693520 Y1073.673504 Z-0.125000
G01 X1258.149219 Y1081.129203 Z-0.125000
G01 X1269.332767 Y1084.857053 Z-0.125000
G01 X1284.244165 Y1077.401354 Z-0.125000
G01 X1295.427714 Y1081.129203 Z-0.125000
G01 X1291.699864 Y1066.217805 Z-0.125000
G01 X1276.788466 Y1066.217805 Z-0.125000
G01 X1265.604918 Y1062.489956 Z-0.125000
G01 X1269.332767 Y1051.306407 Z-0.125000
G01 X1258.149219 Y1047.578558 Z-0.125000
G01 X1246.965670 Y1036.395009 Z-0.125000
G01 X1235.782122 Y1032.667160 Z-0.125000
G01 X1228.326423 Y1028.939310 Z-0.125000
G01 X1213.415025 Y1028.939310 Z-0.125000
G01 X1217.142874 Y1017.755762 Z-0.125000
G01 X1209.687175 Y1014.027912 Z-0.125000
G01 X1202.231476 Y1010.300063 Z-0.125000
G01 X1194.775777 Y1002.844364 Z-0.125000
G01 X1187.320078 Y999.116514 Z-0.125000
G01 X1179.864379 Y999.116514 Z-0.125000
G01 X1168.680830 Y999.116514 Z-0.125000
G01 X1157.497282 Y999.116514 Z-0.125000
G01 X1150.041583 Y995.388665 Z-0.125000
G01 X1138.858035 Y995.388665 Z-0.125000
G01 X1131.402335 Y987.932966 Z-0.125000
G01 X1127.674486 Y976.749417 Z-0.125000
G01 X1135.130185 Y976.749417 Z-0.125000
G01 X1142.585884 Y980.477267 Z-0.125000
G01 X1146.313734 Y984.205116 Z-0.125000
G01 X1157.497282 Y980.477267 Z-0.125000
G01 X1161.225132 Y984.205116 Z-0.125000
G01 X1168.680830 Y987.932966 Z-0.125000
G01 X1179.864379 Y987.932966 Z-0.125000
G01 X1179.864379 Y976.749417 Z-0.125000
G01 X1172.408680 Y973.021568 Z-0.125000
G01 X1164.952981 Y969.293718 Z-0.125000
G01 X1153.769433 Y969.293718 Z-0.125000
G01 X1146.313734 Y965.565869 Z-0.125000
G01 X1142.585884 Y961.838019 Z-0.125000
G01 X1135.130185 Y954.382320 Z-0.125000
G01 X1142.585884 Y943.198772 Z-0.125000
G01 X1131.402335 Y939.470922 Z-0.125000
G01 X1123.946637 Y932.015223 Z-0.125000
G01 X1112.763088 Y924.559524 Z-0.125000
G01 X1101.579540 Y920.831675 Z-0.125000
G01 X1094.123841 Y913.375976 Z-0.125000
G01 X1086.668142 Y905.920277 Z-0.125000
G01 X1075.484593 Y902.192427 Z-0.125000
G01 X1075.484593 Y887.281029 Z-0.125000
G01 X1071.756744 Y876.097481 Z-0.125000
G01 X1075.484593 Y864.913932 Z-0.125000
G01 X1090.395991 Y864.913932 Z-0.125000
G01 X1086.668142 Y850.002534 Z-0.125000
G01 X1071.756744 Y850.002534 Z-0.125000
G01 X1056.845346 Y857.458233 Z-0.125000
G01 X1060.573195 Y868.641782 Z-0.125000
G01 X1045.661797 Y872.369631 Z-0.125000
G01 X1041.933948 Y857.458233 Z-0.125000
G01 X1030.750399 Y853.730384 Z-0.125000
G01 X1030.750399 Y838.818986 Z-0.125000
G01 X1019.566851 Y831.363287 Z-0.125000
G01 X1023.294700 Y820.179738 Z-0.125000
G01 X1015.839001 Y812.724039 Z-0.125000
G01 X1004.655453 Y808.996190 Z-0.125000
G01 X997.199754 Y801.540491 Z-0.125000
G01 X993.471904 Y786.629093 Z-0.125000
G01 X1004.655453 Y786.629093 Z-0.125000
G01 X1015.839001 Y790.356942 Z-0.125000
G01 X1023.294700 Y797.812641 Z-0.125000
G01 X1034.478249 Y805.268340 Z-0.125000
G01 X1038.206098 Y820.179738 Z-0.125000
G01 X1045.661797 Y827.635437 Z-0.125000
G01 X1045.661797 Y838.818986 Z-0.125000
G01 X1056.845346 Y842.546835 Z-0.125000
G01 X1071.756744 Y835.091136 Z-0.125000
G01 X1064.301044 Y827.635437 Z-0.125000
G01 X1056.845346 Y812.724039 Z-0.125000
G01 X1049.389647 Y805.268340 Z-0.125000
G01 X1053.117496 Y794.084792 Z-0.125000
G01 X1041.933948 Y790.356942 Z-0.125000
G01 X1034.478249 Y782.901243 Z-0.125000
G01 X1023.294700 Y775.445544 Z-0.125000
G01 X1012.111152 Y771.717695 Z-0.125000
G01 X1000.927603 Y767.989845 Z-0.125000
G01 X986.016205 Y767.989845 Z-0.125000
G01 X982.288356 Y782.901243 Z-0.125000
G01 X971.104807 Y771.717695 Z-0.125000
G01 X967.376958 Y779.173394 Z-0.125000
G01 X956.193409 Y775.445544 Z-0.125000
G01 X948.737710 Y771.717695 Z-0.125000
G01 X945.009861 Y782.901243 Z-0.125000
G01 X941.282011 Y771.717695 Z-0.125000
G01 X937.554162 Y764.261996 Z-0.125000
G01 X937.554162 Y753.078447 Z-0.125000
G01 X941.282011 Y738.167049 Z-0.125000
G01 X937.554162 Y726.983501 Z-0.125000
G01 X948.737710 Y726.983501 Z-0.125000
G01 X959.921259 Y726.983501 Z-0.125000
G01 X967.376958 Y745.622748 Z-0.125000
G01 X982.288356 Y753.078447 Z-0.125000
G01 X997.199754 Y753.078447 Z-0.125000
G01 X1000.927603 Y741.894899 Z-0.125000
G01 X989.744055 Y738.167049 Z-0.125000
G01 X982.288356 Y726.983501 Z-0.125000
G01 X974.832657 Y719.527802 Z-0.125000
G01 X963.649108 Y715.799952 Z-0.125000
G01 X956.193409 Y715.799952 Z-0.125000
G01 X948.737710 Y715.799952 Z-0.125000
G01 X941.282011 Y708.344253 Z-0.125000
G01 X937.554162 Y715.799952 Z-0.125000
G01 X930.098463 Y715.799952 Z-0.125000
G01 X926.370613 Y712.072103 Z-0.125000
G01 X922.642764 Y704.616404 Z-0.125000
G01 X915.187065 Y712.072103 Z-0.125000
G01 X907.731366 Y704.616404 Z-0.125000
G01 X915.187065 Y697.160705 Z-0.125000
G01 X907.731366 Y689.705006 Z-0.125000
G01 X911.459215 Y682.249307 Z-0.125000
G01 X904.003516 Y674.793608 Z-0.125000
G01 X896.547817 Y659.882210 Z-0.125000
G01 X885.364269 Y648.698661 Z-0.125000
G01 X885.364269 Y633.787263 Z-0.125000
G01 X881.636419 Y626.331564 Z-0.125000
G01 X866.725021 Y622.603715 Z-0.125000
G01 X855.541473 Y615.148016 Z-0.125000
G01 X844.357924 Y603.964467 Z-0.125000
G01 X821.990827 Y603.964467 Z-0.125000
G01 X818.262978 Y622.603715 Z-0.125000
G01 X836.902225 Y630.059414 Z-0.125000
G01 X844.357924 Y641.242962 Z-0.125000
G01 X859.269322 Y644.970812 Z-0.125000
G01 X866.725021 Y656.154360 Z-0.125000
G01 X874.180720 Y671.065758 Z-0.125000
G01 X877.908570 Y678.521457 Z-0.125000
G01 X885.364269 Y689.705006 Z-0.125000
G01 X896.547817 Y693.432855 Z-0.125000
G01 X900.275667 Y700.888554 Z-0.125000
G01 X889.092118 Y704.616404 Z-0.125000
G01 X892.819968 Y723.255651 Z-0.125000
G01 X915.187065 Y730.711350 Z-0.125000
G01 X922.642764 Y741.894899 Z-0.125000
G01 X926.370613 Y760.534146 Z-0.125000
G01 X930.098463 Y775.445544 Z-0.125000
G01 X926.370613 Y771.717695 Z-0.125000
G01 X918.914914 Y767.989845 Z-0.125000
G01 X911.459215 Y764.261996 Z-0.125000
G01 X892.819968 Y745.622748 Z-0.125000
G01 X874.180720 Y741.894899 Z-0.125000
G01 X874.180720 Y726.983501 Z-0.125000
G01 X862.997172 Y719.527802 Z-0.125000
G01 X866.725021 Y708.344253 Z-0.125000
G01 X859.269322 Y697.160705 Z-0.125000
G01 X855.541473 Y678.521457 Z-0.125000
G01 X840.630075 Y671.065758 Z-0.125000
G01 X829.446526 Y663.610059 Z-0.125000
G01 X810.807279 Y648.698661 Z-0.125000
G01 X792.168031 Y644.970812 Z-0.125000
G01 X788.440182 Y626.331564 Z-0.125000
G01 X795.895881 Y603.964467 Z-0.125000
G01 X799.623730 Y581.597370 Z-0.125000
G01 X825.718677 Y585.325220 Z-0.125000
G01 X829.446526 Y566.685972 Z-0.125000
G01 X814.535128 Y559.230273 Z-0.125000
G01 X795.895881 Y551.774574 Z-0.125000
G01 X795.895881 Y533.135327 Z-0.125000
G01 X788.440182 Y521.951778 Z-0.125000
G01 X766.073085 Y503.312531 Z-0.125000
G01 X769.800934 Y477.217584 Z-0.125000
G01 X769.800934 Y458.578337 Z-0.125000
G01 X754.889536 Y439.939089 Z-0.125000
G01 X739.978138 Y425.027691 Z-0.125000
G01 X743.705987 Y398.932745 Z-0.125000
G01 X747.433837 Y376.565648 Z-0.125000
G01 X739.978138 Y361.654250 Z-0.125000
G01 X713.883192 Y357.926400 Z-0.125000
G01 X684.060396 Y361.654250 Z-0.125000
G01 X687.788245 Y369.109949 Z-0.125000
G01 X676.604697 Y369.109949 Z-0.125000
G01 X676.604697 Y357.926400 Z-0.125000
G01 X669.148998 Y354.198551 Z-0.125000
G01 X684.060396 Y346.742852 Z-0.125000
G01 X676.604697 Y343.015002 Z-0.125000
G01 X669.148998 Y343.015002 Z-0.125000
G01 X665.421148 Y335.559303 Z-0.125000
G01 X676.604697 Y331.831454 Z-0.125000
G01 X672.876847 Y324.375755 Z-0.125000
G01 X665.421148 Y324.375755 Z-0.125000
G01 X657.965449 Y324.375755 Z-0.125000
G01 X650.509750 Y339.287153 Z-0.125000
G01 X646.781901 Y324.375755 Z-0.125000
G01 X643.054051 Y313.192206 Z-0.125000
G01 X654.237599 Y313.192206 Z-0.125000
G01 X665.421148 Y313.192206 Z-0.125000
G01 X657.965449 Y305.736507 Z-0.125000
G01 X650.509750 Y302.008658 Z-0.125000
G01 X643.054051 Y302.008658 Z-0.125000
G01 X639.326202 Y294.552959 Z-0.125000
G01 X643.054051 Y287.097260 Z-0.125000
G01 X635.598352 Y283.369410 Z-0.125000
G01 X628.142653 Y275.913711 Z-0.125000
G01 X624.414804 Y283.369410 Z-0.125000
G01 X616.959105 Y279.641561 Z-0.125000
G01 X616.959105 Y268.458012 Z-0.125000
G01 X609.503406 Y268.458012 Z-0.125000
G01 X605.775556 Y264.730163 Z-0.125000
G01 X598.319857 Y264.730163 Z-0.125000
G01 X590.864158 Y261.002313 Z-0.125000
G01 X583.408459 Y257.274464 Z-0.125000
G01 X575.952760 Y253.546614 Z-0.125000
G01 X568.497061 Y249.818765 Z-0.125000
G01 X561.041362 Y249.818765 Z-0.125000
G01 X553.585663 Y249.818765 Z-0.125000
G01 X549.857814 Y242.363066 Z-0.125000
G01 X538.674265 Y238.635216 Z-0.125000
G01 X534.946416 Y246.090915 Z-0.125000
G01 X542.402115 Y249.818765 Z-0.125000
G01 X542.402115 Y261.002313 Z-0.125000
G01 X553.585663 Y261.002313 Z-0.125000
G01 X564.769212 Y261.002313 Z-0.125000
G01 X575.952760 Y264.730163 Z-0.125000
G01 X579.680610 Y272.185862 Z-0.125000
G01 X579.680610 Y283.369410 Z-0.125000
G01 X587.136309 Y272.185862 Z-0.125000
G01 X590.864158 Y279.641561 Z-0.125000
G01 X594.592008 Y287.097260 Z-0.125000
G01 X602.047707 Y279.641561 Z-0.125000
G01 X605.775556 Y287.097260 Z-0.125000
G01 X613.231255 Y290.825109 Z-0.125000
G01 X620.686954 Y294.552959 Z-0.125000
G01 X628.142653 Y298.280808 Z-0.125000
G01 X631.870503 Y305.736507 Z-0.125000
G01 X628.142653 Y320.647905 Z-0.125000
G01 X613.231255 Y313.192206 Z-0.125000
G01 X598.319857 Y302.008658 Z-0.125000
G01 X579.680610 Y305.736507 Z-0.125000
G01 X590.864158 Y320.647905 Z-0.125000
G01 X602.047707 Y331.831454 Z-0.125000
G01 X613.231255 Y339.287153 Z-0.125000
G01 X628.142653 Y343.015002 Z-0.125000
G01 X635.598352 Y357.926400 Z-0.125000
G01 X650.509750 Y361.654250 Z-0.125000
G01 X657.965449 Y376.565648 Z-0.125000
G01 X672.876847 Y384.021347 Z-0.125000
G01 X684.060396 Y380.293497 Z-0.125000
G01 X691.516095 Y380.293497 Z-0.125000
G01 X698.971794 Y387.749196 Z-0.125000
G01 X702.699643 Y398.932745 Z-0.125000
G01 X695.243944 Y406.388444 Z-0.125000
G01 X691.516095 Y395.204895 Z-0.125000
G01 X684.060396 Y391.477046 Z-0.125000
G01 X684.060396 Y402.660594 Z-0.125000
G01 X687.788245 Y413.844143 Z-0.125000
G01 X691.516095 Y417.571992 Z-0.125000
G01 X702.699643 Y413.844143 Z-0.125000
G01 X698.971794 Y425.027691 Z-0.125000
G01 X695.243944 Y436.211240 Z-0.125000
G01 X698.971794 Y443.666939 Z-0.125000
G01 X728.794590 Y466.034036 Z-0.125000
G01 X721.338891 Y488.401133 Z-0.125000
G01 X721.338891 Y507.040380 Z-0.125000
G01 X721.338891 Y525.679628 Z-0.125000
G01 X747.433837 Y533.135327 Z-0.125000
G01 X754.889536 Y551.774574 Z-0.125000
G01 X766.073085 Y566.685972 Z-0.125000
G01 X769.800934 Y585.325220 Z-0.125000
G01 X769.800934 Y611.420166 Z-0.125000
G01 X743.705987 Y607.692317 Z-0.125000
G01 X732.522439 Y592.780919 Z-0.125000
G01 X713.883192 Y577.869521 Z-0.125000
G01 X710.155342 Y559.230273 Z-0.125000
G01 X684.060396 Y551.774574 Z-0.125000
G01 X672.876847 Y536.863176 Z-0.125000
G01 X669.148998 Y525.679628 Z-0.125000
G01 X665.421148 Y521.951778 Z-0.125000
G01 X657.965449 Y518.223929 Z-0.125000
G01 X650.509750 Y514.496079 Z-0.125000
G01 X643.054051 Y525.679628 Z-0.125000
G01 X650.509750 Y529.407477 Z-0.125000
G01 X654.237599 Y533.135327 Z-0.125000
G01 X661.693299 Y536.863176 Z-0.125000
G01 X657.965449 Y548.046725 Z-0.125000
G01 X650.509750 Y548.046725 Z-0.125000
G01 X643.054051 Y544.318875 Z-0.125000
G01 X639.326202 Y536.863176 Z-0.125000
G01 X631.870503 Y533.135327 Z-0.125000
G01 X631.870503 Y518.223929 Z-0.125000
G01 X624.414804 Y507.040380 Z-0.125000
G01 X616.959105 Y495.856832 Z-0.125000
G01 X602.047707 Y492.128982 Z-0.125000
G01 X598.319857 Y477.217584 Z-0.125000
G01 X579.680610 Y480.945434 Z-0.125000
G01 X579.680610 Y499.584681 Z-0.125000
G01 X594.592008 Y510.768230 Z-0.125000
G01 X605.775556 Y518.223929 Z-0.125000
G01 X609.503406 Y533.135327 Z-0.125000
G01 X624.414804 Y540.591026 Z-0.125000
G01 X631.870503 Y548.046725 Z-0.125000
G01 X639.326202 Y555.502424 Z-0.125000
G01 X650.509750 Y559.230273 Z-0.125000
G01 X646.781901 Y570.413822 Z-0.125000
G01 X639.326202 Y570.413822 Z-0.125000
G01 X631.870503 Y566.685972 Z-0.125000
G01 X628.142653 Y559.230273 Z-0.125000
G01 X616.959105 Y559.230273 Z-0.125000
G01 X620.686954 Y551.774574 Z-0.125000
G01 X613.231255 Y548.046725 Z-0.125000
G01 X605.775556 Y555.502424 Z-0.125000
G01 X598.319857 Y555.502424 Z-0.125000
G01 X587.136309 Y559.230273 Z-0.125000
G01 X587.136309 Y540.591026 Z-0.125000
G01 X579.680610 Y533.135327 Z-0.125000
G01 X572.224911 Y518.223929 Z-0.125000
G01 X561.041362 Y503.312531 Z-0.125000
G01 X561.041362 Y484.673283 Z-0.125000
G00 Z5.000000

(End cutting path id: path25082)


(Start cutting path id: path25080)
(Change tool to Default tool)

G00 Z5.000000
G00 X1187.320078 Y932.015223

G01 Z-0.125000 F100.0(Penetrate)
G01 X1198.503627 Y932.015223 Z-0.125000 F400.000000
G01 X1205.959325 Y939.470922 Z-0.125000
G01 X1209.687175 Y950.654471 Z-0.125000
G01 X1217.142874 Y946.926621 Z-0.125000
G01 X1228.326423 Y954.382320 Z-0.125000
G01 X1217.142874 Y958.110170 Z-0.125000
G01 X1213.415025 Y965.565869 Z-0.125000
G01 X1224.598573 Y969.293718 Z-0.125000
G01 X1235.782122 Y980.477267 Z-0.125000
G01 X1239.509971 Y991.660815 Z-0.125000
G01 X1224.598573 Y991.660815 Z-0.125000
G01 X1220.870724 Y980.477267 Z-0.125000
G01 X1213.415025 Y976.749417 Z-0.125000
G01 X1202.231476 Y976.749417 Z-0.125000
G01 X1191.047928 Y976.749417 Z-0.125000
G01 X1191.047928 Y987.932966 Z-0.125000
G01 X1202.231476 Y987.932966 Z-0.125000
G01 X1209.687175 Y991.660815 Z-0.125000
G01 X1213.415025 Y999.116514 Z-0.125000
G01 X1224.598573 Y1002.844364 Z-0.125000
G01 X1232.054272 Y1010.300063 Z-0.125000
G01 X1235.782122 Y1014.027912 Z-0.125000
G01 X1246.965670 Y1014.027912 Z-0.125000
G01 X1254.421369 Y1021.483611 Z-0.125000
G01 X1261.877068 Y1028.939310 Z-0.125000
G01 X1269.332767 Y1036.395009 Z-0.125000
G01 X1284.244165 Y1040.122859 Z-0.125000
G01 X1287.972015 Y1051.306407 Z-0.125000
G01 X1302.883413 Y1047.578558 Z-0.125000
G01 X1310.339112 Y1055.034257 Z-0.125000
G01 X1325.250510 Y1051.306407 Z-0.125000
G01 X1336.434058 Y1055.034257 Z-0.125000
G01 X1340.161908 Y1062.489956 Z-0.125000
G01 X1351.345456 Y1058.762106 Z-0.125000
G01 X1358.801155 Y1062.489956 Z-0.125000
G01 X1366.256854 Y1066.217805 Z-0.125000
G01 X1377.440403 Y1066.217805 Z-0.125000
G01 X1377.440403 Y1055.034257 Z-0.125000
G01 X1369.984704 Y1051.306407 Z-0.125000
G01 X1358.801155 Y1047.578558 Z-0.125000
G01 X1351.345456 Y1043.850708 Z-0.125000
G01 X1343.889757 Y1036.395009 Z-0.125000
G01 X1340.161908 Y1025.211461 Z-0.125000
G01 X1325.250510 Y1036.395009 Z-0.125000
G01 X1317.794811 Y1028.939310 Z-0.125000
G01 X1302.883413 Y1032.667160 Z-0.125000
G01 X1295.427714 Y1021.483611 Z-0.125000
G01 X1280.516316 Y1025.211461 Z-0.125000
G01 X1269.332767 Y1014.027912 Z-0.125000
G01 X1261.877068 Y1002.844364 Z-0.125000
G01 X1250.693520 Y999.116514 Z-0.125000
G01 X1254.421369 Y987.932966 Z-0.125000
G01 X1254.421369 Y976.749417 Z-0.125000
G01 X1246.965670 Y969.293718 Z-0.125000
G01 X1235.782122 Y965.565869 Z-0.125000
G01 X1239.509971 Y954.382320 Z-0.125000
G01 X1250.693520 Y954.382320 Z-0.125000
G01 X1261.877068 Y961.838019 Z-0.125000
G01 X1269.332767 Y969.293718 Z-0.125000
G01 X1269.332767 Y980.477267 Z-0.125000
G01 X1273.060617 Y991.660815 Z-0.125000
G01 X1280.516316 Y999.116514 Z-0.125000
G01 X1284.244165 Y1010.300063 Z-0.125000
G01 X1299.155563 Y1002.844364 Z-0.125000
G01 X1295.427714 Y987.932966 Z-0.125000
G01 X1287.972015 Y980.477267 Z-0.125000
G01 X1284.244165 Y969.293718 Z-0.125000
G01 X1276.788466 Y954.382320 Z-0.125000
G01 X1269.332767 Y946.926621 Z-0.125000
G01 X1261.877068 Y939.470922 Z-0.125000
G01 X1250.693520 Y939.470922 Z-0.125000
G01 X1235.782122 Y943.198772 Z-0.125000
G01 X1232.054272 Y939.470922 Z-0.125000
G01 X1224.598573 Y935.743073 Z-0.125000
G01 X1217.142874 Y932.015223 Z-0.125000
G01 X1217.142874 Y920.831675 Z-0.125000
G01 X1205.959325 Y917.103825 Z-0.125000
G01 X1194.775777 Y913.375976 Z-0.125000
G01 X1183.592229 Y909.648126 Z-0.125000
G01 X1176.136530 Y924.559524 Z-0.125000
G01 X1164.952981 Y917.103825 Z-0.125000
G01 X1157.497282 Y909.648126 Z-0.125000
G01 X1146.313734 Y905.920277 Z-0.125000
G01 X1135.130185 Y898.464578 Z-0.125000
G01 X1127.674486 Y891.008879 Z-0.125000
G01 X1135.130185 Y872.369631 Z-0.125000
G01 X1142.585884 Y879.825330 Z-0.125000
G01 X1150.041583 Y887.281029 Z-0.125000
G01 X1161.225132 Y891.008879 Z-0.125000
G01 X1176.136530 Y898.464578 Z-0.125000
G01 X1176.136530 Y883.553180 Z-0.125000
G01 X1172.408680 Y872.369631 Z-0.125000
G01 X1157.497282 Y872.369631 Z-0.125000
G01 X1150.041583 Y861.186083 Z-0.125000
G01 X1135.130185 Y857.458233 Z-0.125000
G01 X1127.674486 Y850.002534 Z-0.125000
G01 X1116.490938 Y846.274685 Z-0.125000
G01 X1116.490938 Y835.091136 Z-0.125000
G01 X1105.307389 Y823.907588 Z-0.125000
G01 X1097.851690 Y816.451889 Z-0.125000
G01 X1097.851690 Y801.540491 Z-0.125000
G01 X1090.395991 Y786.629093 Z-0.125000
G01 X1086.668142 Y771.717695 Z-0.125000
G01 X1075.484593 Y767.989845 Z-0.125000
G01 X1064.301044 Y760.534146 Z-0.125000
G01 X1068.028894 Y749.350598 Z-0.125000
G01 X1053.117496 Y753.078447 Z-0.125000
G01 X1049.389647 Y738.167049 Z-0.125000
G01 X1045.661797 Y726.983501 Z-0.125000
G01 X1034.478249 Y723.255651 Z-0.125000
G01 X1023.294700 Y723.255651 Z-0.125000
G01 X1019.566851 Y712.072103 Z-0.125000
G01 X1012.111152 Y704.616404 Z-0.125000
G01 X1004.655453 Y697.160705 Z-0.125000
G01 X1008.383302 Y685.977156 Z-0.125000
G01 X1023.294700 Y682.249307 Z-0.125000
G01 X1027.022549 Y689.705006 Z-0.125000
G01 X1034.478249 Y704.616404 Z-0.125000
G01 X1045.661797 Y708.344253 Z-0.125000
G01 X1056.845346 Y712.072103 Z-0.125000
G01 X1060.573195 Y726.983501 Z-0.125000
G01 X1064.301044 Y734.439200 Z-0.125000
G01 X1079.212443 Y730.711350 Z-0.125000
G01 X1082.940292 Y745.622748 Z-0.125000
G01 X1090.395991 Y753.078447 Z-0.125000
G01 X1097.851690 Y760.534146 Z-0.125000
G01 X1101.579540 Y767.989845 Z-0.125000
G01 X1116.490938 Y767.989845 Z-0.125000
G01 X1120.218787 Y779.173394 Z-0.125000
G01 X1105.307389 Y782.901243 Z-0.125000
G01 X1112.763088 Y794.084792 Z-0.125000
G01 X1123.946637 Y794.084792 Z-0.125000
G01 X1131.402335 Y801.540491 Z-0.125000
G01 X1116.490938 Y808.996190 Z-0.125000
G01 X1120.218787 Y820.179738 Z-0.125000
G01 X1131.402335 Y816.451889 Z-0.125000
G01 X1131.402335 Y831.363287 Z-0.125000
G01 X1142.585884 Y835.091136 Z-0.125000
G01 X1150.041583 Y842.546835 Z-0.125000
G01 X1161.225132 Y842.546835 Z-0.125000
G01 X1168.680830 Y857.458233 Z-0.125000
G01 X1176.136530 Y842.546835 Z-0.125000
G01 X1187.320078 Y850.002534 Z-0.125000
G01 X1198.503627 Y853.730384 Z-0.125000
G01 X1191.047928 Y868.641782 Z-0.125000
G01 X1202.231476 Y876.097481 Z-0.125000
G01 X1191.047928 Y891.008879 Z-0.125000
G01 X1202.231476 Y898.464578 Z-0.125000
G01 X1217.142874 Y902.192427 Z-0.125000
G01 X1228.326423 Y905.920277 Z-0.125000
G01 X1232.054272 Y917.103825 Z-0.125000
G01 X1235.782122 Y924.559524 Z-0.125000
G01 X1246.965670 Y928.287374 Z-0.125000
G01 X1258.149219 Y924.559524 Z-0.125000
G01 X1269.332767 Y920.831675 Z-0.125000
G01 X1276.788466 Y924.559524 Z-0.125000
G01 X1280.516316 Y935.743073 Z-0.125000
G01 X1291.699864 Y939.470922 Z-0.125000
G01 X1302.883413 Y939.470922 Z-0.125000
G01 X1306.611262 Y950.654471 Z-0.125000
G01 X1291.699864 Y954.382320 Z-0.125000
G01 X1299.155563 Y965.565869 Z-0.125000
G01 X1310.339112 Y973.021568 Z-0.125000
G01 X1310.339112 Y987.932966 Z-0.125000
G01 X1314.066961 Y999.116514 Z-0.125000
G01 X1310.339112 Y1014.027912 Z-0.125000
G01 X1325.250510 Y1014.027912 Z-0.125000
G01 X1340.161908 Y1010.300063 Z-0.125000
G01 X1355.073306 Y1006.572213 Z-0.125000
G01 X1355.073306 Y991.660815 Z-0.125000
G01 X1343.889757 Y991.660815 Z-0.125000
G01 X1328.978359 Y995.388665 Z-0.125000
G01 X1336.434058 Y980.477267 Z-0.125000
G01 X1325.250510 Y976.749417 Z-0.125000
G01 X1328.978359 Y961.838019 Z-0.125000
G01 X1317.794811 Y958.110170 Z-0.125000
G01 X1325.250510 Y943.198772 Z-0.125000
G01 X1336.434058 Y946.926621 Z-0.125000
G01 X1351.345456 Y946.926621 Z-0.125000
G01 X1343.889757 Y961.838019 Z-0.125000
G01 X1355.073306 Y973.021568 Z-0.125000
G01 X1358.801155 Y958.110170 Z-0.125000
G01 X1369.984704 Y961.838019 Z-0.125000
G01 X1381.168252 Y969.293718 Z-0.125000
G01 X1369.984704 Y980.477267 Z-0.125000
G01 X1373.712553 Y995.388665 Z-0.125000
G01 X1369.984704 Y1006.572213 Z-0.125000
G01 X1377.440403 Y1010.300063 Z-0.125000
G01 X1384.896101 Y1014.027912 Z-0.125000
G01 X1399.807500 Y1014.027912 Z-0.125000
G01 X1407.263199 Y1028.939310 Z-0.125000
G01 X1418.446747 Y1028.939310 Z-0.125000
G01 X1425.902446 Y1036.395009 Z-0.125000
G01 X1422.174597 Y1043.850708 Z-0.125000
G01 X1425.902446 Y1055.034257 Z-0.125000
G01 X1433.358145 Y1062.489956 Z-0.125000
G01 X1444.541694 Y1062.489956 Z-0.125000
G01 X1448.269543 Y1047.578558 Z-0.125000
G01 X1440.813844 Y1040.122859 Z-0.125000
G01 X1433.358145 Y1025.211461 Z-0.125000
G01 X1429.630296 Y1014.027912 Z-0.125000
G01 X1418.446747 Y1017.755762 Z-0.125000
G01 X1410.991048 Y1014.027912 Z-0.125000
G01 X1407.263199 Y1002.844364 Z-0.125000
G01 X1396.079650 Y999.116514 Z-0.125000
G01 X1388.623951 Y991.660815 Z-0.125000
G01 X1388.623951 Y980.477267 Z-0.125000
G01 X1403.535349 Y984.205116 Z-0.125000
G01 X1414.718898 Y987.932966 Z-0.125000
G01 X1422.174597 Y1002.844364 Z-0.125000
G01 X1425.902446 Y995.388665 Z-0.125000
G01 X1440.813844 Y999.116514 Z-0.125000
G01 X1444.541694 Y1006.572213 Z-0.125000
G01 X1448.269543 Y1021.483611 Z-0.125000
G01 X1455.725242 Y1028.939310 Z-0.125000
G01 X1463.180941 Y1040.122859 Z-0.125000
G01 X1463.180941 Y1055.034257 Z-0.125000
G01 X1463.180941 Y1069.945655 Z-0.125000
G01 X1474.364490 Y1073.673504 Z-0.125000
G01 X1485.548038 Y1077.401354 Z-0.125000
G01 X1481.820189 Y1088.584902 Z-0.125000
G01 X1493.003737 Y1092.312752 Z-0.125000
G01 X1496.731587 Y1099.768451 Z-0.125000
G01 X1504.187286 Y1114.679849 Z-0.125000
G01 X1511.642985 Y1125.863397 Z-0.125000
G01 X1526.554383 Y1129.591247 Z-0.125000
G01 X1534.010082 Y1140.774795 Z-0.125000
G01 X1541.465781 Y1125.863397 Z-0.125000
G01 X1541.465781 Y1110.951999 Z-0.125000
G01 X1526.554383 Y1114.679849 Z-0.125000
G01 X1519.098684 Y1107.224150 Z-0.125000
G01 X1511.642985 Y1099.768451 Z-0.125000
G01 X1511.642985 Y1084.857053 Z-0.125000
G01 X1526.554383 Y1088.584902 Z-0.125000
G01 X1537.737931 Y1096.040601 Z-0.125000
G01 X1552.649329 Y1088.584902 Z-0.125000
G01 X1560.105028 Y1096.040601 Z-0.125000
G01 X1556.377179 Y1107.224150 Z-0.125000
G01 X1556.377179 Y1122.135548 Z-0.125000
G01 X1563.832877 Y1137.046946 Z-0.125000
G01 X1548.921480 Y1140.774795 Z-0.125000
G01 X1541.465781 Y1155.686193 Z-0.125000
G01 X1556.377179 Y1155.686193 Z-0.125000
G01 X1571.288577 Y1163.141892 Z-0.125000
G01 X1578.744276 Y1170.597591 Z-0.125000
G01 X1578.744276 Y1181.781140 Z-0.125000
G01 X1578.744276 Y1192.964688 Z-0.125000
G01 X1567.560727 Y1192.964688 Z-0.125000
G01 X1567.560727 Y1181.781140 Z-0.125000
G01 X1563.832877 Y1174.325441 Z-0.125000
G01 X1556.377179 Y1185.508989 Z-0.125000
G01 X1552.649329 Y1174.325441 Z-0.125000
G01 X1541.465781 Y1174.325441 Z-0.125000
G01 X1545.193630 Y1185.508989 Z-0.125000
G01 X1534.010082 Y1185.508989 Z-0.125000
G01 X1530.282232 Y1178.053290 Z-0.125000
G01 X1522.826533 Y1174.325441 Z-0.125000
G01 X1519.098684 Y1159.414043 Z-0.125000
G01 X1515.370834 Y1148.230494 Z-0.125000
G01 X1507.915135 Y1140.774795 Z-0.125000
G01 X1496.731587 Y1137.046946 Z-0.125000
G01 X1489.275888 Y1129.591247 Z-0.125000
G01 X1485.548038 Y1118.407698 Z-0.125000
G01 X1478.092339 Y1110.951999 Z-0.125000
G01 X1470.636640 Y1103.496300 Z-0.125000
G01 X1466.908791 Y1088.584902 Z-0.125000
G01 X1455.725242 Y1103.496300 Z-0.125000
G01 X1444.541694 Y1099.768451 Z-0.125000
G01 X1451.997393 Y1084.857053 Z-0.125000
G01 X1448.269543 Y1073.673504 Z-0.125000
G01 X1433.358145 Y1077.401354 Z-0.125000
G01 X1418.446747 Y1073.673504 Z-0.125000
G01 X1410.991048 Y1066.217805 Z-0.125000
G01 X1399.807500 Y1055.034257 Z-0.125000
G01 X1410.991048 Y1055.034257 Z-0.125000
G01 X1407.263199 Y1043.850708 Z-0.125000
G01 X1399.807500 Y1040.122859 Z-0.125000
G01 X1396.079650 Y1028.939310 Z-0.125000
G01 X1388.623951 Y1025.211461 Z-0.125000
G01 X1377.440403 Y1028.939310 Z-0.125000
G01 X1369.984704 Y1025.211461 Z-0.125000
G01 X1358.801155 Y1021.483611 Z-0.125000
G01 X1358.801155 Y1032.667160 Z-0.125000
G01 X1369.984704 Y1040.122859 Z-0.125000
G01 X1381.168252 Y1040.122859 Z-0.125000
G01 X1388.623951 Y1043.850708 Z-0.125000
G01 X1388.623951 Y1055.034257 Z-0.125000
G01 X1388.623951 Y1066.217805 Z-0.125000
G01 X1396.079650 Y1069.945655 Z-0.125000
G01 X1399.807500 Y1081.129203 Z-0.125000
G01 X1410.991048 Y1084.857053 Z-0.125000
G01 X1422.174597 Y1088.584902 Z-0.125000
G01 X1433.358145 Y1092.312752 Z-0.125000
G01 X1429.630296 Y1103.496300 Z-0.125000
G01 X1429.630296 Y1114.679849 Z-0.125000
G01 X1414.718898 Y1107.224150 Z-0.125000
G01 X1407.263199 Y1099.768451 Z-0.125000
G01 X1399.807500 Y1096.040601 Z-0.125000
G01 X1388.623951 Y1096.040601 Z-0.125000
G01 X1377.440403 Y1092.312752 Z-0.125000
G01 X1388.623951 Y1081.129203 Z-0.125000
G01 X1377.440403 Y1081.129203 Z-0.125000
G01 X1369.984704 Y1077.401354 Z-0.125000
G01 X1358.801155 Y1081.129203 Z-0.125000
G01 X1351.345456 Y1073.673504 Z-0.125000
G01 X1340.161908 Y1073.673504 Z-0.125000
G01 X1343.889757 Y1084.857053 Z-0.125000
G01 X1343.889757 Y1096.040601 Z-0.125000
G01 X1355.073306 Y1092.312752 Z-0.125000
G01 X1362.529005 Y1096.040601 Z-0.125000
G01 X1366.256854 Y1107.224150 Z-0.125000
G01 X1377.440403 Y1107.224150 Z-0.125000
G01 X1384.896101 Y1110.951999 Z-0.125000
G01 X1396.079650 Y1114.679849 Z-0.125000
G01 X1399.807500 Y1122.135548 Z-0.125000
G01 X1410.991048 Y1122.135548 Z-0.125000
G01 X1414.718898 Y1129.591247 Z-0.125000
G01 X1425.902446 Y1133.319096 Z-0.125000
G01 X1429.630296 Y1144.502645 Z-0.125000
G01 X1437.085995 Y1151.958344 Z-0.125000
G01 X1448.269543 Y1155.686193 Z-0.125000
G01 X1463.180941 Y1148.230494 Z-0.125000
G01 X1455.725242 Y1137.046946 Z-0.125000
G01 X1444.541694 Y1133.319096 Z-0.125000
G01 X1440.813844 Y1118.407698 Z-0.125000
G01 X1451.997393 Y1118.407698 Z-0.125000
G01 X1463.180941 Y1125.863397 Z-0.125000
G01 X1474.364490 Y1133.319096 Z-0.125000
G01 X1478.092339 Y1148.230494 Z-0.125000
G01 X1474.364490 Y1159.414043 Z-0.125000
G01 X1481.820189 Y1174.325441 Z-0.125000
G01 X1489.275888 Y1155.686193 Z-0.125000
G01 X1500.459436 Y1163.141892 Z-0.125000
G01 X1500.459436 Y1178.053290 Z-0.125000
G01 X1507.915135 Y1181.781140 Z-0.125000
G01 X1515.370834 Y1185.508989 Z-0.125000
G01 X1511.642985 Y1192.964688 Z-0.125000
G01 X1522.826533 Y1192.964688 Z-0.125000
G01 X1534.010082 Y1196.692538 Z-0.125000
G01 X1545.193630 Y1200.420387 Z-0.125000
G01 X1556.377179 Y1196.692538 Z-0.125000
G01 X1556.377179 Y1207.876086 Z-0.125000
G01 X1567.560727 Y1207.876086 Z-0.125000
G01 X1567.560727 Y1222.787484 Z-0.125000
G01 X1556.377179 Y1222.787484 Z-0.125000
G01 X1545.193630 Y1215.331785 Z-0.125000
G01 X1534.010082 Y1211.603936 Z-0.125000
G01 X1522.826533 Y1207.876086 Z-0.125000
G01 X1511.642985 Y1207.876086 Z-0.125000
G01 X1500.459436 Y1204.148237 Z-0.125000
G01 X1496.731587 Y1192.964688 Z-0.125000
G01 X1489.275888 Y1185.508989 Z-0.125000
G01 X1485.548038 Y1200.420387 Z-0.125000
G01 X1474.364490 Y1196.692538 Z-0.125000
G01 X1478.092339 Y1189.236839 Z-0.125000
G01 X1470.636640 Y1185.508989 Z-0.125000
G01 X1463.180941 Y1178.053290 Z-0.125000
G01 X1455.725242 Y1189.236839 Z-0.125000
G01 X1448.269543 Y1181.781140 Z-0.125000
G01 X1455.725242 Y1166.869742 Z-0.125000
G01 X1440.813844 Y1170.597591 Z-0.125000
G01 X1429.630296 Y1166.869742 Z-0.125000
G01 X1418.446747 Y1159.414043 Z-0.125000
G01 X1410.991048 Y1151.958344 Z-0.125000
G01 X1403.535349 Y1144.502645 Z-0.125000
G01 X1392.351801 Y1140.774795 Z-0.125000
G01 X1384.896101 Y1133.319096 Z-0.125000
G01 X1377.440403 Y1125.863397 Z-0.125000
G01 X1366.256854 Y1122.135548 Z-0.125000
G01 X1355.073306 Y1118.407698 Z-0.125000
G01 X1351.345456 Y1107.224150 Z-0.125000
G01 X1340.161908 Y1110.951999 Z-0.125000
G01 X1328.978359 Y1103.496300 Z-0.125000
G01 X1321.522660 Y1099.768451 Z-0.125000
G01 X1332.706209 Y1088.584902 Z-0.125000
G01 X1328.978359 Y1081.129203 Z-0.125000
G01 X1325.250510 Y1069.945655 Z-0.125000
G01 X1310.339112 Y1069.945655 Z-0.125000
G01 X1314.066961 Y1084.857053 Z-0.125000
G01 X1310.339112 Y1096.040601 Z-0.125000
G01 X1299.155563 Y1096.040601 Z-0.125000
G01 X1295.427714 Y1110.951999 Z-0.125000
G01 X1306.611262 Y1110.951999 Z-0.125000
G01 X1317.794811 Y1118.407698 Z-0.125000
G01 X1325.250510 Y1122.135548 Z-0.125000
G01 X1340.161908 Y1125.863397 Z-0.125000
G01 X1351.345456 Y1133.319096 Z-0.125000
G01 X1366.256854 Y1137.046946 Z-0.125000
G01 X1373.712553 Y1148.230494 Z-0.125000
G01 X1373.712553 Y1159.414043 Z-0.125000
G01 X1388.623951 Y1159.414043 Z-0.125000
G01 X1396.079650 Y1166.869742 Z-0.125000
G01 X1392.351801 Y1178.053290 Z-0.125000
G01 X1407.263199 Y1174.325441 Z-0.125000
G01 X1418.446747 Y1178.053290 Z-0.125000
G01 X1425.902446 Y1185.508989 Z-0.125000
G01 X1437.085995 Y1185.508989 Z-0.125000
G01 X1440.813844 Y1196.692538 Z-0.125000
G01 X1448.269543 Y1204.148237 Z-0.125000
G01 X1459.453092 Y1200.420387 Z-0.125000
G01 X1466.908791 Y1207.876086 Z-0.125000
G00 Z5.000000

(End cutting path id: path25080)


(Start cutting path id: path25078)
(Change tool to Default tool)

G00 Z5.000000
G00 X885.364269 Y279.641561

G01 Z-0.125000 F100.0(Penetrate)
G01 X870.452871 Y275.913711 Z-0.125000 F400.000000
G01 X866.725021 Y268.458012 Z-0.125000
G01 X885.364269 Y264.730163 Z-0.125000
G01 X885.364269 Y253.546614 Z-0.125000
G01 X870.452871 Y249.818765 Z-0.125000
G01 X874.180720 Y238.635216 Z-0.125000
G01 X862.997172 Y234.907367 Z-0.125000
G01 X855.541473 Y227.451668 Z-0.125000
G01 X844.357924 Y223.723818 Z-0.125000
G01 X836.902225 Y216.268119 Z-0.125000
G01 X833.174376 Y205.084571 Z-0.125000
G01 X818.262978 Y205.084571 Z-0.125000
G01 X814.535128 Y197.628872 Z-0.125000
G01 X814.535128 Y186.445323 Z-0.125000
G01 X807.079429 Y178.989624 Z-0.125000
G01 X795.895881 Y175.261775 Z-0.125000
G01 X799.623730 Y160.350377 Z-0.125000
G01 X788.440182 Y156.622527 Z-0.125000
G01 X773.528784 Y156.622527 Z-0.125000
G01 X758.617386 Y156.622527 Z-0.125000
G01 X754.889536 Y145.438979 Z-0.125000
G01 X743.705987 Y141.711129 Z-0.125000
G01 X728.794590 Y141.711129 Z-0.125000
G01 X713.883192 Y145.438979 Z-0.125000
G01 X702.699643 Y141.711129 Z-0.125000
G01 X698.971794 Y156.622527 Z-0.125000
G01 X687.788245 Y145.438979 Z-0.125000
G01 X680.332546 Y137.983280 Z-0.125000
G01 X680.332546 Y123.071882 Z-0.125000
G01 X695.243944 Y119.344032 Z-0.125000
G01 X698.971794 Y126.799731 Z-0.125000
G01 X713.883192 Y123.071882 Z-0.125000
G01 X725.066740 Y126.799731 Z-0.125000
G01 X736.250289 Y126.799731 Z-0.125000
G01 X739.978138 Y115.616183 Z-0.125000
G01 X751.161687 Y126.799731 Z-0.125000
G01 X762.345235 Y134.255430 Z-0.125000
G01 X773.528784 Y141.711129 Z-0.125000
G01 X788.440182 Y141.711129 Z-0.125000
G01 X803.351580 Y145.438979 Z-0.125000
G01 X814.535128 Y156.622527 Z-0.125000
G01 X821.990827 Y164.078226 Z-0.125000
G01 X829.446526 Y171.533925 Z-0.125000
G01 X833.174376 Y186.445323 Z-0.125000
G01 X844.357924 Y190.173173 Z-0.125000
G01 X851.813623 Y201.356721 Z-0.125000
G01 X859.269322 Y212.540270 Z-0.125000
G01 X877.908570 Y219.995969 Z-0.125000
G01 X874.180720 Y212.540270 Z-0.125000
G01 X870.452871 Y197.628872 Z-0.125000
G01 X862.997172 Y186.445323 Z-0.125000
G01 X855.541473 Y175.261775 Z-0.125000
G01 X844.357924 Y167.806076 Z-0.125000
G01 X840.630075 Y152.894678 Z-0.125000
G01 X836.902225 Y145.438979 Z-0.125000
G01 X825.718677 Y141.711129 Z-0.125000
G01 X818.262978 Y134.255430 Z-0.125000
G01 X807.079429 Y130.527581 Z-0.125000
G01 X795.895881 Y126.799731 Z-0.125000
G01 X780.984483 Y126.799731 Z-0.125000
G01 X769.800934 Y115.616183 Z-0.125000
G01 X758.617386 Y111.888333 Z-0.125000
G01 X762.345235 Y100.704785 Z-0.125000
G01 X751.161687 Y96.976935 Z-0.125000
G01 X743.705987 Y85.793387 Z-0.125000
G01 X743.705987 Y74.609838 Z-0.125000
G01 X739.978138 Y67.154139 Z-0.125000
G01 X736.250289 Y52.242741 Z-0.125000
G01 X728.794590 Y44.787042 Z-0.125000
G01 X713.883192 Y37.331343 Z-0.125000
G01 X728.794590 Y29.875644 Z-0.125000
G01 X743.705987 Y29.875644 Z-0.125000
G01 X754.889536 Y33.603494 Z-0.125000
G01 X751.161687 Y48.514892 Z-0.125000
G01 X766.073085 Y41.059193 Z-0.125000
G01 X777.256633 Y48.514892 Z-0.125000
G01 X792.168031 Y48.514892 Z-0.125000
G01 X807.079429 Y48.514892 Z-0.125000
G01 X818.262978 Y52.242741 Z-0.125000
G01 X829.446526 Y63.426290 Z-0.125000
G01 X810.807279 Y67.154139 Z-0.125000
G01 X818.262978 Y78.337688 Z-0.125000
G01 X825.718677 Y85.793387 Z-0.125000
G01 X840.630075 Y82.065537 Z-0.125000
G01 X851.813623 Y85.793387 Z-0.125000
G01 X862.997172 Y89.521236 Z-0.125000
G01 X874.180720 Y70.881989 Z-0.125000
G01 X885.364269 Y78.337688 Z-0.125000
G01 X892.819968 Y93.249086 Z-0.125000
G01 X907.731366 Y93.249086 Z-0.125000
G01 X926.370613 Y96.976935 Z-0.125000
G01 X926.370613 Y78.337688 Z-0.125000
G01 X904.003516 Y74.609838 Z-0.125000
G01 X896.547817 Y59.698440 Z-0.125000
G01 X881.636419 Y52.242741 Z-0.125000
G01 X866.725021 Y48.514892 Z-0.125000
G01 X859.269322 Y67.154139 Z-0.125000
G01 X844.357924 Y63.426290 Z-0.125000
G01 X848.085774 Y48.514892 Z-0.125000
G01 X836.902225 Y41.059193 Z-0.125000
G01 X825.718677 Y29.875644 Z-0.125000
G01 X810.807279 Y29.875644 Z-0.125000
G01 X803.351580 Y11.236397 Z-0.125000
G01 X795.895881 Y29.875644 Z-0.125000
G01 X780.984483 Y29.875644 Z-0.125000
G01 X784.712332 Y14.964246 Z-0.125000
G01 X773.528784 Y3.780698 Z-0.125000
G01 X769.800934 Y22.419945 Z-0.125000
G01 X758.617386 Y14.964246 Z-0.125000
G01 X747.433837 Y3.780698 Z-0.125000
G01 X743.705987 Y14.964246 Z-0.125000
G01 X728.794590 Y14.964246 Z-0.125000
G01 X717.611041 Y11.236397 Z-0.125000
G01 X710.155342 Y26.147795 Z-0.125000
G01 X702.699643 Y18.692096 Z-0.125000
G01 X691.516095 Y11.236397 Z-0.125000
G01 X687.788245 Y29.875644 Z-0.125000
G01 X695.243944 Y37.331343 Z-0.125000
G01 X698.971794 Y48.514892 Z-0.125000
G01 X706.427493 Y55.970591 Z-0.125000
G01 X717.611041 Y59.698440 Z-0.125000
G01 X725.066740 Y67.154139 Z-0.125000
G01 X725.066740 Y82.065537 Z-0.125000
G01 X728.794590 Y93.249086 Z-0.125000
G01 X732.522439 Y104.432634 Z-0.125000
G01 X717.611041 Y108.160484 Z-0.125000
G01 X710.155342 Y100.704785 Z-0.125000
G01 X706.427493 Y89.521236 Z-0.125000
G01 X710.155342 Y78.337688 Z-0.125000
G01 X698.971794 Y74.609838 Z-0.125000
G01 X691.516095 Y89.521236 Z-0.125000
G01 X695.243944 Y104.432634 Z-0.125000
G01 X680.332546 Y108.160484 Z-0.125000
G01 X676.604697 Y93.249086 Z-0.125000
G01 X665.421148 Y93.249086 Z-0.125000
G01 X654.237599 Y89.521236 Z-0.125000
G01 X646.781901 Y82.065537 Z-0.125000
G01 X639.326202 Y74.609838 Z-0.125000
G01 X639.326202 Y59.698440 Z-0.125000
G01 X624.414804 Y59.698440 Z-0.125000
G01 X624.414804 Y48.514892 Z-0.125000
G01 X631.870503 Y33.603494 Z-0.125000
G01 X639.326202 Y41.059193 Z-0.125000
G01 X654.237599 Y37.331343 Z-0.125000
G01 X657.965449 Y52.242741 Z-0.125000
G01 X654.237599 Y63.426290 Z-0.125000
G01 X665.421148 Y67.154139 Z-0.125000
G01 X669.148998 Y78.337688 Z-0.125000
G01 X684.060396 Y70.881989 Z-0.125000
G01 X684.060396 Y59.698440 Z-0.125000
G01 X680.332546 Y52.242741 Z-0.125000
G01 X672.876847 Y44.787042 Z-0.125000
G01 X672.876847 Y29.875644 Z-0.125000
G01 X676.604697 Y14.964246 Z-0.125000
G01 X661.693299 Y22.419945 Z-0.125000
G01 X650.509750 Y22.419945 Z-0.125000
G01 X635.598352 Y14.964246 Z-0.125000
G01 X624.414804 Y11.236397 Z-0.125000
G01 X616.959105 Y26.147795 Z-0.125000
G01 X605.775556 Y26.147795 Z-0.125000
G01 X598.319857 Y14.964246 Z-0.125000
G01 X594.592008 Y37.331343 Z-0.125000
G01 X605.775556 Y44.787042 Z-0.125000
G01 X609.503406 Y59.698440 Z-0.125000
G01 X613.231255 Y74.609838 Z-0.125000
G01 X616.959105 Y82.065537 Z-0.125000
G01 X628.142653 Y89.521236 Z-0.125000
G01 X639.326202 Y96.976935 Z-0.125000
G01 X639.326202 Y108.160484 Z-0.125000
G01 X654.237599 Y108.160484 Z-0.125000
G01 X665.421148 Y111.888333 Z-0.125000
G01 X665.421148 Y126.799731 Z-0.125000
G01 X650.509750 Y126.799731 Z-0.125000
G01 X639.326202 Y123.071882 Z-0.125000
G01 X631.870503 Y137.983280 Z-0.125000
G01 X624.414804 Y123.071882 Z-0.125000
G01 X624.414804 Y108.160484 Z-0.125000
G01 X609.503406 Y96.976935 Z-0.125000
G01 X594.592008 Y100.704785 Z-0.125000
G01 X594.592008 Y85.793387 Z-0.125000
G01 X598.319857 Y74.609838 Z-0.125000
G01 X587.136309 Y67.154139 Z-0.125000
G01 X583.408459 Y52.242741 Z-0.125000
G01 X575.952760 Y44.787042 Z-0.125000
G01 X583.408459 Y29.875644 Z-0.125000
G01 X568.497061 Y26.147795 Z-0.125000
G01 X557.313513 Y37.331343 Z-0.125000
G01 X542.402115 Y37.331343 Z-0.125000
G01 X534.946416 Y55.970591 Z-0.125000
G01 X527.490717 Y48.514892 Z-0.125000
G01 X512.579318 Y48.514892 Z-0.125000
G01 X512.579318 Y63.426290 Z-0.125000
G01 X516.307168 Y78.337688 Z-0.125000
G01 X531.218566 Y78.337688 Z-0.125000
G01 X534.946416 Y89.521236 Z-0.125000
G01 X538.674265 Y100.704785 Z-0.125000
G01 X523.762867 Y104.432634 Z-0.125000
G01 X512.579318 Y96.976935 Z-0.125000
G01 X505.123620 Y115.616183 Z-0.125000
G01 X516.307168 Y119.344032 Z-0.125000
G01 X523.762867 Y126.799731 Z-0.125000
G01 X538.674265 Y115.616183 Z-0.125000
G01 X546.129964 Y123.071882 Z-0.125000
G01 X561.041362 Y123.071882 Z-0.125000
G01 X561.041362 Y104.432634 Z-0.125000
G01 X553.585663 Y96.976935 Z-0.125000
G01 X549.857814 Y82.065537 Z-0.125000
G01 X553.585663 Y70.881989 Z-0.125000
G01 X546.129964 Y63.426290 Z-0.125000
G01 X561.041362 Y52.242741 Z-0.125000
G01 X568.497061 Y63.426290 Z-0.125000
G01 X568.497061 Y78.337688 Z-0.125000
G01 X575.952760 Y89.521236 Z-0.125000
G01 X575.952760 Y104.432634 Z-0.125000
G01 X579.680610 Y115.616183 Z-0.125000
G01 X590.864158 Y119.344032 Z-0.125000
G01 X605.775556 Y115.616183 Z-0.125000
G01 X609.503406 Y126.799731 Z-0.125000
G01 X613.231255 Y141.711129 Z-0.125000
G01 X616.959105 Y156.622527 Z-0.125000
G01 X628.142653 Y164.078226 Z-0.125000
G01 X635.598352 Y175.261775 Z-0.125000
G01 X643.054051 Y186.445323 Z-0.125000
G01 X646.781901 Y201.356721 Z-0.125000
G01 X657.965449 Y208.812420 Z-0.125000
G01 X657.965449 Y223.723818 Z-0.125000
G01 X639.326202 Y223.723818 Z-0.125000
G01 X620.686954 Y219.995969 Z-0.125000
G01 X628.142653 Y201.356721 Z-0.125000
G01 X613.231255 Y193.901022 Z-0.125000
G01 X613.231255 Y178.989624 Z-0.125000
G01 X598.319857 Y175.261775 Z-0.125000
G01 X598.319857 Y160.350377 Z-0.125000
G01 X598.319857 Y141.711129 Z-0.125000
G01 X587.136309 Y134.255430 Z-0.125000
G01 X568.497061 Y134.255430 Z-0.125000
G01 X575.952760 Y149.166828 Z-0.125000
G01 X583.408459 Y156.622527 Z-0.125000
G01 X579.680610 Y171.533925 Z-0.125000
G01 X564.769212 Y164.078226 Z-0.125000
G01 X561.041362 Y149.166828 Z-0.125000
G01 X549.857814 Y141.711129 Z-0.125000
G01 X534.946416 Y137.983280 Z-0.125000
G01 X534.946416 Y152.894678 Z-0.125000
G01 X546.129964 Y160.350377 Z-0.125000
G01 X549.857814 Y175.261775 Z-0.125000
G01 X561.041362 Y182.717474 Z-0.125000
G01 X564.769212 Y190.173173 Z-0.125000
G01 X579.680610 Y190.173173 Z-0.125000
G01 X590.864158 Y197.628872 Z-0.125000
G01 X602.047707 Y208.812420 Z-0.125000
G01 X602.047707 Y223.723818 Z-0.125000
G01 X590.864158 Y238.635216 Z-0.125000
G01 X598.319857 Y246.090915 Z-0.125000
G01 X613.231255 Y242.363066 Z-0.125000
G01 X631.870503 Y246.090915 Z-0.125000
G01 X650.509750 Y242.363066 Z-0.125000
G01 X654.237599 Y257.274464 Z-0.125000
G01 X672.876847 Y264.730163 Z-0.125000
G01 X680.332546 Y279.641561 Z-0.125000
G01 X702.699643 Y279.641561 Z-0.125000
G01 X706.427493 Y294.552959 Z-0.125000
G01 X717.611041 Y309.464357 Z-0.125000
G01 X717.611041 Y328.103604 Z-0.125000
G01 X736.250289 Y331.831454 Z-0.125000
G01 X754.889536 Y339.287153 Z-0.125000
G01 X766.073085 Y350.470701 Z-0.125000
G01 X777.256633 Y365.382099 Z-0.125000
G01 X777.256633 Y387.749196 Z-0.125000
G01 X777.256633 Y406.388444 Z-0.125000
G01 X799.623730 Y406.388444 Z-0.125000
G01 X788.440182 Y425.027691 Z-0.125000
G01 X803.351580 Y432.483390 Z-0.125000
G01 X803.351580 Y447.394788 Z-0.125000
G01 X825.718677 Y443.666939 Z-0.125000
G01 X836.902225 Y454.850487 Z-0.125000
G01 X859.269322 Y458.578337 Z-0.125000
G01 X866.725021 Y469.761885 Z-0.125000
G01 X862.997172 Y480.945434 Z-0.125000
G01 X877.908570 Y477.217584 Z-0.125000
G01 X885.364269 Y477.217584 Z-0.125000
G01 X896.547817 Y477.217584 Z-0.125000
G01 X900.275667 Y484.673283 Z-0.125000
G01 X904.003516 Y492.128982 Z-0.125000
G01 X892.819968 Y492.128982 Z-0.125000
G01 X885.364269 Y488.401133 Z-0.125000
G01 X874.180720 Y495.856832 Z-0.125000
G01 X877.908570 Y510.768230 Z-0.125000
G01 X892.819968 Y514.496079 Z-0.125000
G01 X877.908570 Y529.407477 Z-0.125000
G01 X889.092118 Y536.863176 Z-0.125000
G01 X892.819968 Y544.318875 Z-0.125000
G01 X900.275667 Y548.046725 Z-0.125000
G01 X907.731366 Y555.502424 Z-0.125000
G01 X918.914914 Y555.502424 Z-0.125000
G01 X926.370613 Y559.230273 Z-0.125000
G01 X933.826312 Y574.141671 Z-0.125000
G01 X941.282011 Y592.780919 Z-0.125000
G01 X956.193409 Y600.236618 Z-0.125000
G01 X956.193409 Y618.875865 Z-0.125000
G01 X941.282011 Y607.692317 Z-0.125000
G01 X937.554162 Y615.148016 Z-0.125000
G01 X926.370613 Y611.420166 Z-0.125000
G01 X922.642764 Y618.875865 Z-0.125000
G01 X915.187065 Y615.148016 Z-0.125000
G01 X915.187065 Y596.508768 Z-0.125000
G01 X907.731366 Y577.869521 Z-0.125000
G01 X889.092118 Y577.869521 Z-0.125000
G01 X889.092118 Y562.958123 Z-0.125000
G01 X874.180720 Y562.958123 Z-0.125000
G01 X870.452871 Y548.046725 Z-0.125000
G01 X862.997172 Y529.407477 Z-0.125000
G01 X855.541473 Y514.496079 Z-0.125000
G01 X855.541473 Y499.584681 Z-0.125000
G01 X844.357924 Y484.673283 Z-0.125000
G01 X836.902225 Y473.489735 Z-0.125000
G01 X821.990827 Y469.761885 Z-0.125000
G01 X803.351580 Y466.034036 Z-0.125000
G01 X799.623730 Y492.128982 Z-0.125000
G01 X818.262978 Y495.856832 Z-0.125000
G01 X829.446526 Y507.040380 Z-0.125000
G01 X833.174376 Y518.223929 Z-0.125000
G01 X825.718677 Y536.863176 Z-0.125000
G01 X844.357924 Y536.863176 Z-0.125000
G01 X848.085774 Y551.774574 Z-0.125000
G01 X851.813623 Y566.685972 Z-0.125000
G01 X851.813623 Y581.597370 Z-0.125000
G01 X866.725021 Y585.325220 Z-0.125000
G01 X870.452871 Y596.508768 Z-0.125000
G01 X889.092118 Y596.508768 Z-0.125000
G01 X885.364269 Y607.692317 Z-0.125000
G01 X900.275667 Y615.148016 Z-0.125000
G01 X904.003516 Y622.603715 Z-0.125000
G01 X907.731366 Y626.331564 Z-0.125000
G01 X915.187065 Y630.059414 Z-0.125000
G01 X904.003516 Y641.242962 Z-0.125000
G01 X918.914914 Y652.426511 Z-0.125000
G01 X922.642764 Y637.515113 Z-0.125000
G01 X933.826312 Y637.515113 Z-0.125000
G01 X941.282011 Y641.242962 Z-0.125000
G01 X937.554162 Y648.698661 Z-0.125000
G01 X948.737710 Y644.970812 Z-0.125000
G01 X952.465560 Y648.698661 Z-0.125000
G01 X959.921259 Y652.426511 Z-0.125000
G01 X959.921259 Y667.337909 Z-0.125000
G01 X948.737710 Y659.882210 Z-0.125000
G01 X941.282011 Y659.882210 Z-0.125000
G01 X926.370613 Y671.065758 Z-0.125000
G01 X933.826312 Y674.793608 Z-0.125000
G01 X941.282011 Y685.977156 Z-0.125000
G01 X959.921259 Y689.705006 Z-0.125000
G01 X974.832657 Y700.888554 Z-0.125000
G01 X982.288356 Y685.977156 Z-0.125000
G01 X993.471904 Y689.705006 Z-0.125000
G01 X986.016205 Y704.616404 Z-0.125000
G01 X993.471904 Y712.072103 Z-0.125000
G01 X1000.927603 Y719.527802 Z-0.125000
G01 X1008.383302 Y726.983501 Z-0.125000
G01 X1019.566851 Y738.167049 Z-0.125000
G01 X1012.111152 Y753.078447 Z-0.125000
G01 X1023.294700 Y756.806297 Z-0.125000
G01 X1030.750399 Y741.894899 Z-0.125000
G01 X1038.206098 Y753.078447 Z-0.125000
G01 X1034.478249 Y764.261996 Z-0.125000
G01 X1045.661797 Y767.989845 Z-0.125000
G01 X1053.117496 Y775.445544 Z-0.125000
G01 X1064.301044 Y779.173394 Z-0.125000
G01 X1075.484593 Y786.629093 Z-0.125000
G01 X1068.028894 Y797.812641 Z-0.125000
G01 X1082.940292 Y801.540491 Z-0.125000
G01 X1071.756744 Y812.724039 Z-0.125000
G01 X1082.940292 Y820.179738 Z-0.125000
G01 X1086.668142 Y835.091136 Z-0.125000
G01 X1097.851690 Y838.818986 Z-0.125000
G01 X1101.579540 Y850.002534 Z-0.125000
G01 X1105.307389 Y861.186083 Z-0.125000
G01 X1116.490938 Y864.913932 Z-0.125000
G01 X1120.218787 Y876.097481 Z-0.125000
G01 X1116.490938 Y883.553180 Z-0.125000
G01 X1105.307389 Y876.097481 Z-0.125000
G01 X1090.395991 Y879.825330 Z-0.125000
G01 X1094.123841 Y891.008879 Z-0.125000
G01 X1105.307389 Y894.736728 Z-0.125000
G01 X1112.763088 Y902.192427 Z-0.125000
G01 X1116.490938 Y909.648126 Z-0.125000
G01 X1127.674486 Y917.103825 Z-0.125000
G01 X1138.858035 Y920.831675 Z-0.125000
G01 X1146.313734 Y928.287374 Z-0.125000
G01 X1157.497282 Y935.743073 Z-0.125000
G01 X1157.497282 Y946.926621 Z-0.125000
G01 X1161.225132 Y958.110170 Z-0.125000
G01 X1172.408680 Y954.382320 Z-0.125000
G01 X1176.136530 Y958.110170 Z-0.125000
G01 X1183.592229 Y961.838019 Z-0.125000
G01 X1191.047928 Y965.565869 Z-0.125000
G01 X1202.231476 Y965.565869 Z-0.125000
G01 X1198.503627 Y954.382320 Z-0.125000
G01 X1194.775777 Y950.654471 Z-0.125000
G01 X1187.320078 Y946.926621 Z-0.125000
G01 X1172.408680 Y939.470922 Z-0.125000
G01 X1187.320078 Y932.015223 Z-0.125000
G00 Z5.000000

(End cutting path id: path25078)


(Start cutting path id: path25076)
(Change tool to Default tool)

G00 Z5.000000
G00 X1146.313734 Y820.179738

G01 Z-0.125000 F100.0(Penetrate)
G01 X1146.313734 Y805.268340 Z-0.125000 F400.000000
G01 X1157.497282 Y808.996190 Z-0.125000
G01 X1172.408680 Y808.996190 Z-0.125000
G01 X1161.225132 Y794.084792 Z-0.125000
G01 X1146.313734 Y790.356942 Z-0.125000
G01 X1138.858035 Y782.901243 Z-0.125000
G01 X1135.130185 Y771.717695 Z-0.125000
G01 X1131.402335 Y760.534146 Z-0.125000
G01 X1127.674486 Y753.078447 Z-0.125000
G01 X1116.490938 Y749.350598 Z-0.125000
G01 X1112.763088 Y741.894899 Z-0.125000
G01 X1101.579540 Y738.167049 Z-0.125000
G01 X1094.123841 Y730.711350 Z-0.125000
G01 X1094.123841 Y715.799952 Z-0.125000
G01 X1082.940292 Y715.799952 Z-0.125000
G01 X1071.756744 Y712.072103 Z-0.125000
G01 X1071.756744 Y700.888554 Z-0.125000
G01 X1068.028894 Y689.705006 Z-0.125000
G01 X1053.117496 Y693.432855 Z-0.125000
G01 X1041.933948 Y689.705006 Z-0.125000
G01 X1053.117496 Y678.521457 Z-0.125000
G01 X1045.661797 Y671.065758 Z-0.125000
G01 X1034.478249 Y667.337909 Z-0.125000
G01 X1023.294700 Y663.610059 Z-0.125000
G01 X1008.383302 Y671.065758 Z-0.125000
G01 X997.199754 Y671.065758 Z-0.125000
G01 X986.016205 Y671.065758 Z-0.125000
G01 X978.560506 Y663.610059 Z-0.125000
G01 X974.832657 Y648.698661 Z-0.125000
G01 X971.104807 Y633.787263 Z-0.125000
G01 X982.288356 Y633.787263 Z-0.125000
G01 X993.471904 Y637.515113 Z-0.125000
G01 X989.744055 Y648.698661 Z-0.125000
G01 X1000.927603 Y652.426511 Z-0.125000
G01 X1012.111152 Y656.154360 Z-0.125000
G01 X1015.839001 Y644.970812 Z-0.125000
G01 X1030.750399 Y648.698661 Z-0.125000
G01 X1023.294700 Y633.787263 Z-0.125000
G01 X1008.383302 Y633.787263 Z-0.125000
G01 X1019.566851 Y618.875865 Z-0.125000
G01 X1004.655453 Y618.875865 Z-0.125000
G01 X993.471904 Y618.875865 Z-0.125000
G01 X982.288356 Y615.148016 Z-0.125000
G01 X978.560506 Y603.964467 Z-0.125000
G01 X971.104807 Y596.508768 Z-0.125000
G01 X971.104807 Y585.325220 Z-0.125000
G01 X963.649108 Y577.869521 Z-0.125000
G01 X956.193409 Y566.685972 Z-0.125000
G01 X948.737710 Y551.774574 Z-0.125000
G01 X956.193409 Y533.135327 Z-0.125000
G01 X948.737710 Y529.407477 Z-0.125000
G01 X941.282011 Y525.679628 Z-0.125000
G01 X933.826312 Y525.679628 Z-0.125000
G01 X933.826312 Y536.863176 Z-0.125000
G01 X937.554162 Y540.591026 Z-0.125000
G01 X926.370613 Y544.318875 Z-0.125000
G01 X918.914914 Y544.318875 Z-0.125000
G01 X911.459215 Y544.318875 Z-0.125000
G01 X922.642764 Y533.135327 Z-0.125000
G01 X918.914914 Y514.496079 Z-0.125000
G01 X911.459215 Y495.856832 Z-0.125000
G01 X918.914914 Y499.584681 Z-0.125000
G01 X930.098463 Y499.584681 Z-0.125000
G01 X933.826312 Y510.768230 Z-0.125000
G01 X941.282011 Y510.768230 Z-0.125000
G01 X945.009861 Y514.496079 Z-0.125000
G01 X956.193409 Y514.496079 Z-0.125000
G01 X971.104807 Y510.768230 Z-0.125000
G01 X967.376958 Y499.584681 Z-0.125000
G01 X956.193409 Y495.856832 Z-0.125000
G01 X956.193409 Y480.945434 Z-0.125000
G01 X956.193409 Y469.761885 Z-0.125000
G01 X941.282011 Y473.489735 Z-0.125000
G01 X930.098463 Y462.306186 Z-0.125000
G01 X926.370613 Y454.850487 Z-0.125000
G01 X918.914914 Y451.122638 Z-0.125000
G01 X911.459215 Y451.122638 Z-0.125000
G01 X915.187065 Y462.306186 Z-0.125000
G01 X918.914914 Y469.761885 Z-0.125000
G01 X907.731366 Y473.489735 Z-0.125000
G01 X904.003516 Y469.761885 Z-0.125000
G01 X896.547817 Y466.034036 Z-0.125000
G01 X889.092118 Y451.122638 Z-0.125000
G01 X874.180720 Y443.666939 Z-0.125000
G01 X855.541473 Y443.666939 Z-0.125000
G01 X848.085774 Y432.483390 Z-0.125000
G01 X829.446526 Y425.027691 Z-0.125000
G01 X818.262978 Y413.844143 Z-0.125000
G01 X821.990827 Y398.932745 Z-0.125000
G01 X818.262978 Y384.021347 Z-0.125000
G01 X799.623730 Y387.749196 Z-0.125000
G01 X795.895881 Y372.837798 Z-0.125000
G01 X799.623730 Y357.926400 Z-0.125000
G01 X788.440182 Y346.742852 Z-0.125000
G01 X810.807279 Y339.287153 Z-0.125000
G01 X799.623730 Y328.103604 Z-0.125000
G01 X784.712332 Y328.103604 Z-0.125000
G01 X769.800934 Y324.375755 Z-0.125000
G01 X758.617386 Y313.192206 Z-0.125000
G01 X739.978138 Y305.736507 Z-0.125000
G01 X736.250289 Y287.097260 Z-0.125000
G01 X728.794590 Y272.185862 Z-0.125000
G01 X728.794590 Y253.546614 Z-0.125000
G01 X710.155342 Y261.002313 Z-0.125000
G01 X698.971794 Y253.546614 Z-0.125000
G01 X684.060396 Y242.363066 Z-0.125000
G01 X672.876847 Y234.907367 Z-0.125000
G01 X680.332546 Y216.268119 Z-0.125000
G01 X695.243944 Y223.723818 Z-0.125000
G01 X706.427493 Y234.907367 Z-0.125000
G01 X721.338891 Y238.635216 Z-0.125000
G01 X713.883192 Y216.268119 Z-0.125000
G01 X702.699643 Y205.084571 Z-0.125000
G01 X695.243944 Y197.628872 Z-0.125000
G01 X676.604697 Y201.356721 Z-0.125000
G01 X669.148998 Y190.173173 Z-0.125000
G01 X661.693299 Y178.989624 Z-0.125000
G01 X654.237599 Y167.806076 Z-0.125000
G01 X646.781901 Y156.622527 Z-0.125000
G01 X643.054051 Y145.438979 Z-0.125000
G01 X661.693299 Y141.711129 Z-0.125000
G01 X665.421148 Y152.894678 Z-0.125000
G01 X676.604697 Y160.350377 Z-0.125000
G01 X680.332546 Y175.261775 Z-0.125000
G01 X691.516095 Y182.717474 Z-0.125000
G01 X706.427493 Y186.445323 Z-0.125000
G01 X713.883192 Y186.445323 Z-0.125000
G01 X721.338891 Y190.173173 Z-0.125000
G01 X732.522439 Y205.084571 Z-0.125000
G01 X728.794590 Y219.995969 Z-0.125000
G01 X739.978138 Y227.451668 Z-0.125000
G01 X743.705987 Y234.907367 Z-0.125000
G01 X754.889536 Y231.179517 Z-0.125000
G01 X758.617386 Y238.635216 Z-0.125000
G01 X769.800934 Y234.907367 Z-0.125000
G01 X780.984483 Y238.635216 Z-0.125000
G01 X784.712332 Y231.179517 Z-0.125000
G01 X777.256633 Y227.451668 Z-0.125000
G01 X769.800934 Y223.723818 Z-0.125000
G01 X762.345235 Y223.723818 Z-0.125000
G01 X762.345235 Y212.540270 Z-0.125000
G01 X773.528784 Y212.540270 Z-0.125000
G01 X784.712332 Y216.268119 Z-0.125000
G01 X777.256633 Y201.356721 Z-0.125000
G01 X766.073085 Y197.628872 Z-0.125000
G01 X762.345235 Y190.173173 Z-0.125000
G01 X751.161687 Y190.173173 Z-0.125000
G01 X739.978138 Y186.445323 Z-0.125000
G01 X732.522439 Y186.445323 Z-0.125000
G01 X728.794590 Y178.989624 Z-0.125000
G01 X721.338891 Y175.261775 Z-0.125000
G01 X713.883192 Y171.533925 Z-0.125000
G01 X713.883192 Y160.350377 Z-0.125000
G01 X728.794590 Y156.622527 Z-0.125000
G01 X739.978138 Y160.350377 Z-0.125000
G01 X743.705987 Y171.533925 Z-0.125000
G01 X754.889536 Y175.261775 Z-0.125000
G01 X766.073085 Y175.261775 Z-0.125000
G01 X780.984483 Y171.533925 Z-0.125000
G01 X780.984483 Y186.445323 Z-0.125000
G01 X792.168031 Y193.901022 Z-0.125000
G01 X795.895881 Y201.356721 Z-0.125000
G01 X799.623730 Y212.540270 Z-0.125000
G01 X807.079429 Y219.995969 Z-0.125000
G01 X821.990827 Y219.995969 Z-0.125000
G01 X825.718677 Y231.179517 Z-0.125000
G01 X833.174376 Y238.635216 Z-0.125000
G01 X844.357924 Y242.363066 Z-0.125000
G01 X851.813623 Y249.818765 Z-0.125000
G01 X855.541473 Y261.002313 Z-0.125000
G01 X851.813623 Y275.913711 Z-0.125000
G01 X840.630075 Y268.458012 Z-0.125000
G01 X833.174376 Y257.274464 Z-0.125000
G01 X821.990827 Y253.546614 Z-0.125000
G01 X814.535128 Y249.818765 Z-0.125000
G01 X810.807279 Y242.363066 Z-0.125000
G01 X803.351580 Y231.179517 Z-0.125000
G01 X792.168031 Y234.907367 Z-0.125000
G01 X795.895881 Y242.363066 Z-0.125000
G01 X795.895881 Y253.546614 Z-0.125000
G01 X814.535128 Y264.730163 Z-0.125000
G01 X818.262978 Y275.913711 Z-0.125000
G01 X821.990827 Y268.458012 Z-0.125000
G01 X829.446526 Y272.185862 Z-0.125000
G01 X829.446526 Y283.369410 Z-0.125000
G01 X840.630075 Y283.369410 Z-0.125000
G01 X848.085774 Y290.825109 Z-0.125000
G01 X859.269322 Y290.825109 Z-0.125000
G01 X866.725021 Y294.552959 Z-0.125000
G01 X877.908570 Y294.552959 Z-0.125000
G01 X889.092118 Y298.280808 Z-0.125000
G01 X896.547817 Y305.736507 Z-0.125000
G01 X907.731366 Y313.192206 Z-0.125000
G01 X907.731366 Y324.375755 Z-0.125000
G01 X892.819968 Y324.375755 Z-0.125000
G01 X881.636419 Y320.647905 Z-0.125000
G01 X874.180720 Y313.192206 Z-0.125000
G01 X862.997172 Y309.464357 Z-0.125000
G01 X855.541473 Y309.464357 Z-0.125000
G01 X848.085774 Y305.736507 Z-0.125000
G01 X840.630075 Y298.280808 Z-0.125000
G01 X833.174376 Y294.552959 Z-0.125000
G01 X825.718677 Y290.825109 Z-0.125000
G01 X818.262978 Y290.825109 Z-0.125000
G01 X810.807279 Y287.097260 Z-0.125000
G01 X807.079429 Y283.369410 Z-0.125000
G01 X803.351580 Y275.913711 Z-0.125000
G01 X795.895881 Y287.097260 Z-0.125000
G01 X784.712332 Y283.369410 Z-0.125000
G01 X777.256633 Y272.185862 Z-0.125000
G01 X766.073085 Y264.730163 Z-0.125000
G01 X762.345235 Y253.546614 Z-0.125000
G01 X743.705987 Y253.546614 Z-0.125000
G01 X747.433837 Y268.458012 Z-0.125000
G01 X754.889536 Y283.369410 Z-0.125000
G01 X762.345235 Y294.552959 Z-0.125000
G01 X777.256633 Y302.008658 Z-0.125000
G01 X792.168031 Y302.008658 Z-0.125000
G01 X795.895881 Y309.464357 Z-0.125000
G01 X814.535128 Y309.464357 Z-0.125000
G01 X821.990827 Y320.647905 Z-0.125000
G01 X833.174376 Y331.831454 Z-0.125000
G01 X836.902225 Y343.015002 Z-0.125000
G01 X844.357924 Y343.015002 Z-0.125000
G01 X851.813623 Y343.015002 Z-0.125000
G01 X851.813623 Y328.103604 Z-0.125000
G01 X859.269322 Y331.831454 Z-0.125000
G01 X862.997172 Y320.647905 Z-0.125000
G01 X866.725021 Y331.831454 Z-0.125000
G01 X870.452871 Y335.559303 Z-0.125000
G01 X881.636419 Y339.287153 Z-0.125000
G01 X892.819968 Y339.287153 Z-0.125000
G01 X900.275667 Y343.015002 Z-0.125000
G01 X904.003516 Y357.926400 Z-0.125000
G01 X911.459215 Y365.382099 Z-0.125000
G01 X918.914914 Y376.565648 Z-0.125000
G01 X933.826312 Y376.565648 Z-0.125000
G01 X930.098463 Y387.749196 Z-0.125000
G01 X945.009861 Y387.749196 Z-0.125000
G01 X956.193409 Y395.204895 Z-0.125000
G01 X959.921259 Y410.116293 Z-0.125000
G01 X971.104807 Y398.932745 Z-0.125000
G01 X974.832657 Y406.388444 Z-0.125000
G01 X982.288356 Y417.571992 Z-0.125000
G01 X993.471904 Y421.299842 Z-0.125000
G01 X1000.927603 Y428.755541 Z-0.125000
G01 X1015.839001 Y425.027691 Z-0.125000
G01 X1012.111152 Y436.211240 Z-0.125000
G01 X1019.566851 Y443.666939 Z-0.125000
G01 X1034.478249 Y451.122638 Z-0.125000
G01 X1034.478249 Y439.939089 Z-0.125000
G01 X1034.478249 Y428.755541 Z-0.125000
G01 X1030.750399 Y417.571992 Z-0.125000
G01 X1027.022549 Y402.660594 Z-0.125000
G01 X1041.933948 Y398.932745 Z-0.125000
G01 X1030.750399 Y384.021347 Z-0.125000
G01 X1030.750399 Y369.109949 Z-0.125000
G01 X1027.022549 Y357.926400 Z-0.125000
G01 X1023.294700 Y346.742852 Z-0.125000
G01 X1012.111152 Y339.287153 Z-0.125000
G01 X1004.655453 Y354.198551 Z-0.125000
G01 X993.471904 Y346.742852 Z-0.125000
G01 X986.016205 Y339.287153 Z-0.125000
G01 X978.560506 Y331.831454 Z-0.125000
G01 X967.376958 Y328.103604 Z-0.125000
G01 X959.921259 Y313.192206 Z-0.125000
G01 X974.832657 Y309.464357 Z-0.125000
G01 X971.104807 Y298.280808 Z-0.125000
G01 X963.649108 Y290.825109 Z-0.125000
G01 X952.465560 Y287.097260 Z-0.125000
G01 X952.465560 Y272.185862 Z-0.125000
G01 X937.554162 Y268.458012 Z-0.125000
G01 X930.098463 Y261.002313 Z-0.125000
G01 X922.642764 Y253.546614 Z-0.125000
G01 X933.826312 Y242.363066 Z-0.125000
G01 X922.642764 Y234.907367 Z-0.125000
G01 X915.187065 Y223.723818 Z-0.125000
G01 X911.459215 Y216.268119 Z-0.125000
G01 X915.187065 Y197.628872 Z-0.125000
G01 X907.731366 Y190.173173 Z-0.125000
G01 X907.731366 Y171.533925 Z-0.125000
G01 X922.642764 Y175.261775 Z-0.125000
G01 X933.826312 Y182.717474 Z-0.125000
G01 X933.826312 Y197.628872 Z-0.125000
G01 X933.826312 Y212.540270 Z-0.125000
G01 X937.554162 Y223.723818 Z-0.125000
G01 X952.465560 Y223.723818 Z-0.125000
G01 X948.737710 Y242.363066 Z-0.125000
G01 X952.465560 Y253.546614 Z-0.125000
G01 X967.376958 Y257.274464 Z-0.125000
G01 X967.376958 Y272.185862 Z-0.125000
G01 X978.560506 Y279.641561 Z-0.125000
G01 X989.744055 Y290.825109 Z-0.125000
G01 X997.199754 Y298.280808 Z-0.125000
G01 X986.016205 Y316.920056 Z-0.125000
G01 X1000.927603 Y316.920056 Z-0.125000
G01 X1004.655453 Y328.103604 Z-0.125000
G01 X1027.022549 Y324.375755 Z-0.125000
G01 X1019.566851 Y309.464357 Z-0.125000
G01 X1012.111152 Y298.280808 Z-0.125000
G01 X1008.383302 Y279.641561 Z-0.125000
G01 X997.199754 Y272.185862 Z-0.125000
G01 X1000.927603 Y257.274464 Z-0.125000
G01 X986.016205 Y257.274464 Z-0.125000
G01 X982.288356 Y242.363066 Z-0.125000
G01 X967.376958 Y238.635216 Z-0.125000
G01 X971.104807 Y223.723818 Z-0.125000
G01 X967.376958 Y208.812420 Z-0.125000
G01 X956.193409 Y197.628872 Z-0.125000
G01 X956.193409 Y182.717474 Z-0.125000
G01 X956.193409 Y167.806076 Z-0.125000
G01 X941.282011 Y164.078226 Z-0.125000
G01 X933.826312 Y152.894678 Z-0.125000
G01 X911.459215 Y160.350377 Z-0.125000
G01 X896.547817 Y160.350377 Z-0.125000
G01 X889.092118 Y152.894678 Z-0.125000
G01 X877.908570 Y145.438979 Z-0.125000
G01 X870.452871 Y126.799731 Z-0.125000
G01 X881.636419 Y130.527581 Z-0.125000
G01 X896.547817 Y130.527581 Z-0.125000
G01 X904.003516 Y141.711129 Z-0.125000
G01 X918.914914 Y145.438979 Z-0.125000
G01 X930.098463 Y126.799731 Z-0.125000
G01 X915.187065 Y123.071882 Z-0.125000
G01 X911.459215 Y111.888333 Z-0.125000
G01 X896.547817 Y111.888333 Z-0.125000
G01 X881.636419 Y111.888333 Z-0.125000
G01 X874.180720 Y96.976935 Z-0.125000
G01 X866.725021 Y111.888333 Z-0.125000
G01 X855.541473 Y108.160484 Z-0.125000
G01 X844.357924 Y104.432634 Z-0.125000
G01 X833.174376 Y100.704785 Z-0.125000
G01 X818.262978 Y100.704785 Z-0.125000
G01 X803.351580 Y93.249086 Z-0.125000
G01 X799.623730 Y82.065537 Z-0.125000
G01 X788.440182 Y78.337688 Z-0.125000
G01 X792.168031 Y63.426290 Z-0.125000
G01 X777.256633 Y67.154139 Z-0.125000
G01 X769.800934 Y59.698440 Z-0.125000
G01 X758.617386 Y59.698440 Z-0.125000
G01 X758.617386 Y78.337688 Z-0.125000
G01 X769.800934 Y82.065537 Z-0.125000
G01 X777.256633 Y93.249086 Z-0.125000
G01 X784.712332 Y100.704785 Z-0.125000
G01 X784.712332 Y111.888333 Z-0.125000
G01 X799.623730 Y108.160484 Z-0.125000
G01 X810.807279 Y115.616183 Z-0.125000
G01 X825.718677 Y115.616183 Z-0.125000
G01 X836.902225 Y123.071882 Z-0.125000
G01 X848.085774 Y126.799731 Z-0.125000
G01 X855.541473 Y137.983280 Z-0.125000
G01 X859.269322 Y149.166828 Z-0.125000
G01 X862.997172 Y160.350377 Z-0.125000
G01 X874.180720 Y164.078226 Z-0.125000
G01 X877.908570 Y175.261775 Z-0.125000
G01 X889.092118 Y182.717474 Z-0.125000
G01 X885.364269 Y193.901022 Z-0.125000
G01 X892.819968 Y205.084571 Z-0.125000
G01 X896.547817 Y216.268119 Z-0.125000
G01 X889.092118 Y231.179517 Z-0.125000
G01 X892.819968 Y238.635216 Z-0.125000
G01 X904.003516 Y242.363066 Z-0.125000
G01 X907.731366 Y249.818765 Z-0.125000
G01 X900.275667 Y264.730163 Z-0.125000
G01 X911.459215 Y268.458012 Z-0.125000
G01 X918.914914 Y275.913711 Z-0.125000
G01 X930.098463 Y283.369410 Z-0.125000
G01 X941.282011 Y287.097260 Z-0.125000
G01 X941.282011 Y305.736507 Z-0.125000
G01 X945.009861 Y313.192206 Z-0.125000
G01 X952.465560 Y328.103604 Z-0.125000
G01 X937.554162 Y328.103604 Z-0.125000
G01 X937.554162 Y343.015002 Z-0.125000
G01 X952.465560 Y343.015002 Z-0.125000
G01 X959.921259 Y350.470701 Z-0.125000
G01 X971.104807 Y354.198551 Z-0.125000
G01 X974.832657 Y361.654250 Z-0.125000
G01 X989.744055 Y365.382099 Z-0.125000
G01 X1004.655453 Y369.109949 Z-0.125000
G01 X1012.111152 Y372.837798 Z-0.125000
G01 X1012.111152 Y387.749196 Z-0.125000
G01 X1012.111152 Y398.932745 Z-0.125000
G01 X1012.111152 Y413.844143 Z-0.125000
G01 X997.199754 Y406.388444 Z-0.125000
G01 X993.471904 Y395.204895 Z-0.125000
G01 X993.471904 Y384.021347 Z-0.125000
G01 X982.288356 Y380.293497 Z-0.125000
G01 X971.104807 Y380.293497 Z-0.125000
G01 X959.921259 Y376.565648 Z-0.125000
G01 X952.465560 Y369.109949 Z-0.125000
G01 X945.009861 Y357.926400 Z-0.125000
G01 X930.098463 Y361.654250 Z-0.125000
G01 X922.642764 Y350.470701 Z-0.125000
G01 X915.187065 Y343.015002 Z-0.125000
G01 X918.914914 Y331.831454 Z-0.125000
G01 X926.370613 Y313.192206 Z-0.125000
G01 X926.370613 Y302.008658 Z-0.125000
G01 X915.187065 Y298.280808 Z-0.125000
G01 X907.731366 Y290.825109 Z-0.125000
G01 X896.547817 Y283.369410 Z-0.125000
G01 X885.364269 Y279.641561 Z-0.125000
G00 Z5.000000

(End cutting path id: path25076)


(Start cutting path id: path25074)
(Change tool to Default tool)

G00 Z5.000000
G00 X1246.965670 Y615.148016

G01 Z-0.125000 F100.0(Penetrate)
G01 X1243.237820 Y626.331564 Z-0.125000 F400.000000
G01 X1232.054272 Y626.331564 Z-0.125000
G01 X1220.870724 Y622.603715 Z-0.125000
G01 X1213.415025 Y615.148016 Z-0.125000
G01 X1202.231476 Y615.148016 Z-0.125000
G01 X1205.959325 Y630.059414 Z-0.125000
G01 X1220.870724 Y641.242962 Z-0.125000
G01 X1232.054272 Y641.242962 Z-0.125000
G01 X1235.782122 Y648.698661 Z-0.125000
G01 X1220.870724 Y656.154360 Z-0.125000
G01 X1228.326423 Y663.610059 Z-0.125000
G01 X1235.782122 Y667.337909 Z-0.125000
G01 X1250.693520 Y667.337909 Z-0.125000
G01 X1254.421369 Y656.154360 Z-0.125000
G01 X1246.965670 Y652.426511 Z-0.125000
G01 X1250.693520 Y637.515113 Z-0.125000
G01 X1258.149219 Y622.603715 Z-0.125000
G01 X1269.332767 Y626.331564 Z-0.125000
G01 X1265.604918 Y637.515113 Z-0.125000
G01 X1276.788466 Y641.242962 Z-0.125000
G01 X1287.972015 Y641.242962 Z-0.125000
G01 X1284.244165 Y626.331564 Z-0.125000
G01 X1273.060617 Y611.420166 Z-0.125000
G01 X1269.332767 Y600.236618 Z-0.125000
G01 X1284.244165 Y596.508768 Z-0.125000
G01 X1287.972015 Y607.692317 Z-0.125000
G01 X1299.155563 Y611.420166 Z-0.125000
G01 X1302.883413 Y618.875865 Z-0.125000
G01 X1302.883413 Y633.787263 Z-0.125000
G01 X1306.611262 Y644.970812 Z-0.125000
G01 X1314.066961 Y656.154360 Z-0.125000
G01 X1306.611262 Y671.065758 Z-0.125000
G01 X1295.427714 Y663.610059 Z-0.125000
G01 X1287.972015 Y656.154360 Z-0.125000
G01 X1276.788466 Y659.882210 Z-0.125000
G01 X1265.604918 Y656.154360 Z-0.125000
G01 X1265.604918 Y671.065758 Z-0.125000
G01 X1276.788466 Y674.793608 Z-0.125000
G01 X1287.972015 Y678.521457 Z-0.125000
G01 X1295.427714 Y685.977156 Z-0.125000
G01 X1287.972015 Y700.888554 Z-0.125000
G01 X1302.883413 Y697.160705 Z-0.125000
G01 X1314.066961 Y704.616404 Z-0.125000
G01 X1310.339112 Y719.527802 Z-0.125000
G01 X1310.339112 Y730.711350 Z-0.125000
G01 X1321.522660 Y741.894899 Z-0.125000
G01 X1336.434058 Y749.350598 Z-0.125000
G01 X1347.617606 Y756.806297 Z-0.125000
G01 X1369.984704 Y756.806297 Z-0.125000
G01 X1381.168252 Y764.261996 Z-0.125000
G01 X1399.807500 Y775.445544 Z-0.125000
G01 X1418.446747 Y782.901243 Z-0.125000
G01 X1433.358145 Y790.356942 Z-0.125000
G01 X1444.541694 Y801.540491 Z-0.125000
G01 X1463.180941 Y805.268340 Z-0.125000
G01 X1459.453092 Y820.179738 Z-0.125000
G01 X1466.908791 Y831.363287 Z-0.125000
G01 X1489.275888 Y838.818986 Z-0.125000
G01 X1493.003737 Y857.458233 Z-0.125000
G01 X1511.642985 Y861.186083 Z-0.125000
G01 X1522.826533 Y872.369631 Z-0.125000
G01 X1530.282232 Y887.281029 Z-0.125000
G01 X1545.193630 Y894.736728 Z-0.125000
G01 X1541.465781 Y909.648126 Z-0.125000
G01 X1545.193630 Y924.559524 Z-0.125000
G01 X1560.105028 Y932.015223 Z-0.125000
G01 X1556.377179 Y943.198772 Z-0.125000
G01 X1556.377179 Y961.838019 Z-0.125000
G01 X1545.193630 Y961.838019 Z-0.125000
G01 X1534.010082 Y954.382320 Z-0.125000
G01 X1534.010082 Y939.470922 Z-0.125000
G01 X1522.826533 Y928.287374 Z-0.125000
G01 X1519.098684 Y909.648126 Z-0.125000
G01 X1504.187286 Y898.464578 Z-0.125000
G01 X1489.275888 Y894.736728 Z-0.125000
G01 X1489.275888 Y879.825330 Z-0.125000
G01 X1466.908791 Y879.825330 Z-0.125000
G01 X1470.636640 Y861.186083 Z-0.125000
G01 X1459.453092 Y850.002534 Z-0.125000
G01 X1440.813844 Y842.546835 Z-0.125000
G01 X1437.085995 Y823.907588 Z-0.125000
G01 X1422.174597 Y812.724039 Z-0.125000
G01 X1403.535349 Y808.996190 Z-0.125000
G01 X1396.079650 Y797.812641 Z-0.125000
G01 X1381.168252 Y794.084792 Z-0.125000
G01 X1369.984704 Y782.901243 Z-0.125000
G01 X1351.345456 Y775.445544 Z-0.125000
G01 X1347.617606 Y797.812641 Z-0.125000
G01 X1347.617606 Y812.724039 Z-0.125000
G01 X1358.801155 Y812.724039 Z-0.125000
G01 X1362.529005 Y816.451889 Z-0.125000
G01 X1373.712553 Y820.179738 Z-0.125000
G01 X1381.168252 Y827.635437 Z-0.125000
G01 X1388.623951 Y835.091136 Z-0.125000
G01 X1403.535349 Y831.363287 Z-0.125000
G01 X1399.807500 Y842.546835 Z-0.125000
G01 X1414.718898 Y838.818986 Z-0.125000
G01 X1422.174597 Y846.274685 Z-0.125000
G01 X1422.174597 Y861.186083 Z-0.125000
G01 X1433.358145 Y864.913932 Z-0.125000
G01 X1444.541694 Y872.369631 Z-0.125000
G01 X1440.813844 Y887.281029 Z-0.125000
G01 X1429.630296 Y883.553180 Z-0.125000
G01 X1414.718898 Y876.097481 Z-0.125000
G01 X1399.807500 Y872.369631 Z-0.125000
G01 X1407.263199 Y857.458233 Z-0.125000
G01 X1392.351801 Y857.458233 Z-0.125000
G01 X1381.168252 Y850.002534 Z-0.125000
G01 X1373.712553 Y838.818986 Z-0.125000
G01 X1362.529005 Y831.363287 Z-0.125000
G01 X1347.617606 Y831.363287 Z-0.125000
G01 X1336.434058 Y820.179738 Z-0.125000
G01 X1332.706209 Y831.363287 Z-0.125000
G01 X1321.522660 Y827.635437 Z-0.125000
G01 X1310.339112 Y823.907588 Z-0.125000
G01 X1302.883413 Y820.179738 Z-0.125000
G01 X1291.699864 Y823.907588 Z-0.125000
G01 X1284.244165 Y820.179738 Z-0.125000
G01 X1284.244165 Y805.268340 Z-0.125000
G01 X1273.060617 Y794.084792 Z-0.125000
G01 X1265.604918 Y775.445544 Z-0.125000
G01 X1250.693520 Y767.989845 Z-0.125000
G01 X1246.965670 Y753.078447 Z-0.125000
G01 X1235.782122 Y741.894899 Z-0.125000
G01 X1228.326423 Y726.983501 Z-0.125000
G01 X1235.782122 Y708.344253 Z-0.125000
G01 X1254.421369 Y704.616404 Z-0.125000
G01 X1250.693520 Y723.255651 Z-0.125000
G01 X1261.877068 Y730.711350 Z-0.125000
G01 X1269.332767 Y745.622748 Z-0.125000
G01 X1276.788466 Y756.806297 Z-0.125000
G01 X1284.244165 Y775.445544 Z-0.125000
G01 X1299.155563 Y782.901243 Z-0.125000
G01 X1310.339112 Y797.812641 Z-0.125000
G01 X1325.250510 Y805.268340 Z-0.125000
G01 X1328.978359 Y782.901243 Z-0.125000
G01 X1321.522660 Y771.717695 Z-0.125000
G01 X1310.339112 Y760.534146 Z-0.125000
G01 X1295.427714 Y753.078447 Z-0.125000
G01 X1295.427714 Y730.711350 Z-0.125000
G01 X1291.699864 Y726.983501 Z-0.125000
G01 X1280.516316 Y726.983501 Z-0.125000
G01 X1291.699864 Y715.799952 Z-0.125000
G01 X1280.516316 Y715.799952 Z-0.125000
G01 X1273.060617 Y712.072103 Z-0.125000
G01 X1273.060617 Y700.888554 Z-0.125000
G01 X1276.788466 Y693.432855 Z-0.125000
G01 X1269.332767 Y685.977156 Z-0.125000
G01 X1254.421369 Y685.977156 Z-0.125000
G01 X1239.509971 Y685.977156 Z-0.125000
G01 X1220.870724 Y693.432855 Z-0.125000
G01 X1217.142874 Y678.521457 Z-0.125000
G01 X1205.959325 Y671.065758 Z-0.125000
G01 X1194.775777 Y663.610059 Z-0.125000
G01 X1202.231476 Y648.698661 Z-0.125000
G01 X1191.047928 Y641.242962 Z-0.125000
G01 X1176.136530 Y648.698661 Z-0.125000
G01 X1179.864379 Y663.610059 Z-0.125000
G01 X1161.225132 Y659.882210 Z-0.125000
G01 X1161.225132 Y644.970812 Z-0.125000
G01 X1157.497282 Y637.515113 Z-0.125000
G01 X1150.041583 Y630.059414 Z-0.125000
G01 X1138.858035 Y630.059414 Z-0.125000
G01 X1131.402335 Y641.242962 Z-0.125000
G01 X1138.858035 Y648.698661 Z-0.125000
G01 X1146.313734 Y656.154360 Z-0.125000
G01 X1146.313734 Y671.065758 Z-0.125000
G01 X1161.225132 Y674.793608 Z-0.125000
G01 X1176.136530 Y682.249307 Z-0.125000
G01 X1191.047928 Y685.977156 Z-0.125000
G01 X1202.231476 Y693.432855 Z-0.125000
G01 X1213.415025 Y712.072103 Z-0.125000
G01 X1209.687175 Y730.711350 Z-0.125000
G01 X1194.775777 Y723.255651 Z-0.125000
G01 X1191.047928 Y708.344253 Z-0.125000
G01 X1176.136530 Y700.888554 Z-0.125000
G01 X1168.680830 Y715.799952 Z-0.125000
G01 X1176.136530 Y723.255651 Z-0.125000
G01 X1183.592229 Y738.167049 Z-0.125000
G01 X1194.775777 Y745.622748 Z-0.125000
G01 X1209.687175 Y749.350598 Z-0.125000
G01 X1205.959325 Y760.534146 Z-0.125000
G01 X1220.870724 Y764.261996 Z-0.125000
G01 X1228.326423 Y771.717695 Z-0.125000
G01 X1235.782122 Y786.629093 Z-0.125000
G01 X1246.965670 Y794.084792 Z-0.125000
G01 X1250.693520 Y805.268340 Z-0.125000
G01 X1261.877068 Y816.451889 Z-0.125000
G01 X1239.509971 Y823.907588 Z-0.125000
G01 X1239.509971 Y838.818986 Z-0.125000
G01 X1232.054272 Y853.730384 Z-0.125000
G01 X1235.782122 Y864.913932 Z-0.125000
G01 X1258.149219 Y861.186083 Z-0.125000
G01 X1269.332767 Y864.913932 Z-0.125000
G01 X1276.788466 Y868.641782 Z-0.125000
G01 X1284.244165 Y879.825330 Z-0.125000
G01 X1287.972015 Y891.008879 Z-0.125000
G01 X1302.883413 Y891.008879 Z-0.125000
G01 X1306.611262 Y905.920277 Z-0.125000
G01 X1317.794811 Y909.648126 Z-0.125000
G01 X1328.978359 Y913.375976 Z-0.125000
G01 X1343.889757 Y913.375976 Z-0.125000
G01 X1355.073306 Y917.103825 Z-0.125000
G01 X1369.984704 Y917.103825 Z-0.125000
G01 X1381.168252 Y920.831675 Z-0.125000
G01 X1388.623951 Y928.287374 Z-0.125000
G01 X1399.807500 Y932.015223 Z-0.125000
G01 X1403.535349 Y917.103825 Z-0.125000
G01 X1396.079650 Y905.920277 Z-0.125000
G01 X1384.896101 Y902.192427 Z-0.125000
G01 X1369.984704 Y902.192427 Z-0.125000
G01 X1369.984704 Y887.281029 Z-0.125000
G01 X1355.073306 Y898.464578 Z-0.125000
G01 X1340.161908 Y898.464578 Z-0.125000
G01 X1328.978359 Y894.736728 Z-0.125000
G01 X1317.794811 Y891.008879 Z-0.125000
G01 X1325.250510 Y876.097481 Z-0.125000
G01 X1336.434058 Y879.825330 Z-0.125000
G01 X1355.073306 Y883.553180 Z-0.125000
G01 X1351.345456 Y876.097481 Z-0.125000
G01 X1347.617606 Y864.913932 Z-0.125000
G01 X1336.434058 Y861.186083 Z-0.125000
G01 X1321.522660 Y861.186083 Z-0.125000
G01 X1306.611262 Y861.186083 Z-0.125000
G01 X1310.339112 Y876.097481 Z-0.125000
G01 X1299.155563 Y876.097481 Z-0.125000
G01 X1291.699864 Y864.913932 Z-0.125000
G01 X1291.699864 Y853.730384 Z-0.125000
G01 X1280.516316 Y853.730384 Z-0.125000
G01 X1273.060617 Y850.002534 Z-0.125000
G01 X1258.149219 Y846.274685 Z-0.125000
G01 X1261.877068 Y831.363287 Z-0.125000
G01 X1276.788466 Y835.091136 Z-0.125000
G01 X1284.244165 Y838.818986 Z-0.125000
G01 X1295.427714 Y835.091136 Z-0.125000
G01 X1306.611262 Y842.546835 Z-0.125000
G01 X1317.794811 Y846.274685 Z-0.125000
G01 X1332.706209 Y846.274685 Z-0.125000
G01 X1347.617606 Y846.274685 Z-0.125000
G01 X1358.801155 Y850.002534 Z-0.125000
G01 X1366.256854 Y861.186083 Z-0.125000
G01 X1373.712553 Y868.641782 Z-0.125000
G01 X1381.168252 Y876.097481 Z-0.125000
G01 X1384.896101 Y887.281029 Z-0.125000
G01 X1399.807500 Y887.281029 Z-0.125000
G01 X1410.991048 Y894.736728 Z-0.125000
G01 X1422.174597 Y898.464578 Z-0.125000
G01 X1422.174597 Y913.375976 Z-0.125000
G01 X1433.358145 Y917.103825 Z-0.125000
G01 X1425.902446 Y932.015223 Z-0.125000
G01 X1414.718898 Y932.015223 Z-0.125000
G01 X1407.263199 Y946.926621 Z-0.125000
G01 X1414.718898 Y954.382320 Z-0.125000
G01 X1429.630296 Y958.110170 Z-0.125000
G01 X1433.358145 Y943.198772 Z-0.125000
G01 X1448.269543 Y950.654471 Z-0.125000
G01 X1463.180941 Y954.382320 Z-0.125000
G01 X1481.820189 Y950.654471 Z-0.125000
G01 X1470.636640 Y935.743073 Z-0.125000
G01 X1455.725242 Y932.015223 Z-0.125000
G01 X1448.269543 Y920.831675 Z-0.125000
G01 X1437.085995 Y902.192427 Z-0.125000
G01 X1451.997393 Y898.464578 Z-0.125000
