%
(Header)
(Generated by gcodetools from Inkscape.)
(Using default header. To add your own header create file "header" in the output dir.)
M3
(Header end.)
G21 (All units in mm)

(Pass at depth -1.0)
(Start cutting path id: path8188)
(Change tool to Default tool)

G00 Z5.000000
G00 X2.173539 Y28.274133

G01 Z-0.125000 F100.0(Penetrate)
G01 X0.940237 Y24.574233 Z-0.125000 F400.000000
G01 X5.873446 Y25.807533 Z-0.125000
G01 X8.340051 Y28.274133 Z-0.125000
G01 X7.106749 Y33.207433 Z-0.125000
G00 Z5.000000

(Change tool to Default tool)

G00 Z5.000000
G00 X3.406842 Y38.140633

G01 Z-0.125000 F100.0(Penetrate)
G01 X2.173539 Y33.207433 Z-0.125000 F400.000000
G01 X2.173539 Y28.274133 Z-0.125000
G00 Z5.000000

(Change tool to Default tool)

G00 Z5.000000
G00 X4.640144 Y44.307133

G01 Z-0.125000 F100.0(Penetrate)
G01 X5.873446 Y40.607133 Z-0.125000 F400.000000
G01 X3.406842 Y38.140633 Z-0.125000
G00 Z5.000000

(Change tool to Default tool)

G00 Z5.000000
G00 X7.106749 Y48.007033

G01 Z-0.125000 F100.0(Penetrate)
G01 X9.573354 Y43.073733 Z-0.125000 F400.000000
G01 X4.640144 Y44.307133 Z-0.125000
G00 Z5.000000

(Change tool to Default tool)

G00 Z5.000000
G00 X8.340051 Y56.640133

G01 Z-0.125000 F100.0(Penetrate)
G01 X7.106749 Y51.706933 Z-0.125000 F400.000000
G01 X7.106749 Y48.007033 Z-0.125000
G00 Z5.000000

(Change tool to Default tool)

G00 Z5.000000
G00 X7.106749 Y65.273133

G01 Z-0.125000 F100.0(Penetrate)
G01 X9.573354 Y59.106633 Z-0.125000 F400.000000
G01 X8.340051 Y56.640133 Z-0.125000
G00 Z5.000000

(Change tool to Default tool)

G00 Z5.000000
G00 X9.573354 Y75.139633

G01 Z-0.125000 F100.0(Penetrate)
G01 X8.340051 Y70.206433 Z-0.125000 F400.000000
G01 X7.106749 Y65.273133 Z-0.125000
G00 Z5.000000

(Change tool to Default tool)

G00 Z5.000000
G00 X12.039959 Y80.072833

G01 Z-0.125000 F100.0(Penetrate)
G01 X13.273261 Y75.139633 Z-0.125000 F400.000000
G01 X9.573354 Y75.139633 Z-0.125000
G00 Z5.000000

(Change tool to Default tool)

G00 Z5.000000
G00 X18.206471 Y75.139633

G01 Z-0.125000 F100.0(Penetrate)
G01 X15.739867 Y80.072833 Z-0.125000 F400.000000
G01 X12.039959 Y80.072833 Z-0.125000
G00 Z5.000000

(Change tool to Default tool)

G00 Z5.000000
G00 X23.139681 Y81.306133

G01 Z-0.125000 F100.0(Penetrate)
G01 X20.673076 Y78.839533 Z-0.125000 F400.000000
G01 X18.206471 Y75.139633 Z-0.125000
G00 Z5.000000

(Change tool to Default tool)

G00 Z5.000000
G00 X28.072889 Y75.139633

G01 Z-0.125000 F100.0(Penetrate)
G01 X26.839588 Y77.606133 Z-0.125000 F400.000000
G01 X23.139681 Y81.306133 Z-0.125000
G00 Z5.000000

(Change tool to Default tool)

G00 Z5.000000
G00 X23.139681 Y71.439633

G01 Z-0.125000 F100.0(Penetrate)
G01 X24.372983 Y73.906233 Z-0.125000 F400.000000
G01 X28.072889 Y75.139633 Z-0.125000
G00 Z5.000000

(Change tool to Default tool)

G00 Z5.000000
G00 X14.506564 Y70.206433

G01 Z-0.125000 F100.0(Penetrate)
G01 X18.206471 Y71.439633 Z-0.125000 F400.000000
G01 X23.139681 Y71.439633 Z-0.125000
G00 Z5.000000

(Change tool to Default tool)

G00 Z5.000000
G00 X12.039959 Y64.039933

G01 Z-0.125000 F100.0(Penetrate)
G01 X13.273261 Y67.739833 Z-0.125000 F400.000000
G01 X14.506564 Y70.206433 Z-0.125000
G00 Z5.000000

(Change tool to Default tool)

G00 Z5.000000
G00 X18.206471 Y60.340033

G01 Z-0.125000 F100.0(Penetrate)
G01 X13.273261 Y60.340033 Z-0.125000 F400.000000
G01 X12.039959 Y64.039933 Z-0.125000
G00 Z5.000000

(Change tool to Default tool)

G00 Z5.000000
G00 X19.439774 Y65.273133

G01 Z-0.125000 F100.0(Penetrate)
G01 X20.673076 Y62.806633 Z-0.125000 F400.000000
G01 X18.206471 Y60.340033 Z-0.125000
G00 Z5.000000

(Change tool to Default tool)

G00 Z5.000000
G00 X26.839588 Y62.806633

G01 Z-0.125000 F100.0(Penetrate)
G01 X23.139681 Y66.506533 Z-0.125000 F400.000000
G01 X19.439774 Y65.273133 Z-0.125000
G00 Z5.000000

(Change tool to Default tool)

G00 Z5.000000
G00 X29.306192 Y70.206433

G01 Z-0.125000 F100.0(Penetrate)
G01 X28.072889 Y66.506533 Z-0.125000 F400.000000
G01 X26.839588 Y62.806633 Z-0.125000
G00 Z5.000000

(Change tool to Default tool)

G00 Z5.000000
G00 X35.472705 Y75.139633

G01 Z-0.125000 F100.0(Penetrate)
G01 X33.006099 Y71.439633 Z-0.125000 F400.000000
G01 X29.306192 Y70.206433 Z-0.125000
G00 Z5.000000

(Change tool to Default tool)

G00 Z5.000000
G00 X33.006099 Y87.472633

G01 Z-0.125000 F100.0(Penetrate)
G01 X31.772798 Y81.306133 Z-0.125000 F400.000000
G01 X35.472705 Y75.139633 Z-0.125000
G00 Z5.000000

(Change tool to Default tool)

G00 Z5.000000
G00 X41.639190 Y92.405833

G01 Z-0.125000 F100.0(Penetrate)
G01 X40.405887 Y88.705933 Z-0.125000 F400.000000
G01 X33.006099 Y87.472633 Z-0.125000
G00 Z5.000000

(Change tool to Default tool)

G00 Z5.000000
G00 X46.572400 Y99.805633

G01 Z-0.125000 F100.0(Penetrate)
G01 X45.339097 Y97.339033 Z-0.125000 F400.000000
G01 X41.639190 Y92.405833 Z-0.125000
G00 Z5.000000

(Change tool to Default tool)

G00 Z5.000000
G00 X53.972214 Y105.972133

G01 Z-0.125000 F100.0(Penetrate)
G01 X50.272307 Y103.505533 Z-0.125000 F400.000000
G01 X46.572400 Y99.805633 Z-0.125000
G00 Z5.000000

(Change tool to Default tool)

G00 Z5.000000
G00 X61.372028 Y112.138633

G01 Z-0.125000 F100.0(Penetrate)
G01 X58.905424 Y108.438833 Z-0.125000 F400.000000
G01 X53.972214 Y105.972133 Z-0.125000
G00 Z5.000000

(Change tool to Default tool)

G00 Z5.000000
G00 X70.005145 Y114.605333

G01 Z-0.125000 F100.0(Penetrate)
G01 X65.071935 Y114.605333 Z-0.125000 F400.000000
G01 X61.372028 Y112.138633 Z-0.125000
G00 Z5.000000

(Change tool to Default tool)

G00 Z5.000000
G00 X79.871538 Y118.305133

G01 Z-0.125000 F100.0(Penetrate)
G01 X74.938328 Y115.838533 Z-0.125000 F400.000000
G01 X70.005145 Y114.605333 Z-0.125000
G00 Z5.000000

(Change tool to Default tool)

G00 Z5.000000
G00 X88.504655 Y125.704933

G01 Z-0.125000 F100.0(Penetrate)
G01 X82.338143 Y123.238333 Z-0.125000 F400.000000
G01 X79.871538 Y118.305133 Z-0.125000
G00 Z5.000000

(Change tool to Default tool)

G00 Z5.000000
G00 X93.437864 Y133.104833

G01 Z-0.125000 F100.0(Penetrate)
G01 X94.671167 Y128.171533 Z-0.125000 F400.000000
G01 X88.504655 Y125.704933 Z-0.125000
G00 Z5.000000

(Change tool to Default tool)

G00 Z5.000000
G00 X98.371074 Y139.271333

G01 Z-0.125000 F100.0(Penetrate)
G01 X95.904470 Y136.804733 Z-0.125000 F400.000000
G01 X93.437864 Y133.104833 Z-0.125000
G00 Z5.000000

(Change tool to Default tool)

G00 Z5.000000
G00 X100.837680 Y146.671133

G01 Z-0.125000 F100.0(Penetrate)
G01 X102.070980 Y141.737933 Z-0.125000 F400.000000
G01 X98.371074 Y139.271333 Z-0.125000
G00 Z5.000000

(Change tool to Default tool)

G00 Z5.000000
G00 X102.070980 Y156.537433

G01 Z-0.125000 F100.0(Penetrate)
G01 X102.070980 Y151.604333 Z-0.125000 F400.000000
G01 X100.837680 Y146.671133 Z-0.125000
G00 Z5.000000

(Change tool to Default tool)

G00 Z5.000000
G00 X107.004190 Y163.937333

G01 Z-0.125000 F100.0(Penetrate)
G01 X105.770890 Y157.770833 Z-0.125000 F400.000000
G01 X102.070980 Y156.537433 Z-0.125000
G00 Z5.000000

(Change tool to Default tool)

G00 Z5.000000
G00 X97.137771 Y161.470733

G01 Z-0.125000 F100.0(Penetrate)
G01 X102.070980 Y163.937333 Z-0.125000 F400.000000
G01 X107.004190 Y163.937333 Z-0.125000
G00 Z5.000000

(Change tool to Default tool)

G00 Z5.000000
G00 X94.671167 Y151.604333

G01 Z-0.125000 F100.0(Penetrate)
G01 X95.904470 Y155.304233 Z-0.125000 F400.000000
G01 X97.137771 Y161.470733 Z-0.125000
G00 Z5.000000

(Change tool to Default tool)

G00 Z5.000000
G00 X92.204562 Y142.971233

G01 Z-0.125000 F100.0(Penetrate)
G01 X94.671167 Y146.671133 Z-0.125000 F400.000000
G01 X94.671167 Y151.604333 Z-0.125000
G00 Z5.000000

(Change tool to Default tool)

G00 Z5.000000
G00 X84.804747 Y138.037933

G01 Z-0.125000 F100.0(Penetrate)
G01 X89.737957 Y139.271333 Z-0.125000 F400.000000
G01 X92.204562 Y142.971233 Z-0.125000
G00 Z5.000000

(Change tool to Default tool)

G00 Z5.000000
G00 X81.104840 Y133.104833

G01 Z-0.125000 F100.0(Penetrate)
G01 X87.271353 Y131.871433 Z-0.125000 F400.000000
G01 X84.804747 Y138.037933 Z-0.125000
G00 Z5.000000

(Change tool to Default tool)

G00 Z5.000000
G00 X74.938328 Y125.704933

G01 Z-0.125000 F100.0(Penetrate)
G01 X78.638236 Y129.404933 Z-0.125000 F400.000000
G01 X81.104840 Y133.104833 Z-0.125000
G00 Z5.000000

(Change tool to Default tool)

G00 Z5.000000
G00 X65.071935 Y122.005033

G01 Z-0.125000 F100.0(Penetrate)
G01 X71.238448 Y122.005033 Z-0.125000 F400.000000
G01 X74.938328 Y125.704933 Z-0.125000
G00 Z5.000000

(Change tool to Default tool)

G00 Z5.000000
G00 X70.005145 Y135.571433

G01 Z-0.125000 F100.0(Penetrate)
G01 X66.305238 Y129.404933 Z-0.125000 F400.000000
G01 X65.071935 Y122.005033 Z-0.125000
G00 Z5.000000

(Change tool to Default tool)

G00 Z5.000000
G00 X76.171631 Y141.737933

G01 Z-0.125000 F100.0(Penetrate)
G01 X70.005145 Y140.504633 Z-0.125000 F400.000000
G01 X70.005145 Y135.571433 Z-0.125000
G00 Z5.000000

(Change tool to Default tool)

G00 Z5.000000
G00 X83.571445 Y147.904433

G01 Z-0.125000 F100.0(Penetrate)
G01 X78.638236 Y146.671133 Z-0.125000 F400.000000
G01 X76.171631 Y141.737933 Z-0.125000
G00 Z5.000000

(Change tool to Default tool)

G00 Z5.000000
G00 X88.504655 Y157.770833

G01 Z-0.125000 F100.0(Penetrate)
G01 X87.271353 Y151.604333 Z-0.125000 F400.000000
G01 X83.571445 Y147.904433 Z-0.125000
G00 Z5.000000

(Change tool to Default tool)

G00 Z5.000000
G00 X94.671167 Y167.637233

G01 Z-0.125000 F100.0(Penetrate)
G01 X90.971260 Y162.703933 Z-0.125000 F400.000000
G01 X88.504655 Y157.770833 Z-0.125000
G00 Z5.000000

(Change tool to Default tool)

G00 Z5.000000
G00 X99.604377 Y175.037133

G01 Z-0.125000 F100.0(Penetrate)
G01 X99.604377 Y170.103833 Z-0.125000 F400.000000
G01 X94.671167 Y167.637233 Z-0.125000
G00 Z5.000000

(Change tool to Default tool)

G00 Z5.000000
G00 X104.537590 Y182.436833

G01 Z-0.125000 F100.0(Penetrate)
G01 X102.070980 Y178.736933 Z-0.125000 F400.000000
G01 X99.604377 Y175.037133 Z-0.125000
G00 Z5.000000

(Change tool to Default tool)

G00 Z5.000000
G00 X109.470800 Y188.603333

G01 Z-0.125000 F100.0(Penetrate)
G01 X105.770890 Y186.136733 Z-0.125000 F400.000000
G01 X104.537590 Y182.436833 Z-0.125000
G00 Z5.000000

(Change tool to Default tool)

G00 Z5.000000
G00 X114.403980 Y183.670133

G01 Z-0.125000 F100.0(Penetrate)
G01 X114.403980 Y188.603333 Z-0.125000 F400.000000
G01 X109.470800 Y188.603333 Z-0.125000
G00 Z5.000000

(Change tool to Default tool)

G00 Z5.000000
G00 X124.270400 Y184.903433

G01 Z-0.125000 F100.0(Penetrate)
G01 X120.570490 Y183.670133 Z-0.125000 F400.000000
G01 X114.403980 Y183.670133 Z-0.125000
G00 Z5.000000

(Change tool to Default tool)

G00 Z5.000000
G00 X127.970310 Y191.069933

G01 Z-0.125000 F100.0(Penetrate)
G01 X126.737010 Y188.603333 Z-0.125000 F400.000000
G01 X124.270400 Y184.903433 Z-0.125000
G00 Z5.000000

(Change tool to Default tool)

G00 Z5.000000
G00 X129.203610 Y198.469733

G01 Z-0.125000 F100.0(Penetrate)
G01 X125.503700 Y196.003133 Z-0.125000 F400.000000
G01 X127.970310 Y191.069933 Z-0.125000
G00 Z5.000000

(Change tool to Default tool)

G00 Z5.000000
G00 X134.136820 Y198.469733

G01 Z-0.125000 F100.0(Penetrate)
G01 X131.670220 Y193.536633 Z-0.125000 F400.000000
G01 X129.203610 Y198.469733 Z-0.125000
G00 Z5.000000

(Change tool to Default tool)

G00 Z5.000000
G00 X135.370120 Y205.869633

G01 Z-0.125000 F100.0(Penetrate)
G01 X132.903520 Y202.169633 Z-0.125000 F400.000000
G01 X134.136820 Y198.469733 Z-0.125000
G00 Z5.000000

(Change tool to Default tool)

G00 Z5.000000
G00 X144.003230 Y210.802733

G01 Z-0.125000 F100.0(Penetrate)
G01 X140.303330 Y208.336133 Z-0.125000 F400.000000
G01 X135.370120 Y205.869633 Z-0.125000
G00 Z5.000000

(Change tool to Default tool)

G00 Z5.000000
G00 X151.403030 Y216.969233

G01 Z-0.125000 F100.0(Penetrate)
G01 X147.703120 Y214.502633 Z-0.125000 F400.000000
G01 X144.003230 Y210.802733 Z-0.125000
G00 Z5.000000

(Change tool to Default tool)

G00 Z5.000000
G00 X160.036140 Y220.669233

G01 Z-0.125000 F100.0(Penetrate)
G01 X155.102940 Y218.202633 Z-0.125000 F400.000000
G01 X151.403030 Y216.969233 Z-0.125000
G00 Z5.000000

(Change tool to Default tool)

G00 Z5.000000
G00 X168.669250 Y224.369133

G01 Z-0.125000 F100.0(Penetrate)
G01 X162.502750 Y223.135733 Z-0.125000 F400.000000
G01 X160.036140 Y220.669233 Z-0.125000
G00 Z5.000000

(Change tool to Default tool)

G00 Z5.000000
G00 X172.369170 Y230.535633

G01 Z-0.125000 F100.0(Penetrate)
G01 X167.435950 Y228.069033 Z-0.125000 F400.000000
G01 X168.669250 Y224.369133 Z-0.125000
G00 Z5.000000

(Change tool to Default tool)

G00 Z5.000000
G00 X181.002280 Y239.168733

G01 Z-0.125000 F100.0(Penetrate)
G01 X177.302380 Y233.002233 Z-0.125000 F400.000000
G01 X172.369170 Y230.535633 Z-0.125000
G00 Z5.000000

(Change tool to Default tool)

G00 Z5.000000
G00 X197.035190 Y244.101933

G01 Z-0.125000 F100.0(Penetrate)
G01 X188.402070 Y241.635233 Z-0.125000 F400.000000
G01 X181.002280 Y239.168733 Z-0.125000
G00 Z5.000000

(Change tool to Default tool)

G00 Z5.000000
G00 X209.368210 Y252.735033

G01 Z-0.125000 F100.0(Penetrate)
G01 X203.201700 Y249.035133 Z-0.125000 F400.000000
G01 X197.035190 Y244.101933 Z-0.125000
G00 Z5.000000

(Change tool to Default tool)

G00 Z5.000000
G00 X210.601510 Y266.301433

G01 Z-0.125000 F100.0(Penetrate)
G01 X213.068120 Y257.668233 Z-0.125000 F400.000000
G01 X209.368210 Y252.735033 Z-0.125000
G00 Z5.000000

(Change tool to Default tool)

G00 Z5.000000
G00 X213.068120 Y277.401033

G01 Z-0.125000 F100.0(Penetrate)
G01 X208.134910 Y273.701133 Z-0.125000 F400.000000
G01 X210.601510 Y266.301433 Z-0.125000
G00 Z5.000000

(Change tool to Default tool)

G00 Z5.000000
G00 X218.001330 Y289.734033

G01 Z-0.125000 F100.0(Penetrate)
G01 X216.768030 Y279.867633 Z-0.125000 F400.000000
G01 X213.068120 Y277.401033 Z-0.125000
G00 Z5.000000

(Change tool to Default tool)

G00 Z5.000000
G00 X225.401120 Y297.133933

G01 Z-0.125000 F100.0(Penetrate)
G01 X222.934510 Y292.200633 Z-0.125000 F400.000000
G01 X218.001330 Y289.734033 Z-0.125000
G00 Z5.000000

(Change tool to Default tool)

G00 Z5.000000
G00 X225.401120 Y287.267433

G01 Z-0.125000 F100.0(Penetrate)
G01 X229.101020 Y290.967433 Z-0.125000 F400.000000
G01 X225.401120 Y297.133933 Z-0.125000
G00 Z5.000000

(Change tool to Default tool)

G00 Z5.000000
G00 X224.167820 Y278.634433

G01 Z-0.125000 F100.0(Penetrate)
G01 X224.167820 Y283.567533 Z-0.125000 F400.000000
G01 X225.401120 Y287.267433 Z-0.125000
G00 Z5.000000

(Change tool to Default tool)

G00 Z5.000000
G00 X229.101020 Y282.334333

G01 Z-0.125000 F100.0(Penetrate)
G01 X229.101020 Y278.634433 Z-0.125000 F400.000000
G01 X224.167820 Y278.634433 Z-0.125000
G00 Z5.000000

(Change tool to Default tool)

G00 Z5.000000
G00 X232.800930 Y288.500833

G01 Z-0.125000 F100.0(Penetrate)
G01 X230.334330 Y286.034133 Z-0.125000 F400.000000
G01 X229.101020 Y282.334333 Z-0.125000
G00 Z5.000000

(Change tool to Default tool)

G00 Z5.000000
G00 X234.034230 Y293.433933

G01 Z-0.125000 F100.0(Penetrate)
G01 X235.267530 Y290.967433 Z-0.125000 F400.000000
G01 X232.800930 Y288.500833 Z-0.125000
G00 Z5.000000

(Change tool to Default tool)

G00 Z5.000000
G00 X237.734150 Y298.367133

G01 Z-0.125000 F100.0(Penetrate)
G01 X238.967450 Y292.200633 Z-0.125000 F400.000000
G01 X234.034230 Y293.433933 Z-0.125000
G00 Z5.000000

(Change tool to Default tool)

G00 Z5.000000
G00 X237.734150 Y309.466933

G01 Z-0.125000 F100.0(Penetrate)
G01 X231.567630 Y305.766933 Z-0.125000 F400.000000
G01 X237.734150 Y298.367133 Z-0.125000
G00 Z5.000000

(Change tool to Default tool)

G00 Z5.000000
G00 X242.667350 Y324.266533

G01 Z-0.125000 F100.0(Penetrate)
G01 X238.967450 Y319.333333 Z-0.125000 F400.000000
G01 X237.734150 Y309.466933 Z-0.125000
G00 Z5.000000

(Change tool to Default tool)

G00 Z5.000000
G00 X245.133960 Y335.366233

G01 Z-0.125000 F100.0(Penetrate)
G01 X245.133960 Y329.199733 Z-0.125000 F400.000000
G01 X242.667350 Y324.266533 Z-0.125000
G00 Z5.000000

(Change tool to Default tool)

G00 Z5.000000
G00 X246.367260 Y345.232733

G01 Z-0.125000 F100.0(Penetrate)
G01 X250.067160 Y339.066233 Z-0.125000 F400.000000
G01 X245.133960 Y335.366233 Z-0.125000
G00 Z5.000000

(Change tool to Default tool)

G00 Z5.000000
G00 X256.233650 Y353.865733

G01 Z-0.125000 F100.0(Penetrate)
G01 X251.300460 Y350.165833 Z-0.125000 F400.000000
G01 X246.367260 Y345.232733 Z-0.125000
G00 Z5.000000

(Change tool to Default tool)

G00 Z5.000000
G00 X266.100060 Y366.198733

G01 Z-0.125000 F100.0(Penetrate)
G01 X258.700250 Y361.265633 Z-0.125000 F400.000000
G01 X256.233650 Y353.865733 Z-0.125000
G00 Z5.000000

(Change tool to Default tool)

G00 Z5.000000
G00 X274.733170 Y361.265633

G01 Z-0.125000 F100.0(Penetrate)
G01 X268.566660 Y360.032233 Z-0.125000 F400.000000
G01 X266.100060 Y366.198733 Z-0.125000
G00 Z5.000000

(Change tool to Default tool)

G00 Z5.000000
G00 X277.199780 Y368.665333

G01 Z-0.125000 F100.0(Penetrate)
G01 X272.266570 Y367.432133 Z-0.125000 F400.000000
G01 X274.733170 Y361.265633 Z-0.125000
G00 Z5.000000

(Change tool to Default tool)

G00 Z5.000000
G00 X284.599600 Y372.365233

G01 Z-0.125000 F100.0(Penetrate)
G01 X280.899680 Y372.365233 Z-0.125000 F400.000000
G01 X277.199780 Y368.665333 Z-0.125000
G00 Z5.000000

(Change tool to Default tool)

G00 Z5.000000
G00 X288.299500 Y374.831833

G01 Z-0.125000 F100.0(Penetrate)
G01 X287.066200 Y372.365233 Z-0.125000 F400.000000
G01 X284.599600 Y372.365233 Z-0.125000
G00 Z5.000000

(Change tool to Default tool)

G00 Z5.000000
G00 X287.066200 Y379.765133

G01 Z-0.125000 F100.0(Penetrate)
G01 X284.599600 Y376.065233 Z-0.125000 F400.000000
G01 X288.299500 Y374.831833 Z-0.125000
G00 Z5.000000

(Change tool to Default tool)

G00 Z5.000000
G00 X291.999380 Y388.398233

G01 Z-0.125000 F100.0(Penetrate)
G01 X289.532800 Y384.698233 Z-0.125000 F400.000000
G01 X287.066200 Y379.765133 Z-0.125000
G00 Z5.000000

(Change tool to Default tool)

G00 Z5.000000
G00 X293.232690 Y393.331333

G01 Z-0.125000 F100.0(Penetrate)
G01 X294.465990 Y389.631533 Z-0.125000 F400.000000
G01 X291.999380 Y388.398233 Z-0.125000
G00 Z5.000000

(Change tool to Default tool)

G00 Z5.000000
G00 X288.299500 Y390.864733

G01 Z-0.125000 F100.0(Penetrate)
G01 X290.766110 Y392.098133 Z-0.125000 F400.000000
G01 X293.232690 Y393.331333 Z-0.125000
G00 Z5.000000

(Change tool to Default tool)

G00 Z5.000000
G00 X287.066200 Y395.798033

G01 Z-0.125000 F100.0(Penetrate)
G01 X285.832900 Y393.331333 Z-0.125000 F400.000000
G01 X288.299500 Y390.864733 Z-0.125000
G00 Z5.000000

(Change tool to Default tool)

G00 Z5.000000
G00 X291.999380 Y399.497933

G01 Z-0.125000 F100.0(Penetrate)
G01 X289.532800 Y397.031233 Z-0.125000 F400.000000
G01 X287.066200 Y395.798033 Z-0.125000
G00 Z5.000000

(Change tool to Default tool)

G00 Z5.000000
G00 X296.932590 Y403.197737

G01 Z-0.125000 F100.0(Penetrate)
G01 X291.999380 Y403.197737 Z-0.125000 F400.000000
G01 X291.999380 Y399.497933 Z-0.125000
G00 Z5.000000

(Change tool to Default tool)

G00 Z5.000000
G00 X296.932590 Y394.564733

G01 Z-0.125000 F100.0(Penetrate)
G01 X296.932590 Y398.264633 Z-0.125000 F400.000000
G01 X296.932590 Y403.197737 Z-0.125000
G00 Z5.000000

(Change tool to Default tool)

G00 Z5.000000
G00 X301.865800 Y394.564733

G01 Z-0.125000 F100.0(Penetrate)
G01 X299.399190 Y390.864733 Z-0.125000 F400.000000
G01 X296.932590 Y394.564733 Z-0.125000
G00 Z5.000000

(Change tool to Default tool)

G00 Z5.000000
G00 X303.099100 Y401.964537

G01 Z-0.125000 F100.0(Penetrate)
G01 X301.865800 Y398.264633 Z-0.125000 F400.000000
G01 X301.865800 Y394.564733 Z-0.125000
G00 Z5.000000

(Change tool to Default tool)

G00 Z5.000000
G00 X304.332400 Y408.131037

G01 Z-0.125000 F100.0(Penetrate)
G01 X300.632500 Y406.897737 Z-0.125000 F400.000000
G01 X303.099100 Y401.964537 Z-0.125000
G00 Z5.000000

(Change tool to Default tool)

G00 Z5.000000
G00 X305.565740 Y416.764137

G01 Z-0.125000 F100.0(Penetrate)
G01 X305.565740 Y411.830937 Z-0.125000 F400.000000
G01 X304.332400 Y408.131037 Z-0.125000
G00 Z5.000000

(Change tool to Default tool)

G00 Z5.000000
G00 X314.198850 Y416.764137

G01 Z-0.125000 F100.0(Penetrate)
G01 X310.498940 Y415.530837 Z-0.125000 F400.000000
G01 X305.565740 Y416.764137 Z-0.125000
G00 Z5.000000

(Change tool to Default tool)

G00 Z5.000000
G00 X316.665450 Y424.164037

G01 Z-0.125000 F100.0(Penetrate)
G01 X316.665450 Y419.230737 Z-0.125000 F400.000000
G01 X314.198850 Y416.764137 Z-0.125000
G00 Z5.000000

(Change tool to Default tool)

G00 Z5.000000
G00 X326.531850 Y424.164037

G01 Z-0.125000 F100.0(Penetrate)
G01 X321.598640 Y424.164037 Z-0.125000 F400.000000
G01 X316.665450 Y424.164037 Z-0.125000
G00 Z5.000000

(Change tool to Default tool)

G00 Z5.000000
G00 X322.831940 Y417.997437

G01 Z-0.125000 F100.0(Penetrate)
G01 X328.998460 Y419.230737 Z-0.125000 F400.000000
G01 X326.531850 Y424.164037 Z-0.125000
G00 Z5.000000

(Change tool to Default tool)

G00 Z5.000000
G00 X315.432150 Y410.597637

G01 Z-0.125000 F100.0(Penetrate)
G01 X320.365330 Y413.064237 Z-0.125000 F400.000000
G01 X322.831940 Y417.997437 Z-0.125000
G00 Z5.000000

(Change tool to Default tool)

G00 Z5.000000
G00 X310.498940 Y405.664337

G01 Z-0.125000 F100.0(Penetrate)
G01 X310.498940 Y410.597637 Z-0.125000 F400.000000
G01 X315.432150 Y410.597637 Z-0.125000
G00 Z5.000000

(Change tool to Default tool)

G00 Z5.000000
G00 X308.032340 Y398.264633

G01 Z-0.125000 F100.0(Penetrate)
G01 X308.032340 Y403.197737 Z-0.125000 F400.000000
G01 X310.498940 Y405.664337 Z-0.125000
G00 Z5.000000

(Change tool to Default tool)

G00 Z5.000000
G00 X305.565740 Y389.631533

G01 Z-0.125000 F100.0(Penetrate)
G01 X308.032340 Y394.564733 Z-0.125000 F400.000000
G01 X308.032340 Y398.264633 Z-0.125000
G00 Z5.000000

(Change tool to Default tool)

G00 Z5.000000
G00 X310.498940 Y389.631533

G01 Z-0.125000 F100.0(Penetrate)
G01 X308.032340 Y384.698233 Z-0.125000 F400.000000
G01 X305.565740 Y389.631533 Z-0.125000
G00 Z5.000000

(Change tool to Default tool)

G00 Z5.000000
G00 X314.198850 Y379.765133

G01 Z-0.125000 F100.0(Penetrate)
G01 X312.965550 Y384.698233 Z-0.125000 F400.000000
G01 X310.498940 Y389.631533 Z-0.125000
G00 Z5.000000

(Change tool to Default tool)

G00 Z5.000000
G00 X308.032340 Y377.298433

G01 Z-0.125000 F100.0(Penetrate)
G01 X310.498940 Y378.531733 Z-0.125000 F400.000000
G01 X314.198850 Y379.765133 Z-0.125000
G00 Z5.000000

(Change tool to Default tool)

G00 Z5.000000
G00 X305.565740 Y369.898733

G01 Z-0.125000 F100.0(Penetrate)
G01 X306.799040 Y373.598633 Z-0.125000 F400.000000
G01 X308.032340 Y377.298433 Z-0.125000
G00 Z5.000000

(Change tool to Default tool)

G00 Z5.000000
G00 X296.932590 Y368.665333

G01 Z-0.125000 F100.0(Penetrate)
G01 X303.099100 Y367.432133 Z-0.125000 F400.000000
G01 X305.565740 Y369.898733 Z-0.125000
G00 Z5.000000

(Change tool to Default tool)

G00 Z5.000000
G00 X295.699290 Y376.065233

G01 Z-0.125000 F100.0(Penetrate)
G01 X296.932590 Y373.598633 Z-0.125000 F400.000000
G01 X296.932590 Y368.665333 Z-0.125000
G00 Z5.000000

(Change tool to Default tool)

G00 Z5.000000
G00 X298.165890 Y378.531733

G01 Z-0.125000 F100.0(Penetrate)
G01 X299.399190 Y376.065233 Z-0.125000 F400.000000
G01 X295.699290 Y376.065233 Z-0.125000
G00 Z5.000000

(Change tool to Default tool)

G00 Z5.000000
G00 X304.332400 Y382.231733

G01 Z-0.125000 F100.0(Penetrate)
G01 X301.865800 Y379.765133 Z-0.125000 F400.000000
G01 X298.165890 Y378.531733 Z-0.125000
G00 Z5.000000

(Change tool to Default tool)

G00 Z5.000000
G00 X299.399190 Y385.931633

G01 Z-0.125000 F100.0(Penetrate)
G01 X303.099100 Y385.931633 Z-0.125000 F400.000000
G01 X304.332400 Y382.231733 Z-0.125000
G00 Z5.000000

(Change tool to Default tool)

G00 Z5.000000
G00 X296.932590 Y382.231733

G01 Z-0.125000 F100.0(Penetrate)
G01 X295.699290 Y384.698233 Z-0.125000 F400.000000
G01 X299.399190 Y385.931633 Z-0.125000
G00 Z5.000000

(Change tool to Default tool)

G00 Z5.000000
G00 X291.999380 Y379.765133

G01 Z-0.125000 F100.0(Penetrate)
G01 X294.465990 Y380.998333 Z-0.125000 F400.000000
G01 X296.932590 Y382.231733 Z-0.125000
G00 Z5.000000

(Change tool to Default tool)

G00 Z5.000000
G00 X293.232690 Y373.598633

G01 Z-0.125000 F100.0(Penetrate)
G01 X290.766110 Y377.298433 Z-0.125000 F400.000000
G01 X291.999380 Y379.765133 Z-0.125000
G00 Z5.000000

(Change tool to Default tool)

G00 Z5.000000
G00 X291.999380 Y369.898733

G01 Z-0.125000 F100.0(Penetrate)
G01 X290.766110 Y372.365233 Z-0.125000 F400.000000
G01 X293.232690 Y373.598633 Z-0.125000
G00 Z5.000000

(Change tool to Default tool)

G00 Z5.000000
G00 X284.599600 Y364.965433

G01 Z-0.125000 F100.0(Penetrate)
G01 X289.532800 Y366.198733 Z-0.125000 F400.000000
G01 X291.999380 Y369.898733 Z-0.125000
G00 Z5.000000

(Change tool to Default tool)

G00 Z5.000000
G00 X288.299500 Y358.798933

G01 Z-0.125000 F100.0(Penetrate)
G01 X280.899680 Y361.265633 Z-0.125000 F400.000000
G01 X284.599600 Y364.965433 Z-0.125000
G00 Z5.000000

(Change tool to Default tool)

G00 Z5.000000
G00 X278.433080 Y355.099133

G01 Z-0.125000 F100.0(Penetrate)
G01 X285.832900 Y355.099133 Z-0.125000 F400.000000
G01 X288.299500 Y358.798933 Z-0.125000
G00 Z5.000000

(Change tool to Default tool)

G00 Z5.000000
G00 X266.100060 Y352.632433

G01 Z-0.125000 F100.0(Penetrate)
G01 X272.266570 Y353.865733 Z-0.125000 F400.000000
G01 X278.433080 Y355.099133 Z-0.125000
G00 Z5.000000

(Change tool to Default tool)

G00 Z5.000000
G00 X261.166870 Y341.532733

G01 Z-0.125000 F100.0(Penetrate)
G01 X264.866770 Y346.465933 Z-0.125000 F400.000000
G01 X266.100060 Y352.632433 Z-0.125000
G00 Z5.000000

(Change tool to Default tool)

G00 Z5.000000
G00 X259.933550 Y329.199733

G01 Z-0.125000 F100.0(Penetrate)
G01 X261.166870 Y334.132933 Z-0.125000 F400.000000
G01 X261.166870 Y341.532733 Z-0.125000
G00 Z5.000000

(Change tool to Default tool)

G00 Z5.000000
G00 X255.000350 Y318.100033

G01 Z-0.125000 F100.0(Penetrate)
G01 X256.233650 Y325.499833 Z-0.125000 F400.000000
G01 X259.933550 Y329.199733 Z-0.125000
G00 Z5.000000

(Change tool to Default tool)

G00 Z5.000000
G00 X245.133960 Y310.700233

G01 Z-0.125000 F100.0(Penetrate)
G01 X251.300460 Y314.400033 Z-0.125000 F400.000000
G01 X255.000350 Y318.100033 Z-0.125000
G00 Z5.000000

(Change tool to Default tool)

G00 Z5.000000
G00 X253.767080 Y302.067033

G01 Z-0.125000 F100.0(Penetrate)
G01 X246.367260 Y300.833833 Z-0.125000 F400.000000
G01 X245.133960 Y310.700233 Z-0.125000
G00 Z5.000000

(Change tool to Default tool)

G00 Z5.000000
G00 X264.866770 Y309.466933

G01 Z-0.125000 F100.0(Penetrate)
G01 X257.466950 Y307.000333 Z-0.125000 F400.000000
G01 X253.767080 Y302.067033 Z-0.125000
G00 Z5.000000

(Change tool to Default tool)

G00 Z5.000000
G00 X267.333360 Y320.566633

G01 Z-0.125000 F100.0(Penetrate)
G01 X263.633470 Y316.866733 Z-0.125000 F400.000000
G01 X264.866770 Y309.466933 Z-0.125000
G00 Z5.000000

(Change tool to Default tool)

G00 Z5.000000
G00 X275.966470 Y313.166833

G01 Z-0.125000 F100.0(Penetrate)
G01 X274.733170 Y319.333333 Z-0.125000 F400.000000
G01 X267.333360 Y320.566633 Z-0.125000
G00 Z5.000000

(Change tool to Default tool)

G00 Z5.000000
G00 X272.266570 Y302.067033

G01 Z-0.125000 F100.0(Penetrate)
G01 X272.266570 Y309.466933 Z-0.125000 F400.000000
G01 X275.966470 Y313.166833 Z-0.125000
G00 Z5.000000

(Change tool to Default tool)

G00 Z5.000000
G00 X263.633470 Y295.900533

G01 Z-0.125000 F100.0(Penetrate)
G01 X267.333360 Y299.600433 Z-0.125000 F400.000000
G01 X272.266570 Y302.067033 Z-0.125000
G00 Z5.000000

(Change tool to Default tool)

G00 Z5.000000
G00 X250.067160 Y290.967433

G01 Z-0.125000 F100.0(Penetrate)
G01 X256.233650 Y293.433933 Z-0.125000 F400.000000
G01 X263.633470 Y295.900533 Z-0.125000
G00 Z5.000000

(Change tool to Default tool)

G00 Z5.000000
G00 X256.233650 Y282.334333

G01 Z-0.125000 F100.0(Penetrate)
G01 X248.833860 Y282.334333 Z-0.125000 F400.000000
G01 X250.067160 Y290.967433 Z-0.125000
G00 Z5.000000

(Change tool to Default tool)

G00 Z5.000000
G00 X267.333360 Y288.500833

G01 Z-0.125000 F100.0(Penetrate)
G01 X262.400170 Y284.800933 Z-0.125000 F400.000000
G01 X256.233650 Y282.334333 Z-0.125000
G00 Z5.000000

(Change tool to Default tool)

G00 Z5.000000
G00 X275.966470 Y292.200633

G01 Z-0.125000 F100.0(Penetrate)
G01 X274.733170 Y288.500833 Z-0.125000 F400.000000
G01 X267.333360 Y288.500833 Z-0.125000
G00 Z5.000000

(Change tool to Default tool)

G00 Z5.000000
G00 X279.666380 Y302.067033

G01 Z-0.125000 F100.0(Penetrate)
G01 X279.666380 Y295.900533 Z-0.125000 F400.000000
G01 X275.966470 Y292.200633 Z-0.125000
G00 Z5.000000

(Change tool to Default tool)

G00 Z5.000000
G00 X283.366300 Y311.933533

G01 Z-0.125000 F100.0(Penetrate)
G01 X282.132980 Y305.766933 Z-0.125000 F400.000000
G01 X279.666380 Y302.067033 Z-0.125000
G00 Z5.000000

(Change tool to Default tool)

G00 Z5.000000
G00 X279.666380 Y323.033233

G01 Z-0.125000 F100.0(Penetrate)
G01 X282.132980 Y318.100033 Z-0.125000 F400.000000
G01 X283.366300 Y311.933533 Z-0.125000
G00 Z5.000000

(Change tool to Default tool)

G00 Z5.000000
G00 X290.766110 Y329.199733

G01 Z-0.125000 F100.0(Penetrate)
G01 X287.066200 Y325.499833 Z-0.125000 F400.000000
G01 X279.666380 Y323.033233 Z-0.125000
G00 Z5.000000

(Change tool to Default tool)

G00 Z5.000000
G00 X293.232690 Y336.599533

G01 Z-0.125000 F100.0(Penetrate)
G01 X291.999380 Y334.132933 Z-0.125000 F400.000000
G01 X290.766110 Y329.199733 Z-0.125000
G00 Z5.000000

(Change tool to Default tool)

G00 Z5.000000
G00 X298.165890 Y332.899533

G01 Z-0.125000 F100.0(Penetrate)
G01 X298.165890 Y339.066233 Z-0.125000 F400.000000
G01 X293.232690 Y336.599533 Z-0.125000
G00 Z5.000000

(Change tool to Default tool)

G00 Z5.000000
G00 X296.932590 Y329.199733

G01 Z-0.125000 F100.0(Penetrate)
G01 X299.399190 Y330.433033 Z-0.125000 F400.000000
G01 X298.165890 Y332.899533 Z-0.125000
G00 Z5.000000

(Change tool to Default tool)

G00 Z5.000000
G00 X290.766110 Y319.333333

G01 Z-0.125000 F100.0(Penetrate)
G01 X294.465990 Y323.033233 Z-0.125000 F400.000000
G01 X296.932590 Y329.199733 Z-0.125000
G00 Z5.000000

(Change tool to Default tool)

G00 Z5.000000
G00 X290.766110 Y309.466933

G01 Z-0.125000 F100.0(Penetrate)
G01 X289.532800 Y315.633433 Z-0.125000 F400.000000
G01 X290.766110 Y319.333333 Z-0.125000
G00 Z5.000000

(Change tool to Default tool)

G00 Z5.000000
G00 X295.699290 Y303.300433

G01 Z-0.125000 F100.0(Penetrate)
G01 X288.299500 Y304.533733 Z-0.125000 F400.000000
G01 X290.766110 Y309.466933 Z-0.125000
G00 Z5.000000

(Change tool to Default tool)

G00 Z5.000000
G00 X300.632500 Y308.233533

G01 Z-0.125000 F100.0(Penetrate)
G01 X299.399190 Y305.766933 Z-0.125000 F400.000000
G01 X295.699290 Y303.300433 Z-0.125000
G00 Z5.000000

(Change tool to Default tool)

G00 Z5.000000
G00 X296.932590 Y314.400033

G01 Z-0.125000 F100.0(Penetrate)
G01 X296.932590 Y308.233533 Z-0.125000 F400.000000
G01 X300.632500 Y308.233533 Z-0.125000
G00 Z5.000000

(Change tool to Default tool)

G00 Z5.000000
G00 X300.632500 Y321.799933

G01 Z-0.125000 F100.0(Penetrate)
G01 X301.865800 Y315.633433 Z-0.125000 F400.000000
G01 X296.932590 Y314.400033 Z-0.125000
G00 Z5.000000

(Change tool to Default tool)

G00 Z5.000000
G00 X305.565740 Y330.433033

G01 Z-0.125000 F100.0(Penetrate)
G01 X304.332400 Y326.733133 Z-0.125000 F400.000000
G01 X300.632500 Y321.799933 Z-0.125000
G00 Z5.000000

(Change tool to Default tool)

G00 Z5.000000
G00 X303.099100 Y334.132933

G01 Z-0.125000 F100.0(Penetrate)
G01 X301.865800 Y331.666333 Z-0.125000 F400.000000
G01 X305.565740 Y330.433033 Z-0.125000
G00 Z5.000000

(Change tool to Default tool)

G00 Z5.000000
G00 X308.032340 Y335.366233

G01 Z-0.125000 F100.0(Penetrate)
G01 X305.565740 Y334.132933 Z-0.125000 F400.000000
G01 X303.099100 Y334.132933 Z-0.125000
G00 Z5.000000

(Change tool to Default tool)

G00 Z5.000000
G00 X314.198850 Y335.366233

G01 Z-0.125000 F100.0(Penetrate)
G01 X310.498940 Y335.366233 Z-0.125000 F400.000000
G01 X308.032340 Y335.366233 Z-0.125000
G00 Z5.000000

(Change tool to Default tool)

G00 Z5.000000
G00 X322.831940 Y336.599533

G01 Z-0.125000 F100.0(Penetrate)
G01 X317.898750 Y336.599533 Z-0.125000 F400.000000
G01 X314.198850 Y335.366233 Z-0.125000
G00 Z5.000000

(Change tool to Default tool)

G00 Z5.000000
G00 X321.598640 Y330.433033

G01 Z-0.125000 F100.0(Penetrate)
G01 X324.065240 Y332.899533 Z-0.125000 F400.000000
G01 X322.831940 Y336.599533 Z-0.125000
G00 Z5.000000

(Change tool to Default tool)

G00 Z5.000000
G00 X314.198850 Y325.499833

G01 Z-0.125000 F100.0(Penetrate)
G01 X317.898750 Y327.966433 Z-0.125000 F400.000000
G01 X321.598640 Y330.433033 Z-0.125000
G00 Z5.000000

(Change tool to Default tool)

G00 Z5.000000
G00 X309.265640 Y316.866733

G01 Z-0.125000 F100.0(Penetrate)
G01 X312.965550 Y320.566633 Z-0.125000 F400.000000
G01 X314.198850 Y325.499833 Z-0.125000
G00 Z5.000000

(Change tool to Default tool)

G00 Z5.000000
G00 X306.799040 Y309.466933

G01 Z-0.125000 F100.0(Penetrate)
G01 X309.265640 Y311.933533 Z-0.125000 F400.000000
G01 X309.265640 Y316.866733 Z-0.125000
G00 Z5.000000

(Change tool to Default tool)

G00 Z5.000000
G00 X304.332400 Y307.000333

G01 Z-0.125000 F100.0(Penetrate)
G01 X303.099100 Y309.466933 Z-0.125000 F400.000000
G01 X306.799040 Y309.466933 Z-0.125000
G00 Z5.000000

(Change tool to Default tool)

G00 Z5.000000
G00 X304.332400 Y300.833833

G01 Z-0.125000 F100.0(Penetrate)
G01 X303.099100 Y304.533733 Z-0.125000 F400.000000
G01 X304.332400 Y307.000333 Z-0.125000
G00 Z5.000000

(Change tool to Default tool)

G00 Z5.000000
G00 X309.265640 Y297.133933

G01 Z-0.125000 F100.0(Penetrate)
G01 X306.799040 Y302.067033 Z-0.125000 F400.000000
G01 X304.332400 Y300.833833 Z-0.125000
G00 Z5.000000

(Change tool to Default tool)

G00 Z5.000000
G00 X312.965550 Y302.067033

G01 Z-0.125000 F100.0(Penetrate)
G01 X310.498940 Y299.600433 Z-0.125000 F400.000000
G01 X309.265640 Y297.133933 Z-0.125000
G00 Z5.000000

(Change tool to Default tool)

G00 Z5.000000
G00 X314.198850 Y311.933533

G01 Z-0.125000 F100.0(Penetrate)
G01 X315.432150 Y305.766933 Z-0.125000 F400.000000
G01 X312.965550 Y302.067033 Z-0.125000
G00 Z5.000000

(Change tool to Default tool)

G00 Z5.000000
G00 X322.831940 Y316.866733

G01 Z-0.125000 F100.0(Penetrate)
G01 X319.132070 Y314.400033 Z-0.125000 F400.000000
G01 X314.198850 Y311.933533 Z-0.125000
G00 Z5.000000

(Change tool to Default tool)

G00 Z5.000000
G00 X321.598640 Y323.033233

G01 Z-0.125000 F100.0(Penetrate)
G01 X319.132070 Y320.566633 Z-0.125000 F400.000000
G01 X322.831940 Y316.866733 Z-0.125000
G00 Z5.000000

(Change tool to Default tool)

G00 Z5.000000
G00 X326.531850 Y319.333333

G01 Z-0.125000 F100.0(Penetrate)
G01 X325.298550 Y325.499833 Z-0.125000 F400.000000
G01 X321.598640 Y323.033233 Z-0.125000
G00 Z5.000000

(Change tool to Default tool)

G00 Z5.000000
G00 X335.164960 Y320.566633

G01 Z-0.125000 F100.0(Penetrate)
G01 X330.231760 Y321.799933 Z-0.125000 F400.000000
G01 X326.531850 Y319.333333 Z-0.125000
G00 Z5.000000

(Change tool to Default tool)

G00 Z5.000000
G00 X341.331470 Y324.266533

G01 Z-0.125000 F100.0(Penetrate)
G01 X338.864870 Y321.799933 Z-0.125000 F400.000000
G01 X335.164960 Y320.566633 Z-0.125000
G00 Z5.000000

(Change tool to Default tool)

G00 Z5.000000
G00 X343.798090 Y330.433033

G01 Z-0.125000 F100.0(Penetrate)
G01 X341.331470 Y327.966433 Z-0.125000 F400.000000
G01 X341.331470 Y324.266533 Z-0.125000
G00 Z5.000000

(Change tool to Default tool)

G00 Z5.000000
G00 X351.197870 Y325.499833

G01 Z-0.125000 F100.0(Penetrate)
G01 X346.264690 Y325.499833 Z-0.125000 F400.000000
G01 X343.798090 Y330.433033 Z-0.125000
G00 Z5.000000

(Change tool to Default tool)

G00 Z5.000000
G00 X352.431180 Y334.132933

G01 Z-0.125000 F100.0(Penetrate)
G01 X353.664480 Y330.433033 Z-0.125000 F400.000000
G01 X351.197870 Y325.499833 Z-0.125000
G00 Z5.000000

(Change tool to Default tool)

G00 Z5.000000
G00 X346.264690 Y335.366233

G01 Z-0.125000 F100.0(Penetrate)
G01 X348.731260 Y330.433033 Z-0.125000 F400.000000
G01 X352.431180 Y334.132933 Z-0.125000
G00 Z5.000000

(Change tool to Default tool)

G00 Z5.000000
G00 X341.331470 Y336.599533

G01 Z-0.125000 F100.0(Penetrate)
G01 X345.031390 Y339.066233 Z-0.125000 F400.000000
G01 X346.264690 Y335.366233 Z-0.125000
G00 Z5.000000

(Change tool to Default tool)

G00 Z5.000000
G00 X335.164960 Y332.899533

G01 Z-0.125000 F100.0(Penetrate)
G01 X337.631570 Y335.366233 Z-0.125000 F400.000000
G01 X341.331470 Y336.599533 Z-0.125000
G00 Z5.000000

(Change tool to Default tool)

G00 Z5.000000
G00 X332.698360 Y326.733133

G01 Z-0.125000 F100.0(Penetrate)
G01 X336.398270 Y327.966433 Z-0.125000 F400.000000
G01 X335.164960 Y332.899533 Z-0.125000
G00 Z5.000000

(Change tool to Default tool)

G00 Z5.000000
G00 X330.231760 Y331.666333

G01 Z-0.125000 F100.0(Penetrate)
G01 X328.998460 Y326.733133 Z-0.125000 F400.000000
G01 X332.698360 Y326.733133 Z-0.125000
G00 Z5.000000

(Change tool to Default tool)

G00 Z5.000000
G00 X331.465060 Y337.832833

G01 Z-0.125000 F100.0(Penetrate)
G01 X327.765150 Y336.599533 Z-0.125000 F400.000000
G01 X330.231760 Y331.666333 Z-0.125000
G00 Z5.000000

(Change tool to Default tool)

G00 Z5.000000
G00 X338.864870 Y341.532733

G01 Z-0.125000 F100.0(Penetrate)
G01 X335.164960 Y340.299433 Z-0.125000 F400.000000
G01 X331.465060 Y337.832833 Z-0.125000
G00 Z5.000000

(Change tool to Default tool)

G00 Z5.000000
G00 X346.264690 Y345.232733

G01 Z-0.125000 F100.0(Penetrate)
G01 X342.564770 Y343.999333 Z-0.125000 F400.000000
G01 X338.864870 Y341.532733 Z-0.125000
G00 Z5.000000

(Change tool to Default tool)

G00 Z5.000000
G00 X347.497960 Y350.165833

G01 Z-0.125000 F100.0(Penetrate)
G01 X349.964560 Y346.465933 Z-0.125000 F400.000000
G01 X346.264690 Y345.232733 Z-0.125000
G00 Z5.000000

(Change tool to Default tool)

G00 Z5.000000
G00 X352.431180 Y351.399233

G01 Z-0.125000 F100.0(Penetrate)
G01 X351.197870 Y348.932533 Z-0.125000 F400.000000
G01 X347.497960 Y350.165833 Z-0.125000
G00 Z5.000000

(Change tool to Default tool)

G00 Z5.000000
G00 X358.597680 Y353.865733

G01 Z-0.125000 F100.0(Penetrate)
G01 X354.897780 Y353.865733 Z-0.125000 F400.000000
G01 X352.431180 Y351.399233 Z-0.125000
G00 Z5.000000

(Change tool to Default tool)

G00 Z5.000000
G00 X358.597680 Y361.265633

G01 Z-0.125000 F100.0(Penetrate)
G01 X357.364380 Y357.565733 Z-0.125000 F400.000000
G01 X358.597680 Y353.865733 Z-0.125000
G00 Z5.000000

(Change tool to Default tool)

G00 Z5.000000
G00 X354.897780 Y361.265633

G01 Z-0.125000 F100.0(Penetrate)
G01 X359.830990 Y363.732233 Z-0.125000 F400.000000
G01 X358.597680 Y361.265633 Z-0.125000
G00 Z5.000000

(Change tool to Default tool)

G00 Z5.000000
G00 X349.964560 Y358.798933

G01 Z-0.125000 F100.0(Penetrate)
G01 X352.431180 Y360.032233 Z-0.125000 F400.000000
G01 X354.897780 Y361.265633 Z-0.125000
G00 Z5.000000

(Change tool to Default tool)

G00 Z5.000000
G00 X348.731260 Y355.099133

G01 Z-0.125000 F100.0(Penetrate)
G01 X351.197870 Y356.332333 Z-0.125000 F400.000000
G01 X349.964560 Y358.798933 Z-0.125000
G00 Z5.000000

(Change tool to Default tool)

G00 Z5.000000
G00 X341.331470 Y351.399233

G01 Z-0.125000 F100.0(Penetrate)
G01 X345.031390 Y355.099133 Z-0.125000 F400.000000
G01 X348.731260 Y355.099133 Z-0.125000
G00 Z5.000000

(Change tool to Default tool)

G00 Z5.000000
G00 X335.164960 Y347.699233

G01 Z-0.125000 F100.0(Penetrate)
G01 X338.864870 Y348.932533 Z-0.125000 F400.000000
G01 X341.331470 Y351.399233 Z-0.125000
G00 Z5.000000

(Change tool to Default tool)

G00 Z5.000000
G00 X327.765150 Y342.766033

G01 Z-0.125000 F100.0(Penetrate)
G01 X331.465060 Y345.232733 Z-0.125000 F400.000000
G01 X335.164960 Y347.699233 Z-0.125000
G00 Z5.000000

(Change tool to Default tool)

G00 Z5.000000
G00 X325.298550 Y347.699233

G01 Z-0.125000 F100.0(Penetrate)
G01 X324.065240 Y342.766033 Z-0.125000 F400.000000
G01 X327.765150 Y342.766033 Z-0.125000
G00 Z5.000000

(Change tool to Default tool)

G00 Z5.000000
G00 X332.698360 Y352.632433

G01 Z-0.125000 F100.0(Penetrate)
G01 X328.998460 Y350.165833 Z-0.125000 F400.000000
G01 X325.298550 Y347.699233 Z-0.125000
G00 Z5.000000

(Change tool to Default tool)

G00 Z5.000000
G00 X338.864870 Y357.565733

G01 Z-0.125000 F100.0(Penetrate)
G01 X335.164960 Y355.099133 Z-0.125000 F400.000000
G01 X332.698360 Y352.632433 Z-0.125000
G00 Z5.000000

(Change tool to Default tool)

G00 Z5.000000
G00 X345.031390 Y361.265633

G01 Z-0.125000 F100.0(Penetrate)
G01 X341.331470 Y361.265633 Z-0.125000 F400.000000
G01 X338.864870 Y357.565733 Z-0.125000
G00 Z5.000000

(Change tool to Default tool)

G00 Z5.000000
G00 X349.964560 Y364.965433

G01 Z-0.125000 F100.0(Penetrate)
G01 X347.497960 Y363.732233 Z-0.125000 F400.000000
G01 X345.031390 Y361.265633 Z-0.125000
G00 Z5.000000

(Change tool to Default tool)

G00 Z5.000000
G00 X354.897780 Y367.432133

G01 Z-0.125000 F100.0(Penetrate)
G01 X352.431180 Y366.198733 Z-0.125000 F400.000000
G01 X349.964560 Y364.965433 Z-0.125000
G00 Z5.000000

(Change tool to Default tool)

G00 Z5.000000
G00 X361.064290 Y368.665333

G01 Z-0.125000 F100.0(Penetrate)
G01 X357.364380 Y368.665333 Z-0.125000 F400.000000
G01 X354.897780 Y367.432133 Z-0.125000
G00 Z5.000000

(Change tool to Default tool)

G00 Z5.000000
G00 X364.764190 Y374.831833

G01 Z-0.125000 F100.0(Penetrate)
G01 X362.297590 Y372.365233 Z-0.125000 F400.000000
G01 X361.064290 Y368.665333 Z-0.125000
G00 Z5.000000

(Change tool to Default tool)

G00 Z5.000000
G00 X370.930710 Y377.298433

G01 Z-0.125000 F100.0(Penetrate)
G01 X368.464110 Y374.831833 Z-0.125000 F400.000000
G01 X364.764190 Y374.831833 Z-0.125000
G00 Z5.000000

(Change tool to Default tool)

G00 Z5.000000
G00 X367.230810 Y379.765133

G01 Z-0.125000 F100.0(Penetrate)
G01 X370.930710 Y380.998333 Z-0.125000 F400.000000
G01 X370.930710 Y377.298433 Z-0.125000
G00 Z5.000000

(Change tool to Default tool)

G00 Z5.000000
G00 X359.830990 Y379.765133

G01 Z-0.125000 F100.0(Penetrate)
G01 X363.530890 Y380.998333 Z-0.125000 F400.000000
G01 X367.230810 Y379.765133 Z-0.125000
G00 Z5.000000

(Change tool to Default tool)

G00 Z5.000000
G00 X358.597680 Y376.065233

G01 Z-0.125000 F100.0(Penetrate)
G01 X361.064290 Y377.298433 Z-0.125000 F400.000000
G01 X359.830990 Y379.765133 Z-0.125000
G00 Z5.000000

(Change tool to Default tool)

G00 Z5.000000
G00 X354.897780 Y374.831833

G01 Z-0.125000 F100.0(Penetrate)
G01 X357.364380 Y373.598633 Z-0.125000 F400.000000
G01 X358.597680 Y376.065233 Z-0.125000
G00 Z5.000000

(Change tool to Default tool)

G00 Z5.000000
G00 X351.197870 Y377.298433

G01 Z-0.125000 F100.0(Penetrate)
G01 X354.897780 Y378.531733 Z-0.125000 F400.000000
G01 X354.897780 Y374.831833 Z-0.125000
G00 Z5.000000

(Change tool to Default tool)

G00 Z5.000000
G00 X351.197870 Y382.231733

G01 Z-0.125000 F100.0(Penetrate)
G01 X348.731260 Y379.765133 Z-0.125000 F400.000000
G01 X351.197870 Y377.298433 Z-0.125000
G00 Z5.000000

(Change tool to Default tool)

G00 Z5.000000
G00 X357.364380 Y383.465033

G01 Z-0.125000 F100.0(Penetrate)
G01 X354.897780 Y382.231733 Z-0.125000 F400.000000
G01 X351.197870 Y382.231733 Z-0.125000
G00 Z5.000000

(Change tool to Default tool)

G00 Z5.000000
G00 X363.530890 Y384.698233

G01 Z-0.125000 F100.0(Penetrate)
G01 X359.830990 Y384.698233 Z-0.125000 F400.000000
G01 X357.364380 Y383.465033 Z-0.125000
G00 Z5.000000

(Change tool to Default tool)

G00 Z5.000000
G00 X370.930710 Y385.931633

G01 Z-0.125000 F100.0(Penetrate)
G01 X367.230810 Y384.698233 Z-0.125000 F400.000000
G01 X363.530890 Y384.698233 Z-0.125000
G00 Z5.000000

(Change tool to Default tool)

G00 Z5.000000
G00 X375.863920 Y390.864733

G01 Z-0.125000 F100.0(Penetrate)
G01 X374.630620 Y387.164833 Z-0.125000 F400.000000
G01 X370.930710 Y385.931633 Z-0.125000
G00 Z5.000000

(Change tool to Default tool)

G00 Z5.000000
G00 X379.563820 Y398.264633

G01 Z-0.125000 F100.0(Penetrate)
G01 X375.863920 Y395.798033 Z-0.125000 F400.000000
G01 X375.863920 Y390.864733 Z-0.125000
G00 Z5.000000

(Change tool to Default tool)

G00 Z5.000000
G00 X374.630620 Y401.964537

G01 Z-0.125000 F100.0(Penetrate)
G01 X378.330520 Y404.431137 Z-0.125000 F400.000000
G01 X379.563820 Y398.264633 Z-0.125000
G00 Z5.000000

(Change tool to Default tool)

G00 Z5.000000
G00 X369.697410 Y403.197737

G01 Z-0.125000 F100.0(Penetrate)
G01 X372.164010 Y408.131037 Z-0.125000 F400.000000
G01 X374.630620 Y401.964537 Z-0.125000
G00 Z5.000000

(Change tool to Default tool)

G00 Z5.000000
G00 X368.464110 Y397.031233

G01 Z-0.125000 F100.0(Penetrate)
G01 X367.230810 Y400.731237 Z-0.125000 F400.000000
G01 X369.697410 Y403.197737 Z-0.125000
G00 Z5.000000

(Change tool to Default tool)

G00 Z5.000000
G00 X370.930710 Y392.098133

G01 Z-0.125000 F100.0(Penetrate)
G01 X365.997490 Y394.564733 Z-0.125000 F400.000000
G01 X368.464110 Y397.031233 Z-0.125000
G00 Z5.000000

(Change tool to Default tool)

G00 Z5.000000
G00 X362.297590 Y392.098133

G01 Z-0.125000 F100.0(Penetrate)
G01 X367.230810 Y389.631533 Z-0.125000 F400.000000
G01 X370.930710 Y392.098133 Z-0.125000
G00 Z5.000000

(Change tool to Default tool)

G00 Z5.000000
G00 X357.364380 Y388.398233

G01 Z-0.125000 F100.0(Penetrate)
G01 X361.064290 Y389.631533 Z-0.125000 F400.000000
G01 X362.297590 Y392.098133 Z-0.125000
G00 Z5.000000

(Change tool to Default tool)

G00 Z5.000000
G00 X351.197870 Y385.931633

G01 Z-0.125000 F100.0(Penetrate)
G01 X353.664480 Y387.164833 Z-0.125000 F400.000000
G01 X357.364380 Y388.398233 Z-0.125000
G00 Z5.000000

(Change tool to Default tool)

G00 Z5.000000
G00 X345.031390 Y382.231733

G01 Z-0.125000 F100.0(Penetrate)
G01 X347.497960 Y383.465033 Z-0.125000 F400.000000
G01 X351.197870 Y385.931633 Z-0.125000
G00 Z5.000000

(Change tool to Default tool)

G00 Z5.000000
G00 X343.798090 Y373.598633

G01 Z-0.125000 F100.0(Penetrate)
G01 X345.031390 Y378.531733 Z-0.125000 F400.000000
G01 X345.031390 Y382.231733 Z-0.125000
G00 Z5.000000

(Change tool to Default tool)

G00 Z5.000000
G00 X342.564770 Y366.198733

G01 Z-0.125000 F100.0(Penetrate)
G01 X342.564770 Y369.898733 Z-0.125000 F400.000000
G01 X343.798090 Y373.598633 Z-0.125000
G00 Z5.000000

(Change tool to Default tool)

G00 Z5.000000
G00 X336.398270 Y367.432133

G01 Z-0.125000 F100.0(Penetrate)
G01 X337.631570 Y369.898733 Z-0.125000 F400.000000
G01 X342.564770 Y366.198733 Z-0.125000
G00 Z5.000000

(Change tool to Default tool)

G00 Z5.000000
G00 X331.465060 Y361.265633

G01 Z-0.125000 F100.0(Penetrate)
G01 X333.931660 Y363.732233 Z-0.125000 F400.000000
G01 X336.398270 Y367.432133 Z-0.125000
G00 Z5.000000

(Change tool to Default tool)

G00 Z5.000000
G00 X325.298550 Y353.865733

G01 Z-0.125000 F100.0(Penetrate)
G01 X328.998460 Y357.565733 Z-0.125000 F400.000000
G01 X331.465060 Y361.265633 Z-0.125000
G00 Z5.000000

(Change tool to Default tool)

G00 Z5.000000
G00 X319.132070 Y350.165833

G01 Z-0.125000 F100.0(Penetrate)
G01 X321.598640 Y352.632433 Z-0.125000 F400.000000
G01 X325.298550 Y353.865733 Z-0.125000
G00 Z5.000000

(Change tool to Default tool)

G00 Z5.000000
G00 X320.365330 Y341.532733

G01 Z-0.125000 F100.0(Penetrate)
G01 X317.898750 Y346.465933 Z-0.125000 F400.000000
G01 X319.132070 Y350.165833 Z-0.125000
G00 Z5.000000

(Change tool to Default tool)

G00 Z5.000000
G00 X310.498940 Y341.532733

G01 Z-0.125000 F100.0(Penetrate)
G01 X315.432150 Y341.532733 Z-0.125000 F400.000000
G01 X320.365330 Y341.532733 Z-0.125000
G00 Z5.000000

(Change tool to Default tool)

G00 Z5.000000
G00 X304.332400 Y340.299433

G01 Z-0.125000 F100.0(Penetrate)
G01 X309.265640 Y340.299433 Z-0.125000 F400.000000
G01 X310.498940 Y341.532733 Z-0.125000
G00 Z5.000000

(Change tool to Default tool)

G00 Z5.000000
G00 X308.032340 Y345.232733

G01 Z-0.125000 F100.0(Penetrate)
G01 X304.332400 Y345.232733 Z-0.125000 F400.000000
G01 X304.332400 Y340.299433 Z-0.125000
G00 Z5.000000

(Change tool to Default tool)

G00 Z5.000000
G00 X314.198850 Y351.399233

G01 Z-0.125000 F100.0(Penetrate)
G01 X312.965550 Y346.465933 Z-0.125000 F400.000000
G01 X308.032340 Y345.232733 Z-0.125000
G00 Z5.000000

(Change tool to Default tool)

G00 Z5.000000
G00 X320.365330 Y358.798933

G01 Z-0.125000 F100.0(Penetrate)
G01 X316.665450 Y356.332333 Z-0.125000 F400.000000
G01 X314.198850 Y351.399233 Z-0.125000
G00 Z5.000000

(Change tool to Default tool)

G00 Z5.000000
G00 X325.298550 Y363.732233

G01 Z-0.125000 F100.0(Penetrate)
G01 X324.065240 Y360.032233 Z-0.125000 F400.000000
G01 X320.365330 Y358.798933 Z-0.125000
G00 Z5.000000

(Change tool to Default tool)

G00 Z5.000000
G00 X330.231760 Y368.665333

G01 Z-0.125000 F100.0(Penetrate)
G01 X325.298550 Y368.665333 Z-0.125000 F400.000000
G01 X325.298550 Y363.732233 Z-0.125000
G00 Z5.000000

(Change tool to Default tool)

G00 Z5.000000
G00 X333.931660 Y374.831833

G01 Z-0.125000 F100.0(Penetrate)
G01 X331.465060 Y372.365233 Z-0.125000 F400.000000
G01 X330.231760 Y368.665333 Z-0.125000
G00 Z5.000000

(Change tool to Default tool)

G00 Z5.000000
G00 X338.864870 Y379.765133

G01 Z-0.125000 F100.0(Penetrate)
G01 X338.864870 Y374.831833 Z-0.125000 F400.000000
G01 X333.931660 Y374.831833 Z-0.125000
G00 Z5.000000

(Change tool to Default tool)

G00 Z5.000000
G00 X340.098170 Y385.931633

G01 Z-0.125000 F100.0(Penetrate)
G01 X336.398270 Y383.465033 Z-0.125000 F400.000000
G01 X338.864870 Y379.765133 Z-0.125000
G00 Z5.000000

(Change tool to Default tool)

G00 Z5.000000
G00 X347.497960 Y388.398233

G01 Z-0.125000 F100.0(Penetrate)
G01 X345.031390 Y387.164833 Z-0.125000 F400.000000
G01 X340.098170 Y385.931633 Z-0.125000
G00 Z5.000000

(Change tool to Default tool)

G00 Z5.000000
G00 X353.664480 Y390.864733

G01 Z-0.125000 F100.0(Penetrate)
G01 X349.964560 Y390.864733 Z-0.125000 F400.000000
G01 X347.497960 Y388.398233 Z-0.125000
G00 Z5.000000

(Change tool to Default tool)

G00 Z5.000000
G00 X357.364380 Y397.031233

G01 Z-0.125000 F100.0(Penetrate)
G01 X356.131080 Y393.331333 Z-0.125000 F400.000000
G01 X353.664480 Y390.864733 Z-0.125000
G00 Z5.000000

(Change tool to Default tool)

G00 Z5.000000
G00 X361.064290 Y401.964537

G01 Z-0.125000 F100.0(Penetrate)
G01 X361.064290 Y397.031233 Z-0.125000 F400.000000
G01 X357.364380 Y397.031233 Z-0.125000
G00 Z5.000000

(Change tool to Default tool)

G00 Z5.000000
G00 X365.997490 Y408.131037

G01 Z-0.125000 F100.0(Penetrate)
G01 X362.297590 Y405.664337 Z-0.125000 F400.000000
G01 X361.064290 Y401.964537 Z-0.125000
G00 Z5.000000

(Change tool to Default tool)

G00 Z5.000000
G00 X364.764190 Y416.764137

G01 Z-0.125000 F100.0(Penetrate)
G01 X365.997490 Y413.064237 Z-0.125000 F400.000000
G01 X365.997490 Y408.131037 Z-0.125000
G00 Z5.000000

(Change tool to Default tool)

G00 Z5.000000
G00 X358.597680 Y411.830937

G01 Z-0.125000 F100.0(Penetrate)
G01 X359.830990 Y414.297537 Z-0.125000 F400.000000
G01 X364.764190 Y416.764137 Z-0.125000
G00 Z5.000000

(Change tool to Default tool)

G00 Z5.000000
G00 X356.131080 Y403.197737

G01 Z-0.125000 F100.0(Penetrate)
G01 X356.131080 Y408.131037 Z-0.125000 F400.000000
G01 X358.597680 Y411.830937 Z-0.125000
G00 Z5.000000

(Change tool to Default tool)

G00 Z5.000000
G00 X352.431180 Y398.264633

G01 Z-0.125000 F100.0(Penetrate)
G01 X352.431180 Y401.964537 Z-0.125000 F400.000000
G01 X356.131080 Y403.197737 Z-0.125000
G00 Z5.000000

(Change tool to Default tool)

G00 Z5.000000
G00 X347.497960 Y398.264633

G01 Z-0.125000 F100.0(Penetrate)
G01 X351.197870 Y395.798033 Z-0.125000 F400.000000
G01 X352.431180 Y398.264633 Z-0.125000
G00 Z5.000000

(Change tool to Default tool)

G00 Z5.000000
G00 X345.031390 Y392.098133

G01 Z-0.125000 F100.0(Penetrate)
G01 X347.497960 Y394.564733 Z-0.125000 F400.000000
G01 X347.497960 Y398.264633 Z-0.125000
G00 Z5.000000

(Change tool to Default tool)

G00 Z5.000000
G00 X342.564770 Y395.798033

G01 Z-0.125000 F100.0(Penetrate)
G01 X342.564770 Y390.864733 Z-0.125000 F400.000000
G01 X345.031390 Y392.098133 Z-0.125000
G00 Z5.000000

(Change tool to Default tool)

G00 Z5.000000
G00 X336.398270 Y390.864733

G01 Z-0.125000 F100.0(Penetrate)
G01 X338.864870 Y394.564733 Z-0.125000 F400.000000
G01 X342.564770 Y395.798033 Z-0.125000
G00 Z5.000000

(Change tool to Default tool)

G00 Z5.000000
G00 X330.231760 Y388.398233

G01 Z-0.125000 F100.0(Penetrate)
G01 X331.465060 Y392.098133 Z-0.125000 F400.000000
G01 X336.398270 Y390.864733 Z-0.125000
G00 Z5.000000

(Change tool to Default tool)

G00 Z5.000000
G00 X332.698360 Y382.231733

G01 Z-0.125000 F100.0(Penetrate)
G01 X327.765150 Y384.698233 Z-0.125000 F400.000000
G01 X330.231760 Y388.398233 Z-0.125000
G00 Z5.000000

(Change tool to Default tool)

G00 Z5.000000
G00 X326.531850 Y378.531733

G01 Z-0.125000 F100.0(Penetrate)
G01 X330.231760 Y379.765133 Z-0.125000 F400.000000
G01 X332.698360 Y382.231733 Z-0.125000
G00 Z5.000000

(Change tool to Default tool)

G00 Z5.000000
G00 X321.598640 Y374.831833

G01 Z-0.125000 F100.0(Penetrate)
G01 X326.531850 Y373.598633 Z-0.125000 F400.000000
G01 X326.531850 Y378.531733 Z-0.125000
G00 Z5.000000

(Change tool to Default tool)

G00 Z5.000000
G00 X319.132070 Y366.198733

G01 Z-0.125000 F100.0(Penetrate)
G01 X320.365330 Y369.898733 Z-0.125000 F400.000000
G01 X321.598640 Y374.831833 Z-0.125000
G00 Z5.000000

(Change tool to Default tool)

G00 Z5.000000
G00 X312.965550 Y361.265633

G01 Z-0.125000 F100.0(Penetrate)
G01 X316.665450 Y363.732233 Z-0.125000 F400.000000
G01 X319.132070 Y366.198733 Z-0.125000
G00 Z5.000000

(Change tool to Default tool)

G00 Z5.000000
G00 X306.799040 Y355.099133

G01 Z-0.125000 F100.0(Penetrate)
G01 X311.732240 Y357.565733 Z-0.125000 F400.000000
G01 X312.965550 Y361.265633 Z-0.125000
G00 Z5.000000

(Change tool to Default tool)

G00 Z5.000000
G00 X300.632530 Y347.699233

G01 Z-0.125000 F100.0(Penetrate)
G01 X304.332430 Y350.165833 Z-0.125000 F400.000000
G01 X306.799040 Y355.099133 Z-0.125000
G00 Z5.000000

(Change tool to Default tool)

G00 Z5.000000
G00 X296.932610 Y350.165833

G01 Z-0.125000 F100.0(Penetrate)
G01 X298.165920 Y352.632433 Z-0.125000 F400.000000
G01 X300.632530 Y347.699233 Z-0.125000
G00 Z5.000000

(Change tool to Default tool)

G00 Z5.000000
G00 X291.999410 Y345.232733

G01 Z-0.125000 F100.0(Penetrate)
G01 X294.466010 Y348.932533 Z-0.125000 F400.000000
G01 X296.932610 Y350.165833 Z-0.125000
G00 Z5.000000

(Change tool to Default tool)

G00 Z5.000000
G00 X282.133020 Y340.299433

G01 Z-0.125000 F100.0(Penetrate)
G01 X287.066220 Y342.766033 Z-0.125000 F400.000000
G01 X291.999410 Y345.232733 Z-0.125000
G00 Z5.000000

(Change tool to Default tool)

G00 Z5.000000
G00 X280.899710 Y331.666333

G01 Z-0.125000 F100.0(Penetrate)
G01 X284.599620 Y335.366233 Z-0.125000 F400.000000
G01 X282.133020 Y340.299433 Z-0.125000
G00 Z5.000000

(Change tool to Default tool)

G00 Z5.000000
G00 X271.033270 Y326.733133

G01 Z-0.125000 F100.0(Penetrate)
G01 X278.433110 Y327.966433 Z-0.125000 F400.000000
G01 X280.899710 Y331.666333 Z-0.125000
G00 Z5.000000

(Change tool to Default tool)

G00 Z5.000000
G00 X271.033270 Y337.832833

G01 Z-0.125000 F100.0(Penetrate)
G01 X271.033270 Y332.899533 Z-0.125000 F400.000000
G01 X271.033270 Y326.733133 Z-0.125000
G00 Z5.000000

(Change tool to Default tool)

G00 Z5.000000
G00 X273.499890 Y345.232733

G01 Z-0.125000 F100.0(Penetrate)
G01 X275.966470 Y339.066233 Z-0.125000 F400.000000
G01 X271.033270 Y337.832833 Z-0.125000
G00 Z5.000000

(Change tool to Default tool)

G00 Z5.000000
G00 X283.366300 Y348.932533

G01 Z-0.125000 F100.0(Penetrate)
G01 X278.433080 Y347.699233 Z-0.125000 F400.000000
G01 X273.499870 Y345.232733 Z-0.125000
G00 Z5.000000

(Change tool to Default tool)

G00 Z5.000000
G00 X291.999380 Y352.632433

G01 Z-0.125000 F100.0(Penetrate)
G01 X289.532800 Y350.165833 Z-0.125000 F400.000000
G01 X283.366300 Y348.932533 Z-0.125000
G00 Z5.000000

(Change tool to Default tool)

G00 Z5.000000
G00 X295.699290 Y357.565733

G01 Z-0.125000 F100.0(Penetrate)
G01 X294.465990 Y353.865733 Z-0.125000 F400.000000
G01 X291.999380 Y352.632433 Z-0.125000
G00 Z5.000000

(Change tool to Default tool)

G00 Z5.000000
G00 X300.632500 Y357.565733

G01 Z-0.125000 F100.0(Penetrate)
G01 X299.399190 Y356.332333 Z-0.125000 F400.000000
G01 X295.699290 Y357.565733 Z-0.125000
G00 Z5.000000

(Change tool to Default tool)

G00 Z5.000000
G00 X300.632500 Y363.732233

G01 Z-0.125000 F100.0(Penetrate)
G01 X301.865800 Y360.032233 Z-0.125000 F400.000000
G01 X300.632500 Y357.565733 Z-0.125000
G00 Z5.000000

(Change tool to Default tool)

G00 Z5.000000
G00 X308.032340 Y362.498833

G01 Z-0.125000 F100.0(Penetrate)
G01 X304.332400 Y362.498833 Z-0.125000 F400.000000
G01 X300.632500 Y363.732233 Z-0.125000
G00 Z5.000000

(Change tool to Default tool)

G00 Z5.000000
G00 X311.732240 Y369.898733

G01 Z-0.125000 F100.0(Penetrate)
G01 X310.498940 Y366.198733 Z-0.125000 F400.000000
G01 X308.032340 Y362.498833 Z-0.125000
G00 Z5.000000

(Change tool to Default tool)

G00 Z5.000000
G00 X316.665450 Y374.831833

G01 Z-0.125000 F100.0(Penetrate)
G01 X312.965550 Y372.365233 Z-0.125000 F400.000000
G01 X311.732240 Y369.898733 Z-0.125000
G00 Z5.000000

(Change tool to Default tool)

G00 Z5.000000
G00 X321.598640 Y382.231733

G01 Z-0.125000 F100.0(Penetrate)
G01 X319.132070 Y379.765133 Z-0.125000 F400.000000
G01 X316.665450 Y374.831833 Z-0.125000
G00 Z5.000000

(Change tool to Default tool)

G00 Z5.000000
G00 X324.065240 Y390.864733

G01 Z-0.125000 F100.0(Penetrate)
G01 X322.831940 Y385.931633 Z-0.125000 F400.000000
G01 X321.598640 Y382.231733 Z-0.125000
G00 Z5.000000

(Change tool to Default tool)

G00 Z5.000000
G00 X328.998460 Y397.031233

G01 Z-0.125000 F100.0(Penetrate)
G01 X325.298550 Y394.564733 Z-0.125000 F400.000000
G01 X324.065240 Y390.864733 Z-0.125000
G00 Z5.000000

(Change tool to Default tool)

G00 Z5.000000
G00 X333.931660 Y404.431137

G01 Z-0.125000 F100.0(Penetrate)
G01 X333.931660 Y398.264633 Z-0.125000 F400.000000
G01 X328.998460 Y397.031233 Z-0.125000
G00 Z5.000000

(Change tool to Default tool)

G00 Z5.000000
G00 X325.298550 Y400.731237

G01 Z-0.125000 F100.0(Penetrate)
G01 X328.998460 Y403.197737 Z-0.125000 F400.000000
G01 X333.931660 Y404.431137 Z-0.125000
G00 Z5.000000

(Change tool to Default tool)

G00 Z5.000000
G00 X319.132070 Y395.798033

G01 Z-0.125000 F100.0(Penetrate)
G01 X320.365330 Y399.497933 Z-0.125000 F400.000000
G01 X325.298550 Y400.731237 Z-0.125000
G00 Z5.000000

(Change tool to Default tool)

G00 Z5.000000
G00 X316.665450 Y387.164833

G01 Z-0.125000 F100.0(Penetrate)
G01 X319.132070 Y390.864733 Z-0.125000 F400.000000
G01 X319.132070 Y395.798033 Z-0.125000
G00 Z5.000000

(Change tool to Default tool)

G00 Z5.000000
G00 X314.198850 Y397.031233

G01 Z-0.125000 F100.0(Penetrate)
G01 X314.198850 Y392.098133 Z-0.125000 F400.000000
G01 X316.665450 Y387.164833 Z-0.125000
G00 Z5.000000

(Change tool to Default tool)

G00 Z5.000000
G00 X315.432150 Y405.664337

G01 Z-0.125000 F100.0(Penetrate)
G01 X315.432150 Y400.731237 Z-0.125000 F400.000000
G01 X314.198850 Y397.031233 Z-0.125000
G00 Z5.000000

(Change tool to Default tool)

G00 Z5.000000
G00 X322.831940 Y408.131037

G01 Z-0.125000 F100.0(Penetrate)
G01 X320.365330 Y405.664337 Z-0.125000 F400.000000
G01 X315.432150 Y405.664337 Z-0.125000
G00 Z5.000000

(Change tool to Default tool)

G00 Z5.000000
G00 X327.765150 Y413.064237

G01 Z-0.125000 F100.0(Penetrate)
G01 X326.531850 Y410.597637 Z-0.125000 F400.000000
G01 X322.831940 Y408.131037 Z-0.125000
G00 Z5.000000

(Change tool to Default tool)

G00 Z5.000000
G00 X335.164960 Y414.297537

G01 Z-0.125000 F100.0(Penetrate)
G01 X332.698360 Y413.064237 Z-0.125000 F400.000000
G01 X327.765150 Y413.064237 Z-0.125000
G00 Z5.000000

(Change tool to Default tool)

G00 Z5.000000
G00 X342.564770 Y416.764137

G01 Z-0.125000 F100.0(Penetrate)
G01 X338.864870 Y415.530837 Z-0.125000 F400.000000
G01 X335.164960 Y414.297537 Z-0.125000
G00 Z5.000000

(Change tool to Default tool)

G00 Z5.000000
G00 X333.931660 Y419.230737

G01 Z-0.125000 F100.0(Penetrate)
G01 X338.864870 Y420.464037 Z-0.125000 F400.000000
G01 X342.564770 Y416.764137 Z-0.125000
G00 Z5.000000

(Change tool to Default tool)

G00 Z5.000000
G00 X332.698360 Y425.397237

G01 Z-0.125000 F100.0(Penetrate)
G01 X333.931660 Y422.930637 Z-0.125000 F400.000000
G01 X333.931660 Y419.230737 Z-0.125000
G00 Z5.000000

(Change tool to Default tool)

G00 Z5.000000
G00 X331.465060 Y430.330537

G01 Z-0.125000 F100.0(Penetrate)
G01 X328.998460 Y427.863937 Z-0.125000 F400.000000
G01 X332.698360 Y425.397237 Z-0.125000
G00 Z5.000000

(Change tool to Default tool)

G00 Z5.000000
G00 X332.698360 Y436.497037

G01 Z-0.125000 F100.0(Penetrate)
G01 X333.931660 Y432.797037 Z-0.125000 F400.000000
G01 X331.465060 Y430.330537 Z-0.125000
G00 Z5.000000

(Change tool to Default tool)

G00 Z5.000000
G00 X326.531850 Y434.030437

G01 Z-0.125000 F100.0(Penetrate)
G01 X327.765150 Y436.497037 Z-0.125000 F400.000000
G01 X332.698360 Y436.497037 Z-0.125000
G00 Z5.000000

(Change tool to Default tool)

G00 Z5.000000
G00 X319.132070 Y431.563737

G01 Z-0.125000 F100.0(Penetrate)
G01 X324.065240 Y431.563737 Z-0.125000 F400.000000
G01 X326.531850 Y434.030437 Z-0.125000
G00 Z5.000000

(Change tool to Default tool)

G00 Z5.000000
G00 X310.498940 Y427.863937

G01 Z-0.125000 F100.0(Penetrate)
G01 X314.198850 Y430.330537 Z-0.125000 F400.000000
G01 X319.132070 Y431.563737 Z-0.125000
G00 Z5.000000

(Change tool to Default tool)

G00 Z5.000000
G00 X306.799040 Y421.697337

G01 Z-0.125000 F100.0(Penetrate)
G01 X310.498940 Y422.930637 Z-0.125000 F400.000000
G01 X310.498940 Y427.863937 Z-0.125000
G00 Z5.000000

(Change tool to Default tool)

G00 Z5.000000
G00 X298.165920 Y420.464037

G01 Z-0.125000 F100.0(Penetrate)
G01 X301.865830 Y421.697337 Z-0.125000 F400.000000
G01 X306.799040 Y421.697337 Z-0.125000
G00 Z5.000000

(Change tool to Default tool)

G00 Z5.000000
G00 X298.165920 Y413.064237

G01 Z-0.125000 F100.0(Penetrate)
G01 X300.632530 Y415.530837 Z-0.125000 F400.000000
G01 X298.165920 Y420.464037 Z-0.125000
G00 Z5.000000

(Change tool to Default tool)

G00 Z5.000000
G00 X295.699310 Y408.131037

G01 Z-0.125000 F100.0(Penetrate)
G01 X293.232710 Y413.064237 Z-0.125000 F400.000000
G01 X298.165920 Y413.064237 Z-0.125000
G00 Z5.000000

(Change tool to Default tool)

G00 Z5.000000
G00 X288.299520 Y406.897737

G01 Z-0.125000 F100.0(Penetrate)
G01 X291.999410 Y408.131037 Z-0.125000 F400.000000
G01 X295.699310 Y408.131037 Z-0.125000
G00 Z5.000000

(Change tool to Default tool)

G00 Z5.000000
G00 X285.832920 Y399.497933

G01 Z-0.125000 F100.0(Penetrate)
G01 X287.066220 Y401.964537 Z-0.125000 F400.000000
G01 X288.299520 Y406.897737 Z-0.125000
G00 Z5.000000

(Change tool to Default tool)

G00 Z5.000000
G00 X283.366320 Y392.098133

G01 Z-0.125000 F100.0(Penetrate)
G01 X283.366320 Y395.798033 Z-0.125000 F400.000000
G01 X285.832920 Y399.497933 Z-0.125000
G00 Z5.000000

(Change tool to Default tool)

G00 Z5.000000
G00 X278.433080 Y395.798033

G01 Z-0.125000 F100.0(Penetrate)
G01 X279.666380 Y393.331333 Z-0.125000 F400.000000
G01 X283.366300 Y392.098133 Z-0.125000
G00 Z5.000000

(Change tool to Default tool)

G00 Z5.000000
G00 X280.899680 Y399.497933

G01 Z-0.125000 F100.0(Penetrate)
G01 X278.433080 Y398.264633 Z-0.125000 F400.000000
G01 X278.433080 Y395.798033 Z-0.125000
G00 Z5.000000

(Change tool to Default tool)

G00 Z5.000000
G00 X283.366320 Y403.197737

G01 Z-0.125000 F100.0(Penetrate)
G01 X283.366320 Y399.497933 Z-0.125000 F400.000000
G01 X280.899710 Y399.497933 Z-0.125000
G00 Z5.000000

(Change tool to Default tool)

G00 Z5.000000
G00 X283.366320 Y408.131037

G01 Z-0.125000 F100.0(Penetrate)
G01 X284.599620 Y405.664337 Z-0.125000 F400.000000
G01 X283.366320 Y403.197737 Z-0.125000
G00 Z5.000000

(Change tool to Default tool)

G00 Z5.000000
G00 X287.066220 Y413.064237

G01 Z-0.125000 F100.0(Penetrate)
G01 X283.366320 Y411.830937 Z-0.125000 F400.000000
G01 X283.366320 Y408.131037 Z-0.125000
G00 Z5.000000

(Change tool to Default tool)

G00 Z5.000000
G00 X291.999410 Y417.997437

G01 Z-0.125000 F100.0(Penetrate)
G01 X288.299520 Y416.764137 Z-0.125000 F400.000000
G01 X287.066220 Y413.064237 Z-0.125000
G00 Z5.000000

(Change tool to Default tool)

G00 Z5.000000
G00 X293.232710 Y425.397237

G01 Z-0.125000 F100.0(Penetrate)
G01 X293.232710 Y420.464037 Z-0.125000 F400.000000
G01 X291.999410 Y417.997437 Z-0.125000
G00 Z5.000000

(Change tool to Default tool)

G00 Z5.000000
G00 X285.832920 Y421.697337

G01 Z-0.125000 F100.0(Penetrate)
G01 X288.299520 Y425.397237 Z-0.125000 F400.000000
G01 X293.232690 Y425.397237 Z-0.125000
G00 Z5.000000

(Change tool to Default tool)

G00 Z5.000000
G00 X282.133020 Y416.764137

G01 Z-0.125000 F100.0(Penetrate)
G01 X282.133020 Y421.697337 Z-0.125000 F400.000000
G01 X285.832920 Y421.697337 Z-0.125000
G00 Z5.000000

(Change tool to Default tool)

G00 Z5.000000
G00 X277.199780 Y415.530837

G01 Z-0.125000 F100.0(Penetrate)
G01 X278.433080 Y419.230737 Z-0.125000 F400.000000
G01 X282.132980 Y416.764137 Z-0.125000
G00 Z5.000000

(Change tool to Default tool)

G00 Z5.000000
G00 X279.666380 Y413.064237

G01 Z-0.125000 F100.0(Penetrate)
G01 X275.966470 Y413.064237 Z-0.125000 F400.000000
G01 X277.199780 Y415.530837 Z-0.125000
G00 Z5.000000

(Change tool to Default tool)

G00 Z5.000000
G00 X273.499890 Y405.664337

G01 Z-0.125000 F100.0(Penetrate)
G01 X278.433110 Y409.364337 Z-0.125000 F400.000000
G01 X279.666410 Y413.064237 Z-0.125000
G00 Z5.000000

(Change tool to Default tool)

G00 Z5.000000
G00 X266.100060 Y401.964537

G01 Z-0.125000 F100.0(Penetrate)
G01 X271.033270 Y403.197737 Z-0.125000 F400.000000
G01 X273.499890 Y405.664337 Z-0.125000
G00 Z5.000000

(Change tool to Default tool)

G00 Z5.000000
G00 X259.933550 Y393.331333

G01 Z-0.125000 F100.0(Penetrate)
G01 X262.400170 Y397.031233 Z-0.125000 F400.000000
G01 X266.100060 Y401.964537 Z-0.125000
G00 Z5.000000

(Change tool to Default tool)

G00 Z5.000000
G00 X258.700250 Y382.231733

G01 Z-0.125000 F100.0(Penetrate)
G01 X256.233650 Y390.864733 Z-0.125000 F400.000000
G01 X259.933550 Y393.331333 Z-0.125000
G00 Z5.000000

(Change tool to Default tool)

G00 Z5.000000
G00 X267.333360 Y388.398233

G01 Z-0.125000 F100.0(Penetrate)
G01 X262.400170 Y385.931633 Z-0.125000 F400.000000
G01 X258.700250 Y382.231733 Z-0.125000
G00 Z5.000000

(Change tool to Default tool)

G00 Z5.000000
G00 X268.566660 Y395.798033

G01 Z-0.125000 F100.0(Penetrate)
G01 X271.033270 Y389.631533 Z-0.125000 F400.000000
G01 X267.333360 Y388.398233 Z-0.125000
G00 Z5.000000

(Change tool to Default tool)

G00 Z5.000000
G00 X275.966470 Y393.331333

G01 Z-0.125000 F100.0(Penetrate)
G01 X273.499890 Y397.031233 Z-0.125000 F400.000000
G01 X268.566660 Y395.798033 Z-0.125000
G00 Z5.000000

(Change tool to Default tool)

G00 Z5.000000
G00 X277.199780 Y383.465033

G01 Z-0.125000 F100.0(Penetrate)
G01 X278.433080 Y387.164833 Z-0.125000 F400.000000
G01 X275.966470 Y393.331333 Z-0.125000
G00 Z5.000000

(Change tool to Default tool)

G00 Z5.000000
G00 X273.499890 Y374.831833

G01 Z-0.125000 F100.0(Penetrate)
G01 X277.199780 Y378.531733 Z-0.125000 F400.000000
G01 X277.199780 Y383.465033 Z-0.125000
G00 Z5.000000

(Change tool to Default tool)

G00 Z5.000000
G00 X266.100060 Y378.531733

G01 Z-0.125000 F100.0(Penetrate)
G01 X269.799970 Y382.231733 Z-0.125000 F400.000000
G01 X273.499870 Y374.831833 Z-0.125000
G00 Z5.000000

(Change tool to Default tool)

G00 Z5.000000
G00 X259.933550 Y373.598633

G01 Z-0.125000 F100.0(Penetrate)
G01 X266.100060 Y373.598633 Z-0.125000 F400.000000
G01 X266.100060 Y378.531733 Z-0.125000
G00 Z5.000000

(Change tool to Default tool)

G00 Z5.000000
G00 X247.600560 Y363.732233

G01 Z-0.125000 F100.0(Penetrate)
G01 X256.233650 Y368.665333 Z-0.125000 F400.000000
G01 X259.933550 Y373.598633 Z-0.125000
G00 Z5.000000

(Change tool to Default tool)

G00 Z5.000000
G00 X237.734150 Y353.865733

G01 Z-0.125000 F100.0(Penetrate)
G01 X242.667350 Y358.798933 Z-0.125000 F400.000000
G01 X247.600560 Y363.732233 Z-0.125000
G00 Z5.000000

(Change tool to Default tool)

G00 Z5.000000
G00 X234.034230 Y342.766033

G01 Z-0.125000 F100.0(Penetrate)
G01 X234.034230 Y348.932533 Z-0.125000 F400.000000
G01 X237.734150 Y353.865733 Z-0.125000
G00 Z5.000000

(Change tool to Default tool)

G00 Z5.000000
G00 X231.567630 Y329.199733

G01 Z-0.125000 F100.0(Penetrate)
G01 X234.034230 Y335.366233 Z-0.125000 F400.000000
G01 X234.034230 Y342.766033 Z-0.125000
G00 Z5.000000

(Change tool to Default tool)

G00 Z5.000000
G00 X227.867720 Y318.100033

G01 Z-0.125000 F100.0(Penetrate)
G01 X226.634420 Y324.266533 Z-0.125000 F400.000000
G01 X231.567630 Y329.199733 Z-0.125000
G00 Z5.000000

(Change tool to Default tool)

G00 Z5.000000
G00 X219.234610 Y308.233533

G01 Z-0.125000 F100.0(Penetrate)
G01 X221.701210 Y314.400033 Z-0.125000 F400.000000
G01 X227.867720 Y318.100033 Z-0.125000
G00 Z5.000000

(Change tool to Default tool)

G00 Z5.000000
G00 X214.301430 Y300.833833

G01 Z-0.125000 F100.0(Penetrate)
G01 X218.001330 Y304.533733 Z-0.125000 F400.000000
G01 X219.234610 Y308.233533 Z-0.125000
G00 Z5.000000

(Change tool to Default tool)

G00 Z5.000000
G00 X208.134910 Y294.667333

G01 Z-0.125000 F100.0(Penetrate)
G01 X206.901610 Y299.600433 Z-0.125000 F400.000000
G01 X214.301430 Y300.833833 Z-0.125000
G00 Z5.000000

(Change tool to Default tool)

G00 Z5.000000
G00 X204.435000 Y284.800933

G01 Z-0.125000 F100.0(Penetrate)
G01 X208.134910 Y288.500833 Z-0.125000 F400.000000
G01 X208.134910 Y294.667333 Z-0.125000
G00 Z5.000000

(Change tool to Default tool)

G00 Z5.000000
G00 X199.501790 Y271.234533

G01 Z-0.125000 F100.0(Penetrate)
G01 X197.035190 Y278.634433 Z-0.125000 F400.000000
G01 X204.435000 Y284.800933 Z-0.125000
G00 Z5.000000

(Change tool to Default tool)

G00 Z5.000000
G00 X197.035190 Y260.134933

G01 Z-0.125000 F100.0(Penetrate)
G01 X200.735100 Y265.068033 Z-0.125000 F400.000000
G01 X199.501790 Y271.234533 Z-0.125000
G00 Z5.000000

(Change tool to Default tool)

G00 Z5.000000
G00 X187.168770 Y251.501733

G01 Z-0.125000 F100.0(Penetrate)
G01 X192.101970 Y255.201633 Z-0.125000 F400.000000
G01 X197.035190 Y260.134933 Z-0.125000
G00 Z5.000000

(Change tool to Default tool)

G00 Z5.000000
G00 X176.069080 Y253.968433

G01 Z-0.125000 F100.0(Penetrate)
G01 X176.069080 Y247.801933 Z-0.125000 F400.000000
G01 X187.168770 Y251.501733 Z-0.125000
G00 Z5.000000

(Change tool to Default tool)

G00 Z5.000000
G00 X184.702160 Y265.068033

G01 Z-0.125000 F100.0(Penetrate)
G01 X178.535680 Y261.368133 Z-0.125000 F400.000000
G01 X176.069080 Y253.968433 Z-0.125000
G00 Z5.000000

(Change tool to Default tool)

G00 Z5.000000
G00 X187.168770 Y277.401033

G01 Z-0.125000 F100.0(Penetrate)
G01 X188.402070 Y270.001233 Z-0.125000 F400.000000
G01 X184.702160 Y265.068033 Z-0.125000
G00 Z5.000000

(Change tool to Default tool)

G00 Z5.000000
G00 X176.069080 Y272.467933

G01 Z-0.125000 F100.0(Penetrate)
G01 X179.768980 Y277.401033 Z-0.125000 F400.000000
G01 X187.168770 Y277.401033 Z-0.125000
G00 Z5.000000

(Change tool to Default tool)

G00 Z5.000000
G00 X168.669250 Y263.834733

G01 Z-0.125000 F100.0(Penetrate)
G01 X171.135870 Y270.001233 Z-0.125000 F400.000000
G01 X176.069080 Y272.467933 Z-0.125000
G00 Z5.000000

(Change tool to Default tool)

G00 Z5.000000
G00 X163.736050 Y256.434933

G01 Z-0.125000 F100.0(Penetrate)
G01 X164.969350 Y260.134933 Z-0.125000 F400.000000
G01 X168.669250 Y263.834733 Z-0.125000
G00 Z5.000000

(Change tool to Default tool)

G00 Z5.000000
G00 X153.869630 Y252.735033

G01 Z-0.125000 F100.0(Penetrate)
G01 X158.802840 Y253.968433 Z-0.125000 F400.000000
G01 X163.736050 Y256.434933 Z-0.125000
G00 Z5.000000

(Change tool to Default tool)

G00 Z5.000000
G00 X146.469810 Y249.035133

G01 Z-0.125000 F100.0(Penetrate)
G01 X150.169720 Y250.268433 Z-0.125000 F400.000000
G01 X153.869630 Y252.735033 Z-0.125000
G00 Z5.000000

(Change tool to Default tool)

G00 Z5.000000
G00 X146.469810 Y240.402033

G01 Z-0.125000 F100.0(Penetrate)
G01 X150.169720 Y242.868633 Z-0.125000 F400.000000
G01 X146.469810 Y249.035133 Z-0.125000
G00 Z5.000000

(Change tool to Default tool)

G00 Z5.000000
G00 X139.070030 Y235.468733

G01 Z-0.125000 F100.0(Penetrate)
G01 X142.769930 Y237.935433 Z-0.125000 F400.000000
G01 X146.469810 Y240.402033 Z-0.125000
G00 Z5.000000

(Change tool to Default tool)

G00 Z5.000000
G00 X134.136820 Y230.535633

G01 Z-0.125000 F100.0(Penetrate)
G01 X136.603420 Y233.002233 Z-0.125000 F400.000000
G01 X139.070030 Y235.468733 Z-0.125000
G00 Z5.000000

(Change tool to Default tool)

G00 Z5.000000
G00 X127.970310 Y226.835733

G01 Z-0.125000 F100.0(Penetrate)
G01 X130.436910 Y228.069033 Z-0.125000 F400.000000
G01 X134.136820 Y230.535633 Z-0.125000
G00 Z5.000000

(Change tool to Default tool)

G00 Z5.000000
G00 X121.803790 Y221.902533

G01 Z-0.125000 F100.0(Penetrate)
G01 X125.503700 Y223.135733 Z-0.125000 F400.000000
G01 X127.970310 Y226.835733 Z-0.125000
G00 Z5.000000

(Change tool to Default tool)

G00 Z5.000000
G00 X113.170680 Y223.135733

G01 Z-0.125000 F100.0(Penetrate)
G01 X118.103890 Y220.669233 Z-0.125000 F400.000000
G01 X121.803790 Y221.902533 Z-0.125000
G00 Z5.000000

(Change tool to Default tool)

G00 Z5.000000
G00 X119.337190 Y215.736033

G01 Z-0.125000 F100.0(Penetrate)
G01 X113.170680 Y218.202633 Z-0.125000 F400.000000
G01 X113.170680 Y223.135733 Z-0.125000
G00 Z5.000000

(Change tool to Default tool)

G00 Z5.000000
G00 X111.937370 Y212.036133

G01 Z-0.125000 F100.0(Penetrate)
G01 X115.637280 Y213.269433 Z-0.125000 F400.000000
G01 X119.337190 Y215.736033 Z-0.125000
G00 Z5.000000

(Change tool to Default tool)

G00 Z5.000000
G00 X105.770890 Y205.869633

G01 Z-0.125000 F100.0(Penetrate)
G01 X109.470800 Y208.336133 Z-0.125000 F400.000000
G01 X111.937370 Y212.036133 Z-0.125000
G00 Z5.000000

(Change tool to Default tool)

G00 Z5.000000
G00 X113.170680 Y202.169633

G01 Z-0.125000 F100.0(Penetrate)
G01 X108.237490 Y200.936333 Z-0.125000 F400.000000
G01 X105.770890 Y205.869633 Z-0.125000
G00 Z5.000000

(Change tool to Default tool)

G00 Z5.000000
G00 X119.337190 Y208.336133

G01 Z-0.125000 F100.0(Penetrate)
G01 X115.637280 Y205.869633 Z-0.125000 F400.000000
G01 X113.170680 Y202.169633 Z-0.125000
G00 Z5.000000

(Change tool to Default tool)

G00 Z5.000000
G00 X124.270400 Y214.502633

G01 Z-0.125000 F100.0(Penetrate)
G01 X123.037090 Y209.569533 Z-0.125000 F400.000000
G01 X119.337190 Y208.336133 Z-0.125000
G00 Z5.000000

(Change tool to Default tool)

G00 Z5.000000
G00 X131.670220 Y218.202633

G01 Z-0.125000 F100.0(Penetrate)
G01 X126.737010 Y218.202633 Z-0.125000 F400.000000
G01 X124.270400 Y214.502633 Z-0.125000
G00 Z5.000000

(Change tool to Default tool)

G00 Z5.000000
G00 X136.603420 Y224.369133

G01 Z-0.125000 F100.0(Penetrate)
G01 X132.903520 Y221.902533 Z-0.125000 F400.000000
G01 X131.670220 Y218.202633 Z-0.125000
G00 Z5.000000

(Change tool to Default tool)

G00 Z5.000000
G00 X144.003230 Y229.302233

G01 Z-0.125000 F100.0(Penetrate)
G01 X140.303330 Y226.835733 Z-0.125000 F400.000000
G01 X136.603420 Y224.369133 Z-0.125000
G00 Z5.000000

(Change tool to Default tool)

G00 Z5.000000
G00 X151.403030 Y234.235533

G01 Z-0.125000 F100.0(Penetrate)
G01 X146.469810 Y233.002233 Z-0.125000 F400.000000
G01 X144.003230 Y229.302233 Z-0.125000
G00 Z5.000000

(Change tool to Default tool)

G00 Z5.000000
G00 X155.102940 Y244.101933

G01 Z-0.125000 F100.0(Penetrate)
G01 X155.102940 Y236.702133 Z-0.125000 F400.000000
G01 X151.403030 Y234.235533 Z-0.125000
G00 Z5.000000

(Change tool to Default tool)

G00 Z5.000000
G00 X166.202650 Y249.035133

G01 Z-0.125000 F100.0(Penetrate)
G01 X160.036140 Y246.568533 Z-0.125000 F400.000000
G01 X155.102940 Y244.101933 Z-0.125000
G00 Z5.000000

(Change tool to Default tool)

G00 Z5.000000
G00 X166.202650 Y239.168733

G01 Z-0.125000 F100.0(Penetrate)
G01 X171.135870 Y241.635233 Z-0.125000 F400.000000
G01 X166.202650 Y249.035133 Z-0.125000
G00 Z5.000000

(Change tool to Default tool)

G00 Z5.000000
G00 X158.802840 Y230.535633

G01 Z-0.125000 F100.0(Penetrate)
G01 X161.269440 Y236.702133 Z-0.125000 F400.000000
G01 X166.202650 Y239.168733 Z-0.125000
G00 Z5.000000

(Change tool to Default tool)

G00 Z5.000000
G00 X151.403030 Y225.602333

G01 Z-0.125000 F100.0(Penetrate)
G01 X152.636330 Y228.069033 Z-0.125000 F400.000000
G01 X158.802840 Y230.535633 Z-0.125000
G00 Z5.000000

(Change tool to Default tool)

G00 Z5.000000
G00 X144.003230 Y220.669233

G01 Z-0.125000 F100.0(Penetrate)
G01 X146.469810 Y224.369133 Z-0.125000 F400.000000
G01 X151.403030 Y225.602333 Z-0.125000
G00 Z5.000000

(Change tool to Default tool)

G00 Z5.000000
G00 X137.836720 Y215.736033

G01 Z-0.125000 F100.0(Penetrate)
G01 X140.303330 Y218.202633 Z-0.125000 F400.000000
G01 X144.003230 Y220.669233 Z-0.125000
G00 Z5.000000

(Change tool to Default tool)

G00 Z5.000000
G00 X130.436910 Y212.036133

G01 Z-0.125000 F100.0(Penetrate)
G01 X135.370120 Y212.036133 Z-0.125000 F400.000000
G01 X137.836720 Y215.736033 Z-0.125000
G00 Z5.000000

(Change tool to Default tool)

G00 Z5.000000
G00 X126.737010 Y204.636233

G01 Z-0.125000 F100.0(Penetrate)
G01 X129.203610 Y208.336133 Z-0.125000 F400.000000
G01 X130.436910 Y212.036133 Z-0.125000
G00 Z5.000000

(Change tool to Default tool)

G00 Z5.000000
G00 X119.337190 Y200.936333

G01 Z-0.125000 F100.0(Penetrate)
G01 X123.037090 Y202.169633 Z-0.125000 F400.000000
G01 X126.737010 Y204.636233 Z-0.125000
G00 Z5.000000

(Change tool to Default tool)

G00 Z5.000000
G00 X121.803790 Y191.069933

G01 Z-0.125000 F100.0(Penetrate)
G01 X119.337190 Y196.003133 Z-0.125000 F400.000000
G01 X119.337190 Y200.936333 Z-0.125000
G00 Z5.000000

(Change tool to Default tool)

G00 Z5.000000
G00 X114.403980 Y196.003133

G01 Z-0.125000 F100.0(Penetrate)
G01 X116.870580 Y191.069933 Z-0.125000 F400.000000
G01 X121.803790 Y191.069933 Z-0.125000
G00 Z5.000000

(Change tool to Default tool)

G00 Z5.000000
G00 X105.770890 Y193.536633

G01 Z-0.125000 F100.0(Penetrate)
G01 X109.470800 Y196.003133 Z-0.125000 F400.000000
G01 X114.403980 Y196.003133 Z-0.125000
G00 Z5.000000

(Change tool to Default tool)

G00 Z5.000000
G00 X98.371074 Y186.136733

G01 Z-0.125000 F100.0(Penetrate)
G01 X100.837680 Y191.069933 Z-0.125000 F400.000000
G01 X105.770890 Y193.536633 Z-0.125000
G00 Z5.000000

(Change tool to Default tool)

G00 Z5.000000
G00 X93.437864 Y177.503633

G01 Z-0.125000 F100.0(Penetrate)
G01 X95.904470 Y182.436833 Z-0.125000 F400.000000
G01 X98.371074 Y186.136733 Z-0.125000
G00 Z5.000000

(Change tool to Default tool)

G00 Z5.000000
G00 X88.504655 Y170.103833

G01 Z-0.125000 F100.0(Penetrate)
G01 X92.204562 Y173.803733 Z-0.125000 F400.000000
G01 X93.437864 Y177.503633 Z-0.125000
G00 Z5.000000

(Change tool to Default tool)

G00 Z5.000000
G00 X82.338143 Y162.703933

G01 Z-0.125000 F100.0(Penetrate)
G01 X84.804747 Y167.637233 Z-0.125000 F400.000000
G01 X88.504655 Y170.103833 Z-0.125000
G00 Z5.000000

(Change tool to Default tool)

G00 Z5.000000
G00 X77.404933 Y155.304233

G01 Z-0.125000 F100.0(Penetrate)
G01 X79.871538 Y159.004133 Z-0.125000 F400.000000
G01 X82.338143 Y162.703933 Z-0.125000
G00 Z5.000000

(Change tool to Default tool)

G00 Z5.000000
G00 X70.005145 Y150.370933

G01 Z-0.125000 F100.0(Penetrate)
G01 X72.471750 Y154.070933 Z-0.125000 F400.000000
G01 X77.404933 Y155.304233 Z-0.125000
G00 Z5.000000

(Change tool to Default tool)

G00 Z5.000000
G00 X62.605331 Y141.737933

G01 Z-0.125000 F100.0(Penetrate)
G01 X67.538541 Y146.671133 Z-0.125000 F400.000000
G01 X70.005145 Y150.370933 Z-0.125000
G00 Z5.000000

(Change tool to Default tool)

G00 Z5.000000
G00 X58.905424 Y134.338033

G01 Z-0.125000 F100.0(Penetrate)
G01 X62.605331 Y136.804733 Z-0.125000 F400.000000
G01 X62.605331 Y141.737933 Z-0.125000
G00 Z5.000000

(Change tool to Default tool)

G00 Z5.000000
G00 X52.738911 Y126.938333

G01 Z-0.125000 F100.0(Penetrate)
G01 X56.438818 Y129.404933 Z-0.125000 F400.000000
G01 X58.905424 Y134.338033 Z-0.125000
G00 Z5.000000

(Change tool to Default tool)

G00 Z5.000000
G00 X53.972214 Y117.071833

G01 Z-0.125000 F100.0(Penetrate)
G01 X57.672121 Y120.771833 Z-0.125000 F400.000000
G01 X52.738911 Y126.938333 Z-0.125000
G00 Z5.000000

(Change tool to Default tool)

G00 Z5.000000
G00 X46.572400 Y110.905333

G01 Z-0.125000 F100.0(Penetrate)
G01 X51.505609 Y113.371933 Z-0.125000 F400.000000
G01 X53.972214 Y117.071833 Z-0.125000
G00 Z5.000000

(Change tool to Default tool)

G00 Z5.000000
G00 X37.939283 Y101.038933

G01 Z-0.125000 F100.0(Penetrate)
G01 X42.872492 Y107.205433 Z-0.125000 F400.000000
G01 X46.572400 Y110.905333 Z-0.125000
G00 Z5.000000

(Change tool to Default tool)

G00 Z5.000000
G00 X37.939283 Y113.371933

G01 Z-0.125000 F100.0(Penetrate)
G01 X36.706006 Y107.205433 Z-0.125000 F400.000000
G01 X37.939283 Y101.038933 Z-0.125000
G00 Z5.000000

(Change tool to Default tool)

G00 Z5.000000
G00 X45.339097 Y120.771833

G01 Z-0.125000 F100.0(Penetrate)
G01 X41.639190 Y117.071833 Z-0.125000 F400.000000
G01 X37.939283 Y113.371933 Z-0.125000
G00 Z5.000000

(Change tool to Default tool)

G00 Z5.000000
G00 X46.572400 Y126.938333

G01 Z-0.125000 F100.0(Penetrate)
G01 X44.105795 Y124.471733 Z-0.125000 F400.000000
G01 X45.339097 Y120.771833 Z-0.125000
G00 Z5.000000

(Change tool to Default tool)

G00 Z5.000000
G00 X52.738911 Y136.804733

G01 Z-0.125000 F100.0(Penetrate)
G01 X49.039004 Y133.104833 Z-0.125000 F400.000000
G01 X46.572400 Y126.938333 Z-0.125000
G00 Z5.000000

(Change tool to Default tool)

G00 Z5.000000
G00 X47.805702 Y142.971233

G01 Z-0.125000 F100.0(Penetrate)
G01 X55.205517 Y142.971233 Z-0.125000 F400.000000
G01 X52.738911 Y136.804733 Z-0.125000
G00 Z5.000000

(Change tool to Default tool)

G00 Z5.000000
G00 X55.205517 Y149.137733

G01 Z-0.125000 F100.0(Penetrate)
G01 X50.272307 Y146.671133 Z-0.125000 F400.000000
G01 X47.805702 Y142.971233 Z-0.125000
G00 Z5.000000

(Change tool to Default tool)

G00 Z5.000000
G00 X61.372028 Y151.604333

G01 Z-0.125000 F100.0(Penetrate)
G01 X60.138725 Y147.904433 Z-0.125000 F400.000000
G01 X55.205517 Y149.137733 Z-0.125000
G00 Z5.000000

(Change tool to Default tool)

G00 Z5.000000
G00 X67.538541 Y159.004133

G01 Z-0.125000 F100.0(Penetrate)
G01 X63.838634 Y155.304233 Z-0.125000 F400.000000
G01 X61.372028 Y151.604333 Z-0.125000
G00 Z5.000000

(Change tool to Default tool)

G00 Z5.000000
G00 X74.938328 Y165.170633

G01 Z-0.125000 F100.0(Penetrate)
G01 X72.471750 Y161.470733 Z-0.125000 F400.000000
G01 X67.538541 Y159.004133 Z-0.125000
G00 Z5.000000

(Change tool to Default tool)

G00 Z5.000000
G00 X79.871538 Y175.037133

G01 Z-0.125000 F100.0(Penetrate)
G01 X78.638236 Y170.103833 Z-0.125000 F400.000000
G01 X74.938328 Y165.170633 Z-0.125000
G00 Z5.000000

(Change tool to Default tool)

G00 Z5.000000
G00 X83.571445 Y181.203633

G01 Z-0.125000 F100.0(Penetrate)
G01 X86.038050 Y176.270333 Z-0.125000 F400.000000
G01 X79.871538 Y175.037133 Z-0.125000
G00 Z5.000000

(Change tool to Default tool)

G00 Z5.000000
G00 X89.737957 Y187.370133

G01 Z-0.125000 F100.0(Penetrate)
G01 X88.504655 Y182.436833 Z-0.125000 F400.000000
G01 X83.571445 Y181.203633 Z-0.125000
G00 Z5.000000

(Change tool to Default tool)

G00 Z5.000000
G00 X94.671167 Y192.303233

G01 Z-0.125000 F100.0(Penetrate)
G01 X90.971260 Y189.836633 Z-0.125000 F400.000000
G01 X89.737957 Y187.370133 Z-0.125000
G00 Z5.000000

(Change tool to Default tool)

G00 Z5.000000
G00 X103.304280 Y199.703133

G01 Z-0.125000 F100.0(Penetrate)
G01 X99.604377 Y197.236433 Z-0.125000 F400.000000
G01 X94.671167 Y192.303233 Z-0.125000
G00 Z5.000000

(Change tool to Default tool)

G00 Z5.000000
G00 X95.904470 Y203.403033

G01 Z-0.125000 F100.0(Penetrate)
G01 X100.837680 Y204.636233 Z-0.125000 F400.000000
G01 X103.304280 Y199.703133 Z-0.125000
G00 Z5.000000

(Change tool to Default tool)

G00 Z5.000000
G00 X93.437864 Y199.703133

G01 Z-0.125000 F100.0(Penetrate)
G01 X90.971260 Y204.636233 Z-0.125000 F400.000000
G01 X95.904470 Y203.403033 Z-0.125000
G00 Z5.000000

(Change tool to Default tool)

G00 Z5.000000
G00 X87.271353 Y196.003133

G01 Z-0.125000 F100.0(Penetrate)
G01 X92.204562 Y197.236433 Z-0.125000 F400.000000
G01 X93.437864 Y199.703133 Z-0.125000
G00 Z5.000000

(Change tool to Default tool)

G00 Z5.000000
G00 X82.338143 Y200.936333

G01 Z-0.125000 F100.0(Penetrate)
G01 X87.271353 Y200.936333 Z-0.125000 F400.000000
G01 X87.271353 Y196.003133 Z-0.125000
G00 Z5.000000

(Change tool to Default tool)

G00 Z5.000000
G00 X78.638236 Y193.536633

G01 Z-0.125000 F100.0(Penetrate)
G01 X78.638236 Y198.469733 Z-0.125000 F400.000000
G01 X82.338143 Y200.936333 Z-0.125000
G00 Z5.000000

(Change tool to Default tool)

G00 Z5.000000
G00 X83.571445 Y187.370133

G01 Z-0.125000 F100.0(Penetrate)
G01 X83.571445 Y193.536633 Z-0.125000 F400.000000
G01 X78.638236 Y193.536633 Z-0.125000
G00 Z5.000000

(Change tool to Default tool)

G00 Z5.000000
G00 X74.938328 Y184.903433

G01 Z-0.125000 F100.0(Penetrate)
G01 X78.638236 Y187.370133 Z-0.125000 F400.000000
G01 X83.571445 Y187.370133 Z-0.125000
G00 Z5.000000

(Change tool to Default tool)

G00 Z5.000000
G00 X77.404933 Y179.970233

G01 Z-0.125000 F100.0(Penetrate)
G01 X71.238448 Y182.436833 Z-0.125000 F400.000000
G01 X74.938328 Y184.903433 Z-0.125000
G00 Z5.000000

(Change tool to Default tool)

G00 Z5.000000
G00 X72.471750 Y171.337133

G01 Z-0.125000 F100.0(Penetrate)
G01 X73.705026 Y176.270333 Z-0.125000 F400.000000
G01 X77.404933 Y179.970233 Z-0.125000
G00 Z5.000000

(Change tool to Default tool)

G00 Z5.000000
G00 X65.071935 Y163.937333

G01 Z-0.125000 F100.0(Penetrate)
G01 X68.771842 Y168.870633 Z-0.125000 F400.000000
G01 X72.471750 Y171.337133 Z-0.125000
G00 Z5.000000

(Change tool to Default tool)

G00 Z5.000000
G00 X56.438818 Y159.004133

G01 Z-0.125000 F100.0(Penetrate)
G01 X60.138725 Y162.703933 Z-0.125000 F400.000000
G01 X65.071935 Y163.937333 Z-0.125000
G00 Z5.000000

(Change tool to Default tool)

G00 Z5.000000
G00 X47.805702 Y154.070933

G01 Z-0.125000 F100.0(Penetrate)
G01 X52.738911 Y156.537433 Z-0.125000 F400.000000
G01 X56.438818 Y159.004133 Z-0.125000
G00 Z5.000000

(Change tool to Default tool)

G00 Z5.000000
G00 X39.172585 Y147.904433

G01 Z-0.125000 F100.0(Penetrate)
G01 X42.872492 Y151.604333 Z-0.125000 F400.000000
G01 X47.805702 Y154.070933 Z-0.125000
G00 Z5.000000

(Change tool to Default tool)

G00 Z5.000000
G00 X29.306192 Y144.204433

G01 Z-0.125000 F100.0(Penetrate)
G01 X34.239402 Y147.904433 Z-0.125000 F400.000000
G01 X39.172585 Y147.904433 Z-0.125000
G00 Z5.000000

(Change tool to Default tool)

G00 Z5.000000
G00 X24.372983 Y135.571433

G01 Z-0.125000 F100.0(Penetrate)
G01 X24.372983 Y141.737933 Z-0.125000 F400.000000
G01 X29.306192 Y144.204433 Z-0.125000
G00 Z5.000000

(Change tool to Default tool)

G00 Z5.000000
G00 X31.772798 Y135.571433

G01 Z-0.125000 F100.0(Penetrate)
G01 X29.306192 Y129.404933 Z-0.125000 F400.000000
G01 X24.372983 Y135.571433 Z-0.125000
G00 Z5.000000

(Change tool to Default tool)

G00 Z5.000000
G00 X44.105795 Y140.504633

G01 Z-0.125000 F100.0(Penetrate)
G01 X36.706006 Y141.737933 Z-0.125000 F400.000000
G01 X31.772798 Y135.571433 Z-0.125000
G00 Z5.000000

(Change tool to Default tool)

G00 Z5.000000
G00 X37.939283 Y134.338033

G01 Z-0.125000 F100.0(Penetrate)
G01 X41.639190 Y135.571433 Z-0.125000 F400.000000
G01 X44.105795 Y140.504633 Z-0.125000
G00 Z5.000000

(Change tool to Default tool)

G00 Z5.000000
G00 X35.472705 Y124.471733

G01 Z-0.125000 F100.0(Penetrate)
G01 X36.706006 Y129.404933 Z-0.125000 F400.000000
G01 X37.939283 Y134.338033 Z-0.125000
G00 Z5.000000

(Change tool to Default tool)

G00 Z5.000000
G00 X30.539495 Y114.605333

G01 Z-0.125000 F100.0(Penetrate)
G01 X33.006099 Y120.771833 Z-0.125000 F400.000000
G01 X35.472705 Y124.471733 Z-0.125000
G00 Z5.000000

(Change tool to Default tool)

G00 Z5.000000
G00 X31.772798 Y101.038933

G01 Z-0.125000 F100.0(Penetrate)
G01 X29.306192 Y108.438833 Z-0.125000 F400.000000
G01 X30.539495 Y114.605333 Z-0.125000
G00 Z5.000000

(Change tool to Default tool)

G00 Z5.000000
G00 X24.372983 Y94.872433

G01 Z-0.125000 F100.0(Penetrate)
G01 X30.539495 Y96.105833 Z-0.125000 F400.000000
G01 X31.772798 Y101.038933 Z-0.125000
G00 Z5.000000

(Change tool to Default tool)

G00 Z5.000000
G00 X21.906379 Y86.239333

G01 Z-0.125000 F100.0(Penetrate)
G01 X21.906379 Y91.172533 Z-0.125000 F400.000000
G01 X24.372983 Y94.872433 Z-0.125000
G00 Z5.000000

(Change tool to Default tool)

G00 Z5.000000
G00 X15.739867 Y85.006033

G01 Z-0.125000 F100.0(Penetrate)
G01 X19.439774 Y85.006033 Z-0.125000 F400.000000
G01 X21.906379 Y86.239333 Z-0.125000
G00 Z5.000000

(Change tool to Default tool)

G00 Z5.000000
G00 X10.806656 Y86.239333

G01 Z-0.125000 F100.0(Penetrate)
G01 X15.739867 Y89.939133 Z-0.125000 F400.000000
G01 X15.739867 Y85.006033 Z-0.125000
G00 Z5.000000

(Change tool to Default tool)

G00 Z5.000000
G00 X10.806656 Y97.339033

G01 Z-0.125000 F100.0(Penetrate)
G01 X8.340051 Y93.639133 Z-0.125000 F400.000000
G01 X10.806656 Y86.239333 Z-0.125000
G00 Z5.000000

(Change tool to Default tool)

G00 Z5.000000
G00 X18.206471 Y103.505533

G01 Z-0.125000 F100.0(Penetrate)
G01 X12.039959 Y99.805633 Z-0.125000 F400.000000
G01 X10.806656 Y97.339033 Z-0.125000
G00 Z5.000000

(Change tool to Default tool)

G00 Z5.000000
G00 X18.206471 Y113.371933

G01 Z-0.125000 F100.0(Penetrate)
G01 X21.906379 Y105.972133 Z-0.125000 F400.000000
G01 X18.206471 Y103.505533 Z-0.125000
G00 Z5.000000

(Change tool to Default tool)

G00 Z5.000000
G00 X25.606286 Y120.771833

G01 Z-0.125000 F100.0(Penetrate)
G01 X21.906379 Y115.838533 Z-0.125000 F400.000000
G01 X18.206471 Y113.371933 Z-0.125000
G00 Z5.000000

(Change tool to Default tool)

G00 Z5.000000
G00 X16.973169 Y123.238333

G01 Z-0.125000 F100.0(Penetrate)
G01 X24.372983 Y126.938333 Z-0.125000 F400.000000
G01 X25.606286 Y120.771833 Z-0.125000
G00 Z5.000000

(Change tool to Default tool)

G00 Z5.000000
G00 X15.739867 Y135.571433

G01 Z-0.125000 F100.0(Penetrate)
G01 X15.739867 Y129.404933 Z-0.125000 F400.000000
G01 X16.973169 Y123.238333 Z-0.125000
G00 Z5.000000

(Change tool to Default tool)

G00 Z5.000000
G00 X15.739867 Y145.437833

G01 Z-0.125000 F100.0(Penetrate)
G01 X13.273261 Y140.504633 Z-0.125000 F400.000000
G01 X15.739867 Y135.571433 Z-0.125000
G00 Z5.000000

(Change tool to Default tool)

G00 Z5.000000
G00 X10.806656 Y157.770833

G01 Z-0.125000 F100.0(Penetrate)
G01 X10.806656 Y151.604333 Z-0.125000 F400.000000
G01 X15.739867 Y145.437833 Z-0.125000
G00 Z5.000000

(Change tool to Default tool)

G00 Z5.000000
G00 X8.340051 Y170.103833

G01 Z-0.125000 F100.0(Penetrate)
G01 X8.340051 Y165.170633 Z-0.125000 F400.000000
G01 X10.806656 Y157.770833 Z-0.125000
G00 Z5.000000

(Change tool to Default tool)

G00 Z5.000000
G00 X12.039959 Y182.436833

G01 Z-0.125000 F100.0(Penetrate)
G01 X9.573354 Y176.270333 Z-0.125000 F400.000000
G01 X8.340051 Y170.103833 Z-0.125000
G00 Z5.000000

(Change tool to Default tool)

G00 Z5.000000
G00 X10.806656 Y196.003133

G01 Z-0.125000 F100.0(Penetrate)
G01 X12.039959 Y188.603333 Z-0.125000 F400.000000
G01 X12.039959 Y182.436833 Z-0.125000
G00 Z5.000000

(Change tool to Default tool)

G00 Z5.000000
G00 X20.673076 Y200.936333

G01 Z-0.125000 F100.0(Penetrate)
G01 X15.739867 Y198.469733 Z-0.125000 F400.000000
G01 X10.806656 Y196.003133 Z-0.125000
G00 Z5.000000

(Change tool to Default tool)

G00 Z5.000000
G00 X31.772798 Y202.169633

G01 Z-0.125000 F100.0(Penetrate)
G01 X28.072889 Y199.703133 Z-0.125000 F400.000000
G01 X20.673076 Y200.936333 Z-0.125000
G00 Z5.000000

(Change tool to Default tool)

G00 Z5.000000
G00 X28.072889 Y209.569533

G01 Z-0.125000 F100.0(Penetrate)
G01 X36.706006 Y208.336133 Z-0.125000 F400.000000
G01 X31.772798 Y202.169633 Z-0.125000
G00 Z5.000000

(Change tool to Default tool)

G00 Z5.000000
G00 X30.539495 Y216.969233

G01 Z-0.125000 F100.0(Penetrate)
G01 X25.606286 Y215.736033 Z-0.125000 F400.000000
G01 X28.072889 Y209.569533 Z-0.125000
G00 Z5.000000

(Change tool to Default tool)

G00 Z5.000000
G00 X41.639190 Y221.902533

G01 Z-0.125000 F100.0(Penetrate)
G01 X36.706006 Y216.969233 Z-0.125000 F400.000000
G01 X30.539495 Y216.969233 Z-0.125000
G00 Z5.000000

(Change tool to Default tool)

G00 Z5.000000
G00 X47.805702 Y228.069033

G01 Z-0.125000 F100.0(Penetrate)
G01 X44.105795 Y225.602333 Z-0.125000 F400.000000
G01 X41.639190 Y221.902533 Z-0.125000
G00 Z5.000000

(Change tool to Default tool)

G00 Z5.000000
G00 X55.205517 Y233.002233

G01 Z-0.125000 F100.0(Penetrate)
G01 X52.738911 Y229.302233 Z-0.125000 F400.000000
G01 X47.805702 Y228.069033 Z-0.125000
G00 Z5.000000

(Change tool to Default tool)

G00 Z5.000000
G00 X55.205517 Y242.868633

G01 Z-0.125000 F100.0(Penetrate)
G01 X55.205517 Y237.935433 Z-0.125000 F400.000000
G01 X55.205517 Y233.002233 Z-0.125000
G00 Z5.000000

(Change tool to Default tool)

G00 Z5.000000
G00 X56.438818 Y251.501733

G01 Z-0.125000 F100.0(Penetrate)
G01 X53.972214 Y247.801933 Z-0.125000 F400.000000
G01 X55.205517 Y242.868633 Z-0.125000
G00 Z5.000000

(Change tool to Default tool)

G00 Z5.000000
G00 X62.605331 Y257.668233

G01 Z-0.125000 F100.0(Penetrate)
G01 X58.905424 Y253.968433 Z-0.125000 F400.000000
G01 X56.438818 Y251.501733 Z-0.125000
G00 Z5.000000

(Change tool to Default tool)

G00 Z5.000000
G00 X67.538541 Y266.301433

G01 Z-0.125000 F100.0(Penetrate)
G01 X65.071935 Y262.601433 Z-0.125000 F400.000000
G01 X62.605331 Y257.668233 Z-0.125000
G00 Z5.000000

(Change tool to Default tool)

G00 Z5.000000
G00 X74.938328 Y271.234533

G01 Z-0.125000 F100.0(Penetrate)
G01 X71.238448 Y268.767933 Z-0.125000 F400.000000
G01 X67.538541 Y266.301433 Z-0.125000
G00 Z5.000000

(Change tool to Default tool)

G00 Z5.000000
G00 X77.404933 Y278.634433

G01 Z-0.125000 F100.0(Penetrate)
G01 X74.938328 Y276.167833 Z-0.125000 F400.000000
G01 X74.938328 Y271.234533 Z-0.125000
G00 Z5.000000

(Change tool to Default tool)

G00 Z5.000000
G00 X73.705026 Y283.567533

G01 Z-0.125000 F100.0(Penetrate)
G01 X78.638236 Y284.800933 Z-0.125000 F400.000000
G01 X77.404933 Y278.634433 Z-0.125000
G00 Z5.000000

(Change tool to Default tool)

G00 Z5.000000
G00 X66.305238 Y279.867633

G01 Z-0.125000 F100.0(Penetrate)
G01 X68.771842 Y282.334333 Z-0.125000 F400.000000
G01 X73.705026 Y283.567533 Z-0.125000
G00 Z5.000000

(Change tool to Default tool)

G00 Z5.000000
G00 X65.071935 Y272.467933

G01 Z-0.125000 F100.0(Penetrate)
G01 X67.538541 Y274.934433 Z-0.125000 F400.000000
G01 X66.305238 Y279.867633 Z-0.125000
G00 Z5.000000

(Change tool to Default tool)

G00 Z5.000000
G00 X58.905424 Y263.834733

G01 Z-0.125000 F100.0(Penetrate)
G01 X61.372028 Y270.001233 Z-0.125000 F400.000000
G01 X65.071935 Y272.467933 Z-0.125000
G00 Z5.000000

(Change tool to Default tool)

G00 Z5.000000
G00 X51.505609 Y257.668233

G01 Z-0.125000 F100.0(Penetrate)
G01 X56.438818 Y260.134933 Z-0.125000 F400.000000
G01 X58.905424 Y263.834733 Z-0.125000
G00 Z5.000000

(Change tool to Default tool)

G00 Z5.000000
G00 X45.339097 Y251.501733

G01 Z-0.125000 F100.0(Penetrate)
G01 X46.572400 Y255.201633 Z-0.125000 F400.000000
G01 X51.505609 Y257.668233 Z-0.125000
G00 Z5.000000

(Change tool to Default tool)

G00 Z5.000000
G00 X46.572400 Y239.168733

G01 Z-0.125000 F100.0(Penetrate)
G01 X47.805702 Y244.101933 Z-0.125000 F400.000000
G01 X45.339097 Y251.501733 Z-0.125000
G00 Z5.000000

(Change tool to Default tool)

G00 Z5.000000
G00 X37.939283 Y233.002233

G01 Z-0.125000 F100.0(Penetrate)
G01 X46.572400 Y234.235533 Z-0.125000 F400.000000
G01 X46.572400 Y239.168733 Z-0.125000
G00 Z5.000000

(Change tool to Default tool)

G00 Z5.000000
G00 X34.239402 Y223.135733

G01 Z-0.125000 F100.0(Penetrate)
G01 X35.472705 Y228.069033 Z-0.125000 F400.000000
G01 X37.939283 Y233.002233 Z-0.125000
G00 Z5.000000

(Change tool to Default tool)

G00 Z5.000000
G00 X28.072889 Y228.069033

G01 Z-0.125000 F100.0(Penetrate)
G01 X26.839588 Y223.135733 Z-0.125000 F400.000000
G01 X34.239402 Y223.135733 Z-0.125000
G00 Z5.000000

(Change tool to Default tool)

G00 Z5.000000
G00 X29.306192 Y237.935433

G01 Z-0.125000 F100.0(Penetrate)
G01 X26.839588 Y235.468733 Z-0.125000 F400.000000
G01 X28.072889 Y228.069033 Z-0.125000
G00 Z5.000000

(Change tool to Default tool)

G00 Z5.000000
G00 X37.939283 Y239.168733

G01 Z-0.125000 F100.0(Penetrate)
G01 X30.539495 Y244.101933 Z-0.125000 F400.000000
G01 X29.306192 Y237.935433 Z-0.125000
G00 Z5.000000

(Change tool to Default tool)

G00 Z5.000000
