%
(Header)
(Generated by gcodetools from Inkscape.)
(Using default header. To add your own header create file "header" in the output dir.)
M3
(Header end.)
G21 (All units in mm)

(Start cutting path id: path8188)
(Change tool to Default tool)

G00 Z5.000000
G00 X1379.275335 Y271.323508

G01 Z-0.125000 F100.0(Penetrate)
G01 X1364.363937 Y267.595659 Z-0.125000 F400.000000
G00 Z5.000000

(End cutting path id: path8188)


(Start cutting path id: path8186)
(Change tool to Default tool)

G00 Z5.000000
G00 X1383.003184 Y293.690605

G01 Z-0.125000 F100.0(Penetrate)
G01 X1386.731034 Y278.779207 Z-0.125000 F400.000000
G01 X1379.275335 Y271.323508 Z-0.125000
G00 Z5.000000

(End cutting path id: path8186)


(Start cutting path id: path8184)
(Change tool to Default tool)

G00 Z5.000000
G00 X1397.914582 Y308.602003

G01 Z-0.125000 F100.0(Penetrate)
G01 X1394.186733 Y297.418455 Z-0.125000 F400.000000
G01 X1383.003184 Y293.690605 Z-0.125000
G00 Z5.000000

(End cutting path id: path8184)


(Start cutting path id: path8182)
(Change tool to Default tool)

G00 Z5.000000
G00 X1416.553830 Y323.513401

G01 Z-0.125000 F100.0(Penetrate)
G01 X1405.370281 Y319.785552 Z-0.125000 F400.000000
G01 X1397.914582 Y308.602003 Z-0.125000
G00 Z5.000000

(End cutting path id: path8182)


(Start cutting path id: path8180)
(Change tool to Default tool)

G00 Z5.000000
G00 X1442.648776 Y319.785552

G01 Z-0.125000 F100.0(Penetrate)
G01 X1431.465228 Y316.057702 Z-0.125000 F400.000000
G01 X1416.553830 Y323.513401 Z-0.125000
G00 Z5.000000

(End cutting path id: path8180)


(Start cutting path id: path8178)
(Change tool to Default tool)

G00 Z5.000000
G00 X1465.015873 Y327.241251

G01 Z-0.125000 F100.0(Penetrate)
G01 X1453.832325 Y323.513401 Z-0.125000 F400.000000
G01 X1442.648776 Y319.785552 Z-0.125000
G00 Z5.000000

(End cutting path id: path8178)


(Start cutting path id: path8176)
(Change tool to Default tool)

G00 Z5.000000
G00 X1476.199422 Y316.057702

G01 Z-0.125000 F100.0(Penetrate)
G01 X1465.015873 Y312.329853 Z-0.125000 F400.000000
G01 X1465.015873 Y327.241251 Z-0.125000
G00 Z5.000000

(End cutting path id: path8176)


(Start cutting path id: path8174)
(Change tool to Default tool)

G00 Z5.000000
G00 X1491.110820 Y327.241251

G01 Z-0.125000 F100.0(Penetrate)
G01 X1479.927271 Y323.513401 Z-0.125000 F400.000000
G01 X1476.199422 Y316.057702 Z-0.125000
G00 Z5.000000

(End cutting path id: path8174)


(Start cutting path id: path8172)
(Change tool to Default tool)

G00 Z5.000000
G00 X1506.022218 Y342.152649

G01 Z-0.125000 F100.0(Penetrate)
G01 X1494.838669 Y338.424799 Z-0.125000 F400.000000
G01 X1491.110820 Y327.241251 Z-0.125000
G00 Z5.000000

(End cutting path id: path8172)


(Start cutting path id: path8170)
(Change tool to Default tool)

G00 Z5.000000
G00 X1524.661465 Y353.336197

G01 Z-0.125000 F100.0(Penetrate)
G01 X1517.205766 Y345.880498 Z-0.125000 F400.000000
G01 X1506.022218 Y342.152649 Z-0.125000
G00 Z5.000000

(End cutting path id: path8170)


(Start cutting path id: path8168)
(Change tool to Default tool)

G00 Z5.000000
G00 X1532.117164 Y375.703294

G01 Z-0.125000 F100.0(Penetrate)
G01 X1532.117164 Y360.791896 Z-0.125000 F400.000000
G01 X1524.661465 Y353.336197 Z-0.125000
G00 Z5.000000

(End cutting path id: path8168)


(Start cutting path id: path8166)
(Change tool to Default tool)

G00 Z5.000000
G00 X1550.756412 Y398.070391

G01 Z-0.125000 F100.0(Penetrate)
G01 X1539.572863 Y386.886843 Z-0.125000 F400.000000
G01 X1532.117164 Y375.703294 Z-0.125000
G00 Z5.000000

(End cutting path id: path8166)


(Start cutting path id: path8164)
(Change tool to Default tool)

G00 Z5.000000
G00 X1569.395659 Y416.709639

G01 Z-0.125000 F100.0(Penetrate)
G01 X1569.395659 Y401.798241 Z-0.125000 F400.000000
G01 X1550.756412 Y398.070391 Z-0.125000
G00 Z5.000000

(End cutting path id: path8164)


(Start cutting path id: path8162)
(Change tool to Default tool)

G00 Z5.000000
G00 X1584.307057 Y439.076736

G01 Z-0.125000 F100.0(Penetrate)
G01 X1569.395659 Y431.621037 Z-0.125000 F400.000000
G01 X1569.395659 Y416.709639 Z-0.125000
G00 Z5.000000

(End cutting path id: path8162)


(Start cutting path id: path8160)
(Change tool to Default tool)

G00 Z5.000000
G00 X1588.034907 Y412.981789

G01 Z-0.125000 F100.0(Penetrate)
G01 X1588.034907 Y427.893187 Z-0.125000 F400.000000
G01 X1584.307057 Y439.076736 Z-0.125000
G00 Z5.000000

(End cutting path id: path8160)


(Start cutting path id: path8158)
(Change tool to Default tool)

G00 Z5.000000
G00 X1584.307057 Y383.158993

G01 Z-0.125000 F100.0(Penetrate)
G01 X1588.034907 Y398.070391 Z-0.125000 F400.000000
G01 X1588.034907 Y412.981789 Z-0.125000
G00 Z5.000000

(End cutting path id: path8158)


(Start cutting path id: path8156)
(Change tool to Default tool)

G00 Z5.000000
G00 X1558.212111 Y371.975445

G01 Z-0.125000 F100.0(Penetrate)
G01 X1569.395659 Y383.158993 Z-0.125000 F400.000000
G01 X1584.307057 Y383.158993 Z-0.125000
G00 Z5.000000

(End cutting path id: path8156)


(Start cutting path id: path8154)
(Change tool to Default tool)

G00 Z5.000000
G00 X1547.028562 Y342.152649

G01 Z-0.125000 F100.0(Penetrate)
G01 X1554.484261 Y353.336197 Z-0.125000 F400.000000
G01 X1558.212111 Y371.975445 Z-0.125000
G00 Z5.000000

(End cutting path id: path8154)


(Start cutting path id: path8152)
(Change tool to Default tool)

G00 Z5.000000
G00 X1532.117164 Y334.696950

G01 Z-0.125000 F100.0(Penetrate)
G01 X1547.028562 Y323.513401 Z-0.125000 F400.000000
G01 X1547.028562 Y342.152649 Z-0.125000
G00 Z5.000000

(End cutting path id: path8152)


(Start cutting path id: path8150)
(Change tool to Default tool)

G00 Z5.000000
G00 X1535.845014 Y308.602003

G01 Z-0.125000 F100.0(Penetrate)
G01 X1528.389315 Y323.513401 Z-0.125000 F400.000000
G01 X1532.117164 Y334.696950 Z-0.125000
G00 Z5.000000

(End cutting path id: path8150)


(Start cutting path id: path8148)
(Change tool to Default tool)

G00 Z5.000000
G00 X1513.477917 Y327.241251

G01 Z-0.125000 F100.0(Penetrate)
G01 X1520.933616 Y312.329853 Z-0.125000 F400.000000
G01 X1535.845014 Y308.602003 Z-0.125000
G00 Z5.000000

(End cutting path id: path8148)


(Start cutting path id: path8146)
(Change tool to Default tool)

G00 Z5.000000
G00 X1494.838669 Y312.329853

G01 Z-0.125000 F100.0(Penetrate)
G01 X1506.022218 Y319.785552 Z-0.125000 F400.000000
G01 X1513.477917 Y327.241251 Z-0.125000
G00 Z5.000000

(End cutting path id: path8146)


(Start cutting path id: path8144)
(Change tool to Default tool)

G00 Z5.000000
G00 X1483.655121 Y301.146304

G01 Z-0.125000 F100.0(Penetrate)
G01 X1498.566519 Y301.146304 Z-0.125000 F400.000000
G01 X1494.838669 Y312.329853 Z-0.125000
G00 Z5.000000

(End cutting path id: path8144)


(Start cutting path id: path8142)
(Change tool to Default tool)

G00 Z5.000000
G00 X1468.743723 Y293.690605

G01 Z-0.125000 F100.0(Penetrate)
G01 X1472.471572 Y297.418455 Z-0.125000 F400.000000
G01 X1483.655121 Y301.146304 Z-0.125000
G00 Z5.000000

(End cutting path id: path8142)


(Start cutting path id: path8140)
(Change tool to Default tool)

G00 Z5.000000
G00 X1450.104475 Y308.602003

G01 Z-0.125000 F100.0(Penetrate)
G01 X1457.560174 Y293.690605 Z-0.125000 F400.000000
G01 X1468.743723 Y293.690605 Z-0.125000
G00 Z5.000000

(End cutting path id: path8140)


(Start cutting path id: path8138)
(Change tool to Default tool)

G00 Z5.000000
G00 X1438.920927 Y293.690605

G01 Z-0.125000 F100.0(Penetrate)
G01 X1442.648776 Y301.146304 Z-0.125000 F400.000000
G01 X1450.104475 Y308.602003 Z-0.125000
G00 Z5.000000

(End cutting path id: path8138)


(Start cutting path id: path8136)
(Change tool to Default tool)

G00 Z5.000000
G00 X1424.009529 Y308.602003

G01 Z-0.125000 F100.0(Penetrate)
G01 X1427.737378 Y293.690605 Z-0.125000 F400.000000
G01 X1438.920927 Y293.690605 Z-0.125000
G00 Z5.000000

(End cutting path id: path8136)


(Start cutting path id: path8134)
(Change tool to Default tool)

G00 Z5.000000
G00 X1412.825980 Y293.690605

G01 Z-0.125000 F100.0(Penetrate)
G01 X1412.825980 Y304.874154 Z-0.125000 F400.000000
G01 X1424.009529 Y308.602003 Z-0.125000
G00 Z5.000000

(End cutting path id: path8134)


(Start cutting path id: path8132)
(Change tool to Default tool)

G00 Z5.000000
G00 X1401.642432 Y278.779207

G01 Z-0.125000 F100.0(Penetrate)
G01 X1409.098131 Y286.234906 Z-0.125000 F400.000000
G01 X1412.825980 Y293.690605 Z-0.125000
G00 Z5.000000

(End cutting path id: path8132)


(Start cutting path id: path8130)
(Change tool to Default tool)

G00 Z5.000000
G00 X1420.281679 Y271.323508

G01 Z-0.125000 F100.0(Penetrate)
G01 X1401.642432 Y267.595659 Z-0.125000 F400.000000
G01 X1401.642432 Y278.779207 Z-0.125000
G00 Z5.000000

(End cutting path id: path8130)


(Start cutting path id: path8128)
(Change tool to Default tool)

G00 Z5.000000
G00 X1442.648776 Y278.779207

G01 Z-0.125000 F100.0(Penetrate)
G01 X1427.737378 Y278.779207 Z-0.125000 F400.000000
G01 X1420.281679 Y271.323508 Z-0.125000
G00 Z5.000000

(End cutting path id: path8128)


(Start cutting path id: path8126)
(Change tool to Default tool)

G00 Z5.000000
G00 X1457.560174 Y278.779207

G01 Z-0.125000 F100.0(Penetrate)
G01 X1453.832325 Y271.323508 Z-0.125000 F400.000000
G01 X1442.648776 Y278.779207 Z-0.125000
G00 Z5.000000

(End cutting path id: path8126)


(Start cutting path id: path8124)
(Change tool to Default tool)

G00 Z5.000000
G00 X1476.199422 Y267.595659

G01 Z-0.125000 F100.0(Penetrate)
G01 X1472.471572 Y278.779207 Z-0.125000 F400.000000
G01 X1457.560174 Y278.779207 Z-0.125000
G00 Z5.000000

(End cutting path id: path8124)


(Start cutting path id: path8122)
(Change tool to Default tool)

G00 Z5.000000
G00 X1494.838669 Y286.234906

G01 Z-0.125000 F100.0(Penetrate)
G01 X1487.382970 Y278.779207 Z-0.125000 F400.000000
G01 X1476.199422 Y267.595659 Z-0.125000
G00 Z5.000000

(End cutting path id: path8122)


(Start cutting path id: path8120)
(Change tool to Default tool)

G00 Z5.000000
G00 X1513.477917 Y301.146304

G01 Z-0.125000 F100.0(Penetrate)
G01 X1509.750067 Y286.234906 Z-0.125000 F400.000000
G01 X1494.838669 Y286.234906 Z-0.125000
G00 Z5.000000

(End cutting path id: path8120)


(Start cutting path id: path8118)
(Change tool to Default tool)

G00 Z5.000000
G00 X1543.300713 Y289.962756

G01 Z-0.125000 F100.0(Penetrate)
G01 X1528.389315 Y293.690605 Z-0.125000 F400.000000
G01 X1513.477917 Y301.146304 Z-0.125000
G00 Z5.000000

(End cutting path id: path8118)


(Start cutting path id: path8116)
(Change tool to Default tool)

G00 Z5.000000
G00 X1554.484261 Y304.874154

G01 Z-0.125000 F100.0(Penetrate)
G01 X1554.484261 Y293.690605 Z-0.125000 F400.000000
G01 X1543.300713 Y289.962756 Z-0.125000
G00 Z5.000000

(End cutting path id: path8116)


(Start cutting path id: path8114)
(Change tool to Default tool)

G00 Z5.000000
G00 X1565.667810 Y316.057702

G01 Z-0.125000 F100.0(Penetrate)
G01 X1569.395659 Y301.146304 Z-0.125000 F400.000000
G01 X1554.484261 Y304.874154 Z-0.125000
G00 Z5.000000

(End cutting path id: path8114)


(Start cutting path id: path8112)
(Change tool to Default tool)

G00 Z5.000000
G00 X1584.307057 Y323.513401

G01 Z-0.125000 F100.0(Penetrate)
G01 X1569.395659 Y323.513401 Z-0.125000 F400.000000
G01 X1565.667810 Y316.057702 Z-0.125000
G00 Z5.000000

(End cutting path id: path8112)


(Start cutting path id: path8110)
(Change tool to Default tool)

G00 Z5.000000
G00 X1576.851358 Y360.791896

G01 Z-0.125000 F100.0(Penetrate)
G01 X1576.851358 Y342.152649 Z-0.125000 F400.000000
G01 X1584.307057 Y323.513401 Z-0.125000
G00 Z5.000000

(End cutting path id: path8110)


(Start cutting path id: path8108)
(Change tool to Default tool)

G00 Z5.000000
G00 X1602.946305 Y375.703294

G01 Z-0.125000 F100.0(Penetrate)
G01 X1595.490606 Y360.791896 Z-0.125000 F400.000000
G01 X1576.851358 Y360.791896 Z-0.125000
G00 Z5.000000

(End cutting path id: path8108)


(Start cutting path id: path8106)
(Change tool to Default tool)

G00 Z5.000000
G00 X1606.674154 Y398.070391

G01 Z-0.125000 F100.0(Penetrate)
G01 X1614.129853 Y379.431144 Z-0.125000 F400.000000
G01 X1602.946305 Y375.703294 Z-0.125000
G00 Z5.000000

(End cutting path id: path8106)


(Start cutting path id: path8104)
(Change tool to Default tool)

G00 Z5.000000
G00 X1606.674154 Y427.893187

G01 Z-0.125000 F100.0(Penetrate)
G01 X1606.674154 Y412.981789 Z-0.125000 F400.000000
G01 X1606.674154 Y398.070391 Z-0.125000
G00 Z5.000000

(End cutting path id: path8104)


(Start cutting path id: path8102)
(Change tool to Default tool)

G00 Z5.000000
G00 X1617.857703 Y435.348886

G01 Z-0.125000 F100.0(Penetrate)
G01 X1599.218455 Y442.804585 Z-0.125000 F400.000000
G01 X1606.674154 Y427.893187 Z-0.125000
G00 Z5.000000

(End cutting path id: path8102)


(Start cutting path id: path8100)
(Change tool to Default tool)

G00 Z5.000000
G00 X1629.041251 Y453.988134

G01 Z-0.125000 F100.0(Penetrate)
G01 X1621.585552 Y442.804585 Z-0.125000 F400.000000
G01 X1617.857703 Y435.348886 Z-0.125000
G00 Z5.000000

(End cutting path id: path8100)


(Start cutting path id: path8098)
(Change tool to Default tool)

G00 Z5.000000
G00 X1640.224800 Y480.083080

G01 Z-0.125000 F100.0(Penetrate)
G01 X1640.224800 Y461.443833 Z-0.125000 F400.000000
G01 X1629.041251 Y453.988134 Z-0.125000
G00 Z5.000000

(End cutting path id: path8098)


(Start cutting path id: path8096)
(Change tool to Default tool)

G00 Z5.000000
G00 X1617.857703 Y502.450177

G01 Z-0.125000 F100.0(Penetrate)
G01 X1640.224800 Y494.994478 Z-0.125000 F400.000000
G01 X1640.224800 Y480.083080 Z-0.125000
G00 Z5.000000

(End cutting path id: path8096)


(Start cutting path id: path8094)
(Change tool to Default tool)

G00 Z5.000000
G00 X1643.952649 Y517.361575

G01 Z-0.125000 F100.0(Penetrate)
G01 X1629.041251 Y513.633726 Z-0.125000 F400.000000
G01 X1617.857703 Y502.450177 Z-0.125000
G00 Z5.000000

(End cutting path id: path8094)


(Start cutting path id: path8092)
(Change tool to Default tool)

G00 Z5.000000
G00 X1655.136198 Y543.456522

G01 Z-0.125000 F100.0(Penetrate)
G01 X1643.952649 Y532.272973 Z-0.125000 F400.000000
G01 X1643.952649 Y517.361575 Z-0.125000
G00 Z5.000000

(End cutting path id: path8092)


(Start cutting path id: path8090)
(Change tool to Default tool)

G00 Z5.000000
G00 X1673.775445 Y528.545124

G01 Z-0.125000 F100.0(Penetrate)
G01 X1662.591897 Y521.089425 Z-0.125000 F400.000000
G01 X1655.136198 Y543.456522 Z-0.125000
G00 Z5.000000

(End cutting path id: path8090)


(Start cutting path id: path8088)
(Change tool to Default tool)

G00 Z5.000000
G00 X1684.958994 Y550.912221

G01 Z-0.125000 F100.0(Penetrate)
G01 X1673.775445 Y543.456522 Z-0.125000 F400.000000
G01 X1673.775445 Y528.545124 Z-0.125000
G00 Z5.000000

(End cutting path id: path8088)


(Start cutting path id: path8086)
(Change tool to Default tool)

G00 Z5.000000
G00 X1696.142542 Y565.823619

G01 Z-0.125000 F100.0(Penetrate)
G01 X1688.686843 Y558.367920 Z-0.125000 F400.000000
G01 X1684.958994 Y550.912221 Z-0.125000
G00 Z5.000000

(End cutting path id: path8086)


(Start cutting path id: path8084)
(Change tool to Default tool)

G00 Z5.000000
G00 X1688.686843 Y584.462866

G01 Z-0.125000 F100.0(Penetrate)
G01 X1681.231144 Y573.279318 Z-0.125000 F400.000000
G01 X1696.142542 Y565.823619 Z-0.125000
G00 Z5.000000

(End cutting path id: path8084)


(Start cutting path id: path8082)
(Change tool to Default tool)

G00 Z5.000000
G00 X1711.053940 Y584.462866

G01 Z-0.125000 F100.0(Penetrate)
G01 X1699.870392 Y588.190716 Z-0.125000 F400.000000
G01 X1688.686843 Y584.462866 Z-0.125000
G00 Z5.000000

(End cutting path id: path8082)


(Start cutting path id: path8080)
(Change tool to Default tool)

G00 Z5.000000
G00 X1714.781790 Y595.646414

G01 Z-0.125000 F100.0(Penetrate)
G01 X1707.326091 Y595.646414 Z-0.125000 F400.000000
G01 X1711.053940 Y584.462866 Z-0.125000
G00 Z5.000000

(End cutting path id: path8080)


(Start cutting path id: path8078)
(Change tool to Default tool)

G00 Z5.000000
G00 X1725.965338 Y599.374264

G01 Z-0.125000 F100.0(Penetrate)
G01 X1718.509639 Y599.374264 Z-0.125000 F400.000000
G01 X1714.781790 Y595.646414 Z-0.125000
G00 Z5.000000

(End cutting path id: path8078)


(Start cutting path id: path8076)
(Change tool to Default tool)

G00 Z5.000000
G00 X1740.876736 Y603.102114

G01 Z-0.125000 F100.0(Penetrate)
G01 X1733.421037 Y599.374264 Z-0.125000 F400.000000
G01 X1725.965338 Y599.374264 Z-0.125000
G00 Z5.000000

(End cutting path id: path8076)


(Start cutting path id: path8074)
(Change tool to Default tool)

G00 Z5.000000
G00 X1744.604586 Y614.285662

G01 Z-0.125000 F100.0(Penetrate)
G01 X1733.421037 Y610.557813 Z-0.125000 F400.000000
G01 X1740.876736 Y603.102114 Z-0.125000
G00 Z5.000000

(End cutting path id: path8074)


(Start cutting path id: path8072)
(Change tool to Default tool)

G00 Z5.000000
G00 X1733.421037 Y621.741361

G01 Z-0.125000 F100.0(Penetrate)
G01 X1740.876736 Y625.469211 Z-0.125000 F400.000000
G01 X1744.604586 Y614.285662 Z-0.125000
G00 Z5.000000

(End cutting path id: path8072)


(Start cutting path id: path8070)
(Change tool to Default tool)

G00 Z5.000000
G00 X1722.237489 Y614.285662

G01 Z-0.125000 F100.0(Penetrate)
G01 X1725.965338 Y621.741361 Z-0.125000 F400.000000
G01 X1733.421037 Y621.741361 Z-0.125000
G00 Z5.000000

(End cutting path id: path8070)


(Start cutting path id: path8068)
(Change tool to Default tool)

G00 Z5.000000
G00 X1707.326091 Y610.557813

G01 Z-0.125000 F100.0(Penetrate)
G01 X1714.781790 Y614.285662 Z-0.125000 F400.000000
G01 X1722.237489 Y614.285662 Z-0.125000
G00 Z5.000000

(End cutting path id: path8068)


(Start cutting path id: path8066)
(Change tool to Default tool)

G00 Z5.000000
G00 X1711.053940 Y625.469211

G01 Z-0.125000 F100.0(Penetrate)
G01 X1699.870392 Y621.741361 Z-0.125000 F400.000000
G01 X1707.326091 Y610.557813 Z-0.125000
G00 Z5.000000

(End cutting path id: path8066)


(Start cutting path id: path8064)
(Change tool to Default tool)

G00 Z5.000000
G00 X1722.237489 Y632.924910

G01 Z-0.125000 F100.0(Penetrate)
G01 X1714.781790 Y632.924910 Z-0.125000 F400.000000
G01 X1711.053940 Y625.469211 Z-0.125000
G00 Z5.000000

(End cutting path id: path8064)


(Start cutting path id: path8062)
(Change tool to Default tool)

G00 Z5.000000
G00 X1737.148887 Y636.652759

G01 Z-0.125000 F100.0(Penetrate)
G01 X1729.693188 Y636.652759 Z-0.125000 F400.000000
G01 X1722.237489 Y632.924910 Z-0.125000
G00 Z5.000000

(End cutting path id: path8062)


(Start cutting path id: path8060)
(Change tool to Default tool)

G00 Z5.000000
G00 X1740.876736 Y647.836308

G01 Z-0.125000 F100.0(Penetrate)
G01 X1744.604586 Y640.380609 Z-0.125000 F400.000000
G01 X1737.148887 Y636.652759 Z-0.125000
G00 Z5.000000

(End cutting path id: path8060)


(Start cutting path id: path8058)
(Change tool to Default tool)

G00 Z5.000000
G00 X1733.421037 Y659.019856

G01 Z-0.125000 F100.0(Penetrate)
G01 X1744.604586 Y655.292007 Z-0.125000 F400.000000
G01 X1740.876736 Y647.836308 Z-0.125000
G00 Z5.000000

(End cutting path id: path8058)


(Start cutting path id: path8056)
(Change tool to Default tool)

G00 Z5.000000
G00 X1718.509639 Y651.564157

G01 Z-0.125000 F100.0(Penetrate)
G01 X1729.693188 Y651.564157 Z-0.125000 F400.000000
G01 X1733.421037 Y659.019856 Z-0.125000
G00 Z5.000000

(End cutting path id: path8056)


(Start cutting path id: path8054)
(Change tool to Default tool)

G00 Z5.000000
G00 X1711.053940 Y644.108458

G01 Z-0.125000 F100.0(Penetrate)
G01 X1722.237489 Y644.108458 Z-0.125000 F400.000000
G01 X1718.509639 Y651.564157 Z-0.125000
G00 Z5.000000

(End cutting path id: path8054)


(Start cutting path id: path8052)
(Change tool to Default tool)

G00 Z5.000000
G00 X1684.958994 Y636.652759

G01 Z-0.125000 F100.0(Penetrate)
G01 X1699.870392 Y636.652759 Z-0.125000 F400.000000
G01 X1711.053940 Y644.108458 Z-0.125000
G00 Z5.000000

(End cutting path id: path8052)


(Start cutting path id: path8050)
(Change tool to Default tool)

G00 Z5.000000
G00 X1692.414693 Y606.829963

G01 Z-0.125000 F100.0(Penetrate)
G01 X1684.958994 Y621.741361 Z-0.125000 F400.000000
G01 X1684.958994 Y636.652759 Z-0.125000
G00 Z5.000000

(End cutting path id: path8050)


(Start cutting path id: path8048)
(Change tool to Default tool)

G00 Z5.000000
G00 X1673.775445 Y591.918565

G01 Z-0.125000 F100.0(Penetrate)
G01 X1681.231144 Y603.102114 Z-0.125000 F400.000000
G01 X1692.414693 Y606.829963 Z-0.125000
G00 Z5.000000

(End cutting path id: path8048)


(Start cutting path id: path8046)
(Change tool to Default tool)

G00 Z5.000000
G00 X1666.319746 Y562.095769

G01 Z-0.125000 F100.0(Penetrate)
G01 X1666.319746 Y580.735017 Z-0.125000 F400.000000
G01 X1673.775445 Y591.918565 Z-0.125000
G00 Z5.000000

(End cutting path id: path8046)


(Start cutting path id: path8044)
(Change tool to Default tool)

G00 Z5.000000
G00 X1636.496950 Y554.640070

G01 Z-0.125000 F100.0(Penetrate)
G01 X1651.408348 Y562.095769 Z-0.125000 F400.000000
G01 X1666.319746 Y562.095769 Z-0.125000
G00 Z5.000000

(End cutting path id: path8044)


(Start cutting path id: path8042)
(Change tool to Default tool)

G00 Z5.000000
G00 X1617.857703 Y532.272973

G01 Z-0.125000 F100.0(Penetrate)
G01 X1625.313402 Y543.456522 Z-0.125000 F400.000000
G01 X1636.496950 Y554.640070 Z-0.125000
G00 Z5.000000

(End cutting path id: path8042)


(Start cutting path id: path8040)
(Change tool to Default tool)

G00 Z5.000000
G00 X1591.762756 Y521.089425

G01 Z-0.125000 F100.0(Penetrate)
G01 X1606.674154 Y524.817274 Z-0.125000 F400.000000
G01 X1617.857703 Y532.272973 Z-0.125000
G00 Z5.000000

(End cutting path id: path8040)


(Start cutting path id: path8038)
(Change tool to Default tool)

G00 Z5.000000
G00 X1588.034907 Y502.450177

G01 Z-0.125000 F100.0(Penetrate)
G01 X1599.218455 Y506.178027 Z-0.125000 F400.000000
G01 X1591.762756 Y521.089425 Z-0.125000
G00 Z5.000000

(End cutting path id: path8038)


(Start cutting path id: path8036)
(Change tool to Default tool)

G00 Z5.000000
G00 X1569.395659 Y517.361575

G01 Z-0.125000 F100.0(Penetrate)
G01 X1576.851358 Y494.994478 Z-0.125000 F400.000000
G01 X1588.034907 Y502.450177 Z-0.125000
G00 Z5.000000

(End cutting path id: path8036)


(Start cutting path id: path8034)
(Change tool to Default tool)

G00 Z5.000000
G00 X1543.300713 Y502.450177

G01 Z-0.125000 F100.0(Penetrate)
G01 X1558.212111 Y509.905876 Z-0.125000 F400.000000
G01 X1569.395659 Y517.361575 Z-0.125000
G00 Z5.000000

(End cutting path id: path8034)


(Start cutting path id: path8032)
(Change tool to Default tool)

G00 Z5.000000
G00 X1524.661465 Y483.810930

G01 Z-0.125000 F100.0(Penetrate)
G01 X1535.845014 Y491.266629 Z-0.125000 F400.000000
G01 X1543.300713 Y502.450177 Z-0.125000
G00 Z5.000000

(End cutting path id: path8032)


(Start cutting path id: path8030)
(Change tool to Default tool)

G00 Z5.000000
G00 X1509.750067 Y465.171682

G01 Z-0.125000 F100.0(Penetrate)
G01 X1524.661465 Y468.899532 Z-0.125000 F400.000000
G01 X1524.661465 Y483.810930 Z-0.125000
G00 Z5.000000

(End cutting path id: path8030)


(Start cutting path id: path8028)
(Change tool to Default tool)

G00 Z5.000000
G00 X1528.389315 Y442.804585

G01 Z-0.125000 F100.0(Penetrate)
G01 X1509.750067 Y446.532435 Z-0.125000 F400.000000
G01 X1509.750067 Y465.171682 Z-0.125000
G00 Z5.000000

(End cutting path id: path8028)


(Start cutting path id: path8026)
(Change tool to Default tool)

G00 Z5.000000
G00 X1547.028562 Y468.899532

G01 Z-0.125000 F100.0(Penetrate)
G01 X1535.845014 Y453.988134 Z-0.125000 F400.000000
G01 X1528.389315 Y442.804585 Z-0.125000
G00 Z5.000000

(End cutting path id: path8026)


(Start cutting path id: path8024)
(Change tool to Default tool)

G00 Z5.000000
G00 X1565.667810 Y483.810930

G01 Z-0.125000 F100.0(Penetrate)
G01 X1558.212111 Y476.355231 Z-0.125000 F400.000000
G01 X1547.028562 Y468.899532 Z-0.125000
G00 Z5.000000

(End cutting path id: path8024)


(Start cutting path id: path8022)
(Change tool to Default tool)

G00 Z5.000000
G00 X1599.218455 Y483.810930

G01 Z-0.125000 F100.0(Penetrate)
G01 X1580.579208 Y480.083080 Z-0.125000 F400.000000
G01 X1565.667810 Y483.810930 Z-0.125000
G00 Z5.000000

(End cutting path id: path8022)


(Start cutting path id: path8020)
(Change tool to Default tool)

G00 Z5.000000
G00 X1617.857703 Y472.627381

G01 Z-0.125000 F100.0(Penetrate)
G01 X1621.585552 Y483.810930 Z-0.125000 F400.000000
G01 X1599.218455 Y483.810930 Z-0.125000
G00 Z5.000000

(End cutting path id: path8020)


(Start cutting path id: path8018)
(Change tool to Default tool)

G00 Z5.000000
G00 X1599.218455 Y457.715983

G01 Z-0.125000 F100.0(Penetrate)
G01 X1610.402004 Y461.443833 Z-0.125000 F400.000000
G01 X1617.857703 Y472.627381 Z-0.125000
G00 Z5.000000

(End cutting path id: path8018)


(Start cutting path id: path8016)
(Change tool to Default tool)

G00 Z5.000000
G00 X1565.667810 Y457.715983

G01 Z-0.125000 F100.0(Penetrate)
G01 X1580.579208 Y461.443833 Z-0.125000 F400.000000
G01 X1599.218455 Y457.715983 Z-0.125000
G00 Z5.000000

(End cutting path id: path8016)


(Start cutting path id: path8014)
(Change tool to Default tool)

G00 Z5.000000
G00 X1547.028562 Y435.348886

G01 Z-0.125000 F100.0(Penetrate)
G01 X1554.484261 Y450.260284 Z-0.125000 F400.000000
G01 X1565.667810 Y457.715983 Z-0.125000
G00 Z5.000000

(End cutting path id: path8014)


(Start cutting path id: path8012)
(Change tool to Default tool)

G00 Z5.000000
G00 X1539.572863 Y412.981789

G01 Z-0.125000 F100.0(Penetrate)
G01 X1547.028562 Y420.437488 Z-0.125000 F400.000000
G01 X1547.028562 Y435.348886 Z-0.125000
G00 Z5.000000

(End cutting path id: path8012)


(Start cutting path id: path8010)
(Change tool to Default tool)

G00 Z5.000000
G00 X1513.477917 Y420.437488

G01 Z-0.125000 F100.0(Penetrate)
G01 X1524.661465 Y427.893187 Z-0.125000 F400.000000
G01 X1539.572863 Y412.981789 Z-0.125000
G00 Z5.000000

(End cutting path id: path8010)


(Start cutting path id: path8008)
(Change tool to Default tool)

G00 Z5.000000
G00 X1509.750067 Y394.342542

G01 Z-0.125000 F100.0(Penetrate)
G01 X1520.933616 Y405.526090 Z-0.125000 F400.000000
G01 X1513.477917 Y420.437488 Z-0.125000
G00 Z5.000000

(End cutting path id: path8008)


(Start cutting path id: path8006)
(Change tool to Default tool)

G00 Z5.000000
G00 X1513.477917 Y371.975445

G01 Z-0.125000 F100.0(Penetrate)
G01 X1502.294368 Y386.886843 Z-0.125000 F400.000000
G01 X1509.750067 Y394.342542 Z-0.125000
G00 Z5.000000

(End cutting path id: path8006)


(Start cutting path id: path8004)
(Change tool to Default tool)

G00 Z5.000000
G00 X1498.566519 Y357.064047

G01 Z-0.125000 F100.0(Penetrate)
G01 X1502.294368 Y364.519746 Z-0.125000 F400.000000
G01 X1513.477917 Y371.975445 Z-0.125000
G00 Z5.000000

(End cutting path id: path8004)


(Start cutting path id: path8002)
(Change tool to Default tool)

G00 Z5.000000
G00 X1479.927271 Y345.880498

G01 Z-0.125000 F100.0(Penetrate)
G01 X1487.382970 Y353.336197 Z-0.125000 F400.000000
G01 X1498.566519 Y357.064047 Z-0.125000
G00 Z5.000000

(End cutting path id: path8002)


(Start cutting path id: path8000)
(Change tool to Default tool)

G00 Z5.000000
G00 X1461.288024 Y349.608348

G01 Z-0.125000 F100.0(Penetrate)
G01 X1472.471572 Y338.424799 Z-0.125000 F400.000000
G01 X1479.927271 Y345.880498 Z-0.125000
G00 Z5.000000

(End cutting path id: path8000)


(Start cutting path id: path7998)
(Change tool to Default tool)

G00 Z5.000000
G00 X1446.376626 Y349.608348

G01 Z-0.125000 F100.0(Penetrate)
G01 X1453.832325 Y338.424799 Z-0.125000 F400.000000
G01 X1461.288024 Y349.608348 Z-0.125000
G00 Z5.000000

(End cutting path id: path7998)


(Start cutting path id: path7996)
(Change tool to Default tool)

G00 Z5.000000
G00 X1438.920927 Y334.696950

G01 Z-0.125000 F100.0(Penetrate)
G01 X1435.193077 Y345.880498 Z-0.125000 F400.000000
G01 X1446.376626 Y349.608348 Z-0.125000
G00 Z5.000000

(End cutting path id: path7996)


(Start cutting path id: path7994)
(Change tool to Default tool)

G00 Z5.000000
G00 X1420.281679 Y345.880498

G01 Z-0.125000 F100.0(Penetrate)
G01 X1427.737378 Y330.969100 Z-0.125000 F400.000000
G01 X1438.920927 Y334.696950 Z-0.125000
G00 Z5.000000

(End cutting path id: path7994)


(Start cutting path id: path7992)
(Change tool to Default tool)

G00 Z5.000000
G00 X1397.914582 Y334.696950

G01 Z-0.125000 F100.0(Penetrate)
G01 X1412.825980 Y338.424799 Z-0.125000 F400.000000
G01 X1420.281679 Y345.880498 Z-0.125000
G00 Z5.000000

(End cutting path id: path7992)


(Start cutting path id: path7990)
(Change tool to Default tool)

G00 Z5.000000
G00 X1405.370281 Y357.064047

G01 Z-0.125000 F100.0(Penetrate)
G01 X1397.914582 Y349.608348 Z-0.125000 F400.000000
G01 X1397.914582 Y334.696950 Z-0.125000
G00 Z5.000000

(End cutting path id: path7990)


(Start cutting path id: path7988)
(Change tool to Default tool)

G00 Z5.000000
G00 X1427.737378 Y360.791896

G01 Z-0.125000 F100.0(Penetrate)
G01 X1416.553830 Y360.791896 Z-0.125000 F400.000000
G01 X1405.370281 Y357.064047 Z-0.125000
G00 Z5.000000

(End cutting path id: path7988)


(Start cutting path id: path7986)
(Change tool to Default tool)

G00 Z5.000000
G00 X1446.376626 Y368.247595

G01 Z-0.125000 F100.0(Penetrate)
G01 X1435.193077 Y368.247595 Z-0.125000 F400.000000
G01 X1427.737378 Y360.791896 Z-0.125000
G00 Z5.000000

(End cutting path id: path7986)


(Start cutting path id: path7984)
(Change tool to Default tool)

G00 Z5.000000
G00 X1468.743723 Y360.791896

G01 Z-0.125000 F100.0(Penetrate)
G01 X1457.560174 Y357.064047 Z-0.125000 F400.000000
G01 X1446.376626 Y368.247595 Z-0.125000
G00 Z5.000000

(End cutting path id: path7984)


(Start cutting path id: path7982)
(Change tool to Default tool)

G00 Z5.000000
G00 X1479.927271 Y375.703294

G01 Z-0.125000 F100.0(Penetrate)
G01 X1476.199422 Y368.247595 Z-0.125000 F400.000000
G01 X1468.743723 Y360.791896 Z-0.125000
G00 Z5.000000

(End cutting path id: path7982)


(Start cutting path id: path7980)
(Change tool to Default tool)

G00 Z5.000000
G00 X1483.655121 Y401.798241

G01 Z-0.125000 F100.0(Penetrate)
G01 X1491.110820 Y379.431144 Z-0.125000 F400.000000
G01 X1479.927271 Y375.703294 Z-0.125000
G00 Z5.000000

(End cutting path id: path7980)


(Start cutting path id: path7978)
(Change tool to Default tool)

G00 Z5.000000
G00 X1461.288024 Y386.886843

G01 Z-0.125000 F100.0(Penetrate)
G01 X1468.743723 Y394.342542 Z-0.125000 F400.000000
G01 X1483.655121 Y401.798241 Z-0.125000
G00 Z5.000000

(End cutting path id: path7978)


(Start cutting path id: path7976)
(Change tool to Default tool)

G00 Z5.000000
G00 X1442.648776 Y383.158993

G01 Z-0.125000 F100.0(Penetrate)
G01 X1457.560174 Y375.703294 Z-0.125000 F400.000000
G01 X1461.288024 Y386.886843 Z-0.125000
G00 Z5.000000

(End cutting path id: path7976)


(Start cutting path id: path7974)
(Change tool to Default tool)

G00 Z5.000000
G00 X1450.104475 Y405.526090

G01 Z-0.125000 F100.0(Penetrate)
G01 X1446.376626 Y394.342542 Z-0.125000 F400.000000
G01 X1442.648776 Y383.158993 Z-0.125000
G00 Z5.000000

(End cutting path id: path7974)


(Start cutting path id: path7972)
(Change tool to Default tool)

G00 Z5.000000
G00 X1468.743723 Y420.437488

G01 Z-0.125000 F100.0(Penetrate)
G01 X1461.288024 Y409.253940 Z-0.125000 F400.000000
G01 X1450.104475 Y405.526090 Z-0.125000
G00 Z5.000000

(End cutting path id: path7972)


(Start cutting path id: path7970)
(Change tool to Default tool)

G00 Z5.000000
G00 X1487.382970 Y439.076736

G01 Z-0.125000 F100.0(Penetrate)
G01 X1491.110820 Y420.437488 Z-0.125000 F400.000000
G01 X1468.743723 Y420.437488 Z-0.125000
G00 Z5.000000

(End cutting path id: path7970)


(Start cutting path id: path7968)
(Change tool to Default tool)

G00 Z5.000000
G00 X1487.382970 Y472.627381

G01 Z-0.125000 F100.0(Penetrate)
G01 X1483.655121 Y461.443833 Z-0.125000 F400.000000
G01 X1487.382970 Y439.076736 Z-0.125000
G00 Z5.000000

(End cutting path id: path7968)


(Start cutting path id: path7966)
(Change tool to Default tool)

G00 Z5.000000
G00 X1502.294368 Y494.994478

G01 Z-0.125000 F100.0(Penetrate)
G01 X1498.566519 Y487.538779 Z-0.125000 F400.000000
G01 X1487.382970 Y472.627381 Z-0.125000
G00 Z5.000000

(End cutting path id: path7966)


(Start cutting path id: path7964)
(Change tool to Default tool)

G00 Z5.000000
G00 X1524.661465 Y513.633726

G01 Z-0.125000 F100.0(Penetrate)
G01 X1513.477917 Y506.178027 Z-0.125000 F400.000000
G01 X1502.294368 Y494.994478 Z-0.125000
G00 Z5.000000

(End cutting path id: path7964)


(Start cutting path id: path7962)
(Change tool to Default tool)

G00 Z5.000000
G00 X1547.028562 Y532.272973

G01 Z-0.125000 F100.0(Penetrate)
G01 X1539.572863 Y521.089425 Z-0.125000 F400.000000
G01 X1524.661465 Y513.633726 Z-0.125000
G00 Z5.000000

(End cutting path id: path7962)


(Start cutting path id: path7960)
(Change tool to Default tool)

G00 Z5.000000
G00 X1573.123509 Y539.728672

G01 Z-0.125000 F100.0(Penetrate)
G01 X1558.212111 Y539.728672 Z-0.125000 F400.000000
G01 X1547.028562 Y532.272973 Z-0.125000
G00 Z5.000000

(End cutting path id: path7960)


(Start cutting path id: path7958)
(Change tool to Default tool)

G00 Z5.000000
G00 X1602.946305 Y550.912221

G01 Z-0.125000 F100.0(Penetrate)
G01 X1588.034907 Y543.456522 Z-0.125000 F400.000000
G01 X1573.123509 Y539.728672 Z-0.125000
G00 Z5.000000

(End cutting path id: path7958)


(Start cutting path id: path7956)
(Change tool to Default tool)

G00 Z5.000000
G00 X1629.041251 Y573.279318

G01 Z-0.125000 F100.0(Penetrate)
G01 X1610.402004 Y565.823619 Z-0.125000 F400.000000
G01 X1602.946305 Y550.912221 Z-0.125000
G00 Z5.000000

(End cutting path id: path7956)


(Start cutting path id: path7954)
(Change tool to Default tool)

G00 Z5.000000
G00 X1643.952649 Y595.646414

G01 Z-0.125000 F100.0(Penetrate)
G01 X1647.680499 Y580.735017 Z-0.125000 F400.000000
G01 X1629.041251 Y573.279318 Z-0.125000
G00 Z5.000000

(End cutting path id: path7954)


(Start cutting path id: path7952)
(Change tool to Default tool)

G00 Z5.000000
G00 X1658.864047 Y614.285662

G01 Z-0.125000 F100.0(Penetrate)
G01 X1651.408348 Y606.829963 Z-0.125000 F400.000000
G01 X1643.952649 Y595.646414 Z-0.125000
G00 Z5.000000

(End cutting path id: path7952)


(Start cutting path id: path7950)
(Change tool to Default tool)

G00 Z5.000000
G00 X1666.319746 Y636.652759

G01 Z-0.125000 F100.0(Penetrate)
G01 X1670.047596 Y621.741361 Z-0.125000 F400.000000
G01 X1658.864047 Y614.285662 Z-0.125000
G00 Z5.000000

(End cutting path id: path7950)


(Start cutting path id: path7948)
(Change tool to Default tool)

G00 Z5.000000
G00 X1670.047596 Y666.475555

G01 Z-0.125000 F100.0(Penetrate)
G01 X1670.047596 Y651.564157 Z-0.125000 F400.000000
G01 X1666.319746 Y636.652759 Z-0.125000
G00 Z5.000000

(End cutting path id: path7948)


(Start cutting path id: path7946)
(Change tool to Default tool)

G00 Z5.000000
G00 X1688.686843 Y651.564157

G01 Z-0.125000 F100.0(Penetrate)
G01 X1681.231144 Y670.203405 Z-0.125000 F400.000000
G01 X1670.047596 Y666.475555 Z-0.125000
G00 Z5.000000

(End cutting path id: path7946)


(Start cutting path id: path7944)
(Change tool to Default tool)

G00 Z5.000000
G00 X1696.142542 Y670.203405

G01 Z-0.125000 F100.0(Penetrate)
G01 X1699.870392 Y659.019856 Z-0.125000 F400.000000
G01 X1688.686843 Y651.564157 Z-0.125000
G00 Z5.000000

(End cutting path id: path7944)


(Start cutting path id: path7942)
(Change tool to Default tool)

G00 Z5.000000
G00 X1711.053940 Y692.570502

G01 Z-0.125000 F100.0(Penetrate)
G01 X1703.598241 Y677.659104 Z-0.125000 F400.000000
G01 X1696.142542 Y670.203405 Z-0.125000
G00 Z5.000000

(End cutting path id: path7942)


(Start cutting path id: path7940)
(Change tool to Default tool)

G00 Z5.000000
G00 X1733.421037 Y696.298351

G01 Z-0.125000 F100.0(Penetrate)
G01 X1722.237489 Y696.298351 Z-0.125000 F400.000000
G01 X1711.053940 Y692.570502 Z-0.125000
G00 Z5.000000

(End cutting path id: path7940)


(Start cutting path id: path7938)
(Change tool to Default tool)

G00 Z5.000000
G00 X1740.876736 Y685.114802

G01 Z-0.125000 F100.0(Penetrate)
G01 X1744.604586 Y692.570502 Z-0.125000 F400.000000
G01 X1733.421037 Y696.298351 Z-0.125000
G00 Z5.000000

(End cutting path id: path7938)


(Start cutting path id: path7936)
(Change tool to Default tool)

G00 Z5.000000
G00 X1729.693188 Y677.659104

G01 Z-0.125000 F100.0(Penetrate)
G01 X1733.421037 Y681.386953 Z-0.125000 F400.000000
G01 X1740.876736 Y685.114802 Z-0.125000
G00 Z5.000000

(End cutting path id: path7936)


(Start cutting path id: path7934)
(Change tool to Default tool)

G00 Z5.000000
G00 X1718.509639 Y662.747706

G01 Z-0.125000 F100.0(Penetrate)
G01 X1718.509639 Y677.659104 Z-0.125000 F400.000000
G01 X1729.693188 Y677.659104 Z-0.125000
G00 Z5.000000

(End cutting path id: path7934)


(Start cutting path id: path7932)
(Change tool to Default tool)

G00 Z5.000000
G00 X1737.148887 Y666.475555

G01 Z-0.125000 F100.0(Penetrate)
G01 X1725.965338 Y666.475555 Z-0.125000 F400.000000
G01 X1718.509639 Y662.747706 Z-0.125000
G00 Z5.000000

(End cutting path id: path7932)


(Start cutting path id: path7930)
(Change tool to Default tool)

G00 Z5.000000
G00 X1748.332435 Y673.931254

G01 Z-0.125000 F100.0(Penetrate)
G01 X1744.604586 Y670.203405 Z-0.125000 F400.000000
G01 X1737.148887 Y666.475555 Z-0.125000
G00 Z5.000000

(End cutting path id: path7930)


(Start cutting path id: path7928)
(Change tool to Default tool)

G00 Z5.000000
G00 X1763.243833 Y685.114802

G01 Z-0.125000 F100.0(Penetrate)
G01 X1759.515984 Y673.931254 Z-0.125000 F400.000000
G01 X1748.332435 Y673.931254 Z-0.125000
G00 Z5.000000

(End cutting path id: path7928)


(Start cutting path id: path7926)
(Change tool to Default tool)

G00 Z5.000000
G00 X1752.060285 Y696.298351

G01 Z-0.125000 F100.0(Penetrate)
G01 X1752.060285 Y685.114802 Z-0.125000 F400.000000
G01 X1763.243833 Y685.114802 Z-0.125000
G00 Z5.000000

(End cutting path id: path7926)


(Start cutting path id: path7924)
(Change tool to Default tool)

G00 Z5.000000
G00 X1763.243833 Y707.481900

G01 Z-0.125000 F100.0(Penetrate)
G01 X1748.332435 Y703.754050 Z-0.125000 F400.000000
G01 X1752.060285 Y696.298351 Z-0.125000
G00 Z5.000000

(End cutting path id: path7924)


(Start cutting path id: path7922)
(Change tool to Default tool)

G00 Z5.000000
G00 X1770.699532 Y696.298351

G01 Z-0.125000 F100.0(Penetrate)
G01 X1759.515984 Y700.026201 Z-0.125000 F400.000000
G01 X1763.243833 Y707.481900 Z-0.125000
G00 Z5.000000

(End cutting path id: path7922)


(Start cutting path id: path7920)
(Change tool to Default tool)

G00 Z5.000000
G00 X1770.699532 Y714.937599

G01 Z-0.125000 F100.0(Penetrate)
G01 X1774.427382 Y707.481900 Z-0.125000 F400.000000
G01 X1770.699532 Y696.298351 Z-0.125000
G00 Z5.000000

(End cutting path id: path7920)


(Start cutting path id: path7918)
(Change tool to Default tool)

G00 Z5.000000
G00 X1781.883081 Y722.393298

G01 Z-0.125000 F100.0(Penetrate)
G01 X1774.427382 Y722.393298 Z-0.125000 F400.000000
G01 X1770.699532 Y714.937599 Z-0.125000
G00 Z5.000000

(End cutting path id: path7918)


(Start cutting path id: path7916)
(Change tool to Default tool)

G00 Z5.000000
G00 X1793.066629 Y722.393298

G01 Z-0.125000 F100.0(Penetrate)
G01 X1789.338780 Y714.937599 Z-0.125000 F400.000000
G01 X1781.883081 Y722.393298 Z-0.125000
G00 Z5.000000

(End cutting path id: path7916)


(Start cutting path id: path7914)
(Change tool to Default tool)

G00 Z5.000000
G00 X1793.066629 Y737.304696

G01 Z-0.125000 F100.0(Penetrate)
G01 X1785.610930 Y733.576846 Z-0.125000 F400.000000
G01 X1793.066629 Y722.393298 Z-0.125000
G00 Z5.000000

(End cutting path id: path7914)


(Start cutting path id: path7912)
(Change tool to Default tool)

G00 Z5.000000
G00 X1804.250178 Y729.848997

G01 Z-0.125000 F100.0(Penetrate)
G01 X1800.522328 Y737.304696 Z-0.125000 F400.000000
G01 X1793.066629 Y737.304696 Z-0.125000
G00 Z5.000000

(End cutting path id: path7912)


(Start cutting path id: path7910)
(Change tool to Default tool)

G00 Z5.000000
G00 X1826.617275 Y744.760395

G01 Z-0.125000 F100.0(Penetrate)
G01 X1811.705877 Y737.304696 Z-0.125000 F400.000000
G01 X1804.250178 Y729.848997 Z-0.125000
G00 Z5.000000

(End cutting path id: path7910)


(Start cutting path id: path7908)
(Change tool to Default tool)

G00 Z5.000000
G00 X1830.345124 Y755.943943

G01 Z-0.125000 F100.0(Penetrate)
G01 X1822.889425 Y752.216094 Z-0.125000 F400.000000
G01 X1826.617275 Y744.760395 Z-0.125000
G00 Z5.000000

(End cutting path id: path7908)


(Start cutting path id: path7906)
(Change tool to Default tool)

G00 Z5.000000
G00 X1841.528673 Y767.127492

G01 Z-0.125000 F100.0(Penetrate)
G01 X1837.800823 Y759.671793 Z-0.125000 F400.000000
G01 X1830.345124 Y755.943943 Z-0.125000
G00 Z5.000000

(End cutting path id: path7906)


(Start cutting path id: path7904)
(Change tool to Default tool)

G00 Z5.000000
G00 X1860.167920 Y774.583191

G01 Z-0.125000 F100.0(Penetrate)
G01 X1848.984372 Y770.855341 Z-0.125000 F400.000000
G01 X1841.528673 Y767.127492 Z-0.125000
G00 Z5.000000

(End cutting path id: path7904)


(Start cutting path id: path7902)
(Change tool to Default tool)

G00 Z5.000000
G00 X1875.079318 Y778.311040

G01 Z-0.125000 F100.0(Penetrate)
G01 X1871.351469 Y774.583191 Z-0.125000 F400.000000
G01 X1860.167920 Y774.583191 Z-0.125000
G00 Z5.000000

(End cutting path id: path7902)


(Start cutting path id: path7900)
(Change tool to Default tool)

G00 Z5.000000
G00 X1889.990716 Y785.766739

G01 Z-0.125000 F100.0(Penetrate)
G01 X1886.262867 Y774.583191 Z-0.125000 F400.000000
G01 X1875.079318 Y778.311040 Z-0.125000
G00 Z5.000000

(End cutting path id: path7900)


(Start cutting path id: path7898)
(Change tool to Default tool)

G00 Z5.000000
G00 X1901.174265 Y774.583191

G01 Z-0.125000 F100.0(Penetrate)
G01 X1893.718566 Y774.583191 Z-0.125000 F400.000000
G01 X1889.990716 Y785.766739 Z-0.125000
G00 Z5.000000

(End cutting path id: path7898)


(Start cutting path id: path7896)
(Change tool to Default tool)

G00 Z5.000000
G00 X1912.357813 Y782.038890

G01 Z-0.125000 F100.0(Penetrate)
G01 X1904.902114 Y782.038890 Z-0.125000 F400.000000
G01 X1901.174265 Y774.583191 Z-0.125000
G00 Z5.000000

(End cutting path id: path7896)


(Start cutting path id: path7894)
(Change tool to Default tool)

G00 Z5.000000
G00 X1927.269211 Y785.766739

G01 Z-0.125000 F100.0(Penetrate)
G01 X1919.813512 Y782.038890 Z-0.125000 F400.000000
G01 X1912.357813 Y782.038890 Z-0.125000
G00 Z5.000000

(End cutting path id: path7894)


(Start cutting path id: path7892)
(Change tool to Default tool)

G00 Z5.000000
G00 X1934.724910 Y774.583191

G01 Z-0.125000 F100.0(Penetrate)
G01 X1938.452760 Y785.766739 Z-0.125000 F400.000000
G01 X1927.269211 Y785.766739 Z-0.125000
G00 Z5.000000

(End cutting path id: path7892)


(Start cutting path id: path7890)
(Change tool to Default tool)

G00 Z5.000000
G00 X1927.269211 Y763.399642

G01 Z-0.125000 F100.0(Penetrate)
G01 X1930.997061 Y770.855341 Z-0.125000 F400.000000
G01 X1934.724910 Y774.583191 Z-0.125000
G00 Z5.000000

(End cutting path id: path7890)


(Start cutting path id: path7888)
(Change tool to Default tool)

G00 Z5.000000
G00 X1912.357813 Y767.127492

G01 Z-0.125000 F100.0(Penetrate)
G01 X1919.813512 Y770.855341 Z-0.125000 F400.000000
G01 X1927.269211 Y763.399642 Z-0.125000
G00 Z5.000000

(End cutting path id: path7888)


(Start cutting path id: path7886)
(Change tool to Default tool)

G00 Z5.000000
G00 X1897.446415 Y763.399642

G01 Z-0.125000 F100.0(Penetrate)
G01 X1908.629964 Y763.399642 Z-0.125000 F400.000000
G01 X1912.357813 Y767.127492 Z-0.125000
G00 Z5.000000

(End cutting path id: path7886)


(Start cutting path id: path7884)
(Change tool to Default tool)

G00 Z5.000000
G00 X1882.535017 Y767.127492

G01 Z-0.125000 F100.0(Penetrate)
G01 X1886.262867 Y759.671793 Z-0.125000 F400.000000
G01 X1897.446415 Y763.399642 Z-0.125000
G00 Z5.000000

(End cutting path id: path7884)


(Start cutting path id: path7882)
(Change tool to Default tool)

G00 Z5.000000
G00 X1867.623619 Y767.127492

G01 Z-0.125000 F100.0(Penetrate)
G01 X1871.351469 Y759.671793 Z-0.125000 F400.000000
G01 X1882.535017 Y767.127492 Z-0.125000
G00 Z5.000000

(End cutting path id: path7882)


(Start cutting path id: path7880)
(Change tool to Default tool)

G00 Z5.000000
G00 X1852.712221 Y759.671793

G01 Z-0.125000 F100.0(Penetrate)
G01 X1860.167920 Y763.399642 Z-0.125000 F400.000000
G01 X1867.623619 Y767.127492 Z-0.125000
G00 Z5.000000

(End cutting path id: path7880)


(Start cutting path id: path7878)
(Change tool to Default tool)

G00 Z5.000000
G00 X1856.440071 Y718.665448

G01 Z-0.125000 F100.0(Penetrate)
G01 X1848.984372 Y748.488244 Z-0.125000 F400.000000
G01 X1852.712221 Y759.671793 Z-0.125000
G00 Z5.000000

(End cutting path id: path7878)


(Start cutting path id: path7876)
(Change tool to Default tool)

G00 Z5.000000
G00 X1830.345124 Y696.298351

G01 Z-0.125000 F100.0(Penetrate)
G01 X1841.528673 Y711.209749 Z-0.125000 F400.000000
G01 X1856.440071 Y718.665448 Z-0.125000
G00 Z5.000000

(End cutting path id: path7876)


(Start cutting path id: path7874)
(Change tool to Default tool)

G00 Z5.000000
G00 X1807.978027 Y681.386953

G01 Z-0.125000 F100.0(Penetrate)
G01 X1826.617275 Y685.114802 Z-0.125000 F400.000000
G01 X1830.345124 Y696.298351 Z-0.125000
G00 Z5.000000

(End cutting path id: path7874)


(Start cutting path id: path7872)
(Change tool to Default tool)

G00 Z5.000000
G00 X1804.250178 Y647.836308

G01 Z-0.125000 F100.0(Penetrate)
G01 X1807.978027 Y662.747706 Z-0.125000 F400.000000
G01 X1807.978027 Y681.386953 Z-0.125000
G00 Z5.000000

(End cutting path id: path7872)


(Start cutting path id: path7870)
(Change tool to Default tool)

G00 Z5.000000
G00 X1800.522328 Y618.013512

G01 Z-0.125000 F100.0(Penetrate)
G01 X1785.610930 Y640.380609 Z-0.125000 F400.000000
G01 X1804.250178 Y647.836308 Z-0.125000
G00 Z5.000000

(End cutting path id: path7870)


(Start cutting path id: path7868)
(Change tool to Default tool)

G00 Z5.000000
G00 X1796.794479 Y599.374264

G01 Z-0.125000 F100.0(Penetrate)
G01 X1804.250178 Y606.829963 Z-0.125000 F400.000000
G01 X1800.522328 Y618.013512 Z-0.125000
G00 Z5.000000

(End cutting path id: path7868)


(Start cutting path id: path7866)
(Change tool to Default tool)

G00 Z5.000000
G00 X1819.161576 Y569.551468

G01 Z-0.125000 F100.0(Penetrate)
G01 X1819.161576 Y591.918565 Z-0.125000 F400.000000
G01 X1796.794479 Y599.374264 Z-0.125000
G00 Z5.000000

(End cutting path id: path7866)


(Start cutting path id: path7864)
(Change tool to Default tool)

G00 Z5.000000
G00 X1778.155231 Y577.007167

G01 Z-0.125000 F100.0(Penetrate)
G01 X1796.794479 Y547.184371 Z-0.125000 F400.000000
G01 X1819.161576 Y569.551468 Z-0.125000
G00 Z5.000000

(End cutting path id: path7864)


(Start cutting path id: path7862)
(Change tool to Default tool)

G00 Z5.000000
G00 X1740.876736 Y588.190716

G01 Z-0.125000 F100.0(Penetrate)
G01 X1748.332435 Y577.007167 Z-0.125000 F400.000000
G01 X1778.155231 Y577.007167 Z-0.125000
G00 Z5.000000

(End cutting path id: path7862)


(Start cutting path id: path7860)
(Change tool to Default tool)

G00 Z5.000000
G00 X1725.965338 Y584.462866

G01 Z-0.125000 F100.0(Penetrate)
G01 X1733.421037 Y584.462866 Z-0.125000 F400.000000
G01 X1740.876736 Y588.190716 Z-0.125000
G00 Z5.000000

(End cutting path id: path7860)


(Start cutting path id: path7858)
(Change tool to Default tool)

G00 Z5.000000
G00 X1714.781790 Y573.279318

G01 Z-0.125000 F100.0(Penetrate)
G01 X1722.237489 Y577.007167 Z-0.125000 F400.000000
G01 X1725.965338 Y584.462866 Z-0.125000
G00 Z5.000000

(End cutting path id: path7858)


(Start cutting path id: path7856)
(Change tool to Default tool)

G00 Z5.000000
G00 X1714.781790 Y558.367920

G01 Z-0.125000 F100.0(Penetrate)
G01 X1707.326091 Y569.551468 Z-0.125000 F400.000000
G01 X1714.781790 Y573.279318 Z-0.125000
G00 Z5.000000

(End cutting path id: path7856)


(Start cutting path id: path7854)
(Change tool to Default tool)

G00 Z5.000000
G00 X1729.693188 Y565.823619

G01 Z-0.125000 F100.0(Penetrate)
G01 X1722.237489 Y562.095769 Z-0.125000 F400.000000
G01 X1714.781790 Y558.367920 Z-0.125000
G00 Z5.000000

(End cutting path id: path7854)


(Start cutting path id: path7852)
(Change tool to Default tool)

G00 Z5.000000
G00 X1740.876736 Y573.279318

G01 Z-0.125000 F100.0(Penetrate)
G01 X1733.421037 Y569.551468 Z-0.125000 F400.000000
G01 X1729.693188 Y565.823619 Z-0.125000
G00 Z5.000000

(End cutting path id: path7852)


(Start cutting path id: path7850)
(Change tool to Default tool)

G00 Z5.000000
G00 X1740.876736 Y554.640070

G01 Z-0.125000 F100.0(Penetrate)
G01 X1744.604586 Y565.823619 Z-0.125000 F400.000000
G01 X1740.876736 Y573.279318 Z-0.125000
G00 Z5.000000

(End cutting path id: path7850)


(Start cutting path id: path7848)
(Change tool to Default tool)

G00 Z5.000000
G00 X1729.693188 Y550.912221

G01 Z-0.125000 F100.0(Penetrate)
G01 X1737.148887 Y550.912221 Z-0.125000 F400.000000
G01 X1740.876736 Y554.640070 Z-0.125000
G00 Z5.000000

(End cutting path id: path7848)


(Start cutting path id: path7846)
(Change tool to Default tool)

G00 Z5.000000
G00 X1711.053940 Y543.456522

G01 Z-0.125000 F100.0(Penetrate)
G01 X1722.237489 Y547.184371 Z-0.125000 F400.000000
G01 X1729.693188 Y550.912221 Z-0.125000
G00 Z5.000000

(End cutting path id: path7846)


(Start cutting path id: path7844)
(Change tool to Default tool)

G00 Z5.000000
G00 X1692.414693 Y532.272973

G01 Z-0.125000 F100.0(Penetrate)
G01 X1707.326091 Y536.000823 Z-0.125000 F400.000000
G01 X1711.053940 Y543.456522 Z-0.125000
G00 Z5.000000

(End cutting path id: path7844)


(Start cutting path id: path7842)
(Change tool to Default tool)

G00 Z5.000000
G00 X1692.414693 Y517.361575

G01 Z-0.125000 F100.0(Penetrate)
G01 X1707.326091 Y521.089425 Z-0.125000 F400.000000
G01 X1692.414693 Y532.272973 Z-0.125000
G00 Z5.000000

(End cutting path id: path7842)


(Start cutting path id: path7840)
(Change tool to Default tool)

G00 Z5.000000
G00 X1673.775445 Y498.722328

G01 Z-0.125000 F100.0(Penetrate)
G01 X1684.958994 Y506.178027 Z-0.125000 F400.000000
G01 X1692.414693 Y517.361575 Z-0.125000
G00 Z5.000000

(End cutting path id: path7840)


(Start cutting path id: path7838)
(Change tool to Default tool)

G00 Z5.000000
G00 X1666.319746 Y480.083080

G01 Z-0.125000 F100.0(Penetrate)
G01 X1658.864047 Y498.722328 Z-0.125000 F400.000000
G01 X1673.775445 Y498.722328 Z-0.125000
G00 Z5.000000

(End cutting path id: path7838)


(Start cutting path id: path7836)
(Change tool to Default tool)

G00 Z5.000000
G00 X1662.591897 Y450.260284

G01 Z-0.125000 F100.0(Penetrate)
G01 X1658.864047 Y465.171682 Z-0.125000 F400.000000
G01 X1666.319746 Y480.083080 Z-0.125000
G00 Z5.000000

(End cutting path id: path7836)


(Start cutting path id: path7834)
(Change tool to Default tool)

G00 Z5.000000
G00 X1643.952649 Y435.348886

G01 Z-0.125000 F100.0(Penetrate)
G01 X1651.408348 Y442.804585 Z-0.125000 F400.000000
G01 X1662.591897 Y450.260284 Z-0.125000
G00 Z5.000000

(End cutting path id: path7834)


(Start cutting path id: path7832)
(Change tool to Default tool)

G00 Z5.000000
G00 X1625.313402 Y416.709639

G01 Z-0.125000 F100.0(Penetrate)
G01 X1640.224800 Y420.437488 Z-0.125000 F400.000000
G01 X1643.952649 Y435.348886 Z-0.125000
G00 Z5.000000

(End cutting path id: path7832)


(Start cutting path id: path7830)
(Change tool to Default tool)

G00 Z5.000000
G00 X1625.313402 Y386.886843

G01 Z-0.125000 F100.0(Penetrate)
G01 X1625.313402 Y401.798241 Z-0.125000 F400.000000
G01 X1625.313402 Y416.709639 Z-0.125000
G00 Z5.000000

(End cutting path id: path7830)


(Start cutting path id: path7828)
(Change tool to Default tool)

G00 Z5.000000
G00 X1625.313402 Y364.519746

G01 Z-0.125000 F100.0(Penetrate)
G01 X1636.496950 Y371.975445 Z-0.125000 F400.000000
G01 X1625.313402 Y386.886843 Z-0.125000
G00 Z5.000000

(End cutting path id: path7828)


(Start cutting path id: path7826)
(Change tool to Default tool)

G00 Z5.000000
G00 X1610.402004 Y345.880498

G01 Z-0.125000 F100.0(Penetrate)
G01 X1614.129853 Y357.064047 Z-0.125000 F400.000000
G01 X1625.313402 Y364.519746 Z-0.125000
G00 Z5.000000

(End cutting path id: path7826)


(Start cutting path id: path7824)
(Change tool to Default tool)

G00 Z5.000000
G00 X1629.041251 Y319.785552

G01 Z-0.125000 F100.0(Penetrate)
G01 X1599.218455 Y330.969100 Z-0.125000 F400.000000
G01 X1610.402004 Y345.880498 Z-0.125000
G00 Z5.000000

(End cutting path id: path7824)


(Start cutting path id: path7822)
(Change tool to Default tool)

G00 Z5.000000
G00 X1636.496950 Y342.152649

G01 Z-0.125000 F100.0(Penetrate)
G01 X1632.769101 Y334.696950 Z-0.125000 F400.000000
G01 X1629.041251 Y319.785552 Z-0.125000
G00 Z5.000000

(End cutting path id: path7822)


(Start cutting path id: path7820)
(Change tool to Default tool)

G00 Z5.000000
G00 X1655.136198 Y360.791896

G01 Z-0.125000 F100.0(Penetrate)
G01 X1647.680499 Y349.608348 Z-0.125000 F400.000000
G01 X1636.496950 Y342.152649 Z-0.125000
G00 Z5.000000

(End cutting path id: path7820)


(Start cutting path id: path7818)
(Change tool to Default tool)

G00 Z5.000000
G00 X1673.775445 Y375.703294

G01 Z-0.125000 F100.0(Penetrate)
G01 X1658.864047 Y368.247595 Z-0.125000 F400.000000
G01 X1655.136198 Y360.791896 Z-0.125000
G00 Z5.000000

(End cutting path id: path7818)


(Start cutting path id: path7816)
(Change tool to Default tool)

G00 Z5.000000
G00 X1699.870392 Y386.886843

G01 Z-0.125000 F100.0(Penetrate)
G01 X1688.686843 Y379.431144 Z-0.125000 F400.000000
G01 X1673.775445 Y375.703294 Z-0.125000
G00 Z5.000000

(End cutting path id: path7816)


(Start cutting path id: path7814)
(Change tool to Default tool)

G00 Z5.000000
G00 X1711.053940 Y409.253940

G01 Z-0.125000 F100.0(Penetrate)
G01 X1703.598241 Y398.070391 Z-0.125000 F400.000000
G01 X1699.870392 Y386.886843 Z-0.125000
G00 Z5.000000

(End cutting path id: path7814)


(Start cutting path id: path7812)
(Change tool to Default tool)

G00 Z5.000000
G00 X1699.870392 Y424.165338

G01 Z-0.125000 F100.0(Penetrate)
G01 X1714.781790 Y424.165338 Z-0.125000 F400.000000
G01 X1711.053940 Y409.253940 Z-0.125000
G00 Z5.000000

(End cutting path id: path7812)


(Start cutting path id: path7810)
(Change tool to Default tool)

G00 Z5.000000
G00 X1677.503295 Y405.526090

G01 Z-0.125000 F100.0(Penetrate)
G01 X1692.414693 Y412.981789 Z-0.125000 F400.000000
G01 X1699.870392 Y424.165338 Z-0.125000
G00 Z5.000000

(End cutting path id: path7810)


(Start cutting path id: path7808)
(Change tool to Default tool)

G00 Z5.000000
G00 X1655.136198 Y386.886843

G01 Z-0.125000 F100.0(Penetrate)
G01 X1673.775445 Y390.614692 Z-0.125000 F400.000000
G01 X1677.503295 Y405.526090 Z-0.125000
G00 Z5.000000

(End cutting path id: path7808)


(Start cutting path id: path7806)
(Change tool to Default tool)

G00 Z5.000000
G00 X1643.952649 Y401.798241

G01 Z-0.125000 F100.0(Penetrate)
G01 X1640.224800 Y386.886843 Z-0.125000 F400.000000
G01 X1655.136198 Y386.886843 Z-0.125000
G00 Z5.000000

(End cutting path id: path7806)


(Start cutting path id: path7804)
(Change tool to Default tool)

G00 Z5.000000
G00 X1658.864047 Y416.709639

G01 Z-0.125000 F100.0(Penetrate)
G01 X1658.864047 Y401.798241 Z-0.125000 F400.000000
G01 X1643.952649 Y401.798241 Z-0.125000
G00 Z5.000000

(End cutting path id: path7804)


(Start cutting path id: path7802)
(Change tool to Default tool)

G00 Z5.000000
G00 X1681.231144 Y435.348886

G01 Z-0.125000 F100.0(Penetrate)
G01 X1670.047596 Y424.165338 Z-0.125000 F400.000000
G01 X1658.864047 Y416.709639 Z-0.125000
G00 Z5.000000

(End cutting path id: path7802)


(Start cutting path id: path7800)
(Change tool to Default tool)

G00 Z5.000000
G00 X1677.503295 Y465.171682

G01 Z-0.125000 F100.0(Penetrate)
G01 X1677.503295 Y453.988134 Z-0.125000 F400.000000
G01 X1681.231144 Y435.348886 Z-0.125000
G00 Z5.000000

(End cutting path id: path7800)


(Start cutting path id: path7798)
(Change tool to Default tool)

G00 Z5.000000
G00 X1692.414693 Y483.810930

G01 Z-0.125000 F100.0(Penetrate)
G01 X1684.958994 Y476.355231 Z-0.125000 F400.000000
G01 X1677.503295 Y465.171682 Z-0.125000
G00 Z5.000000

(End cutting path id: path7798)


(Start cutting path id: path7796)
(Change tool to Default tool)

G00 Z5.000000
G00 X1707.326091 Y506.178027

G01 Z-0.125000 F100.0(Penetrate)
G01 X1699.870392 Y494.994478 Z-0.125000 F400.000000
G01 X1692.414693 Y483.810930 Z-0.125000
G00 Z5.000000

(End cutting path id: path7796)


(Start cutting path id: path7794)
(Change tool to Default tool)

G00 Z5.000000
G00 X1725.965338 Y521.089425

G01 Z-0.125000 F100.0(Penetrate)
G01 X1722.237489 Y509.905876 Z-0.125000 F400.000000
G01 X1707.326091 Y506.178027 Z-0.125000
G00 Z5.000000

(End cutting path id: path7794)


(Start cutting path id: path7792)
(Change tool to Default tool)

G00 Z5.000000
G00 X1733.421037 Y536.000823

G01 Z-0.125000 F100.0(Penetrate)
G01 X1729.693188 Y532.272973 Z-0.125000 F400.000000
G01 X1725.965338 Y521.089425 Z-0.125000
G00 Z5.000000

(End cutting path id: path7792)


(Start cutting path id: path7790)
(Change tool to Default tool)

G00 Z5.000000
G00 X1740.876736 Y521.089425

G01 Z-0.125000 F100.0(Penetrate)
G01 X1740.876736 Y536.000823 Z-0.125000 F400.000000
G01 X1733.421037 Y536.000823 Z-0.125000
G00 Z5.000000

(End cutting path id: path7790)


(Start cutting path id: path7788)
(Change tool to Default tool)

G00 Z5.000000
G00 X1752.060285 Y532.272973

G01 Z-0.125000 F100.0(Penetrate)
G01 X1748.332435 Y524.817274 Z-0.125000 F400.000000
G01 X1740.876736 Y521.089425 Z-0.125000
G00 Z5.000000

(End cutting path id: path7788)


(Start cutting path id: path7786)
(Change tool to Default tool)

G00 Z5.000000
G00 X1752.060285 Y554.640070

G01 Z-0.125000 F100.0(Penetrate)
G01 X1748.332435 Y543.456522 Z-0.125000 F400.000000
G01 X1752.060285 Y532.272973 Z-0.125000
G00 Z5.000000

(End cutting path id: path7786)


(Start cutting path id: path7784)
(Change tool to Default tool)

G00 Z5.000000
G00 X1759.515984 Y543.456522

G01 Z-0.125000 F100.0(Penetrate)
G01 X1763.243833 Y550.912221 Z-0.125000 F400.000000
G01 X1752.060285 Y554.640070 Z-0.125000
G00 Z5.000000

(End cutting path id: path7784)


(Start cutting path id: path7782)
(Change tool to Default tool)

G00 Z5.000000
G00 X1770.699532 Y532.272973

G01 Z-0.125000 F100.0(Penetrate)
G01 X1759.515984 Y532.272973 Z-0.125000 F400.000000
G01 X1759.515984 Y543.456522 Z-0.125000
G00 Z5.000000

(End cutting path id: path7782)


(Start cutting path id: path7780)
(Change tool to Default tool)

G00 Z5.000000
G00 X1763.243833 Y521.089425

G01 Z-0.125000 F100.0(Penetrate)
G01 X1774.427382 Y521.089425 Z-0.125000 F400.000000
G01 X1770.699532 Y532.272973 Z-0.125000
G00 Z5.000000

(End cutting path id: path7780)


(Start cutting path id: path7778)
(Change tool to Default tool)

G00 Z5.000000
G00 X1752.060285 Y509.905876

G01 Z-0.125000 F100.0(Penetrate)
G01 X1755.788134 Y513.633726 Z-0.125000 F400.000000
G01 X1763.243833 Y521.089425 Z-0.125000
G00 Z5.000000

(End cutting path id: path7778)


(Start cutting path id: path7776)
(Change tool to Default tool)

G00 Z5.000000
G00 X1729.693188 Y498.722328

G01 Z-0.125000 F100.0(Penetrate)
G01 X1744.604586 Y502.450177 Z-0.125000 F400.000000
G01 X1752.060285 Y509.905876 Z-0.125000
G00 Z5.000000

(End cutting path id: path7776)


(Start cutting path id: path7774)
(Change tool to Default tool)

G00 Z5.000000
G00 X1707.326091 Y480.083080

G01 Z-0.125000 F100.0(Penetrate)
G01 X1718.509639 Y491.266629 Z-0.125000 F400.000000
G01 X1729.693188 Y498.722328 Z-0.125000
G00 Z5.000000

(End cutting path id: path7774)


(Start cutting path id: path7772)
(Change tool to Default tool)

G00 Z5.000000
G00 X1696.142542 Y461.443833

G01 Z-0.125000 F100.0(Penetrate)
G01 X1703.598241 Y468.899532 Z-0.125000 F400.000000
G01 X1707.326091 Y480.083080 Z-0.125000
G00 Z5.000000

(End cutting path id: path7772)


(Start cutting path id: path7770)
(Change tool to Default tool)

G00 Z5.000000
G00 X1711.053940 Y442.804585

G01 Z-0.125000 F100.0(Penetrate)
G01 X1699.870392 Y439.076736 Z-0.125000 F400.000000
G01 X1696.142542 Y461.443833 Z-0.125000
G00 Z5.000000

(End cutting path id: path7770)


(Start cutting path id: path7768)
(Change tool to Default tool)

G00 Z5.000000
G00 X1725.965338 Y457.715983

G01 Z-0.125000 F100.0(Penetrate)
G01 X1722.237489 Y446.532435 Z-0.125000 F400.000000
G01 X1711.053940 Y442.804585 Z-0.125000
G00 Z5.000000

(End cutting path id: path7768)


(Start cutting path id: path7766)
(Change tool to Default tool)

G00 Z5.000000
G00 X1737.148887 Y476.355231

G01 Z-0.125000 F100.0(Penetrate)
G01 X1725.965338 Y472.627381 Z-0.125000 F400.000000
G01 X1725.965338 Y457.715983 Z-0.125000
G00 Z5.000000

(End cutting path id: path7766)


(Start cutting path id: path7764)
(Change tool to Default tool)

G00 Z5.000000
G00 X1752.060285 Y491.266629

G01 Z-0.125000 F100.0(Penetrate)
G01 X1744.604586 Y483.810930 Z-0.125000 F400.000000
G01 X1737.148887 Y476.355231 Z-0.125000
G00 Z5.000000

(End cutting path id: path7764)


(Start cutting path id: path7762)
(Change tool to Default tool)

G00 Z5.000000
G00 X1766.971683 Y509.905876

G01 Z-0.125000 F100.0(Penetrate)
G01 X1763.243833 Y502.450177 Z-0.125000 F400.000000
G01 X1752.060285 Y491.266629 Z-0.125000
G00 Z5.000000

(End cutting path id: path7762)


(Start cutting path id: path7760)
(Change tool to Default tool)

G00 Z5.000000
G00 X1781.883081 Y513.633726

G01 Z-0.125000 F100.0(Penetrate)
G01 X1774.427382 Y509.905876 Z-0.125000 F400.000000
G01 X1766.971683 Y509.905876 Z-0.125000
G00 Z5.000000

(End cutting path id: path7760)


(Start cutting path id: path7758)
(Change tool to Default tool)

G00 Z5.000000
G00 X1778.155231 Y498.722328

G01 Z-0.125000 F100.0(Penetrate)
G01 X1789.338780 Y502.450177 Z-0.125000 F400.000000
G01 X1781.883081 Y513.633726 Z-0.125000
G00 Z5.000000

(End cutting path id: path7758)


(Start cutting path id: path7756)
(Change tool to Default tool)

G00 Z5.000000
G00 X1766.971683 Y483.810930

G01 Z-0.125000 F100.0(Penetrate)
G01 X1770.699532 Y491.266629 Z-0.125000 F400.000000
G01 X1778.155231 Y498.722328 Z-0.125000
G00 Z5.000000

(End cutting path id: path7756)


(Start cutting path id: path7754)
(Change tool to Default tool)

G00 Z5.000000
G00 X1752.060285 Y465.171682

G01 Z-0.125000 F100.0(Penetrate)
G01 X1755.788134 Y472.627381 Z-0.125000 F400.000000
G01 X1766.971683 Y483.810930 Z-0.125000
G00 Z5.000000

(End cutting path id: path7754)


(Start cutting path id: path7752)
(Change tool to Default tool)

G00 Z5.000000
G00 X1740.876736 Y450.260284

G01 Z-0.125000 F100.0(Penetrate)
G01 X1740.876736 Y461.443833 Z-0.125000 F400.000000
G01 X1752.060285 Y465.171682 Z-0.125000
G00 Z5.000000

(End cutting path id: path7752)


(Start cutting path id: path7750)
(Change tool to Default tool)

G00 Z5.000000
G00 X1725.965338 Y431.621037

G01 Z-0.125000 F100.0(Penetrate)
G01 X1737.148887 Y439.076736 Z-0.125000 F400.000000
G01 X1740.876736 Y450.260284 Z-0.125000
G00 Z5.000000

(End cutting path id: path7750)


(Start cutting path id: path7748)
(Change tool to Default tool)

G00 Z5.000000
G00 X1737.148887 Y405.526090

G01 Z-0.125000 F100.0(Penetrate)
G01 X1733.421037 Y416.709639 Z-0.125000 F400.000000
G01 X1725.965338 Y431.621037 Z-0.125000
G00 Z5.000000

(End cutting path id: path7748)


(Start cutting path id: path7746)
(Change tool to Default tool)

G00 Z5.000000
G00 X1729.693188 Y390.614692

G01 Z-0.125000 F100.0(Penetrate)
G01 X1725.965338 Y401.798241 Z-0.125000 F400.000000
G01 X1737.148887 Y405.526090 Z-0.125000
G00 Z5.000000

(End cutting path id: path7746)


(Start cutting path id: path7744)
(Change tool to Default tool)

G00 Z5.000000
G00 X1718.509639 Y371.975445

G01 Z-0.125000 F100.0(Penetrate)
G01 X1718.509639 Y386.886843 Z-0.125000 F400.000000
G01 X1729.693188 Y390.614692 Z-0.125000
G00 Z5.000000

(End cutting path id: path7744)


(Start cutting path id: path7742)
(Change tool to Default tool)

G00 Z5.000000
G00 X1696.142542 Y349.608348

G01 Z-0.125000 F100.0(Penetrate)
G01 X1703.598241 Y364.519746 Z-0.125000 F400.000000
G01 X1718.509639 Y371.975445 Z-0.125000
G00 Z5.000000

(End cutting path id: path7742)


(Start cutting path id: path7740)
(Change tool to Default tool)

G00 Z5.000000
G00 X1677.503295 Y357.064047

G01 Z-0.125000 F100.0(Penetrate)
G01 X1688.686843 Y364.519746 Z-0.125000 F400.000000
G01 X1696.142542 Y349.608348 Z-0.125000
G00 Z5.000000

(End cutting path id: path7740)


(Start cutting path id: path7738)
(Change tool to Default tool)

G00 Z5.000000
G00 X1662.591897 Y334.696950

G01 Z-0.125000 F100.0(Penetrate)
G01 X1670.047596 Y345.880498 Z-0.125000 F400.000000
G01 X1677.503295 Y357.064047 Z-0.125000
G00 Z5.000000

(End cutting path id: path7738)


(Start cutting path id: path7736)
(Change tool to Default tool)

G00 Z5.000000
G00 X1666.319746 Y301.146304

G01 Z-0.125000 F100.0(Penetrate)
G01 X1658.864047 Y319.785552 Z-0.125000 F400.000000
G01 X1662.591897 Y334.696950 Z-0.125000
G00 Z5.000000

(End cutting path id: path7736)


(Start cutting path id: path7734)
(Change tool to Default tool)

G00 Z5.000000
G00 X1681.231144 Y323.513401

G01 Z-0.125000 F100.0(Penetrate)
G01 X1677.503295 Y312.329853 Z-0.125000 F400.000000
G01 X1666.319746 Y301.146304 Z-0.125000
G00 Z5.000000

(End cutting path id: path7734)


(Start cutting path id: path7732)
(Change tool to Default tool)

G00 Z5.000000
G00 X1699.870392 Y323.513401

G01 Z-0.125000 F100.0(Penetrate)
G01 X1688.686843 Y338.424799 Z-0.125000 F400.000000
G01 X1681.231144 Y323.513401 Z-0.125000
G00 Z5.000000

(End cutting path id: path7732)


(Start cutting path id: path7730)
(Change tool to Default tool)

G00 Z5.000000
G00 X1711.053940 Y342.152649

G01 Z-0.125000 F100.0(Penetrate)
G01 X1714.781790 Y327.241251 Z-0.125000 F400.000000
G01 X1699.870392 Y323.513401 Z-0.125000
G00 Z5.000000

(End cutting path id: path7730)


(Start cutting path id: path7728)
(Change tool to Default tool)

G00 Z5.000000
G00 X1733.421037 Y353.336197

G01 Z-0.125000 F100.0(Penetrate)
G01 X1718.509639 Y353.336197 Z-0.125000 F400.000000
G01 X1711.053940 Y342.152649 Z-0.125000
G00 Z5.000000

(End cutting path id: path7728)


(Start cutting path id: path7726)
(Change tool to Default tool)

G00 Z5.000000
G00 X1744.604586 Y386.886843

G01 Z-0.125000 F100.0(Penetrate)
G01 X1740.876736 Y371.975445 Z-0.125000 F400.000000
G01 X1733.421037 Y353.336197 Z-0.125000
G00 Z5.000000

(End cutting path id: path7726)


(Start cutting path id: path7724)
(Change tool to Default tool)

G00 Z5.000000
G00 X1766.971683 Y401.798241

G01 Z-0.125000 F100.0(Penetrate)
G01 X1755.788134 Y390.614692 Z-0.125000 F400.000000
G01 X1744.604586 Y386.886843 Z-0.125000
G00 Z5.000000

(End cutting path id: path7724)


(Start cutting path id: path7722)
(Change tool to Default tool)

G00 Z5.000000
G00 X1752.060285 Y405.526090

G01 Z-0.125000 F100.0(Penetrate)
G01 X1766.971683 Y412.981789 Z-0.125000 F400.000000
G01 X1766.971683 Y401.798241 Z-0.125000
G00 Z5.000000

(End cutting path id: path7722)


(Start cutting path id: path7720)
(Change tool to Default tool)

G00 Z5.000000
G00 X1755.788134 Y431.621037

G01 Z-0.125000 F100.0(Penetrate)
G01 X1748.332435 Y420.437488 Z-0.125000 F400.000000
G01 X1752.060285 Y405.526090 Z-0.125000
G00 Z5.000000

(End cutting path id: path7720)


(Start cutting path id: path7718)
(Change tool to Default tool)

G00 Z5.000000
G00 X1763.243833 Y446.532435

G01 Z-0.125000 F100.0(Penetrate)
G01 X1766.971683 Y435.348886 Z-0.125000 F400.000000
G01 X1755.788134 Y431.621037 Z-0.125000
G00 Z5.000000

(End cutting path id: path7718)


(Start cutting path id: path7716)
(Change tool to Default tool)

G00 Z5.000000
G00 X1774.427382 Y465.171682

G01 Z-0.125000 F100.0(Penetrate)
G01 X1774.427382 Y450.260284 Z-0.125000 F400.000000
G01 X1763.243833 Y446.532435 Z-0.125000
G00 Z5.000000

(End cutting path id: path7716)


(Start cutting path id: path7714)
(Change tool to Default tool)

G00 Z5.000000
G00 X1789.338780 Y480.083080

G01 Z-0.125000 F100.0(Penetrate)
G01 X1785.610930 Y468.899532 Z-0.125000 F400.000000
G01 X1774.427382 Y465.171682 Z-0.125000
G00 Z5.000000

(End cutting path id: path7714)


(Start cutting path id: path7712)
(Change tool to Default tool)

G00 Z5.000000
G00 X1789.338780 Y491.266629

G01 Z-0.125000 F100.0(Penetrate)
G01 X1781.883081 Y487.538779 Z-0.125000 F400.000000
G01 X1789.338780 Y480.083080 Z-0.125000
G00 Z5.000000

(End cutting path id: path7712)


(Start cutting path id: path7710)
(Change tool to Default tool)

G00 Z5.000000
G00 X1804.250178 Y494.994478

G01 Z-0.125000 F100.0(Penetrate)
G01 X1796.794479 Y491.266629 Z-0.125000 F400.000000
G01 X1789.338780 Y491.266629 Z-0.125000
G00 Z5.000000

(End cutting path id: path7710)


(Start cutting path id: path7708)
(Change tool to Default tool)

G00 Z5.000000
G00 X1815.433726 Y521.089425

G01 Z-0.125000 F100.0(Penetrate)
G01 X1800.522328 Y502.450177 Z-0.125000 F400.000000
G01 X1804.250178 Y494.994478 Z-0.125000
G00 Z5.000000

(End cutting path id: path7708)


(Start cutting path id: path7706)
(Change tool to Default tool)

G00 Z5.000000
G00 X1837.800823 Y539.728672

G01 Z-0.125000 F100.0(Penetrate)
G01 X1834.072974 Y528.545124 Z-0.125000 F400.000000
G01 X1815.433726 Y521.089425 Z-0.125000
G00 Z5.000000

(End cutting path id: path7706)


(Start cutting path id: path7704)
(Change tool to Default tool)

G00 Z5.000000
G00 X1863.895770 Y562.095769

G01 Z-0.125000 F100.0(Penetrate)
G01 X1848.984372 Y554.640070 Z-0.125000 F400.000000
G01 X1837.800823 Y539.728672 Z-0.125000
G00 Z5.000000

(End cutting path id: path7704)


(Start cutting path id: path7702)
(Change tool to Default tool)

G00 Z5.000000
G00 X1841.528673 Y584.462866

G01 Z-0.125000 F100.0(Penetrate)
G01 X1852.712221 Y580.735017 Z-0.125000 F400.000000
G01 X1863.895770 Y562.095769 Z-0.125000
G00 Z5.000000

(End cutting path id: path7702)


(Start cutting path id: path7700)
(Change tool to Default tool)

G00 Z5.000000
G00 X1852.712221 Y595.646414

G01 Z-0.125000 F100.0(Penetrate)
G01 X1845.256522 Y591.918565 Z-0.125000 F400.000000
G01 X1841.528673 Y584.462866 Z-0.125000
G00 Z5.000000

(End cutting path id: path7700)


(Start cutting path id: path7698)
(Change tool to Default tool)

G00 Z5.000000
G00 X1860.167920 Y606.829963

G01 Z-0.125000 F100.0(Penetrate)
G01 X1848.984372 Y606.829963 Z-0.125000 F400.000000
G01 X1852.712221 Y595.646414 Z-0.125000
G00 Z5.000000

(End cutting path id: path7698)


(Start cutting path id: path7696)
(Change tool to Default tool)

G00 Z5.000000
G00 X1875.079318 Y614.285662

G01 Z-0.125000 F100.0(Penetrate)
G01 X1867.623619 Y610.557813 Z-0.125000 F400.000000
G01 X1860.167920 Y606.829963 Z-0.125000
G00 Z5.000000

(End cutting path id: path7696)


(Start cutting path id: path7694)
(Change tool to Default tool)

G00 Z5.000000
G00 X1893.718566 Y614.285662

G01 Z-0.125000 F100.0(Penetrate)
G01 X1886.262867 Y614.285662 Z-0.125000 F400.000000
G01 X1875.079318 Y614.285662 Z-0.125000
G00 Z5.000000

(End cutting path id: path7694)


(Start cutting path id: path7692)
(Change tool to Default tool)

G00 Z5.000000
G00 X1912.357813 Y618.013512

G01 Z-0.125000 F100.0(Penetrate)
G01 X1901.174265 Y618.013512 Z-0.125000 F400.000000
G01 X1893.718566 Y614.285662 Z-0.125000
G00 Z5.000000

(End cutting path id: path7692)


(Start cutting path id: path7690)
(Change tool to Default tool)

G00 Z5.000000
G00 X1904.902114 Y625.469211

G01 Z-0.125000 F100.0(Penetrate)
G01 X1916.085663 Y629.197060 Z-0.125000 F400.000000
G01 X1912.357813 Y618.013512 Z-0.125000
G00 Z5.000000

(End cutting path id: path7690)


(Start cutting path id: path7688)
(Change tool to Default tool)

G00 Z5.000000
G00 X1882.535017 Y625.469211

G01 Z-0.125000 F100.0(Penetrate)
G01 X1893.718566 Y625.469211 Z-0.125000 F400.000000
G01 X1904.902114 Y625.469211 Z-0.125000
G00 Z5.000000

(End cutting path id: path7688)


(Start cutting path id: path7686)
(Change tool to Default tool)

G00 Z5.000000
G00 X1863.895770 Y621.741361

G01 Z-0.125000 F100.0(Penetrate)
G01 X1871.351469 Y625.469211 Z-0.125000 F400.000000
G01 X1882.535017 Y625.469211 Z-0.125000
G00 Z5.000000

(End cutting path id: path7686)


(Start cutting path id: path7684)
(Change tool to Default tool)

G00 Z5.000000
G00 X1848.984372 Y618.013512

G01 Z-0.125000 F100.0(Penetrate)
G01 X1856.440071 Y618.013512 Z-0.125000 F400.000000
G01 X1863.895770 Y621.741361 Z-0.125000
G00 Z5.000000

(End cutting path id: path7684)


(Start cutting path id: path7682)
(Change tool to Default tool)

G00 Z5.000000
G00 X1841.528673 Y606.829963

G01 Z-0.125000 F100.0(Penetrate)
G01 X1837.800823 Y618.013512 Z-0.125000 F400.000000
G01 X1848.984372 Y618.013512 Z-0.125000
G00 Z5.000000

(End cutting path id: path7682)


(Start cutting path id: path7680)
(Change tool to Default tool)

G00 Z5.000000
G00 X1830.345124 Y599.374264

G01 Z-0.125000 F100.0(Penetrate)
G01 X1834.072974 Y606.829963 Z-0.125000 F400.000000
G01 X1841.528673 Y606.829963 Z-0.125000
G00 Z5.000000

(End cutting path id: path7680)


(Start cutting path id: path7678)
(Change tool to Default tool)

G00 Z5.000000
G00 X1822.889425 Y610.557813

G01 Z-0.125000 F100.0(Penetrate)
G01 X1819.161576 Y603.102114 Z-0.125000 F400.000000
G01 X1830.345124 Y599.374264 Z-0.125000
G00 Z5.000000

(End cutting path id: path7678)


(Start cutting path id: path7676)
(Change tool to Default tool)

G00 Z5.000000
G00 X1834.072974 Y636.652759

G01 Z-0.125000 F100.0(Penetrate)
G01 X1819.161576 Y625.469211 Z-0.125000 F400.000000
G01 X1822.889425 Y610.557813 Z-0.125000
G00 Z5.000000

(End cutting path id: path7676)


(Start cutting path id: path7674)
(Change tool to Default tool)

G00 Z5.000000
G00 X1837.800823 Y659.019856

G01 Z-0.125000 F100.0(Penetrate)
G01 X1852.712221 Y640.380609 Z-0.125000 F400.000000
G01 X1834.072974 Y636.652759 Z-0.125000
G00 Z5.000000

(End cutting path id: path7674)


(Start cutting path id: path7672)
(Change tool to Default tool)

G00 Z5.000000
G00 X1860.167920 Y685.114802

G01 Z-0.125000 F100.0(Penetrate)
G01 X1856.440071 Y666.475555 Z-0.125000 F400.000000
G01 X1837.800823 Y659.019856 Z-0.125000
G00 Z5.000000

(End cutting path id: path7672)


(Start cutting path id: path7670)
(Change tool to Default tool)

G00 Z5.000000
G00 X1878.807168 Y714.937599

G01 Z-0.125000 F100.0(Penetrate)
G01 X1875.079318 Y696.298351 Z-0.125000 F400.000000
G01 X1860.167920 Y685.114802 Z-0.125000
G00 Z5.000000

(End cutting path id: path7670)


(Start cutting path id: path7668)
(Change tool to Default tool)

G00 Z5.000000
G00 X1908.629964 Y718.665448

G01 Z-0.125000 F100.0(Penetrate)
G01 X1886.262867 Y729.848997 Z-0.125000 F400.000000
G01 X1878.807168 Y714.937599 Z-0.125000
G00 Z5.000000

(End cutting path id: path7668)


(Start cutting path id: path7666)
(Change tool to Default tool)

G00 Z5.000000
G00 X1927.269211 Y744.760395

G01 Z-0.125000 F100.0(Penetrate)
G01 X1919.813512 Y729.848997 Z-0.125000 F400.000000
G01 X1908.629964 Y718.665448 Z-0.125000
G00 Z5.000000

(End cutting path id: path7666)


(Start cutting path id: path7664)
(Change tool to Default tool)

G00 Z5.000000
G00 X1942.180609 Y763.399642

G01 Z-0.125000 F100.0(Penetrate)
G01 X1938.452760 Y755.943943 Z-0.125000 F400.000000
G01 X1927.269211 Y744.760395 Z-0.125000
G00 Z5.000000

(End cutting path id: path7664)


(Start cutting path id: path7662)
(Change tool to Default tool)

G00 Z5.000000
G00 X1949.636308 Y778.311040

G01 Z-0.125000 F100.0(Penetrate)
G01 X1945.908459 Y770.855341 Z-0.125000 F400.000000
G01 X1942.180609 Y763.399642 Z-0.125000
G00 Z5.000000

(End cutting path id: path7662)


(Start cutting path id: path7660)
(Change tool to Default tool)

G00 Z5.000000
G00 X1964.547706 Y785.766739

G01 Z-0.125000 F100.0(Penetrate)
G01 X1957.092007 Y782.038890 Z-0.125000 F400.000000
G01 X1949.636308 Y778.311040 Z-0.125000
G00 Z5.000000

(End cutting path id: path7660)


(Start cutting path id: path7658)
(Change tool to Default tool)

G00 Z5.000000
G00 X1975.731255 Y782.038890

G01 Z-0.125000 F100.0(Penetrate)
G01 X1979.459104 Y793.222438 Z-0.125000 F400.000000
G01 X1964.547706 Y785.766739 Z-0.125000
G00 Z5.000000

(End cutting path id: path7658)


(Start cutting path id: path7656)
(Change tool to Default tool)

G00 Z5.000000
G00 X1964.547706 Y770.855341

G01 Z-0.125000 F100.0(Penetrate)
G01 X1972.003405 Y774.583191 Z-0.125000 F400.000000
G01 X1975.731255 Y782.038890 Z-0.125000
G00 Z5.000000

(End cutting path id: path7656)


(Start cutting path id: path7654)
(Change tool to Default tool)

G00 Z5.000000
G00 X1957.092007 Y759.671793

G01 Z-0.125000 F100.0(Penetrate)
G01 X1957.092007 Y770.855341 Z-0.125000 F400.000000
G01 X1964.547706 Y770.855341 Z-0.125000
G00 Z5.000000

(End cutting path id: path7654)


(Start cutting path id: path7652)
(Change tool to Default tool)

G00 Z5.000000
G00 X1949.636308 Y733.576846

G01 Z-0.125000 F100.0(Penetrate)
G01 X1949.636308 Y752.216094 Z-0.125000 F400.000000
G01 X1957.092007 Y759.671793 Z-0.125000
G00 Z5.000000

(End cutting path id: path7652)


(Start cutting path id: path7650)
(Change tool to Default tool)

G00 Z5.000000
G00 X1934.724910 Y711.209749

G01 Z-0.125000 F100.0(Penetrate)
G01 X1942.180609 Y726.121147 Z-0.125000 F400.000000
G01 X1949.636308 Y733.576846 Z-0.125000
G00 Z5.000000

(End cutting path id: path7650)


(Start cutting path id: path7648)
(Change tool to Default tool)

G00 Z5.000000
G00 X1901.174265 Y703.754050

G01 Z-0.125000 F100.0(Penetrate)
G01 X1923.541362 Y696.298351 Z-0.125000 F400.000000
G01 X1934.724910 Y711.209749 Z-0.125000
G00 Z5.000000

(End cutting path id: path7648)


(Start cutting path id: path7646)
(Change tool to Default tool)

G00 Z5.000000
G00 X1886.262867 Y677.659104

G01 Z-0.125000 F100.0(Penetrate)
G01 X1897.446415 Y688.842652 Z-0.125000 F400.000000
G01 X1901.174265 Y703.754050 Z-0.125000
G00 Z5.000000

(End cutting path id: path7646)


(Start cutting path id: path7644)
(Change tool to Default tool)

G00 Z5.000000
G00 X1871.351469 Y644.108458

G01 Z-0.125000 F100.0(Penetrate)
G01 X1878.807168 Y662.747706 Z-0.125000 F400.000000
G01 X1886.262867 Y677.659104 Z-0.125000
G00 Z5.000000

(End cutting path id: path7644)


(Start cutting path id: path7642)
(Change tool to Default tool)

G00 Z5.000000
G00 X1904.902114 Y655.292007

G01 Z-0.125000 F100.0(Penetrate)
G01 X1893.718566 Y644.108458 Z-0.125000 F400.000000
G01 X1871.351469 Y644.108458 Z-0.125000
G00 Z5.000000

(End cutting path id: path7642)


(Start cutting path id: path7640)
(Change tool to Default tool)

G00 Z5.000000
G00 X1923.541362 Y677.659104

G01 Z-0.125000 F100.0(Penetrate)
G01 X1912.357813 Y666.475555 Z-0.125000 F400.000000
G01 X1904.902114 Y655.292007 Z-0.125000
G00 Z5.000000

(End cutting path id: path7640)


(Start cutting path id: path7638)
(Change tool to Default tool)

G00 Z5.000000
G00 X1942.180609 Y692.570502

G01 Z-0.125000 F100.0(Penetrate)
G01 X1942.180609 Y673.931254 Z-0.125000 F400.000000
G01 X1923.541362 Y677.659104 Z-0.125000
G00 Z5.000000

(End cutting path id: path7638)


(Start cutting path id: path7636)
(Change tool to Default tool)

G00 Z5.000000
G00 X1968.275556 Y711.209749

G01 Z-0.125000 F100.0(Penetrate)
G01 X1957.092007 Y703.754050 Z-0.125000 F400.000000
G01 X1942.180609 Y692.570502 Z-0.125000
G00 Z5.000000

(End cutting path id: path7636)


(Start cutting path id: path7634)
(Change tool to Default tool)

G00 Z5.000000
G00 X1986.914803 Y733.576846

G01 Z-0.125000 F100.0(Penetrate)
G01 X1972.003405 Y726.121147 Z-0.125000 F400.000000
G01 X1968.275556 Y711.209749 Z-0.125000
G00 Z5.000000

(End cutting path id: path7634)


(Start cutting path id: path7632)
(Change tool to Default tool)

G00 Z5.000000
G00 X2001.826201 Y748.488244

G01 Z-0.125000 F100.0(Penetrate)
G01 X1994.370502 Y741.032545 Z-0.125000 F400.000000
G01 X1986.914803 Y733.576846 Z-0.125000
G00 Z5.000000

(End cutting path id: path7632)


(Start cutting path id: path7630)
(Change tool to Default tool)

G00 Z5.000000
G00 X2009.281900 Y763.399642

G01 Z-0.125000 F100.0(Penetrate)
G01 X2013.009750 Y752.216094 Z-0.125000 F400.000000
G01 X2001.826201 Y748.488244 Z-0.125000
G00 Z5.000000

(End cutting path id: path7630)


(Start cutting path id: path7628)
(Change tool to Default tool)

G00 Z5.000000
G00 X1994.370502 Y759.671793

G01 Z-0.125000 F100.0(Penetrate)
G01 X2001.826201 Y763.399642 Z-0.125000 F400.000000
G01 X2009.281900 Y763.399642 Z-0.125000
G00 Z5.000000

(End cutting path id: path7628)


(Start cutting path id: path7626)
(Change tool to Default tool)

G00 Z5.000000
G00 X1979.459104 Y752.216094

G01 Z-0.125000 F100.0(Penetrate)
G01 X1990.642653 Y752.216094 Z-0.125000 F400.000000
G01 X1994.370502 Y759.671793 Z-0.125000
G00 Z5.000000

(End cutting path id: path7626)


(Start cutting path id: path7624)
(Change tool to Default tool)

G00 Z5.000000
G00 X1975.731255 Y741.032545

G01 Z-0.125000 F100.0(Penetrate)
G01 X1983.186954 Y744.760395 Z-0.125000 F400.000000
G01 X1979.459104 Y752.216094 Z-0.125000
G00 Z5.000000

(End cutting path id: path7624)


(Start cutting path id: path7622)
(Change tool to Default tool)

G00 Z5.000000
G00 X1960.819857 Y748.488244

G01 Z-0.125000 F100.0(Penetrate)
G01 X1968.275556 Y748.488244 Z-0.125000 F400.000000
G01 X1975.731255 Y741.032545 Z-0.125000
G00 Z5.000000

(End cutting path id: path7622)


(Start cutting path id: path7620)
(Change tool to Default tool)

G00 Z5.000000
G00 X1975.731255 Y763.399642

G01 Z-0.125000 F100.0(Penetrate)
G01 X1968.275556 Y759.671793 Z-0.125000 F400.000000
G01 X1960.819857 Y748.488244 Z-0.125000
G00 Z5.000000

(End cutting path id: path7620)


(Start cutting path id: path7618)
(Change tool to Default tool)

G00 Z5.000000
G00 X1986.914803 Y778.311040

G01 Z-0.125000 F100.0(Penetrate)
G01 X1983.186954 Y767.127492 Z-0.125000 F400.000000
G01 X1975.731255 Y763.399642 Z-0.125000
G00 Z5.000000

(End cutting path id: path7618)


(Start cutting path id: path7616)
(Change tool to Default tool)

G00 Z5.000000
G00 X1998.098352 Y774.583191

G01 Z-0.125000 F100.0(Penetrate)
G01 X1990.642653 Y770.855341 Z-0.125000 F400.000000
G01 X1986.914803 Y778.311040 Z-0.125000
G00 Z5.000000

(End cutting path id: path7616)


(Start cutting path id: path7614)
(Change tool to Default tool)

G00 Z5.000000
G00 X2035.376847 Y774.583191

G01 Z-0.125000 F100.0(Penetrate)
G01 X2005.554051 Y793.222438 Z-0.125000 F400.000000
G01 X1998.098352 Y774.583191 Z-0.125000
G00 Z5.000000

(End cutting path id: path7614)


(Start cutting path id: path7612)
(Change tool to Default tool)

G00 Z5.000000
G00 X2054.016094 Y804.405987

G01 Z-0.125000 F100.0(Penetrate)
G01 X2035.376847 Y793.222438 Z-0.125000 F400.000000
G01 X2035.376847 Y774.583191 Z-0.125000
G00 Z5.000000

(End cutting path id: path7612)


(Start cutting path id: path7610)
(Change tool to Default tool)

G00 Z5.000000
G00 X2091.294589 Y826.773084

G01 Z-0.125000 F100.0(Penetrate)
G01 X2061.471793 Y823.045234 Z-0.125000 F400.000000
G01 X2054.016094 Y804.405987 Z-0.125000
G00 Z5.000000

(End cutting path id: path7610)


(Start cutting path id: path7608)
(Change tool to Default tool)

G00 Z5.000000
G00 X2124.845235 Y845.412331

G01 Z-0.125000 F100.0(Penetrate)
G01 X2117.389536 Y830.500933 Z-0.125000 F400.000000
G01 X2091.294589 Y826.773084 Z-0.125000
G00 Z5.000000

(End cutting path id: path7608)


(Start cutting path id: path7606)
(Change tool to Default tool)

G00 Z5.000000
G00 X2132.300934 Y886.418676

G01 Z-0.125000 F100.0(Penetrate)
G01 X2136.028783 Y864.051579 Z-0.125000 F400.000000
G01 X2124.845235 Y845.412331 Z-0.125000
G00 Z5.000000

(End cutting path id: path7606)


(Start cutting path id: path7604)
(Change tool to Default tool)

G00 Z5.000000
G00 X2106.205987 Y912.513622

G01 Z-0.125000 F100.0(Penetrate)
G01 X2128.573084 Y908.785773 Z-0.125000 F400.000000
G01 X2132.300934 Y886.418676 Z-0.125000
G00 Z5.000000

(End cutting path id: path7604)


(Start cutting path id: path7602)
(Change tool to Default tool)

G00 Z5.000000
G00 X2098.750288 Y923.697171

G01 Z-0.125000 F100.0(Penetrate)
G01 X2106.205987 Y927.425020 Z-0.125000 F400.000000
G01 X2106.205987 Y912.513622 Z-0.125000
G00 Z5.000000

(End cutting path id: path7602)


(Start cutting path id: path7600)
(Change tool to Default tool)

G00 Z5.000000
G00 X2080.111041 Y912.513622

G01 Z-0.125000 F100.0(Penetrate)
G01 X2091.294589 Y916.241472 Z-0.125000 F400.000000
G01 X2098.750288 Y923.697171 Z-0.125000
G00 Z5.000000

(End cutting path id: path7600)


(Start cutting path id: path7598)
(Change tool to Default tool)

G00 Z5.000000
G00 X2061.471793 Y905.057923

G01 Z-0.125000 F100.0(Penetrate)
G01 X2072.655342 Y905.057923 Z-0.125000 F400.000000
G01 X2080.111041 Y912.513622 Z-0.125000
G00 Z5.000000

(End cutting path id: path7598)


(Start cutting path id: path7596)
(Change tool to Default tool)

G00 Z5.000000
G00 X2042.832546 Y893.874375

G01 Z-0.125000 F100.0(Penetrate)
G01 X2057.743944 Y893.874375 Z-0.125000 F400.000000
G01 X2061.471793 Y905.057923 Z-0.125000
G00 Z5.000000

(End cutting path id: path7596)


(Start cutting path id: path7594)
(Change tool to Default tool)

G00 Z5.000000
G00 X2057.743944 Y878.962977

G01 Z-0.125000 F100.0(Penetrate)
G01 X2042.832546 Y878.962977 Z-0.125000 F400.000000
G01 X2042.832546 Y893.874375 Z-0.125000
G00 Z5.000000

(End cutting path id: path7594)


(Start cutting path id: path7592)
(Change tool to Default tool)

G00 Z5.000000
G00 X2080.111041 Y890.146525

G01 Z-0.125000 F100.0(Penetrate)
G01 X2068.927492 Y890.146525 Z-0.125000 F400.000000
G01 X2057.743944 Y878.962977 Z-0.125000
G00 Z5.000000

(End cutting path id: path7592)


(Start cutting path id: path7590)
(Change tool to Default tool)

G00 Z5.000000
G00 X2091.294589 Y897.602224

G01 Z-0.125000 F100.0(Penetrate)
G01 X2087.566740 Y893.874375 Z-0.125000 F400.000000
G01 X2080.111041 Y890.146525 Z-0.125000
G00 Z5.000000

(End cutting path id: path7590)


(Start cutting path id: path7588)
(Change tool to Default tool)

G00 Z5.000000
G00 X2106.205987 Y890.146525

G01 Z-0.125000 F100.0(Penetrate)
G01 X2098.750288 Y905.057923 Z-0.125000 F400.000000
G01 X2091.294589 Y897.602224 Z-0.125000
G00 Z5.000000

(End cutting path id: path7588)


(Start cutting path id: path7586)
(Change tool to Default tool)

G00 Z5.000000
G00 X2091.294589 Y875.235127

G01 Z-0.125000 F100.0(Penetrate)
G01 X2098.750288 Y878.962977 Z-0.125000 F400.000000
G01 X2106.205987 Y890.146525 Z-0.125000
G00 Z5.000000

(End cutting path id: path7586)


(Start cutting path id: path7584)
(Change tool to Default tool)

G00 Z5.000000
G00 X2080.111041 Y878.962977

G01 Z-0.125000 F100.0(Penetrate)
G01 X2083.838891 Y864.051579 Z-0.125000 F400.000000
G01 X2091.294589 Y875.235127 Z-0.125000
G00 Z5.000000

(End cutting path id: path7584)


(Start cutting path id: path7582)
(Change tool to Default tool)

G00 Z5.000000
G00 X2068.927492 Y864.051579

G01 Z-0.125000 F100.0(Penetrate)
G01 X2072.655342 Y875.235127 Z-0.125000 F400.000000
G01 X2080.111041 Y878.962977 Z-0.125000
G00 Z5.000000

(End cutting path id: path7582)


(Start cutting path id: path7580)
(Change tool to Default tool)

G00 Z5.000000
G00 X2050.288245 Y867.779428

G01 Z-0.125000 F100.0(Penetrate)
G01 X2065.199643 Y860.323729 Z-0.125000 F400.000000
G01 X2068.927492 Y864.051579 Z-0.125000
G00 Z5.000000

(End cutting path id: path7580)


(Start cutting path id: path7578)
(Change tool to Default tool)

G00 Z5.000000
G00 X2027.921148 Y830.500933

G01 Z-0.125000 F100.0(Penetrate)
G01 X2042.832546 Y852.868030 Z-0.125000 F400.000000
G01 X2050.288245 Y867.779428 Z-0.125000
G00 Z5.000000

(End cutting path id: path7578)


(Start cutting path id: path7576)
(Change tool to Default tool)

G00 Z5.000000
G00 X1979.459104 Y823.045234

G01 Z-0.125000 F100.0(Penetrate)
G01 X2005.554051 Y819.317385 Z-0.125000 F400.000000
G01 X2027.921148 Y830.500933 Z-0.125000
G00 Z5.000000

(End cutting path id: path7576)


(Start cutting path id: path7574)
(Change tool to Default tool)

G00 Z5.000000
G00 X1930.997061 Y804.405987

G01 Z-0.125000 F100.0(Penetrate)
G01 X1960.819857 Y819.317385 Z-0.125000 F400.000000
G01 X1979.459104 Y823.045234 Z-0.125000
G00 Z5.000000

(End cutting path id: path7574)


(Start cutting path id: path7572)
(Change tool to Default tool)

G00 Z5.000000
G00 X1930.997061 Y845.412331

G01 Z-0.125000 F100.0(Penetrate)
G01 X1930.997061 Y823.045234 Z-0.125000 F400.000000
G01 X1930.997061 Y804.405987 Z-0.125000
G00 Z5.000000

(End cutting path id: path7572)


(Start cutting path id: path7570)
(Change tool to Default tool)

G00 Z5.000000
G00 X1964.547706 Y864.051579

G01 Z-0.125000 F100.0(Penetrate)
G01 X1960.819857 Y849.140181 Z-0.125000 F400.000000
G01 X1930.997061 Y845.412331 Z-0.125000
G00 Z5.000000

(End cutting path id: path7570)


(Start cutting path id: path7568)
(Change tool to Default tool)

G00 Z5.000000
G00 X1998.098352 Y845.412331

G01 Z-0.125000 F100.0(Penetrate)
G01 X1983.186954 Y875.235127 Z-0.125000 F400.000000
G01 X1964.547706 Y864.051579 Z-0.125000
G00 Z5.000000

(End cutting path id: path7568)


(Start cutting path id: path7566)
(Change tool to Default tool)

G00 Z5.000000
G00 X2013.009750 Y875.235127

G01 Z-0.125000 F100.0(Penetrate)
G01 X2013.009750 Y856.595880 Z-0.125000 F400.000000
G01 X1998.098352 Y845.412331 Z-0.125000
G00 Z5.000000

(End cutting path id: path7566)


(Start cutting path id: path7564)
(Change tool to Default tool)

G00 Z5.000000
G00 X2024.193298 Y905.057923

G01 Z-0.125000 F100.0(Penetrate)
G01 X2020.465449 Y890.146525 Z-0.125000 F400.000000
G01 X2013.009750 Y875.235127 Z-0.125000
G00 Z5.000000

(End cutting path id: path7564)


(Start cutting path id: path7562)
(Change tool to Default tool)

G00 Z5.000000
G00 X2042.832546 Y908.785773

G01 Z-0.125000 F100.0(Penetrate)
G01 X2035.376847 Y919.969321 Z-0.125000 F400.000000
G01 X2024.193298 Y905.057923 Z-0.125000
G00 Z5.000000

(End cutting path id: path7562)


(Start cutting path id: path7560)
(Change tool to Default tool)

G00 Z5.000000
G00 X2065.199643 Y919.969321

G01 Z-0.125000 F100.0(Penetrate)
G01 X2054.016094 Y916.241472 Z-0.125000 F400.000000
G01 X2042.832546 Y908.785773 Z-0.125000
G00 Z5.000000

(End cutting path id: path7560)


(Start cutting path id: path7558)
(Change tool to Default tool)

G00 Z5.000000
G00 X2083.838891 Y931.152870

G01 Z-0.125000 F100.0(Penetrate)
G01 X2076.383192 Y923.697171 Z-0.125000 F400.000000
G01 X2065.199643 Y919.969321 Z-0.125000
G00 Z5.000000

(End cutting path id: path7558)


(Start cutting path id: path7556)
(Change tool to Default tool)

G00 Z5.000000
G00 X2098.750288 Y942.336418

G01 Z-0.125000 F100.0(Penetrate)
G01 X2091.294589 Y938.608569 Z-0.125000 F400.000000
G01 X2083.838891 Y931.152870 Z-0.125000
G00 Z5.000000

(End cutting path id: path7556)


(Start cutting path id: path7554)
(Change tool to Default tool)

G00 Z5.000000
G00 X2109.933837 Y949.792117

G01 Z-0.125000 F100.0(Penetrate)
G01 X2109.933837 Y938.608569 Z-0.125000 F400.000000
G01 X2098.750288 Y942.336418 Z-0.125000
G00 Z5.000000

(End cutting path id: path7554)


(Start cutting path id: path7552)
(Change tool to Default tool)

G00 Z5.000000
G00 X2121.117385 Y934.880719

G01 Z-0.125000 F100.0(Penetrate)
G01 X2121.117385 Y949.792117 Z-0.125000 F400.000000
G01 X2109.933837 Y949.792117 Z-0.125000
G00 Z5.000000

(End cutting path id: path7552)


(Start cutting path id: path7550)
(Change tool to Default tool)

G00 Z5.000000
G00 X2136.028783 Y942.336418

G01 Z-0.125000 F100.0(Penetrate)
G01 X2128.573084 Y938.608569 Z-0.125000 F400.000000
G01 X2121.117385 Y934.880719 Z-0.125000
G00 Z5.000000

(End cutting path id: path7550)


(Start cutting path id: path7548)
(Change tool to Default tool)

G00 Z5.000000
G00 X2147.212332 Y949.792117

G01 Z-0.125000 F100.0(Penetrate)
G01 X2136.028783 Y953.519967 Z-0.125000 F400.000000
G01 X2136.028783 Y942.336418 Z-0.125000
G00 Z5.000000

(End cutting path id: path7548)


(Start cutting path id: path7546)
(Change tool to Default tool)

G00 Z5.000000
G00 X2150.940182 Y968.431365

G01 Z-0.125000 F100.0(Penetrate)
G01 X2150.940182 Y953.519967 Z-0.125000 F400.000000
G01 X2147.212332 Y949.792117 Z-0.125000
G00 Z5.000000

(End cutting path id: path7546)


(Start cutting path id: path7544)
(Change tool to Default tool)

G00 Z5.000000
G00 X2165.851579 Y968.431365

G01 Z-0.125000 F100.0(Penetrate)
G01 X2162.123730 Y960.975666 Z-0.125000 F400.000000
G01 X2150.940182 Y968.431365 Z-0.125000
G00 Z5.000000

(End cutting path id: path7544)


(Start cutting path id: path7542)
(Change tool to Default tool)

G00 Z5.000000
G00 X2188.218676 Y983.342763

G01 Z-0.125000 F100.0(Penetrate)
G01 X2180.762978 Y975.887064 Z-0.125000 F400.000000
G01 X2165.851579 Y968.431365 Z-0.125000
G00 Z5.000000

(End cutting path id: path7542)


(Start cutting path id: path7540)
(Change tool to Default tool)

G00 Z5.000000
G00 X2221.769322 Y987.070612

G01 Z-0.125000 F100.0(Penetrate)
G01 X2206.857924 Y983.342763 Z-0.125000 F400.000000
G01 X2188.218676 Y983.342763 Z-0.125000
G00 Z5.000000

(End cutting path id: path7540)


(Start cutting path id: path7538)
(Change tool to Default tool)

G00 Z5.000000
G00 X2236.680720 Y1005.709860

G01 Z-0.125000 F100.0(Penetrate)
G01 X2225.497172 Y998.254161 Z-0.125000 F400.000000
G01 X2221.769322 Y987.070612 Z-0.125000
G00 Z5.000000

(End cutting path id: path7538)


(Start cutting path id: path7536)
(Change tool to Default tool)

G00 Z5.000000
G00 X2273.959215 Y1009.437709

G01 Z-0.125000 F100.0(Penetrate)
G01 X2251.592118 Y1013.165559 Z-0.125000 F400.000000
G01 X2236.680720 Y1005.709860 Z-0.125000
G00 Z5.000000

(End cutting path id: path7536)


(Start cutting path id: path7534)
(Change tool to Default tool)

G00 Z5.000000
G00 X2259.047817 Y979.614913

G01 Z-0.125000 F100.0(Penetrate)
G01 X2266.503516 Y990.798462 Z-0.125000 F400.000000
G01 X2273.959215 Y1009.437709 Z-0.125000
G00 Z5.000000

(End cutting path id: path7534)


(Start cutting path id: path7532)
(Change tool to Default tool)

G00 Z5.000000
G00 X2240.408569 Y972.159214

G01 Z-0.125000 F100.0(Penetrate)
G01 X2247.864268 Y975.887064 Z-0.125000 F400.000000
G01 X2259.047817 Y979.614913 Z-0.125000
G00 Z5.000000

(End cutting path id: path7532)


(Start cutting path id: path7530)
(Change tool to Default tool)

G00 Z5.000000
G00 X2221.769322 Y972.159214

G01 Z-0.125000 F100.0(Penetrate)
G01 X2229.225021 Y975.887064 Z-0.125000 F400.000000
G01 X2240.408569 Y972.159214 Z-0.125000
G00 Z5.000000

(End cutting path id: path7530)


(Start cutting path id: path7528)
(Change tool to Default tool)

G00 Z5.000000
G00 X2206.857924 Y964.703515

G01 Z-0.125000 F100.0(Penetrate)
G01 X2214.313623 Y968.431365 Z-0.125000 F400.000000
G01 X2221.769322 Y972.159214 Z-0.125000
G00 Z5.000000

(End cutting path id: path7528)


(Start cutting path id: path7526)
(Change tool to Default tool)

G00 Z5.000000
G00 X2184.490827 Y946.064268

G01 Z-0.125000 F100.0(Penetrate)
G01 X2195.674375 Y953.519967 Z-0.125000 F400.000000
G01 X2206.857924 Y964.703515 Z-0.125000
G00 Z5.000000

(End cutting path id: path7526)


(Start cutting path id: path7524)
(Change tool to Default tool)

G00 Z5.000000
G00 X2169.579429 Y916.241472

G01 Z-0.125000 F100.0(Penetrate)
G01 X2177.035128 Y931.152870 Z-0.125000 F400.000000
G01 X2184.490827 Y946.064268 Z-0.125000
G00 Z5.000000

(End cutting path id: path7524)


(Start cutting path id: path7522)
(Change tool to Default tool)

G00 Z5.000000
G00 X2162.123730 Y882.690826

G01 Z-0.125000 F100.0(Penetrate)
G01 X2154.668031 Y905.057923 Z-0.125000 F400.000000
G01 X2169.579429 Y916.241472 Z-0.125000
G00 Z5.000000

(End cutting path id: path7522)


(Start cutting path id: path7520)
(Change tool to Default tool)

G00 Z5.000000
G00 X2184.490827 Y886.418676

G01 Z-0.125000 F100.0(Penetrate)
G01 X2162.123730 Y864.051579 Z-0.125000 F400.000000
G01 X2162.123730 Y882.690826 Z-0.125000
G00 Z5.000000

(End cutting path id: path7520)


(Start cutting path id: path7518)
(Change tool to Default tool)

G00 Z5.000000
G00 X2195.674375 Y908.785773

G01 Z-0.125000 F100.0(Penetrate)
G01 X2199.402225 Y893.874375 Z-0.125000 F400.000000
G01 X2184.490827 Y886.418676 Z-0.125000
G00 Z5.000000

(End cutting path id: path7518)


(Start cutting path id: path7516)
