%
(Header)
(Generated by gcodetools from Inkscape.)
(Using default header. To add your own header create file "header" in the output dir.)
M3
(Header end.)
G21 (All units in mm)

(Start cutting path id: path46)
(Change tool to Default tool)

G00 Z5.000000
G00 X287.117095 Y542.231095

G01 Z-0.125000 F100.0(Penetrate)
G01 X297.368681 Y552.482681 Z-0.125000 F400.000000
G01 X302.494474 Y567.860060 Z-0.125000
G01 X317.871853 Y583.237439 Z-0.125000
G01 X333.249232 Y593.489025 Z-0.125000
G01 X353.752404 Y598.614818 Z-0.125000
G01 X364.003990 Y608.866404 Z-0.125000
G01 X369.129783 Y613.992197 Z-0.125000
G01 X348.626611 Y624.243783 Z-0.125000
G01 X358.878197 Y629.369576 Z-0.125000
G01 X364.003990 Y639.621162 Z-0.125000
G01 X374.255576 Y639.621162 Z-0.125000
G01 X379.381369 Y624.243783 Z-0.125000
G01 X384.507162 Y608.866404 Z-0.125000
G01 X379.381369 Y598.614818 Z-0.125000
G01 X364.003990 Y583.237439 Z-0.125000
G01 X353.752404 Y572.985853 Z-0.125000
G01 X343.500818 Y562.734267 Z-0.125000
G01 X328.123439 Y557.608474 Z-0.125000
G01 X328.123439 Y537.105302 Z-0.125000
G01 X322.997646 Y521.727923 Z-0.125000
G01 X307.620267 Y516.602130 Z-0.125000
G01 X292.242888 Y511.476337 Z-0.125000
G01 X266.613923 Y506.350544 Z-0.125000
G01 X251.236544 Y490.973165 Z-0.125000
G01 X235.859165 Y480.721579 Z-0.125000
G01 X235.859165 Y460.218407 Z-0.125000
G01 X215.355993 Y460.218407 Z-0.125000
G01 X210.230200 Y439.715235 Z-0.125000
G01 X230.733372 Y439.715235 Z-0.125000
G01 X256.362337 Y444.841028 Z-0.125000
G01 X261.488130 Y465.344200 Z-0.125000
G01 X281.991302 Y475.595786 Z-0.125000
G01 X292.242888 Y490.973165 Z-0.125000
G01 X312.746060 Y490.973165 Z-0.125000
G01 X307.620267 Y470.469993 Z-0.125000
G01 X297.368681 Y455.092614 Z-0.125000
G01 X292.242888 Y439.715235 Z-0.125000
G01 X276.865509 Y429.463649 Z-0.125000
G01 X256.362337 Y424.337856 Z-0.125000
G01 X235.859165 Y414.086270 Z-0.125000
G01 X230.733372 Y403.834684 Z-0.125000
G01 X220.481786 Y388.457305 Z-0.125000
G01 X205.104407 Y378.205719 Z-0.125000
G01 X199.978614 Y367.954133 Z-0.125000
G01 X194.852821 Y347.450961 Z-0.125000
G01 X153.846477 Y362.828340 Z-0.125000
G01 X169.223856 Y383.331512 Z-0.125000
G01 X174.349649 Y398.708891 Z-0.125000
G01 X189.727028 Y408.960477 Z-0.125000
G01 X205.104407 Y419.212063 Z-0.125000
G01 X189.727028 Y439.715235 Z-0.125000
G01 X174.349649 Y429.463649 Z-0.125000
G01 X158.972270 Y424.337856 Z-0.125000
G01 X148.720684 Y403.834684 Z-0.125000
G01 X123.091719 Y403.834684 Z-0.125000
G01 X123.091719 Y378.205719 Z-0.125000
G01 X133.343305 Y352.576754 Z-0.125000
G01 X112.840133 Y352.576754 Z-0.125000
G01 X107.714340 Y342.325168 Z-0.125000
G01 X112.840133 Y321.821996 Z-0.125000
G01 X92.336961 Y326.947789 Z-0.125000
G01 X92.336961 Y311.570410 Z-0.125000
G01 X76.959582 Y306.444617 Z-0.125000
G01 X56.456410 Y311.570410 Z-0.125000
G01 X35.953238 Y321.821996 Z-0.125000
G01 X30.827445 Y301.318824 Z-0.125000
G01 X10.324273 Y301.318824 Z-0.125000
G01 X0.072687 Y291.067238 Z-0.125000
G01 X-15.304692 Y275.689859 Z-0.125000
G01 X-20.430485 Y291.067238 Z-0.125000
G01 X-40.933657 Y291.067238 Z-0.125000
G01 X-46.059450 Y280.815652 Z-0.125000
G01 X-61.436829 Y291.067238 Z-0.125000
G01 X-81.940001 Y291.067238 Z-0.125000
G01 X-92.191587 Y280.815652 Z-0.125000
G01 X-117.820552 Y275.689859 Z-0.125000
G01 X-117.820552 Y291.067238 Z-0.125000
G01 X-107.568966 Y301.318824 Z-0.125000
G01 X-102.443173 Y311.570410 Z-0.125000
G01 X-102.443173 Y326.947789 Z-0.125000
G01 X-87.065794 Y332.073582 Z-0.125000
G01 X-81.940001 Y311.570410 Z-0.125000
G01 X-66.562622 Y311.570410 Z-0.125000
G01 X-61.436829 Y321.821996 Z-0.125000
G01 X-51.185243 Y332.073582 Z-0.125000
G01 X-40.933657 Y311.570410 Z-0.125000
G01 X-25.556278 Y311.570410 Z-0.125000
G01 X-20.430485 Y316.696203 Z-0.125000
G01 X-5.053106 Y321.821996 Z-0.125000
G01 X15.450066 Y321.821996 Z-0.125000
G01 X10.324273 Y337.199375 Z-0.125000
G01 X25.701652 Y347.450961 Z-0.125000
G01 X35.953238 Y357.702547 Z-0.125000
G01 X46.204824 Y337.199375 Z-0.125000
G01 X66.707996 Y332.073582 Z-0.125000
G01 X56.456410 Y352.576754 Z-0.125000
G01 X61.582203 Y367.954133 Z-0.125000
G01 X82.085375 Y352.576754 Z-0.125000
G01 X82.085375 Y378.205719 Z-0.125000
G01 X92.336961 Y393.583098 Z-0.125000
G01 X97.462754 Y419.212063 Z-0.125000
G01 X112.840133 Y434.589442 Z-0.125000
G01 X133.343305 Y434.589442 Z-0.125000
G01 X138.469098 Y455.092614 Z-0.125000
G01 X138.469098 Y475.595786 Z-0.125000
G01 X138.469098 Y496.098958 Z-0.125000
G01 X133.343305 Y511.476337 Z-0.125000
G01 X112.840133 Y501.224751 Z-0.125000
G01 X112.840133 Y480.721579 Z-0.125000
G01 X112.840133 Y460.218407 Z-0.125000
G01 X87.211168 Y455.092614 Z-0.125000
G01 X71.833789 Y439.715235 Z-0.125000
G01 X61.582203 Y424.337856 Z-0.125000
G01 X61.582203 Y403.834684 Z-0.125000
G01 X51.330617 Y393.583098 Z-0.125000
G01 X41.079031 Y383.331512 Z-0.125000
G01 X25.701652 Y378.205719 Z-0.125000
G01 X10.324273 Y373.079926 Z-0.125000
G01 X5.198480 Y357.702547 Z-0.125000
G01 X-10.178899 Y352.576754 Z-0.125000
G01 X-15.304692 Y342.325168 Z-0.125000
G01 X-30.682071 Y337.199375 Z-0.125000
G01 X-30.682071 Y357.702547 Z-0.125000
G01 X-20.430485 Y373.079926 Z-0.125000
G01 X-10.178899 Y383.331512 Z-0.125000
G01 X0.072687 Y393.583098 Z-0.125000
G01 X15.450066 Y398.708891 Z-0.125000
G01 X20.575859 Y408.960477 Z-0.125000
G01 X35.953238 Y419.212063 Z-0.125000
G01 X30.827445 Y449.966821 Z-0.125000
G01 X20.575859 Y439.715235 Z-0.125000
G01 X5.198480 Y429.463649 Z-0.125000
G01 X-10.178899 Y424.337856 Z-0.125000
G01 X-15.304692 Y414.086270 Z-0.125000
G01 X-25.556278 Y403.834684 Z-0.125000
G01 X-35.807864 Y388.457305 Z-0.125000
G01 X-40.933657 Y398.708891 Z-0.125000
G01 X-56.311036 Y414.086270 Z-0.125000
G01 X-71.688415 Y414.086270 Z-0.125000
G01 X-81.940001 Y403.834684 Z-0.125000
G01 X-97.317380 Y403.834684 Z-0.125000
G01 X-112.694759 Y398.708891 Z-0.125000
G01 X-122.946345 Y388.457305 Z-0.125000
G01 X-122.946345 Y367.954133 Z-0.125000
G01 X-102.443173 Y373.079926 Z-0.125000
G01 X-92.191587 Y383.331512 Z-0.125000
G01 X-81.940001 Y362.828340 Z-0.125000
G01 X-66.562622 Y367.954133 Z-0.125000
G01 X-71.688415 Y383.331512 Z-0.125000
G01 X-56.311036 Y388.457305 Z-0.125000
G01 X-46.059450 Y373.079926 Z-0.125000
G01 X-46.059450 Y352.576754 Z-0.125000
G01 X-61.436829 Y347.450961 Z-0.125000
G01 X-76.814208 Y342.325168 Z-0.125000
G01 X-97.317380 Y352.576754 Z-0.125000
G01 X-112.694759 Y347.450961 Z-0.125000
G01 X-133.197931 Y352.576754 Z-0.125000
G01 X-122.946345 Y332.073582 Z-0.125000
G01 X-128.072138 Y316.696203 Z-0.125000
G01 X-143.449517 Y311.570410 Z-0.125000
G01 X-138.323724 Y291.067238 Z-0.125000
G01 X-148.575310 Y280.815652 Z-0.125000
G01 X-169.078482 Y275.689859 Z-0.125000
G00 Z5.000000

(End cutting path id: path46)


(Start cutting path id: path44)
(Change tool to Default tool)

G00 Z5.000000
G00 X599.790468 Y839.527089

G01 Z-0.125000 F100.0(Penetrate)
G01 X584.413089 Y824.149710 Z-0.125000 F400.000000
G01 X574.161503 Y808.772331 Z-0.125000
G01 X558.784124 Y793.394952 Z-0.125000
G01 X558.784124 Y767.765987 Z-0.125000
G01 X543.406745 Y767.765987 Z-0.125000
G01 X548.532538 Y752.388608 Z-0.125000
G01 X558.784124 Y752.388608 Z-0.125000
G01 X569.035710 Y757.514401 Z-0.125000
G01 X574.161503 Y767.765987 Z-0.125000
G01 X584.413089 Y757.514401 Z-0.125000
G01 X589.538882 Y772.891780 Z-0.125000
G01 X604.916261 Y788.269159 Z-0.125000
G01 X615.167847 Y808.772331 Z-0.125000
G01 X640.796812 Y803.646538 Z-0.125000
G01 X635.671019 Y783.143366 Z-0.125000
G01 X635.671019 Y762.640194 Z-0.125000
G01 X640.796812 Y752.388608 Z-0.125000
G01 X656.174191 Y757.514401 Z-0.125000
G01 X661.299984 Y747.262815 Z-0.125000
G01 X651.048398 Y742.137022 Z-0.125000
G01 X640.796812 Y737.011229 Z-0.125000
G01 X630.545226 Y737.011229 Z-0.125000
G01 X625.419433 Y726.759643 Z-0.125000
G01 X625.419433 Y711.382264 Z-0.125000
G01 X610.042054 Y711.382264 Z-0.125000
G01 X599.790468 Y701.130678 Z-0.125000
G01 X589.538882 Y721.633850 Z-0.125000
G01 X594.664675 Y726.759643 Z-0.125000
G01 X610.042054 Y726.759643 Z-0.125000
G01 X604.916261 Y737.011229 Z-0.125000
G01 X615.167847 Y742.137022 Z-0.125000
G01 X625.419433 Y752.388608 Z-0.125000
G01 X615.167847 Y767.765987 Z-0.125000
G01 X610.042054 Y757.514401 Z-0.125000
G01 X599.790468 Y757.514401 Z-0.125000
G01 X594.664675 Y747.262815 Z-0.125000
G01 X584.413089 Y742.137022 Z-0.125000
G01 X574.161503 Y737.011229 Z-0.125000
G01 X563.909917 Y737.011229 Z-0.125000
G01 X553.658331 Y731.885436 Z-0.125000
G01 X543.406745 Y742.137022 Z-0.125000
G01 X538.280952 Y731.885436 Z-0.125000
G01 X528.029366 Y726.759643 Z-0.125000
G01 X517.777780 Y726.759643 Z-0.125000
G01 X512.651987 Y716.508057 Z-0.125000
G01 X517.777780 Y706.256471 Z-0.125000
G01 X502.400401 Y706.256471 Z-0.125000
G01 X487.023022 Y711.382264 Z-0.125000
G01 X492.148815 Y721.633850 Z-0.125000
G01 X502.400401 Y726.759643 Z-0.125000
G01 X497.274608 Y742.137022 Z-0.125000
G01 X512.651987 Y742.137022 Z-0.125000
G01 X522.903573 Y747.262815 Z-0.125000
G01 X533.155159 Y752.388608 Z-0.125000
G01 X528.029366 Y767.765987 Z-0.125000
G01 X517.777780 Y762.640194 Z-0.125000
G01 X507.526194 Y757.514401 Z-0.125000
G01 X497.274608 Y757.514401 Z-0.125000
G01 X481.897229 Y757.514401 Z-0.125000
G01 X487.023022 Y742.137022 Z-0.125000
G01 X476.771436 Y742.137022 Z-0.125000
G01 X471.645643 Y731.885436 Z-0.125000
G01 X456.268264 Y721.633850 Z-0.125000
G01 X456.268264 Y690.879092 Z-0.125000
G01 X425.513506 Y660.124334 Z-0.125000
G01 X451.142471 Y624.243783 Z-0.125000
G01 X476.771436 Y634.495369 Z-0.125000
G01 X481.897229 Y649.872748 Z-0.125000
G01 X497.274608 Y670.375920 Z-0.125000
G01 X517.777780 Y680.627506 Z-0.125000
G01 X538.280952 Y701.130678 Z-0.125000
G01 X533.155159 Y711.382264 Z-0.125000
G01 X548.532538 Y711.382264 Z-0.125000
G01 X553.658331 Y716.508057 Z-0.125000
G01 X563.909917 Y716.508057 Z-0.125000
G01 X574.161503 Y721.633850 Z-0.125000
G01 X584.413089 Y711.382264 Z-0.125000
G01 X574.161503 Y701.130678 Z-0.125000
G01 X569.035710 Y690.879092 Z-0.125000
G01 X558.784124 Y670.375920 Z-0.125000
G01 X543.406745 Y654.998541 Z-0.125000
G01 X522.903573 Y639.621162 Z-0.125000
G01 X517.777780 Y624.243783 Z-0.125000
G01 X497.274608 Y603.740611 Z-0.125000
G01 X487.023022 Y588.363232 Z-0.125000
G01 X471.645643 Y572.985853 Z-0.125000
G01 X456.268264 Y567.860060 Z-0.125000
G01 X451.142471 Y578.111646 Z-0.125000
G01 X440.890885 Y567.860060 Z-0.125000
G01 X440.890885 Y552.482681 Z-0.125000
G01 X430.639299 Y552.482681 Z-0.125000
G01 X430.639299 Y567.860060 Z-0.125000
G01 X415.261920 Y567.860060 Z-0.125000
G01 X410.136127 Y552.482681 Z-0.125000
G01 X394.758748 Y547.356888 Z-0.125000
G01 X394.758748 Y526.853716 Z-0.125000
G01 X379.381369 Y521.727923 Z-0.125000
G01 X384.507162 Y506.350544 Z-0.125000
G01 X369.129783 Y501.224751 Z-0.125000
G01 X358.878197 Y485.847372 Z-0.125000
G01 X364.003990 Y465.344200 Z-0.125000
G01 X384.507162 Y475.595786 Z-0.125000
G01 X384.507162 Y460.218407 Z-0.125000
G01 X369.129783 Y444.841028 Z-0.125000
G01 X353.752404 Y439.715235 Z-0.125000
G01 X348.626611 Y419.212063 Z-0.125000
G01 X369.129783 Y414.086270 Z-0.125000
G01 X384.507162 Y419.212063 Z-0.125000
G01 X389.632955 Y429.463649 Z-0.125000
G01 X399.884541 Y439.715235 Z-0.125000
G01 X405.010334 Y460.218407 Z-0.125000
G01 X420.387713 Y460.218407 Z-0.125000
G01 X430.639299 Y470.469993 Z-0.125000
G01 X446.016678 Y475.595786 Z-0.125000
G01 X451.142471 Y490.973165 Z-0.125000
G01 X466.519850 Y501.224751 Z-0.125000
G01 X471.645643 Y506.350544 Z-0.125000
G01 X481.897229 Y516.602130 Z-0.125000
G01 X471.645643 Y526.853716 Z-0.125000
G01 X461.394057 Y521.727923 Z-0.125000
G01 X451.142471 Y516.602130 Z-0.125000
G01 X435.765092 Y511.476337 Z-0.125000
G01 X425.513506 Y496.098958 Z-0.125000
G01 X410.136127 Y485.847372 Z-0.125000
G01 X394.758748 Y485.847372 Z-0.125000
G01 X405.010334 Y506.350544 Z-0.125000
G01 X415.261920 Y516.602130 Z-0.125000
G01 X415.261920 Y531.979509 Z-0.125000
G01 X435.765092 Y531.979509 Z-0.125000
G01 X446.016678 Y537.105302 Z-0.125000
G01 X456.268264 Y537.105302 Z-0.125000
G01 X456.268264 Y552.482681 Z-0.125000
G01 X466.519850 Y547.356888 Z-0.125000
G01 X471.645643 Y557.608474 Z-0.125000
G01 X481.897229 Y557.608474 Z-0.125000
G01 X492.148815 Y567.860060 Z-0.125000
G01 X512.651987 Y557.608474 Z-0.125000
G01 X502.400401 Y552.482681 Z-0.125000
G01 X492.148815 Y547.356888 Z-0.125000
G01 X481.897229 Y537.105302 Z-0.125000
G01 X492.148815 Y526.853716 Z-0.125000
G01 X502.400401 Y531.979509 Z-0.125000
G01 X512.651987 Y537.105302 Z-0.125000
G01 X522.903573 Y547.356888 Z-0.125000
G01 X533.155159 Y547.356888 Z-0.125000
G01 X533.155159 Y562.734267 Z-0.125000
G01 X533.155159 Y593.489025 Z-0.125000
G01 X558.784124 Y593.489025 Z-0.125000
G01 X558.784124 Y613.992197 Z-0.125000
G01 X563.909917 Y629.369576 Z-0.125000
G01 X579.287296 Y644.746955 Z-0.125000
G01 X589.538882 Y665.250127 Z-0.125000
G01 X610.042054 Y670.375920 Z-0.125000
G01 X625.419433 Y680.627506 Z-0.125000
G01 X645.922605 Y690.879092 Z-0.125000
G01 X640.796812 Y716.508057 Z-0.125000
G01 X651.048398 Y721.633850 Z-0.125000
G01 X661.299984 Y726.759643 Z-0.125000
G01 X676.677363 Y726.759643 Z-0.125000
G01 X676.677363 Y742.137022 Z-0.125000
G01 X676.677363 Y757.514401 Z-0.125000
G01 X692.054742 Y742.137022 Z-0.125000
G01 X707.432121 Y747.262815 Z-0.125000
G01 X722.809500 Y762.640194 Z-0.125000
G01 X733.061086 Y778.017573 Z-0.125000
G01 X753.564258 Y788.269159 Z-0.125000
G01 X763.815844 Y803.646538 Z-0.125000
G01 X768.941637 Y813.898124 Z-0.125000
G01 X763.815844 Y829.275503 Z-0.125000
G01 X753.564258 Y824.149710 Z-0.125000
G01 X738.186879 Y813.898124 Z-0.125000
G01 X717.683707 Y803.646538 Z-0.125000
G01 X697.180535 Y793.394952 Z-0.125000
G01 X692.054742 Y778.017573 Z-0.125000
G01 X666.425777 Y783.143366 Z-0.125000
G01 X661.299984 Y808.772331 Z-0.125000
G01 X681.803156 Y819.023917 Z-0.125000
G01 X697.180535 Y829.275503 Z-0.125000
G01 X712.557914 Y839.527089 Z-0.125000
G01 X717.683707 Y854.904468 Z-0.125000
G01 X733.061086 Y865.156054 Z-0.125000
G01 X743.312672 Y870.281847 Z-0.125000
G01 X753.564258 Y875.407640 Z-0.125000
G01 X763.815844 Y880.533433 Z-0.125000
G01 X768.941637 Y860.030261 Z-0.125000
G01 X753.564258 Y860.030261 Z-0.125000
G01 X743.312672 Y849.778675 Z-0.125000
G01 X753.564258 Y839.527089 Z-0.125000
G01 X763.815844 Y844.652882 Z-0.125000
G01 X774.067430 Y839.527089 Z-0.125000
G01 X779.193223 Y824.149710 Z-0.125000
G01 X784.319016 Y808.772331 Z-0.125000
G01 X779.193223 Y798.520745 Z-0.125000
G01 X774.067430 Y788.269159 Z-0.125000
G01 X774.067430 Y772.891780 Z-0.125000
G01 X768.941637 Y762.640194 Z-0.125000
G01 X753.564258 Y752.388608 Z-0.125000
G01 X743.312672 Y731.885436 Z-0.125000
G01 X722.809500 Y721.633850 Z-0.125000
G01 X707.432121 Y706.256471 Z-0.125000
G01 X692.054742 Y696.004885 Z-0.125000
G01 X671.551570 Y690.879092 Z-0.125000
G01 X671.551570 Y670.375920 Z-0.125000
G01 X651.048398 Y665.250127 Z-0.125000
G01 X635.671019 Y649.872748 Z-0.125000
G01 X615.167847 Y639.621162 Z-0.125000
G01 X610.042054 Y624.243783 Z-0.125000
G01 X594.664675 Y613.992197 Z-0.125000
G01 X594.664675 Y588.363232 Z-0.125000
G01 X599.790468 Y567.860060 Z-0.125000
G01 X610.042054 Y552.482681 Z-0.125000
G01 X599.790468 Y547.356888 Z-0.125000
G01 X589.538882 Y547.356888 Z-0.125000
G01 X574.161503 Y547.356888 Z-0.125000
G01 X574.161503 Y562.734267 Z-0.125000
G01 X553.658331 Y557.608474 Z-0.125000
G01 X558.784124 Y547.356888 Z-0.125000
G01 X548.532538 Y542.231095 Z-0.125000
G01 X558.784124 Y531.979509 Z-0.125000
G01 X548.532538 Y526.853716 Z-0.125000
G01 X543.406745 Y516.602130 Z-0.125000
G01 X528.029366 Y516.602130 Z-0.125000
G01 X533.155159 Y531.979509 Z-0.125000
G01 X522.903573 Y526.853716 Z-0.125000
G01 X512.651987 Y516.602130 Z-0.125000
G01 X502.400401 Y511.476337 Z-0.125000
G01 X492.148815 Y506.350544 Z-0.125000
G01 X497.274608 Y496.098958 Z-0.125000
G01 X487.023022 Y490.973165 Z-0.125000
G01 X476.771436 Y485.847372 Z-0.125000
G01 X466.519850 Y475.595786 Z-0.125000
G01 X481.897229 Y470.469993 Z-0.125000
G01 X497.274608 Y475.595786 Z-0.125000
G01 X507.526194 Y480.721579 Z-0.125000
G01 X512.651987 Y496.098958 Z-0.125000
G01 X522.903573 Y501.224751 Z-0.125000
G01 X538.280952 Y496.098958 Z-0.125000
G01 X548.532538 Y496.098958 Z-0.125000
G01 X553.658331 Y501.224751 Z-0.125000
G01 X563.909917 Y485.847372 Z-0.125000
G01 X548.532538 Y475.595786 Z-0.125000
G01 X538.280952 Y465.344200 Z-0.125000
G01 X533.155159 Y480.721579 Z-0.125000
G01 X522.903573 Y475.595786 Z-0.125000
G01 X522.903573 Y460.218407 Z-0.125000
G01 X512.651987 Y449.966821 Z-0.125000
G01 X507.526194 Y465.344200 Z-0.125000
G01 X497.274608 Y460.218407 Z-0.125000
G01 X481.897229 Y455.092614 Z-0.125000
G01 X492.148815 Y449.966821 Z-0.125000
G01 X497.274608 Y439.715235 Z-0.125000
G01 X497.274608 Y424.337856 Z-0.125000
G01 X492.148815 Y408.960477 Z-0.125000
G01 X492.148815 Y393.583098 Z-0.125000
G01 X512.651987 Y388.457305 Z-0.125000
G01 X517.777780 Y403.834684 Z-0.125000
G01 X528.029366 Y414.086270 Z-0.125000
G01 X522.903573 Y429.463649 Z-0.125000
G01 X538.280952 Y434.589442 Z-0.125000
G01 X543.406745 Y444.841028 Z-0.125000
G01 X563.909917 Y455.092614 Z-0.125000
G01 X574.161503 Y465.344200 Z-0.125000
G01 X584.413089 Y480.721579 Z-0.125000
G01 X594.664675 Y485.847372 Z-0.125000
G01 X604.916261 Y496.098958 Z-0.125000
G01 X625.419433 Y496.098958 Z-0.125000
G01 X630.545226 Y480.721579 Z-0.125000
G01 X620.293640 Y470.469993 Z-0.125000
G01 X610.042054 Y460.218407 Z-0.125000
G01 X594.664675 Y455.092614 Z-0.125000
G01 X579.287296 Y439.715235 Z-0.125000
G01 X563.909917 Y434.589442 Z-0.125000
G01 X563.909917 Y414.086270 Z-0.125000
G01 X548.532538 Y408.960477 Z-0.125000
G01 X543.406745 Y388.457305 Z-0.125000
G01 X538.280952 Y373.079926 Z-0.125000
G01 X517.777780 Y367.954133 Z-0.125000
G01 X507.526194 Y357.702547 Z-0.125000
G01 X487.023022 Y352.576754 Z-0.125000
G01 X466.519850 Y347.450961 Z-0.125000
G01 X446.016678 Y342.325168 Z-0.125000
G01 X430.639299 Y326.947789 Z-0.125000
G01 X451.142471 Y311.570410 Z-0.125000
G01 X466.519850 Y316.696203 Z-0.125000
G01 X481.897229 Y321.821996 Z-0.125000
G01 X497.274608 Y332.073582 Z-0.125000
G01 X507.526194 Y311.570410 Z-0.125000
G01 X507.526194 Y291.067238 Z-0.125000
G01 X502.400401 Y275.689859 Z-0.125000
G01 X512.651987 Y255.186687 Z-0.125000
G01 X492.148815 Y255.186687 Z-0.125000
G01 X471.645643 Y255.186687 Z-0.125000
G01 X481.897229 Y280.815652 Z-0.125000
G01 X481.897229 Y296.193031 Z-0.125000
G01 X461.394057 Y291.067238 Z-0.125000
G01 X446.016678 Y275.689859 Z-0.125000
G01 X435.765092 Y265.438273 Z-0.125000
G01 X435.765092 Y301.318824 Z-0.125000
G01 X415.261920 Y301.318824 Z-0.125000
G01 X410.136127 Y280.815652 Z-0.125000
G01 X394.758748 Y275.689859 Z-0.125000
G01 X389.632955 Y301.318824 Z-0.125000
G01 X394.758748 Y321.821996 Z-0.125000
G01 X405.010334 Y332.073582 Z-0.125000
G01 X415.261920 Y352.576754 Z-0.125000
G01 X420.387713 Y362.828340 Z-0.125000
G01 X446.016678 Y367.954133 Z-0.125000
G01 X466.519850 Y373.079926 Z-0.125000
G01 X481.897229 Y378.205719 Z-0.125000
G01 X471.645643 Y398.708891 Z-0.125000
G01 X451.142471 Y393.583098 Z-0.125000
G01 X435.765092 Y393.583098 Z-0.125000
G01 X440.890885 Y414.086270 Z-0.125000
G01 X456.268264 Y414.086270 Z-0.125000
G01 X471.645643 Y419.212063 Z-0.125000
G01 X476.771436 Y429.463649 Z-0.125000
G01 X481.897229 Y439.715235 Z-0.125000
G01 X456.268264 Y434.589442 Z-0.125000
G01 X461.394057 Y455.092614 Z-0.125000
G01 X446.016678 Y449.966821 Z-0.125000
G01 X435.765092 Y439.715235 Z-0.125000
G01 X420.387713 Y434.589442 Z-0.125000
G01 X420.387713 Y419.212063 Z-0.125000
G01 X410.136127 Y408.960477 Z-0.125000
G01 X420.387713 Y388.457305 Z-0.125000
G01 X399.884541 Y393.583098 Z-0.125000
G01 X384.507162 Y393.583098 Z-0.125000
G01 X389.632955 Y367.954133 Z-0.125000
G01 X384.507162 Y357.702547 Z-0.125000
G01 X364.003990 Y352.576754 Z-0.125000
G01 X369.129783 Y326.947789 Z-0.125000
G01 X358.878197 Y311.570410 Z-0.125000
G01 X364.003990 Y291.067238 Z-0.125000
G01 X338.375025 Y291.067238 Z-0.125000
G01 X302.494474 Y296.193031 Z-0.125000
G01 X276.865509 Y311.570410 Z-0.125000
G01 X297.368681 Y321.821996 Z-0.125000
G01 X322.997646 Y316.696203 Z-0.125000
G01 X328.123439 Y332.073582 Z-0.125000
G01 X338.375025 Y347.450961 Z-0.125000
G01 X338.375025 Y367.954133 Z-0.125000
G01 X358.878197 Y373.079926 Z-0.125000
G01 X364.003990 Y393.583098 Z-0.125000
G01 X338.375025 Y393.583098 Z-0.125000
G01 X317.871853 Y393.583098 Z-0.125000
G01 X307.620267 Y378.205719 Z-0.125000
G01 X312.746060 Y357.702547 Z-0.125000
G01 X292.242888 Y352.576754 Z-0.125000
G01 X276.865509 Y373.079926 Z-0.125000
G01 X266.613923 Y352.576754 Z-0.125000
G01 X261.488130 Y337.199375 Z-0.125000
G01 X246.110751 Y321.821996 Z-0.125000
G01 X235.859165 Y347.450961 Z-0.125000
G01 X240.984958 Y367.954133 Z-0.125000
G01 X251.236544 Y383.331512 Z-0.125000
G01 X261.488130 Y398.708891 Z-0.125000
G01 X276.865509 Y408.960477 Z-0.125000
G01 X287.117095 Y388.457305 Z-0.125000
G01 X297.368681 Y408.960477 Z-0.125000
G01 X317.871853 Y419.212063 Z-0.125000
G01 X317.871853 Y439.715235 Z-0.125000
G01 X333.249232 Y444.841028 Z-0.125000
G01 X328.123439 Y460.218407 Z-0.125000
G01 X343.500818 Y465.344200 Z-0.125000
G01 X338.375025 Y480.721579 Z-0.125000
G01 X328.123439 Y501.224751 Z-0.125000
G01 X343.500818 Y511.476337 Z-0.125000
G01 X348.626611 Y526.853716 Z-0.125000
G01 X348.626611 Y542.231095 Z-0.125000
G01 X364.003990 Y547.356888 Z-0.125000
G01 X369.129783 Y557.608474 Z-0.125000
G01 X384.507162 Y572.985853 Z-0.125000
G01 X389.632955 Y583.237439 Z-0.125000
G01 X405.010334 Y578.111646 Z-0.125000
G01 X415.261920 Y583.237439 Z-0.125000
G01 X425.513506 Y583.237439 Z-0.125000
G01 X435.765092 Y588.363232 Z-0.125000
G01 X430.639299 Y598.614818 Z-0.125000
G01 X415.261920 Y598.614818 Z-0.125000
G01 X399.884541 Y593.489025 Z-0.125000
G01 X394.758748 Y608.866404 Z-0.125000
G01 X405.010334 Y613.992197 Z-0.125000
G01 X394.758748 Y624.243783 Z-0.125000
G01 X389.632955 Y639.621162 Z-0.125000
G01 X374.255576 Y654.998541 Z-0.125000
G01 X379.381369 Y665.250127 Z-0.125000
G01 X364.003990 Y670.375920 Z-0.125000
G01 X358.878197 Y654.998541 Z-0.125000
G01 X348.626611 Y644.746955 Z-0.125000
G01 X338.375025 Y644.746955 Z-0.125000
G01 X333.249232 Y639.621162 Z-0.125000
G01 X328.123439 Y624.243783 Z-0.125000
G01 X322.997646 Y608.866404 Z-0.125000
G01 X302.494474 Y624.243783 Z-0.125000
G01 X302.494474 Y603.740611 Z-0.125000
G01 X292.242888 Y588.363232 Z-0.125000
G01 X281.991302 Y572.985853 Z-0.125000
G01 X271.739716 Y562.734267 Z-0.125000
G01 X261.488130 Y547.356888 Z-0.125000
G01 X261.488130 Y531.979509 Z-0.125000
G01 X287.117095 Y542.231095 Z-0.125000
G00 Z5.000000

(End cutting path id: path44)


(Start cutting path id: path42)
(Change tool to Default tool)

G00 Z5.000000
G00 X1845.358167 Y1833.930931

G01 Z-0.125000 F100.0(Penetrate)
G01 X1860.735546 Y1839.056724 Z-0.125000 F400.000000
G01 X1876.112925 Y1844.182517 Z-0.125000
G01 X1896.616097 Y1849.308310 Z-0.125000
G01 X1917.119269 Y1849.308310 Z-0.125000
G01 X1927.370855 Y1859.559896 Z-0.125000
G01 X1942.748234 Y1864.685689 Z-0.125000
G01 X1947.874027 Y1874.937275 Z-0.125000
G01 X1968.377199 Y1874.937275 Z-0.125000
G01 X1983.754578 Y1874.937275 Z-0.125000
G01 X1983.754578 Y1895.440447 Z-0.125000
G01 X1963.251406 Y1905.692033 Z-0.125000
G01 X1952.999820 Y1895.440447 Z-0.125000
G01 X1932.496648 Y1895.440447 Z-0.125000
G01 X1917.119269 Y1890.314654 Z-0.125000
G01 X1906.867683 Y1880.063068 Z-0.125000
G01 X1901.741890 Y1869.811482 Z-0.125000
G01 X1881.238718 Y1880.063068 Z-0.125000
G01 X1876.112925 Y1864.685689 Z-0.125000
G01 X1860.735546 Y1864.685689 Z-0.125000
G01 X1845.358167 Y1859.559896 Z-0.125000
G01 X1829.980788 Y1859.559896 Z-0.125000
G01 X1819.729202 Y1849.308310 Z-0.125000
G01 X1799.226030 Y1849.308310 Z-0.125000
G01 X1783.848651 Y1839.056724 Z-0.125000
G01 X1788.974444 Y1823.679345 Z-0.125000
G01 X1773.597065 Y1813.427759 Z-0.125000
G01 X1758.219686 Y1808.301966 Z-0.125000
G01 X1742.842307 Y1808.301966 Z-0.125000
G01 X1722.339135 Y1823.679345 Z-0.125000
G01 X1712.087549 Y1808.301966 Z-0.125000
G01 X1727.464928 Y1792.924587 Z-0.125000
G01 X1717.213342 Y1782.673001 Z-0.125000
G01 X1696.710170 Y1787.798794 Z-0.125000
G01 X1691.584377 Y1803.176173 Z-0.125000
G01 X1676.206998 Y1792.924587 Z-0.125000
G01 X1660.829619 Y1787.798794 Z-0.125000
G01 X1660.829619 Y1767.295622 Z-0.125000
G01 X1676.206998 Y1767.295622 Z-0.125000
G01 X1686.458584 Y1772.421415 Z-0.125000
G01 X1701.835963 Y1767.295622 Z-0.125000
G01 X1691.584377 Y1751.918243 Z-0.125000
G01 X1671.081205 Y1751.918243 Z-0.125000
G01 X1665.955412 Y1741.666657 Z-0.125000
G01 X1650.578033 Y1736.540864 Z-0.125000
G01 X1650.578033 Y1751.918243 Z-0.125000
G01 X1635.200654 Y1751.918243 Z-0.125000
G01 X1635.200654 Y1736.540864 Z-0.125000
G01 X1619.823275 Y1736.540864 Z-0.125000
G01 X1609.571689 Y1731.415071 Z-0.125000
G01 X1624.949068 Y1721.163485 Z-0.125000
G01 X1609.571689 Y1716.037692 Z-0.125000
G01 X1594.194310 Y1721.163485 Z-0.125000
G01 X1589.068517 Y1731.415071 Z-0.125000
G01 X1578.816931 Y1710.911899 Z-0.125000
G01 X1594.194310 Y1705.786106 Z-0.125000
G01 X1589.068517 Y1690.408727 Z-0.125000
G01 X1583.942724 Y1680.157141 Z-0.125000
G01 X1563.439552 Y1685.282934 Z-0.125000
G01 X1548.062173 Y1680.157141 Z-0.125000
G01 X1532.684794 Y1680.157141 Z-0.125000
G01 X1527.559001 Y1664.779762 Z-0.125000
G01 X1522.433208 Y1654.528176 Z-0.125000
G01 X1522.433208 Y1639.150797 Z-0.125000
G01 X1507.055829 Y1639.150797 Z-0.125000
G01 X1496.804243 Y1628.899211 Z-0.125000
G01 X1481.426864 Y1623.773418 Z-0.125000
G01 X1466.049485 Y1623.773418 Z-0.125000
G01 X1460.923692 Y1613.521832 Z-0.125000
G01 X1445.546313 Y1608.396039 Z-0.125000
G01 X1440.420520 Y1603.270246 Z-0.125000
G01 X1440.420520 Y1587.892867 Z-0.125000
G01 X1430.168934 Y1582.767074 Z-0.125000
G01 X1419.917348 Y1577.641281 Z-0.125000
G01 X1419.917348 Y1562.263902 Z-0.125000
G01 X1435.294727 Y1562.263902 Z-0.125000
G01 X1445.546313 Y1567.389695 Z-0.125000
G01 X1460.923692 Y1567.389695 Z-0.125000
G01 X1471.175278 Y1577.641281 Z-0.125000
G01 X1455.797899 Y1582.767074 Z-0.125000
G01 X1460.923692 Y1598.144453 Z-0.125000
G01 X1476.301071 Y1593.018660 Z-0.125000
G01 X1481.426864 Y1608.396039 Z-0.125000
G01 X1496.804243 Y1603.270246 Z-0.125000
G01 X1507.055829 Y1608.396039 Z-0.125000
G01 X1517.307415 Y1618.647625 Z-0.125000
G01 X1537.810587 Y1618.647625 Z-0.125000
G01 X1542.936380 Y1634.025004 Z-0.125000
G01 X1548.062173 Y1649.402383 Z-0.125000
G01 X1558.313759 Y1659.653969 Z-0.125000
G01 X1573.691138 Y1664.779762 Z-0.125000
G01 X1594.194310 Y1654.528176 Z-0.125000
G01 X1609.571689 Y1659.653969 Z-0.125000
G01 X1604.445896 Y1639.150797 Z-0.125000
G01 X1583.942724 Y1639.150797 Z-0.125000
G01 X1568.565345 Y1634.025004 Z-0.125000
G01 X1573.691138 Y1618.647625 Z-0.125000
G01 X1558.313759 Y1613.521832 Z-0.125000
G01 X1542.936380 Y1598.144453 Z-0.125000
G01 X1527.559001 Y1593.018660 Z-0.125000
G01 X1517.307415 Y1587.892867 Z-0.125000
G01 X1496.804243 Y1587.892867 Z-0.125000
G01 X1501.930036 Y1572.515488 Z-0.125000
G01 X1491.678450 Y1567.389695 Z-0.125000
G01 X1481.426864 Y1562.263902 Z-0.125000
G01 X1471.175278 Y1552.012316 Z-0.125000
G01 X1460.923692 Y1546.886523 Z-0.125000
G01 X1450.672106 Y1546.886523 Z-0.125000
G01 X1435.294727 Y1546.886523 Z-0.125000
G01 X1419.917348 Y1546.886523 Z-0.125000
G01 X1409.665762 Y1541.760730 Z-0.125000
G01 X1394.288383 Y1541.760730 Z-0.125000
G01 X1384.036797 Y1531.509144 Z-0.125000
G01 X1378.911004 Y1516.131765 Z-0.125000
G01 X1389.162590 Y1516.131765 Z-0.125000
G01 X1399.414176 Y1521.257558 Z-0.125000
G01 X1404.539969 Y1526.383351 Z-0.125000
G01 X1419.917348 Y1521.257558 Z-0.125000
G01 X1425.043141 Y1526.383351 Z-0.125000
G01 X1435.294727 Y1531.509144 Z-0.125000
G01 X1450.672106 Y1531.509144 Z-0.125000
G01 X1450.672106 Y1516.131765 Z-0.125000
G01 X1440.420520 Y1511.005972 Z-0.125000
G01 X1430.168934 Y1505.880179 Z-0.125000
G01 X1414.791555 Y1505.880179 Z-0.125000
G01 X1404.539969 Y1500.754386 Z-0.125000
G01 X1399.414176 Y1495.628593 Z-0.125000
G01 X1389.162590 Y1485.377007 Z-0.125000
G01 X1399.414176 Y1469.999628 Z-0.125000
G01 X1384.036797 Y1464.873835 Z-0.125000
G01 X1373.785211 Y1454.622249 Z-0.125000
G01 X1358.407832 Y1444.370663 Z-0.125000
G01 X1343.030453 Y1439.244870 Z-0.125000
G01 X1332.778867 Y1428.993284 Z-0.125000
G01 X1322.527281 Y1418.741698 Z-0.125000
G01 X1307.149902 Y1413.615905 Z-0.125000
G01 X1307.149902 Y1393.112733 Z-0.125000
G01 X1302.024109 Y1377.735354 Z-0.125000
G01 X1307.149902 Y1362.357975 Z-0.125000
G01 X1327.653074 Y1362.357975 Z-0.125000
G01 X1322.527281 Y1341.854803 Z-0.125000
G01 X1302.024109 Y1341.854803 Z-0.125000
G01 X1281.520937 Y1352.106389 Z-0.125000
G01 X1286.646730 Y1367.483768 Z-0.125000
G01 X1266.143558 Y1372.609561 Z-0.125000
G01 X1261.017765 Y1352.106389 Z-0.125000
G01 X1245.640386 Y1346.980596 Z-0.125000
G01 X1245.640386 Y1326.477424 Z-0.125000
G01 X1230.263007 Y1316.225838 Z-0.125000
G01 X1235.388800 Y1300.848459 Z-0.125000
G01 X1225.137214 Y1290.596873 Z-0.125000
G01 X1209.759835 Y1285.471080 Z-0.125000
G01 X1199.508249 Y1275.219494 Z-0.125000
G01 X1194.382456 Y1254.716322 Z-0.125000
G01 X1209.759835 Y1254.716322 Z-0.125000
G01 X1225.137214 Y1259.842115 Z-0.125000
G01 X1235.388800 Y1270.093701 Z-0.125000
G01 X1250.766179 Y1280.345287 Z-0.125000
G01 X1255.891972 Y1300.848459 Z-0.125000
G01 X1266.143558 Y1311.100045 Z-0.125000
G01 X1266.143558 Y1326.477424 Z-0.125000
G01 X1281.520937 Y1331.603217 Z-0.125000
G01 X1302.024109 Y1321.351631 Z-0.125000
G01 X1291.772523 Y1311.100045 Z-0.125000
G01 X1281.520937 Y1290.596873 Z-0.125000
G01 X1271.269351 Y1280.345287 Z-0.125000
G01 X1276.395144 Y1264.967908 Z-0.125000
G01 X1261.017765 Y1259.842115 Z-0.125000
G01 X1250.766179 Y1249.590529 Z-0.125000
G01 X1235.388800 Y1239.338943 Z-0.125000
G01 X1220.011421 Y1234.213150 Z-0.125000
G01 X1204.634042 Y1229.087357 Z-0.125000
G01 X1184.130870 Y1229.087357 Z-0.125000
G01 X1179.005077 Y1249.590529 Z-0.125000
G01 X1163.627698 Y1234.213150 Z-0.125000
G01 X1158.501905 Y1244.464736 Z-0.125000
G01 X1143.124526 Y1239.338943 Z-0.125000
G01 X1132.872940 Y1234.213150 Z-0.125000
G01 X1127.747147 Y1249.590529 Z-0.125000
G01 X1122.621354 Y1234.213150 Z-0.125000
G01 X1117.495561 Y1223.961564 Z-0.125000
G01 X1117.495561 Y1208.584185 Z-0.125000
G01 X1122.621354 Y1188.081013 Z-0.125000
G01 X1117.495561 Y1172.703634 Z-0.125000
G01 X1132.872940 Y1172.703634 Z-0.125000
G01 X1148.250319 Y1172.703634 Z-0.125000
G01 X1158.501905 Y1198.332599 Z-0.125000
G01 X1179.005077 Y1208.584185 Z-0.125000
G01 X1199.508249 Y1208.584185 Z-0.125000
G01 X1204.634042 Y1193.206806 Z-0.125000
G01 X1189.256663 Y1188.081013 Z-0.125000
G01 X1179.005077 Y1172.703634 Z-0.125000
G01 X1168.753491 Y1162.452048 Z-0.125000
G01 X1153.376112 Y1157.326255 Z-0.125000
G01 X1143.124526 Y1157.326255 Z-0.125000
G01 X1132.872940 Y1157.326255 Z-0.125000
G01 X1122.621354 Y1147.074669 Z-0.125000
G01 X1117.495561 Y1157.326255 Z-0.125000
G01 X1107.243975 Y1157.326255 Z-0.125000
G01 X1102.118182 Y1152.200462 Z-0.125000
G01 X1096.992389 Y1141.948876 Z-0.125000
G01 X1086.740803 Y1152.200462 Z-0.125000
G01 X1076.489217 Y1141.948876 Z-0.125000
G01 X1086.740803 Y1131.697290 Z-0.125000
G01 X1076.489217 Y1121.445704 Z-0.125000
G01 X1081.615010 Y1111.194118 Z-0.125000
G01 X1071.363424 Y1100.942532 Z-0.125000
G01 X1061.111838 Y1080.439360 Z-0.125000
G01 X1045.734459 Y1065.061981 Z-0.125000
G01 X1045.734459 Y1044.558809 Z-0.125000
G01 X1040.608666 Y1034.307223 Z-0.125000
G01 X1020.105494 Y1029.181430 Z-0.125000
G01 X1004.728115 Y1018.929844 Z-0.125000
G01 X989.350736 Y1003.552465 Z-0.125000
G01 X958.595978 Y1003.552465 Z-0.125000
G01 X953.470185 Y1029.181430 Z-0.125000
G01 X979.099150 Y1039.433016 Z-0.125000
G01 X989.350736 Y1054.810395 Z-0.125000
G01 X1009.853908 Y1059.936188 Z-0.125000
G01 X1020.105494 Y1075.313567 Z-0.125000
G01 X1030.357080 Y1095.816739 Z-0.125000
G01 X1035.482873 Y1106.068325 Z-0.125000
G01 X1045.734459 Y1121.445704 Z-0.125000
G01 X1061.111838 Y1126.571497 Z-0.125000
G01 X1066.237631 Y1136.823083 Z-0.125000
G01 X1050.860252 Y1141.948876 Z-0.125000
G01 X1055.986045 Y1167.577841 Z-0.125000
G01 X1086.740803 Y1177.829427 Z-0.125000
G01 X1096.992389 Y1193.206806 Z-0.125000
G01 X1102.118182 Y1218.835771 Z-0.125000
G01 X1107.243975 Y1239.338943 Z-0.125000
G01 X1102.118182 Y1234.213150 Z-0.125000
G01 X1091.866596 Y1229.087357 Z-0.125000
G01 X1081.615010 Y1223.961564 Z-0.125000
G01 X1055.986045 Y1198.332599 Z-0.125000
G01 X1030.357080 Y1193.206806 Z-0.125000
G01 X1030.357080 Y1172.703634 Z-0.125000
G01 X1014.979701 Y1162.452048 Z-0.125000
G01 X1020.105494 Y1147.074669 Z-0.125000
G01 X1009.853908 Y1131.697290 Z-0.125000
G01 X1004.728115 Y1106.068325 Z-0.125000
G01 X984.224943 Y1095.816739 Z-0.125000
G01 X968.847564 Y1085.565153 Z-0.125000
G01 X943.218599 Y1065.061981 Z-0.125000
G01 X917.589634 Y1059.936188 Z-0.125000
G01 X912.463841 Y1034.307223 Z-0.125000
G01 X922.715427 Y1003.552465 Z-0.125000
G01 X927.841220 Y972.797707 Z-0.125000
G01 X963.721771 Y977.923500 Z-0.125000
G01 X968.847564 Y952.294535 Z-0.125000
G01 X948.344392 Y942.042949 Z-0.125000
G01 X922.715427 Y931.791363 Z-0.125000
G01 X922.715427 Y906.162398 Z-0.125000
G01 X912.463841 Y890.785019 Z-0.125000
G01 X881.709083 Y865.156054 Z-0.125000
G01 X886.834876 Y829.275503 Z-0.125000
G01 X886.834876 Y803.646538 Z-0.125000
G01 X866.331704 Y778.017573 Z-0.125000
G01 X845.828532 Y757.514401 Z-0.125000
G01 X850.954325 Y721.633850 Z-0.125000
G01 X856.080118 Y690.879092 Z-0.125000
G01 X845.828532 Y670.375920 Z-0.125000
G01 X809.947981 Y665.250127 Z-0.125000
G01 X768.941637 Y670.375920 Z-0.125000
G01 X774.067430 Y680.627506 Z-0.125000
G01 X758.690051 Y680.627506 Z-0.125000
G01 X758.690051 Y665.250127 Z-0.125000
G01 X748.438465 Y660.124334 Z-0.125000
G01 X768.941637 Y649.872748 Z-0.125000
G01 X758.690051 Y644.746955 Z-0.125000
G01 X748.438465 Y644.746955 Z-0.125000
G01 X743.312672 Y634.495369 Z-0.125000
G01 X758.690051 Y629.369576 Z-0.125000
G01 X753.564258 Y619.117990 Z-0.125000
G01 X743.312672 Y619.117990 Z-0.125000
G01 X733.061086 Y619.117990 Z-0.125000
G01 X722.809500 Y639.621162 Z-0.125000
G01 X717.683707 Y619.117990 Z-0.125000
G01 X712.557914 Y603.740611 Z-0.125000
G01 X727.935293 Y603.740611 Z-0.125000
G01 X743.312672 Y603.740611 Z-0.125000
G01 X733.061086 Y593.489025 Z-0.125000
G01 X722.809500 Y588.363232 Z-0.125000
G01 X712.557914 Y588.363232 Z-0.125000
G01 X707.432121 Y578.111646 Z-0.125000
G01 X712.557914 Y567.860060 Z-0.125000
G01 X702.306328 Y562.734267 Z-0.125000
G01 X692.054742 Y552.482681 Z-0.125000
G01 X686.928949 Y562.734267 Z-0.125000
G01 X676.677363 Y557.608474 Z-0.125000
G01 X676.677363 Y542.231095 Z-0.125000
G01 X666.425777 Y542.231095 Z-0.125000
G01 X661.299984 Y537.105302 Z-0.125000
G01 X651.048398 Y537.105302 Z-0.125000
G01 X640.796812 Y531.979509 Z-0.125000
G01 X630.545226 Y526.853716 Z-0.125000
G01 X620.293640 Y521.727923 Z-0.125000
G01 X610.042054 Y516.602130 Z-0.125000
G01 X599.790468 Y516.602130 Z-0.125000
G01 X589.538882 Y516.602130 Z-0.125000
G01 X584.413089 Y506.350544 Z-0.125000
G01 X569.035710 Y501.224751 Z-0.125000
G01 X563.909917 Y511.476337 Z-0.125000
G01 X574.161503 Y516.602130 Z-0.125000
G01 X574.161503 Y531.979509 Z-0.125000
G01 X589.538882 Y531.979509 Z-0.125000
G01 X604.916261 Y531.979509 Z-0.125000
G01 X620.293640 Y537.105302 Z-0.125000
G01 X625.419433 Y547.356888 Z-0.125000
G01 X625.419433 Y562.734267 Z-0.125000
G01 X635.671019 Y547.356888 Z-0.125000
G01 X640.796812 Y557.608474 Z-0.125000
G01 X645.922605 Y567.860060 Z-0.125000
G01 X656.174191 Y557.608474 Z-0.125000
G01 X661.299984 Y567.860060 Z-0.125000
G01 X671.551570 Y572.985853 Z-0.125000
G01 X681.803156 Y578.111646 Z-0.125000
G01 X692.054742 Y583.237439 Z-0.125000
G01 X697.180535 Y593.489025 Z-0.125000
G01 X692.054742 Y613.992197 Z-0.125000
G01 X671.551570 Y603.740611 Z-0.125000
G01 X651.048398 Y588.363232 Z-0.125000
G01 X625.419433 Y593.489025 Z-0.125000
G01 X640.796812 Y613.992197 Z-0.125000
G01 X656.174191 Y629.369576 Z-0.125000
G01 X671.551570 Y639.621162 Z-0.125000
G01 X692.054742 Y644.746955 Z-0.125000
G01 X702.306328 Y665.250127 Z-0.125000
G01 X722.809500 Y670.375920 Z-0.125000
G01 X733.061086 Y690.879092 Z-0.125000
G01 X753.564258 Y701.130678 Z-0.125000
G01 X768.941637 Y696.004885 Z-0.125000
G01 X779.193223 Y696.004885 Z-0.125000
G01 X789.444809 Y706.256471 Z-0.125000
G01 X794.570602 Y721.633850 Z-0.125000
G01 X784.319016 Y731.885436 Z-0.125000
G01 X779.193223 Y716.508057 Z-0.125000
G01 X768.941637 Y711.382264 Z-0.125000
G01 X768.941637 Y726.759643 Z-0.125000
G01 X774.067430 Y742.137022 Z-0.125000
G01 X779.193223 Y747.262815 Z-0.125000
G01 X794.570602 Y742.137022 Z-0.125000
G01 X789.444809 Y757.514401 Z-0.125000
G01 X784.319016 Y772.891780 Z-0.125000
G01 X789.444809 Y783.143366 Z-0.125000
G01 X830.451153 Y813.898124 Z-0.125000
G01 X820.199567 Y844.652882 Z-0.125000
G01 X820.199567 Y870.281847 Z-0.125000
G01 X820.199567 Y895.910812 Z-0.125000
G01 X856.080118 Y906.162398 Z-0.125000
G01 X866.331704 Y931.791363 Z-0.125000
G01 X881.709083 Y952.294535 Z-0.125000
G01 X886.834876 Y977.923500 Z-0.125000
G01 X886.834876 Y1013.804051 Z-0.125000
G01 X850.954325 Y1008.678258 Z-0.125000
G01 X835.576946 Y988.175086 Z-0.125000
G01 X809.947981 Y967.671914 Z-0.125000
G01 X804.822188 Y942.042949 Z-0.125000
G01 X768.941637 Y931.791363 Z-0.125000
G01 X753.564258 Y911.288191 Z-0.125000
G01 X748.438465 Y895.910812 Z-0.125000
G01 X743.312672 Y890.785019 Z-0.125000
G01 X733.061086 Y885.659226 Z-0.125000
G01 X722.809500 Y880.533433 Z-0.125000
G01 X712.557914 Y895.910812 Z-0.125000
G01 X722.809500 Y901.036605 Z-0.125000
G01 X727.935293 Y906.162398 Z-0.125000
G01 X738.186879 Y911.288191 Z-0.125000
G01 X733.061086 Y926.665570 Z-0.125000
G01 X722.809500 Y926.665570 Z-0.125000
G01 X712.557914 Y921.539777 Z-0.125000
G01 X707.432121 Y911.288191 Z-0.125000
G01 X697.180535 Y906.162398 Z-0.125000
G01 X697.180535 Y885.659226 Z-0.125000
G01 X686.928949 Y870.281847 Z-0.125000
G01 X676.677363 Y854.904468 Z-0.125000
G01 X656.174191 Y849.778675 Z-0.125000
G01 X651.048398 Y829.275503 Z-0.125000
G01 X625.419433 Y834.401296 Z-0.125000
G01 X625.419433 Y860.030261 Z-0.125000
G01 X645.922605 Y875.407640 Z-0.125000
G01 X661.299984 Y885.659226 Z-0.125000
G01 X666.425777 Y906.162398 Z-0.125000
G01 X686.928949 Y916.413984 Z-0.125000
G01 X697.180535 Y926.665570 Z-0.125000
G01 X707.432121 Y936.917156 Z-0.125000
G01 X722.809500 Y942.042949 Z-0.125000
G01 X717.683707 Y957.420328 Z-0.125000
G01 X707.432121 Y957.420328 Z-0.125000
G01 X697.180535 Y952.294535 Z-0.125000
G01 X692.054742 Y942.042949 Z-0.125000
G01 X676.677363 Y942.042949 Z-0.125000
G01 X681.803156 Y931.791363 Z-0.125000
G01 X671.551570 Y926.665570 Z-0.125000
G01 X661.299984 Y936.917156 Z-0.125000
G01 X651.048398 Y936.917156 Z-0.125000
G01 X635.671019 Y942.042949 Z-0.125000
G01 X635.671019 Y916.413984 Z-0.125000
G01 X625.419433 Y906.162398 Z-0.125000
G01 X615.167847 Y885.659226 Z-0.125000
G01 X599.790468 Y865.156054 Z-0.125000
G01 X599.790468 Y839.527089 Z-0.125000
G00 Z5.000000

(End cutting path id: path42)


(Start cutting path id: path40)
(Change tool to Default tool)

G00 Z5.000000
G00 X1460.923692 Y1454.622249

G01 Z-0.125000 F100.0(Penetrate)
G01 X1476.301071 Y1454.622249 Z-0.125000 F400.000000
G01 X1486.552657 Y1464.873835 Z-0.125000
G01 X1491.678450 Y1480.251214 Z-0.125000
G01 X1501.930036 Y1475.125421 Z-0.125000
G01 X1517.307415 Y1485.377007 Z-0.125000
G01 X1501.930036 Y1490.502800 Z-0.125000
G01 X1496.804243 Y1500.754386 Z-0.125000
G01 X1512.181622 Y1505.880179 Z-0.125000
G01 X1527.559001 Y1521.257558 Z-0.125000
G01 X1532.684794 Y1536.634937 Z-0.125000
G01 X1512.181622 Y1536.634937 Z-0.125000
G01 X1507.055829 Y1521.257558 Z-0.125000
G01 X1496.804243 Y1516.131765 Z-0.125000
G01 X1481.426864 Y1516.131765 Z-0.125000
G01 X1466.049485 Y1516.131765 Z-0.125000
G01 X1466.049485 Y1531.509144 Z-0.125000
G01 X1481.426864 Y1531.509144 Z-0.125000
G01 X1491.678450 Y1536.634937 Z-0.125000
G01 X1496.804243 Y1546.886523 Z-0.125000
G01 X1512.181622 Y1552.012316 Z-0.125000
G01 X1522.433208 Y1562.263902 Z-0.125000
G01 X1527.559001 Y1567.389695 Z-0.125000
G01 X1542.936380 Y1567.389695 Z-0.125000
G01 X1553.187966 Y1577.641281 Z-0.125000
G01 X1563.439552 Y1587.892867 Z-0.125000
G01 X1573.691138 Y1598.144453 Z-0.125000
G01 X1594.194310 Y1603.270246 Z-0.125000
G01 X1599.320103 Y1618.647625 Z-0.125000
G01 X1619.823275 Y1613.521832 Z-0.125000
G01 X1630.074861 Y1623.773418 Z-0.125000
G01 X1650.578033 Y1618.647625 Z-0.125000
G01 X1665.955412 Y1623.773418 Z-0.125000
G01 X1671.081205 Y1634.025004 Z-0.125000
G01 X1686.458584 Y1628.899211 Z-0.125000
G01 X1696.710170 Y1634.025004 Z-0.125000
G01 X1706.961756 Y1639.150797 Z-0.125000
G01 X1722.339135 Y1639.150797 Z-0.125000
G01 X1722.339135 Y1623.773418 Z-0.125000
G01 X1712.087549 Y1618.647625 Z-0.125000
G01 X1696.710170 Y1613.521832 Z-0.125000
G01 X1686.458584 Y1608.396039 Z-0.125000
G01 X1676.206998 Y1598.144453 Z-0.125000
G01 X1671.081205 Y1582.767074 Z-0.125000
G01 X1650.578033 Y1598.144453 Z-0.125000
G01 X1640.326447 Y1587.892867 Z-0.125000
G01 X1619.823275 Y1593.018660 Z-0.125000
G01 X1609.571689 Y1577.641281 Z-0.125000
G01 X1589.068517 Y1582.767074 Z-0.125000
G01 X1573.691138 Y1567.389695 Z-0.125000
G01 X1563.439552 Y1552.012316 Z-0.125000
G01 X1548.062173 Y1546.886523 Z-0.125000
G01 X1553.187966 Y1531.509144 Z-0.125000
G01 X1553.187966 Y1516.131765 Z-0.125000
G01 X1542.936380 Y1505.880179 Z-0.125000
G01 X1527.559001 Y1500.754386 Z-0.125000
G01 X1532.684794 Y1485.377007 Z-0.125000
G01 X1548.062173 Y1485.377007 Z-0.125000
G01 X1563.439552 Y1495.628593 Z-0.125000
G01 X1573.691138 Y1505.880179 Z-0.125000
G01 X1573.691138 Y1521.257558 Z-0.125000
G01 X1578.816931 Y1536.634937 Z-0.125000
G01 X1589.068517 Y1546.886523 Z-0.125000
G01 X1594.194310 Y1562.263902 Z-0.125000
G01 X1614.697482 Y1552.012316 Z-0.125000
G01 X1609.571689 Y1531.509144 Z-0.125000
G01 X1599.320103 Y1521.257558 Z-0.125000
G01 X1594.194310 Y1505.880179 Z-0.125000
G01 X1583.942724 Y1485.377007 Z-0.125000
G01 X1573.691138 Y1475.125421 Z-0.125000
G01 X1563.439552 Y1464.873835 Z-0.125000
G01 X1548.062173 Y1464.873835 Z-0.125000
G01 X1527.559001 Y1469.999628 Z-0.125000
G01 X1522.433208 Y1464.873835 Z-0.125000
G01 X1512.181622 Y1459.748042 Z-0.125000
G01 X1501.930036 Y1454.622249 Z-0.125000
G01 X1501.930036 Y1439.244870 Z-0.125000
G01 X1486.552657 Y1434.119077 Z-0.125000
G01 X1471.175278 Y1428.993284 Z-0.125000
G01 X1455.797899 Y1423.867491 Z-0.125000
G01 X1445.546313 Y1444.370663 Z-0.125000
G01 X1430.168934 Y1434.119077 Z-0.125000
G01 X1419.917348 Y1423.867491 Z-0.125000
G01 X1404.539969 Y1418.741698 Z-0.125000
G01 X1389.162590 Y1408.490112 Z-0.125000
G01 X1378.911004 Y1398.238526 Z-0.125000
G01 X1389.162590 Y1372.609561 Z-0.125000
G01 X1399.414176 Y1382.861147 Z-0.125000
G01 X1409.665762 Y1393.112733 Z-0.125000
G01 X1425.043141 Y1398.238526 Z-0.125000
G01 X1445.546313 Y1408.490112 Z-0.125000
G01 X1445.546313 Y1387.986940 Z-0.125000
G01 X1440.420520 Y1372.609561 Z-0.125000
G01 X1419.917348 Y1372.609561 Z-0.125000
G01 X1409.665762 Y1357.232182 Z-0.125000
G01 X1389.162590 Y1352.106389 Z-0.125000
G01 X1378.911004 Y1341.854803 Z-0.125000
G01 X1363.533625 Y1336.729010 Z-0.125000
G01 X1363.533625 Y1321.351631 Z-0.125000
G01 X1348.156246 Y1305.974252 Z-0.125000
G01 X1337.904660 Y1295.722666 Z-0.125000
G01 X1337.904660 Y1275.219494 Z-0.125000
G01 X1327.653074 Y1254.716322 Z-0.125000
G01 X1322.527281 Y1234.213150 Z-0.125000
G01 X1307.149902 Y1229.087357 Z-0.125000
G01 X1291.772523 Y1218.835771 Z-0.125000
G01 X1296.898316 Y1203.458392 Z-0.125000
G01 X1276.395144 Y1208.584185 Z-0.125000
G01 X1271.269351 Y1188.081013 Z-0.125000
G01 X1266.143558 Y1172.703634 Z-0.125000
G01 X1250.766179 Y1167.577841 Z-0.125000
G01 X1235.388800 Y1167.577841 Z-0.125000
G01 X1230.263007 Y1152.200462 Z-0.125000
G01 X1220.011421 Y1141.948876 Z-0.125000
G01 X1209.759835 Y1131.697290 Z-0.125000
G01 X1214.885628 Y1116.319911 Z-0.125000
G01 X1235.388800 Y1111.194118 Z-0.125000
G01 X1240.514593 Y1121.445704 Z-0.125000
G01 X1250.766179 Y1141.948876 Z-0.125000
G01 X1266.143558 Y1147.074669 Z-0.125000
G01 X1281.520937 Y1152.200462 Z-0.125000
G01 X1286.646730 Y1172.703634 Z-0.125000
G01 X1291.772523 Y1182.955220 Z-0.125000
G01 X1312.275695 Y1177.829427 Z-0.125000
G01 X1317.401488 Y1198.332599 Z-0.125000
G01 X1327.653074 Y1208.584185 Z-0.125000
G01 X1337.904660 Y1218.835771 Z-0.125000
G01 X1343.030453 Y1229.087357 Z-0.125000
G01 X1363.533625 Y1229.087357 Z-0.125000
G01 X1368.659418 Y1244.464736 Z-0.125000
G01 X1348.156246 Y1249.590529 Z-0.125000
G01 X1358.407832 Y1264.967908 Z-0.125000
G01 X1373.785211 Y1264.967908 Z-0.125000
G01 X1384.036797 Y1275.219494 Z-0.125000
G01 X1363.533625 Y1285.471080 Z-0.125000
G01 X1368.659418 Y1300.848459 Z-0.125000
G01 X1384.036797 Y1295.722666 Z-0.125000
G01 X1384.036797 Y1316.225838 Z-0.125000
G01 X1399.414176 Y1321.351631 Z-0.125000
G01 X1409.665762 Y1331.603217 Z-0.125000
G01 X1425.043141 Y1331.603217 Z-0.125000
G01 X1435.294727 Y1352.106389 Z-0.125000
G01 X1445.546313 Y1331.603217 Z-0.125000
G01 X1460.923692 Y1341.854803 Z-0.125000
G01 X1476.301071 Y1346.980596 Z-0.125000
G01 X1466.049485 Y1367.483768 Z-0.125000
G01 X1481.426864 Y1377.735354 Z-0.125000
G01 X1466.049485 Y1398.238526 Z-0.125000
G01 X1481.426864 Y1408.490112 Z-0.125000
G01 X1501.930036 Y1413.615905 Z-0.125000
G01 X1517.307415 Y1418.741698 Z-0.125000
G01 X1522.433208 Y1434.119077 Z-0.125000
G01 X1527.559001 Y1444.370663 Z-0.125000
G01 X1542.936380 Y1449.496456 Z-0.125000
G01 X1558.313759 Y1444.370663 Z-0.125000
G01 X1573.691138 Y1439.244870 Z-0.125000
G01 X1583.942724 Y1444.370663 Z-0.125000
G01 X1589.068517 Y1459.748042 Z-0.125000
G01 X1604.445896 Y1464.873835 Z-0.125000
G01 X1619.823275 Y1464.873835 Z-0.125000
G01 X1624.949068 Y1480.251214 Z-0.125000
G01 X1604.445896 Y1485.377007 Z-0.125000
G01 X1614.697482 Y1500.754386 Z-0.125000
G01 X1630.074861 Y1511.005972 Z-0.125000
G01 X1630.074861 Y1531.509144 Z-0.125000
G01 X1635.200654 Y1546.886523 Z-0.125000
G01 X1630.074861 Y1567.389695 Z-0.125000
G01 X1650.578033 Y1567.389695 Z-0.125000
G01 X1671.081205 Y1562.263902 Z-0.125000
G01 X1691.584377 Y1557.138109 Z-0.125000
G01 X1691.584377 Y1536.634937 Z-0.125000
G01 X1676.206998 Y1536.634937 Z-0.125000
G01 X1655.703826 Y1541.760730 Z-0.125000
G01 X1665.955412 Y1521.257558 Z-0.125000
G01 X1650.578033 Y1516.131765 Z-0.125000
G01 X1655.703826 Y1495.628593 Z-0.125000
G01 X1640.326447 Y1490.502800 Z-0.125000
G01 X1650.578033 Y1469.999628 Z-0.125000
G01 X1665.955412 Y1475.125421 Z-0.125000
G01 X1686.458584 Y1475.125421 Z-0.125000
G01 X1676.206998 Y1495.628593 Z-0.125000
G01 X1691.584377 Y1511.005972 Z-0.125000
G01 X1696.710170 Y1490.502800 Z-0.125000
G01 X1712.087549 Y1495.628593 Z-0.125000
G01 X1727.464928 Y1505.880179 Z-0.125000
G01 X1712.087549 Y1521.257558 Z-0.125000
G01 X1717.213342 Y1541.760730 Z-0.125000
G01 X1712.087549 Y1557.138109 Z-0.125000
G01 X1722.339135 Y1562.263902 Z-0.125000
G01 X1732.590721 Y1567.389695 Z-0.125000
G01 X1753.093893 Y1567.389695 Z-0.125000
G01 X1763.345479 Y1587.892867 Z-0.125000
G01 X1778.722858 Y1587.892867 Z-0.125000
G01 X1788.974444 Y1598.144453 Z-0.125000
G01 X1783.848651 Y1608.396039 Z-0.125000
G01 X1788.974444 Y1623.773418 Z-0.125000
G01 X1799.226030 Y1634.025004 Z-0.125000
G01 X1814.603409 Y1634.025004 Z-0.125000
G01 X1819.729202 Y1613.521832 Z-0.125000
G01 X1809.477616 Y1603.270246 Z-0.125000
G01 X1799.226030 Y1582.767074 Z-0.125000
G01 X1794.100237 Y1567.389695 Z-0.125000
G01 X1778.722858 Y1572.515488 Z-0.125000
G01 X1768.471272 Y1567.389695 Z-0.125000
G01 X1763.345479 Y1552.012316 Z-0.125000
G01 X1747.968100 Y1546.886523 Z-0.125000
G01 X1737.716514 Y1536.634937 Z-0.125000
G01 X1737.716514 Y1521.257558 Z-0.125000
G01 X1758.219686 Y1526.383351 Z-0.125000
G01 X1773.597065 Y1531.509144 Z-0.125000
G01 X1783.848651 Y1552.012316 Z-0.125000
G01 X1788.974444 Y1541.760730 Z-0.125000
G01 X1809.477616 Y1546.886523 Z-0.125000
G01 X1814.603409 Y1557.138109 Z-0.125000
G01 X1819.729202 Y1577.641281 Z-0.125000
G01 X1829.980788 Y1587.892867 Z-0.125000
G01 X1840.232374 Y1603.270246 Z-0.125000
G01 X1840.232374 Y1623.773418 Z-0.125000
G01 X1840.232374 Y1644.276590 Z-0.125000
G01 X1855.609753 Y1649.402383 Z-0.125000
G01 X1870.987132 Y1654.528176 Z-0.125000
G01 X1865.861339 Y1669.905555 Z-0.125000
G01 X1881.238718 Y1675.031348 Z-0.125000
G01 X1886.364511 Y1685.282934 Z-0.125000
G01 X1896.616097 Y1705.786106 Z-0.125000
G01 X1906.867683 Y1721.163485 Z-0.125000
G01 X1927.370855 Y1726.289278 Z-0.125000
G01 X1937.622441 Y1741.666657 Z-0.125000
G01 X1947.874027 Y1721.163485 Z-0.125000
G01 X1947.874027 Y1700.660313 Z-0.125000
G01 X1927.370855 Y1705.786106 Z-0.125000
G01 X1917.119269 Y1695.534520 Z-0.125000
G01 X1906.867683 Y1685.282934 Z-0.125000
G01 X1906.867683 Y1664.779762 Z-0.125000
G01 X1927.370855 Y1669.905555 Z-0.125000
G01 X1942.748234 Y1680.157141 Z-0.125000
G01 X1963.251406 Y1669.905555 Z-0.125000
G01 X1973.502992 Y1680.157141 Z-0.125000
G01 X1968.377199 Y1695.534520 Z-0.125000
G01 X1968.377199 Y1716.037692 Z-0.125000
G01 X1978.628785 Y1736.540864 Z-0.125000
G01 X1958.125613 Y1741.666657 Z-0.125000
G01 X1947.874027 Y1762.169829 Z-0.125000
G01 X1968.377199 Y1762.169829 Z-0.125000
G01 X1988.880371 Y1772.421415 Z-0.125000
G01 X1999.131957 Y1782.673001 Z-0.125000
G01 X1999.131957 Y1798.050380 Z-0.125000
G01 X1999.131957 Y1813.427759 Z-0.125000
G01 X1983.754578 Y1813.427759 Z-0.125000
G01 X1983.754578 Y1798.050380 Z-0.125000
G01 X1978.628785 Y1787.798794 Z-0.125000
G01 X1968.377199 Y1803.176173 Z-0.125000
G01 X1963.251406 Y1787.798794 Z-0.125000
G01 X1947.874027 Y1787.798794 Z-0.125000
G01 X1952.999820 Y1803.176173 Z-0.125000
G01 X1937.622441 Y1803.176173 Z-0.125000
G01 X1932.496648 Y1792.924587 Z-0.125000
G01 X1922.245062 Y1787.798794 Z-0.125000
G01 X1917.119269 Y1767.295622 Z-0.125000
G01 X1911.993476 Y1751.918243 Z-0.125000
G01 X1901.741890 Y1741.666657 Z-0.125000
G01 X1886.364511 Y1736.540864 Z-0.125000
G01 X1876.112925 Y1726.289278 Z-0.125000
G01 X1870.987132 Y1710.911899 Z-0.125000
G01 X1860.735546 Y1700.660313 Z-0.125000
G01 X1850.483960 Y1690.408727 Z-0.125000
G01 X1845.358167 Y1669.905555 Z-0.125000
G01 X1829.980788 Y1690.408727 Z-0.125000
G01 X1814.603409 Y1685.282934 Z-0.125000
G01 X1824.854995 Y1664.779762 Z-0.125000
G01 X1819.729202 Y1649.402383 Z-0.125000
G01 X1799.226030 Y1654.528176 Z-0.125000
G01 X1778.722858 Y1649.402383 Z-0.125000
G01 X1768.471272 Y1639.150797 Z-0.125000
G01 X1753.093893 Y1623.773418 Z-0.125000
G01 X1768.471272 Y1623.773418 Z-0.125000
G01 X1763.345479 Y1608.396039 Z-0.125000
G01 X1753.093893 Y1603.270246 Z-0.125000
G01 X1747.968100 Y1587.892867 Z-0.125000
G01 X1737.716514 Y1582.767074 Z-0.125000
G01 X1722.339135 Y1587.892867 Z-0.125000
G01 X1712.087549 Y1582.767074 Z-0.125000
G01 X1696.710170 Y1577.641281 Z-0.125000
G01 X1696.710170 Y1593.018660 Z-0.125000
G01 X1712.087549 Y1603.270246 Z-0.125000
G01 X1727.464928 Y1603.270246 Z-0.125000
G01 X1737.716514 Y1608.396039 Z-0.125000
G01 X1737.716514 Y1623.773418 Z-0.125000
G01 X1737.716514 Y1639.150797 Z-0.125000
G01 X1747.968100 Y1644.276590 Z-0.125000
G01 X1753.093893 Y1659.653969 Z-0.125000
G01 X1768.471272 Y1664.779762 Z-0.125000
G01 X1783.848651 Y1669.905555 Z-0.125000
G01 X1799.226030 Y1675.031348 Z-0.125000
G01 X1794.100237 Y1690.408727 Z-0.125000
G01 X1794.100237 Y1705.786106 Z-0.125000
G01 X1773.597065 Y1695.534520 Z-0.125000
G01 X1763.345479 Y1685.282934 Z-0.125000
G01 X1753.093893 Y1680.157141 Z-0.125000
G01 X1737.716514 Y1680.157141 Z-0.125000
G01 X1722.339135 Y1675.031348 Z-0.125000
G01 X1737.716514 Y1659.653969 Z-0.125000
G01 X1722.339135 Y1659.653969 Z-0.125000
G01 X1712.087549 Y1654.528176 Z-0.125000
G01 X1696.710170 Y1659.653969 Z-0.125000
G01 X1686.458584 Y1649.402383 Z-0.125000
G01 X1671.081205 Y1649.402383 Z-0.125000
G01 X1676.206998 Y1664.779762 Z-0.125000
G01 X1676.206998 Y1680.157141 Z-0.125000
G01 X1691.584377 Y1675.031348 Z-0.125000
G01 X1701.835963 Y1680.157141 Z-0.125000
G01 X1706.961756 Y1695.534520 Z-0.125000
G01 X1722.339135 Y1695.534520 Z-0.125000
G01 X1732.590721 Y1700.660313 Z-0.125000
G01 X1747.968100 Y1705.786106 Z-0.125000
G01 X1753.093893 Y1716.037692 Z-0.125000
G01 X1768.471272 Y1716.037692 Z-0.125000
G01 X1773.597065 Y1726.289278 Z-0.125000
G01 X1788.974444 Y1731.415071 Z-0.125000
G01 X1794.100237 Y1746.792450 Z-0.125000
G01 X1804.351823 Y1757.044036 Z-0.125000
G01 X1819.729202 Y1762.169829 Z-0.125000
G01 X1840.232374 Y1751.918243 Z-0.125000
G01 X1829.980788 Y1736.540864 Z-0.125000
G01 X1814.603409 Y1731.415071 Z-0.125000
G01 X1809.477616 Y1710.911899 Z-0.125000
G01 X1824.854995 Y1710.911899 Z-0.125000
G01 X1840.232374 Y1721.163485 Z-0.125000
G01 X1855.609753 Y1731.415071 Z-0.125000
G01 X1860.735546 Y1751.918243 Z-0.125000
G01 X1855.609753 Y1767.295622 Z-0.125000
G01 X1865.861339 Y1787.798794 Z-0.125000
G01 X1876.112925 Y1762.169829 Z-0.125000
G01 X1891.490304 Y1772.421415 Z-0.125000
G01 X1891.490304 Y1792.924587 Z-0.125000
G01 X1901.741890 Y1798.050380 Z-0.125000
G01 X1911.993476 Y1803.176173 Z-0.125000
G01 X1906.867683 Y1813.427759 Z-0.125000
G01 X1922.245062 Y1813.427759 Z-0.125000
G01 X1937.622441 Y1818.553552 Z-0.125000
G01 X1952.999820 Y1823.679345 Z-0.125000
G01 X1968.377199 Y1818.553552 Z-0.125000
G01 X1968.377199 Y1833.930931 Z-0.125000
G01 X1983.754578 Y1833.930931 Z-0.125000
G01 X1983.754578 Y1854.434103 Z-0.125000
G01 X1968.377199 Y1854.434103 Z-0.125000
G01 X1952.999820 Y1844.182517 Z-0.125000
G01 X1937.622441 Y1839.056724 Z-0.125000
G01 X1922.245062 Y1833.930931 Z-0.125000
G01 X1906.867683 Y1833.930931 Z-0.125000
G01 X1891.490304 Y1828.805138 Z-0.125000
G01 X1886.364511 Y1813.427759 Z-0.125000
G01 X1876.112925 Y1803.176173 Z-0.125000
G01 X1870.987132 Y1823.679345 Z-0.125000
G01 X1855.609753 Y1818.553552 Z-0.125000
G01 X1860.735546 Y1808.301966 Z-0.125000
G01 X1850.483960 Y1803.176173 Z-0.125000
G01 X1840.232374 Y1792.924587 Z-0.125000
G01 X1829.980788 Y1808.301966 Z-0.125000
G01 X1819.729202 Y1798.050380 Z-0.125000
G01 X1829.980788 Y1777.547208 Z-0.125000
G01 X1809.477616 Y1782.673001 Z-0.125000
G01 X1794.100237 Y1777.547208 Z-0.125000
G01 X1778.722858 Y1767.295622 Z-0.125000
G01 X1768.471272 Y1757.044036 Z-0.125000
G01 X1758.219686 Y1746.792450 Z-0.125000
G01 X1742.842307 Y1741.666657 Z-0.125000
G01 X1732.590721 Y1731.415071 Z-0.125000
G01 X1722.339135 Y1721.163485 Z-0.125000
G01 X1706.961756 Y1716.037692 Z-0.125000
G01 X1691.584377 Y1710.911899 Z-0.125000
G01 X1686.458584 Y1695.534520 Z-0.125000
G01 X1671.081205 Y1700.660313 Z-0.125000
G01 X1655.703826 Y1690.408727 Z-0.125000
G01 X1645.452240 Y1685.282934 Z-0.125000
G01 X1660.829619 Y1669.905555 Z-0.125000
G01 X1655.703826 Y1659.653969 Z-0.125000
G01 X1650.578033 Y1644.276590 Z-0.125000
G01 X1630.074861 Y1644.276590 Z-0.125000
G01 X1635.200654 Y1664.779762 Z-0.125000
G01 X1630.074861 Y1680.157141 Z-0.125000
G01 X1614.697482 Y1680.157141 Z-0.125000
G01 X1609.571689 Y1700.660313 Z-0.125000
G01 X1624.949068 Y1700.660313 Z-0.125000
G01 X1640.326447 Y1710.911899 Z-0.125000
G01 X1650.578033 Y1716.037692 Z-0.125000
G01 X1671.081205 Y1721.163485 Z-0.125000
G01 X1686.458584 Y1731.415071 Z-0.125000
G01 X1706.961756 Y1736.540864 Z-0.125000
G01 X1717.213342 Y1751.918243 Z-0.125000
G01 X1717.213342 Y1767.295622 Z-0.125000
G01 X1737.716514 Y1767.295622 Z-0.125000
G01 X1747.968100 Y1777.547208 Z-0.125000
G01 X1742.842307 Y1792.924587 Z-0.125000
G01 X1763.345479 Y1787.798794 Z-0.125000
G01 X1778.722858 Y1792.924587 Z-0.125000
G01 X1788.974444 Y1803.176173 Z-0.125000
G01 X1804.351823 Y1803.176173 Z-0.125000
G01 X1809.477616 Y1818.553552 Z-0.125000
G01 X1819.729202 Y1828.805138 Z-0.125000
G01 X1835.106581 Y1823.679345 Z-0.125000
G01 X1845.358167 Y1833.930931 Z-0.125000
G00 Z5.000000

(End cutting path id: path40)


(Start cutting path id: path38)
(Change tool to Default tool)

G00 Z5.000000
G00 X1045.734459 Y557.608474

G01 Z-0.125000 F100.0(Penetrate)
G01 X1025.231287 Y552.482681 Z-0.125000 F400.000000
G01 X1020.105494 Y542.231095 Z-0.125000
G01 X1045.734459 Y537.105302 Z-0.125000
G01 X1045.734459 Y521.727923 Z-0.125000
G01 X1025.231287 Y516.602130 Z-0.125000
G01 X1030.357080 Y501.224751 Z-0.125000
G01 X1014.979701 Y496.098958 Z-0.125000
G01 X1004.728115 Y485.847372 Z-0.125000
G01 X989.350736 Y480.721579 Z-0.125000
G01 X979.099150 Y470.469993 Z-0.125000
G01 X973.973357 Y455.092614 Z-0.125000
G01 X953.470185 Y455.092614 Z-0.125000
G01 X948.344392 Y444.841028 Z-0.125000
G01 X948.344392 Y429.463649 Z-0.125000
G01 X938.092806 Y419.212063 Z-0.125000
G01 X922.715427 Y414.086270 Z-0.125000
G01 X927.841220 Y393.583098 Z-0.125000
G01 X912.463841 Y388.457305 Z-0.125000
G01 X891.960669 Y388.457305 Z-0.125000
G01 X871.457497 Y388.457305 Z-0.125000
G01 X866.331704 Y373.079926 Z-0.125000
G01 X850.954325 Y367.954133 Z-0.125000
G01 X830.451153 Y367.954133 Z-0.125000
G01 X809.947981 Y373.079926 Z-0.125000
G01 X794.570602 Y367.954133 Z-0.125000
G01 X789.444809 Y388.457305 Z-0.125000
G01 X774.067430 Y373.079926 Z-0.125000
G01 X763.815844 Y362.828340 Z-0.125000
G01 X763.815844 Y342.325168 Z-0.125000
G01 X784.319016 Y337.199375 Z-0.125000
G01 X789.444809 Y347.450961 Z-0.125000
G01 X809.947981 Y342.325168 Z-0.125000
G01 X825.325360 Y347.450961 Z-0.125000
G01 X840.702739 Y347.450961 Z-0.125000
G01 X845.828532 Y332.073582 Z-0.125000
G01 X861.205911 Y347.450961 Z-0.125000
G01 X876.583290 Y357.702547 Z-0.125000
G01 X891.960669 Y367.954133 Z-0.125000
G01 X912.463841 Y367.954133 Z-0.125000
G01 X932.967013 Y373.079926 Z-0.125000
G01 X948.344392 Y388.457305 Z-0.125000
G01 X958.595978 Y398.708891 Z-0.125000
G01 X968.847564 Y408.960477 Z-0.125000
G01 X973.973357 Y429.463649 Z-0.125000
G01 X989.350736 Y434.589442 Z-0.125000
G01 X999.602322 Y449.966821 Z-0.125000
G01 X1009.853908 Y465.344200 Z-0.125000
G01 X1035.482873 Y475.595786 Z-0.125000
G01 X1030.357080 Y465.344200 Z-0.125000
G01 X1025.231287 Y444.841028 Z-0.125000
G01 X1014.979701 Y429.463649 Z-0.125000
G01 X1004.728115 Y414.086270 Z-0.125000
G01 X989.350736 Y403.834684 Z-0.125000
G01 X984.224943 Y383.331512 Z-0.125000
G01 X979.099150 Y373.079926 Z-0.125000
G01 X963.721771 Y367.954133 Z-0.125000
G01 X953.470185 Y357.702547 Z-0.125000
G01 X938.092806 Y352.576754 Z-0.125000
G01 X922.715427 Y347.450961 Z-0.125000
G01 X902.212255 Y347.450961 Z-0.125000
G01 X886.834876 Y332.073582 Z-0.125000
G01 X871.457497 Y326.947789 Z-0.125000
G01 X876.583290 Y311.570410 Z-0.125000
G01 X861.205911 Y306.444617 Z-0.125000
G01 X850.954325 Y291.067238 Z-0.125000
G01 X850.954325 Y275.689859 Z-0.125000
G01 X845.828532 Y265.438273 Z-0.125000
G01 X840.702739 Y244.935101 Z-0.125000
G01 X830.451153 Y234.683515 Z-0.125000
G01 X809.947981 Y224.431929 Z-0.125000
G01 X830.451153 Y214.180343 Z-0.125000
G01 X850.954325 Y214.180343 Z-0.125000
G01 X866.331704 Y219.306136 Z-0.125000
G01 X861.205911 Y239.809308 Z-0.125000
G01 X881.709083 Y229.557722 Z-0.125000
G01 X897.086462 Y239.809308 Z-0.125000
G01 X917.589634 Y239.809308 Z-0.125000
G01 X938.092806 Y239.809308 Z-0.125000
G01 X953.470185 Y244.935101 Z-0.125000
G01 X968.847564 Y260.312480 Z-0.125000
G01 X943.218599 Y265.438273 Z-0.125000
G01 X953.470185 Y280.815652 Z-0.125000
G01 X963.721771 Y291.067238 Z-0.125000
G01 X984.224943 Y285.941445 Z-0.125000
G01 X999.602322 Y291.067238 Z-0.125000
G01 X1014.979701 Y296.193031 Z-0.125000
G01 X1030.357080 Y270.564066 Z-0.125000
G01 X1045.734459 Y280.815652 Z-0.125000
G01 X1055.986045 Y301.318824 Z-0.125000
G01 X1076.489217 Y301.318824 Z-0.125000
G01 X1102.118182 Y306.444617 Z-0.125000
G01 X1102.118182 Y280.815652 Z-0.125000
G01 X1071.363424 Y275.689859 Z-0.125000
G01 X1061.111838 Y255.186687 Z-0.125000
G01 X1040.608666 Y244.935101 Z-0.125000
G01 X1020.105494 Y239.809308 Z-0.125000
G01 X1009.853908 Y265.438273 Z-0.125000
G01 X989.350736 Y260.312480 Z-0.125000
G01 X994.476529 Y239.809308 Z-0.125000
G01 X979.099150 Y229.557722 Z-0.125000
G01 X963.721771 Y214.180343 Z-0.125000
G01 X943.218599 Y214.180343 Z-0.125000
G01 X932.967013 Y188.551378 Z-0.125000
G01 X922.715427 Y214.180343 Z-0.125000
G01 X902.212255 Y214.180343 Z-0.125000
G01 X907.338048 Y193.677171 Z-0.125000
G01 X891.960669 Y178.299792 Z-0.125000
G01 X886.834876 Y203.928757 Z-0.125000
G01 X871.457497 Y193.677171 Z-0.125000
G01 X856.080118 Y178.299792 Z-0.125000
G01 X850.954325 Y193.677171 Z-0.125000
G01 X830.451153 Y193.677171 Z-0.125000
G01 X815.073774 Y188.551378 Z-0.125000
G01 X804.822188 Y209.054550 Z-0.125000
G01 X794.570602 Y198.802964 Z-0.125000
G01 X779.193223 Y188.551378 Z-0.125000
G01 X774.067430 Y214.180343 Z-0.125000
G01 X784.319016 Y224.431929 Z-0.125000
G01 X789.444809 Y239.809308 Z-0.125000
G01 X799.696395 Y250.060894 Z-0.125000
G01 X815.073774 Y255.186687 Z-0.125000
G01 X825.325360 Y265.438273 Z-0.125000
G01 X825.325360 Y285.941445 Z-0.125000
G01 X830.451153 Y301.318824 Z-0.125000
G01 X835.576946 Y316.696203 Z-0.125000
G01 X815.073774 Y321.821996 Z-0.125000
G01 X804.822188 Y311.570410 Z-0.125000
G01 X799.696395 Y296.193031 Z-0.125000
G01 X804.822188 Y280.815652 Z-0.125000
G01 X789.444809 Y275.689859 Z-0.125000
G01 X779.193223 Y296.193031 Z-0.125000
G01 X784.319016 Y316.696203 Z-0.125000
G01 X763.815844 Y321.821996 Z-0.125000
G01 X758.690051 Y301.318824 Z-0.125000
G01 X743.312672 Y301.318824 Z-0.125000
G01 X727.935293 Y296.193031 Z-0.125000
G01 X717.683707 Y285.941445 Z-0.125000
G01 X707.432121 Y275.689859 Z-0.125000
G01 X707.432121 Y255.186687 Z-0.125000
G01 X686.928949 Y255.186687 Z-0.125000
G01 X686.928949 Y239.809308 Z-0.125000
G01 X697.180535 Y219.306136 Z-0.125000
G01 X707.432121 Y229.557722 Z-0.125000
G01 X727.935293 Y224.431929 Z-0.125000
G01 X733.061086 Y244.935101 Z-0.125000
G01 X727.935293 Y260.312480 Z-0.125000
G01 X743.312672 Y265.438273 Z-0.125000
G01 X748.438465 Y280.815652 Z-0.125000
G01 X768.941637 Y270.564066 Z-0.125000
G01 X768.941637 Y255.186687 Z-0.125000
G01 X763.815844 Y244.935101 Z-0.125000
G01 X753.564258 Y234.683515 Z-0.125000
G01 X753.564258 Y214.180343 Z-0.125000
G01 X758.690051 Y193.677171 Z-0.125000
G01 X738.186879 Y203.928757 Z-0.125000
G01 X722.809500 Y203.928757 Z-0.125000
G01 X702.306328 Y193.677171 Z-0.125000
G01 X686.928949 Y188.551378 Z-0.125000
G01 X676.677363 Y209.054550 Z-0.125000
G01 X661.299984 Y209.054550 Z-0.125000
G01 X651.048398 Y193.677171 Z-0.125000
G01 X645.922605 Y224.431929 Z-0.125000
G01 X661.299984 Y234.683515 Z-0.125000
G01 X666.425777 Y255.186687 Z-0.125000
G01 X671.551570 Y275.689859 Z-0.125000
G01 X676.677363 Y285.941445 Z-0.125000
G01 X692.054742 Y296.193031 Z-0.125000
G01 X707.432121 Y306.444617 Z-0.125000
G01 X707.432121 Y321.821996 Z-0.125000
G01 X727.935293 Y321.821996 Z-0.125000
G01 X743.312672 Y326.947789 Z-0.125000
G01 X743.312672 Y347.450961 Z-0.125000
G01 X722.809500 Y347.450961 Z-0.125000
G01 X707.432121 Y342.325168 Z-0.125000
G01 X697.180535 Y362.828340 Z-0.125000
G01 X686.928949 Y342.325168 Z-0.125000
G01 X686.928949 Y321.821996 Z-0.125000
G01 X666.425777 Y306.444617 Z-0.125000
G01 X645.922605 Y311.570410 Z-0.125000
G01 X645.922605 Y291.067238 Z-0.125000
G01 X651.048398 Y275.689859 Z-0.125000
G01 X635.671019 Y265.438273 Z-0.125000
G01 X630.545226 Y244.935101 Z-0.125000
G01 X620.293640 Y234.683515 Z-0.125000
G01 X630.545226 Y214.180343 Z-0.125000
G01 X610.042054 Y209.054550 Z-0.125000
G01 X594.664675 Y224.431929 Z-0.125000
G01 X574.161503 Y224.431929 Z-0.125000
G01 X563.909917 Y250.060894 Z-0.125000
G01 X553.658331 Y239.809308 Z-0.125000
G01 X533.155159 Y239.809308 Z-0.125000
G01 X533.155159 Y260.312480 Z-0.125000
G01 X538.280952 Y280.815652 Z-0.125000
G01 X558.784124 Y280.815652 Z-0.125000
G01 X563.909917 Y296.193031 Z-0.125000
G01 X569.035710 Y311.570410 Z-0.125000
G01 X548.532538 Y316.696203 Z-0.125000
G01 X533.155159 Y306.444617 Z-0.125000
G01 X522.903573 Y332.073582 Z-0.125000
G01 X538.280952 Y337.199375 Z-0.125000
G01 X548.532538 Y347.450961 Z-0.125000
G01 X569.035710 Y332.073582 Z-0.125000
G01 X579.287296 Y342.325168 Z-0.125000
G01 X599.790468 Y342.325168 Z-0.125000
G01 X599.790468 Y316.696203 Z-0.125000
G01 X589.538882 Y306.444617 Z-0.125000
G01 X584.413089 Y285.941445 Z-0.125000
G01 X589.538882 Y270.564066 Z-0.125000
G01 X579.287296 Y260.312480 Z-0.125000
G01 X599.790468 Y244.935101 Z-0.125000
G01 X610.042054 Y260.312480 Z-0.125000
G01 X610.042054 Y280.815652 Z-0.125000
G01 X620.293640 Y296.193031 Z-0.125000
G01 X620.293640 Y316.696203 Z-0.125000
G01 X625.419433 Y332.073582 Z-0.125000
G01 X640.796812 Y337.199375 Z-0.125000
G01 X661.299984 Y332.073582 Z-0.125000
G01 X666.425777 Y347.450961 Z-0.125000
G01 X671.551570 Y367.954133 Z-0.125000
G01 X676.677363 Y388.457305 Z-0.125000
G01 X692.054742 Y398.708891 Z-0.125000
G01 X702.306328 Y414.086270 Z-0.125000
G01 X712.557914 Y429.463649 Z-0.125000
G01 X717.683707 Y449.966821 Z-0.125000
G01 X733.061086 Y460.218407 Z-0.125000
G01 X733.061086 Y480.721579 Z-0.125000
G01 X707.432121 Y480.721579 Z-0.125000
G01 X681.803156 Y475.595786 Z-0.125000
G01 X692.054742 Y449.966821 Z-0.125000
G01 X671.551570 Y439.715235 Z-0.125000
G01 X671.551570 Y419.212063 Z-0.125000
G01 X651.048398 Y414.086270 Z-0.125000
G01 X651.048398 Y393.583098 Z-0.125000
G01 X651.048398 Y367.954133 Z-0.125000
G01 X635.671019 Y357.702547 Z-0.125000
G01 X610.042054 Y357.702547 Z-0.125000
G01 X620.293640 Y378.205719 Z-0.125000
G01 X630.545226 Y388.457305 Z-0.125000
G01 X625.419433 Y408.960477 Z-0.125000
G01 X604.916261 Y398.708891 Z-0.125000
G01 X599.790468 Y378.205719 Z-0.125000
G01 X584.413089 Y367.954133 Z-0.125000
G01 X563.909917 Y362.828340 Z-0.125000
G01 X563.909917 Y383.331512 Z-0.125000
G01 X579.287296 Y393.583098 Z-0.125000
G01 X584.413089 Y414.086270 Z-0.125000
G01 X599.790468 Y424.337856 Z-0.125000
G01 X604.916261 Y434.589442 Z-0.125000
G01 X625.419433 Y434.589442 Z-0.125000
G01 X640.796812 Y444.841028 Z-0.125000
G01 X656.174191 Y460.218407 Z-0.125000
G01 X656.174191 Y480.721579 Z-0.125000
G01 X640.796812 Y501.224751 Z-0.125000
G01 X651.048398 Y511.476337 Z-0.125000
G01 X671.551570 Y506.350544 Z-0.125000
G01 X697.180535 Y511.476337 Z-0.125000
G01 X722.809500 Y506.350544 Z-0.125000
G01 X727.935293 Y526.853716 Z-0.125000
G01 X753.564258 Y537.105302 Z-0.125000
G01 X763.815844 Y557.608474 Z-0.125000
G01 X794.570602 Y557.608474 Z-0.125000
G01 X799.696395 Y578.111646 Z-0.125000
G01 X815.073774 Y598.614818 Z-0.125000
G01 X815.073774 Y624.243783 Z-0.125000
G01 X840.702739 Y629.369576 Z-0.125000
G01 X866.331704 Y639.621162 Z-0.125000
G01 X881.709083 Y654.998541 Z-0.125000
G01 X897.086462 Y675.501713 Z-0.125000
G01 X897.086462 Y706.256471 Z-0.125000
G01 X897.086462 Y731.885436 Z-0.125000
G01 X927.841220 Y731.885436 Z-0.125000
G01 X912.463841 Y757.514401 Z-0.125000
G01 X932.967013 Y767.765987 Z-0.125000
G01 X932.967013 Y788.269159 Z-0.125000
G01 X963.721771 Y783.143366 Z-0.125000
G01 X979.099150 Y798.520745 Z-0.125000
G01 X1009.853908 Y803.646538 Z-0.125000
G01 X1020.105494 Y819.023917 Z-0.125000
G01 X1014.979701 Y834.401296 Z-0.125000
G01 X1035.482873 Y829.275503 Z-0.125000
G01 X1045.734459 Y829.275503 Z-0.125000
G01 X1061.111838 Y829.275503 Z-0.125000
G01 X1066.237631 Y839.527089 Z-0.125000
G01 X1071.363424 Y849.778675 Z-0.125000
G01 X1055.986045 Y849.778675 Z-0.125000
G01 X1045.734459 Y844.652882 Z-0.125000
G01 X1030.357080 Y854.904468 Z-0.125000
G01 X1035.482873 Y875.407640 Z-0.125000
G01 X1055.986045 Y880.533433 Z-0.125000
G01 X1035.482873 Y901.036605 Z-0.125000
G01 X1050.860252 Y911.288191 Z-0.125000
G01 X1055.986045 Y921.539777 Z-0.125000
G01 X1066.237631 Y926.665570 Z-0.125000
G01 X1076.489217 Y936.917156 Z-0.125000
G01 X1091.866596 Y936.917156 Z-0.125000
G01 X1102.118182 Y942.042949 Z-0.125000
G01 X1112.369768 Y962.546121 Z-0.125000
G01 X1122.621354 Y988.175086 Z-0.125000
G01 X1143.124526 Y998.426672 Z-0.125000
G01 X1143.124526 Y1024.055637 Z-0.125000
G01 X1122.621354 Y1008.678258 Z-0.125000
G01 X1117.495561 Y1018.929844 Z-0.125000
G01 X1102.118182 Y1013.804051 Z-0.125000
G01 X1096.992389 Y1024.055637 Z-0.125000
G01 X1086.740803 Y1018.929844 Z-0.125000
G01 X1086.740803 Y993.300879 Z-0.125000
G01 X1076.489217 Y967.671914 Z-0.125000
G01 X1050.860252 Y967.671914 Z-0.125000
G01 X1050.860252 Y947.168742 Z-0.125000
G01 X1030.357080 Y947.168742 Z-0.125000
G01 X1025.231287 Y926.665570 Z-0.125000
G01 X1014.979701 Y901.036605 Z-0.125000
G01 X1004.728115 Y880.533433 Z-0.125000
G01 X1004.728115 Y860.030261 Z-0.125000
G01 X989.350736 Y839.527089 Z-0.125000
G01 X979.099150 Y824.149710 Z-0.125000
G01 X958.595978 Y819.023917 Z-0.125000
G01 X932.967013 Y813.898124 Z-0.125000
G01 X927.841220 Y849.778675 Z-0.125000
G01 X953.470185 Y854.904468 Z-0.125000
G01 X968.847564 Y870.281847 Z-0.125000
G01 X973.973357 Y885.659226 Z-0.125000
G01 X963.721771 Y911.288191 Z-0.125000
G01 X989.350736 Y911.288191 Z-0.125000
G01 X994.476529 Y931.791363 Z-0.125000
G01 X999.602322 Y952.294535 Z-0.125000
G01 X999.602322 Y972.797707 Z-0.125000
G01 X1020.105494 Y977.923500 Z-0.125000
G01 X1025.231287 Y993.300879 Z-0.125000
G01 X1050.860252 Y993.300879 Z-0.125000
G01 X1045.734459 Y1008.678258 Z-0.125000
G01 X1066.237631 Y1018.929844 Z-0.125000
G01 X1071.363424 Y1029.181430 Z-0.125000
G01 X1076.489217 Y1034.307223 Z-0.125000
G01 X1086.740803 Y1039.433016 Z-0.125000
G01 X1071.363424 Y1054.810395 Z-0.125000
G01 X1091.866596 Y1070.187774 Z-0.125000
G01 X1096.992389 Y1049.684602 Z-0.125000
G01 X1112.369768 Y1049.684602 Z-0.125000
G01 X1122.621354 Y1054.810395 Z-0.125000
G01 X1117.495561 Y1065.061981 Z-0.125000
G01 X1132.872940 Y1059.936188 Z-0.125000
G01 X1137.998733 Y1065.061981 Z-0.125000
G01 X1148.250319 Y1070.187774 Z-0.125000
G01 X1148.250319 Y1090.690946 Z-0.125000
G01 X1132.872940 Y1080.439360 Z-0.125000
G01 X1122.621354 Y1080.439360 Z-0.125000
G01 X1102.118182 Y1095.816739 Z-0.125000
G01 X1112.369768 Y1100.942532 Z-0.125000
G01 X1122.621354 Y1116.319911 Z-0.125000
G01 X1148.250319 Y1121.445704 Z-0.125000
G01 X1168.753491 Y1136.823083 Z-0.125000
G01 X1179.005077 Y1116.319911 Z-0.125000
G01 X1194.382456 Y1121.445704 Z-0.125000
G01 X1184.130870 Y1141.948876 Z-0.125000
G01 X1194.382456 Y1152.200462 Z-0.125000
G01 X1204.634042 Y1162.452048 Z-0.125000
G01 X1214.885628 Y1172.703634 Z-0.125000
G01 X1230.263007 Y1188.081013 Z-0.125000
G01 X1220.011421 Y1208.584185 Z-0.125000
G01 X1235.388800 Y1213.709978 Z-0.125000
G01 X1245.640386 Y1193.206806 Z-0.125000
G01 X1255.891972 Y1208.584185 Z-0.125000
G01 X1250.766179 Y1223.961564 Z-0.125000
G01 X1266.143558 Y1229.087357 Z-0.125000
G01 X1276.395144 Y1239.338943 Z-0.125000
G01 X1291.772523 Y1244.464736 Z-0.125000
G01 X1307.149902 Y1254.716322 Z-0.125000
G01 X1296.898316 Y1270.093701 Z-0.125000
G01 X1317.401488 Y1275.219494 Z-0.125000
G01 X1302.024109 Y1290.596873 Z-0.125000
G01 X1317.401488 Y1300.848459 Z-0.125000
G01 X1322.527281 Y1321.351631 Z-0.125000
G01 X1337.904660 Y1326.477424 Z-0.125000
G01 X1343.030453 Y1341.854803 Z-0.125000
G01 X1348.156246 Y1357.232182 Z-0.125000
G01 X1363.533625 Y1362.357975 Z-0.125000
G01 X1368.659418 Y1377.735354 Z-0.125000
G01 X1363.533625 Y1387.986940 Z-0.125000
G01 X1348.156246 Y1377.735354 Z-0.125000
G01 X1327.653074 Y1382.861147 Z-0.125000
G01 X1332.778867 Y1398.238526 Z-0.125000
G01 X1348.156246 Y1403.364319 Z-0.125000
G01 X1358.407832 Y1413.615905 Z-0.125000
G01 X1363.533625 Y1423.867491 Z-0.125000
G01 X1378.911004 Y1434.119077 Z-0.125000
G01 X1394.288383 Y1439.244870 Z-0.125000
G01 X1404.539969 Y1449.496456 Z-0.125000
G01 X1419.917348 Y1459.748042 Z-0.125000
G01 X1419.917348 Y1475.125421 Z-0.125000
G01 X1425.043141 Y1490.502800 Z-0.125000
G01 X1440.420520 Y1485.377007 Z-0.125000
G01 X1445.546313 Y1490.502800 Z-0.125000
G01 X1455.797899 Y1495.628593 Z-0.125000
G01 X1466.049485 Y1500.754386 Z-0.125000
G01 X1481.426864 Y1500.754386 Z-0.125000
G01 X1476.301071 Y1485.377007 Z-0.125000
G01 X1471.175278 Y1480.251214 Z-0.125000
G01 X1460.923692 Y1475.125421 Z-0.125000
G01 X1440.420520 Y1464.873835 Z-0.125000
G01 X1460.923692 Y1454.622249 Z-0.125000
G00 Z5.000000

(End cutting path id: path38)


(Start cutting path id: path36)
(Change tool to Default tool)

G00 Z5.000000
G00 X1404.539969 Y1300.848459

G01 Z-0.125000 F100.0(Penetrate)
G01 X1404.539969 Y1280.345287 Z-0.125000 F400.000000
G01 X1419.917348 Y1285.471080 Z-0.125000
G01 X1440.420520 Y1285.471080 Z-0.125000
G01 X1425.043141 Y1264.967908 Z-0.125000
G01 X1404.539969 Y1259.842115 Z-0.125000
G01 X1394.288383 Y1249.590529 Z-0.125000
G01 X1389.162590 Y1234.213150 Z-0.125000
G01 X1384.036797 Y1218.835771 Z-0.125000
G01 X1378.911004 Y1208.584185 Z-0.125000
G01 X1363.533625 Y1203.458392 Z-0.125000
G01 X1358.407832 Y1193.206806 Z-0.125000
G01 X1343.030453 Y1188.081013 Z-0.125000
G01 X1332.778867 Y1177.829427 Z-0.125000
G01 X1332.778867 Y1157.326255 Z-0.125000
G01 X1317.401488 Y1157.326255 Z-0.125000
G01 X1302.024109 Y1152.200462 Z-0.125000
G01 X1302.024109 Y1136.823083 Z-0.125000
G01 X1296.898316 Y1121.445704 Z-0.125000
G01 X1276.395144 Y1126.571497 Z-0.125000
G01 X1261.017765 Y1121.445704 Z-0.125000
G01 X1276.395144 Y1106.068325 Z-0.125000
G01 X1266.143558 Y1095.816739 Z-0.125000
G01 X1250.766179 Y1090.690946 Z-0.125000
G01 X1235.388800 Y1085.565153 Z-0.125000
G01 X1214.885628 Y1095.816739 Z-0.125000
G01 X1199.508249 Y1095.816739 Z-0.125000
G01 X1184.130870 Y1095.816739 Z-0.125000
G01 X1173.879284 Y1085.565153 Z-0.125000
G01 X1168.753491 Y1065.061981 Z-0.125000
G01 X1163.627698 Y1044.558809 Z-0.125000
G01 X1179.005077 Y1044.558809 Z-0.125000
G01 X1194.382456 Y1049.684602 Z-0.125000
G01 X1189.256663 Y1065.061981 Z-0.125000
G01 X1204.634042 Y1070.187774 Z-0.125000
G01 X1220.011421 Y1075.313567 Z-0.125000
G01 X1225.137214 Y1059.936188 Z-0.125000
G01 X1245.640386 Y1065.061981 Z-0.125000
G01 X1235.388800 Y1044.558809 Z-0.125000
G01 X1214.885628 Y1044.558809 Z-0.125000
G01 X1230.263007 Y1024.055637 Z-0.125000
G01 X1209.759835 Y1024.055637 Z-0.125000
G01 X1194.382456 Y1024.055637 Z-0.125000
G01 X1179.005077 Y1018.929844 Z-0.125000
G01 X1173.879284 Y1003.552465 Z-0.125000
G01 X1163.627698 Y993.300879 Z-0.125000
G01 X1163.627698 Y977.923500 Z-0.125000
G01 X1153.376112 Y967.671914 Z-0.125000
G01 X1143.124526 Y952.294535 Z-0.125000
G01 X1132.872940 Y931.791363 Z-0.125000
G01 X1143.124526 Y906.162398 Z-0.125000
G01 X1132.872940 Y901.036605 Z-0.125000
G01 X1122.621354 Y895.910812 Z-0.125000
G01 X1112.369768 Y895.910812 Z-0.125000
G01 X1112.369768 Y911.288191 Z-0.125000
G01 X1117.495561 Y916.413984 Z-0.125000
G01 X1102.118182 Y921.539777 Z-0.125000
G01 X1091.866596 Y921.539777 Z-0.125000
G01 X1081.615010 Y921.539777 Z-0.125000
G01 X1096.992389 Y906.162398 Z-0.125000
G01 X1091.866596 Y880.533433 Z-0.125000
G01 X1081.615010 Y854.904468 Z-0.125000
G01 X1091.866596 Y860.030261 Z-0.125000
G01 X1107.243975 Y860.030261 Z-0.125000
G01 X1112.369768 Y875.407640 Z-0.125000
G01 X1122.621354 Y875.407640 Z-0.125000
G01 X1127.747147 Y880.533433 Z-0.125000
G01 X1143.124526 Y880.533433 Z-0.125000
G01 X1163.627698 Y875.407640 Z-0.125000
G01 X1158.501905 Y860.030261 Z-0.125000
G01 X1143.124526 Y854.904468 Z-0.125000
G01 X1143.124526 Y834.401296 Z-0.125000
G01 X1143.124526 Y819.023917 Z-0.125000
G01 X1122.621354 Y824.149710 Z-0.125000
G01 X1107.243975 Y808.772331 Z-0.125000
G01 X1102.118182 Y798.520745 Z-0.125000
G01 X1091.866596 Y793.394952 Z-0.125000
G01 X1081.615010 Y793.394952 Z-0.125000
G01 X1086.740803 Y808.772331 Z-0.125000
G01 X1091.866596 Y819.023917 Z-0.125000
G01 X1076.489217 Y824.149710 Z-0.125000
G01 X1071.363424 Y819.023917 Z-0.125000
G01 X1061.111838 Y813.898124 Z-0.125000
G01 X1050.860252 Y793.394952 Z-0.125000
G01 X1030.357080 Y783.143366 Z-0.125000
G01 X1004.728115 Y783.143366 Z-0.125000
G01 X994.476529 Y767.765987 Z-0.125000
G01 X968.847564 Y757.514401 Z-0.125000
G01 X953.470185 Y742.137022 Z-0.125000
G01 X958.595978 Y721.633850 Z-0.125000
G01 X953.470185 Y701.130678 Z-0.125000
G01 X927.841220 Y706.256471 Z-0.125000
G01 X922.715427 Y685.753299 Z-0.125000
G01 X927.841220 Y665.250127 Z-0.125000
G01 X912.463841 Y649.872748 Z-0.125000
G01 X943.218599 Y639.621162 Z-0.125000
G01 X927.841220 Y624.243783 Z-0.125000
G01 X907.338048 Y624.243783 Z-0.125000
G01 X886.834876 Y619.117990 Z-0.125000
G01 X871.457497 Y603.740611 Z-0.125000
G01 X845.828532 Y593.489025 Z-0.125000
G01 X840.702739 Y567.860060 Z-0.125000
G01 X830.451153 Y547.356888 Z-0.125000
G01 X830.451153 Y521.727923 Z-0.125000
G01 X804.822188 Y531.979509 Z-0.125000
G01 X789.444809 Y521.727923 Z-0.125000
G01 X768.941637 Y506.350544 Z-0.125000
G01 X753.564258 Y496.098958 Z-0.125000
G01 X763.815844 Y470.469993 Z-0.125000
G01 X784.319016 Y480.721579 Z-0.125000
G01 X799.696395 Y496.098958 Z-0.125000
G01 X820.199567 Y501.224751 Z-0.125000
G01 X809.947981 Y470.469993 Z-0.125000
G01 X794.570602 Y455.092614 Z-0.125000
G01 X784.319016 Y444.841028 Z-0.125000
G01 X758.690051 Y449.966821 Z-0.125000
G01 X748.438465 Y434.589442 Z-0.125000
G01 X738.186879 Y419.212063 Z-0.125000
G01 X727.935293 Y403.834684 Z-0.125000
G01 X717.683707 Y388.457305 Z-0.125000
G01 X712.557914 Y373.079926 Z-0.125000
G01 X738.186879 Y367.954133 Z-0.125000
G01 X743.312672 Y383.331512 Z-0.125000
G01 X758.690051 Y393.583098 Z-0.125000
G01 X763.815844 Y414.086270 Z-0.125000
G01 X779.193223 Y424.337856 Z-0.125000
G01 X799.696395 Y429.463649 Z-0.125000
G01 X809.947981 Y429.463649 Z-0.125000
G01 X820.199567 Y434.589442 Z-0.125000
G01 X835.576946 Y455.092614 Z-0.125000
G01 X830.451153 Y475.595786 Z-0.125000
G01 X845.828532 Y485.847372 Z-0.125000
G01 X850.954325 Y496.098958 Z-0.125000
G01 X866.331704 Y490.973165 Z-0.125000
G01 X871.457497 Y501.224751 Z-0.125000
G01 X886.834876 Y496.098958 Z-0.125000
G01 X902.212255 Y501.224751 Z-0.125000
G01 X907.338048 Y490.973165 Z-0.125000
G01 X897.086462 Y485.847372 Z-0.125000
G01 X886.834876 Y480.721579 Z-0.125000
G01 X876.583290 Y480.721579 Z-0.125000
G01 X876.583290 Y465.344200 Z-0.125000
G01 X891.960669 Y465.344200 Z-0.125000
G01 X907.338048 Y470.469993 Z-0.125000
G01 X897.086462 Y449.966821 Z-0.125000
G01 X881.709083 Y444.841028 Z-0.125000
G01 X876.583290 Y434.589442 Z-0.125000
G01 X861.205911 Y434.589442 Z-0.125000
G01 X845.828532 Y429.463649 Z-0.125000
G01 X835.576946 Y429.463649 Z-0.125000
G01 X830.451153 Y419.212063 Z-0.125000
G01 X820.199567 Y414.086270 Z-0.125000
G01 X809.947981 Y408.960477 Z-0.125000
G01 X809.947981 Y393.583098 Z-0.125000
G01 X830.451153 Y388.457305 Z-0.125000
G01 X845.828532 Y393.583098 Z-0.125000
G01 X850.954325 Y408.960477 Z-0.125000
G01 X866.331704 Y414.086270 Z-0.125000
G01 X881.709083 Y414.086270 Z-0.125000
G01 X902.212255 Y408.960477 Z-0.125000
G01 X902.212255 Y429.463649 Z-0.125000
G01 X917.589634 Y439.715235 Z-0.125000
G01 X922.715427 Y449.966821 Z-0.125000
G01 X927.841220 Y465.344200 Z-0.125000
G01 X938.092806 Y475.595786 Z-0.125000
G01 X958.595978 Y475.595786 Z-0.125000
G01 X963.721771 Y490.973165 Z-0.125000
G01 X973.973357 Y501.224751 Z-0.125000
G01 X989.350736 Y506.350544 Z-0.125000
G01 X999.602322 Y516.602130 Z-0.125000
G01 X1004.728115 Y531.979509 Z-0.125000
G01 X999.602322 Y552.482681 Z-0.125000
G01 X984.224943 Y542.231095 Z-0.125000
G01 X973.973357 Y526.853716 Z-0.125000
G01 X958.595978 Y521.727923 Z-0.125000
G01 X948.344392 Y516.602130 Z-0.125000
G01 X943.218599 Y506.350544 Z-0.125000
G01 X932.967013 Y490.973165 Z-0.125000
G01 X917.589634 Y496.098958 Z-0.125000
G01 X922.715427 Y506.350544 Z-0.125000
G01 X922.715427 Y521.727923 Z-0.125000
G01 X948.344392 Y537.105302 Z-0.125000
G01 X953.470185 Y552.482681 Z-0.125000
G01 X958.595978 Y542.231095 Z-0.125000
G01 X968.847564 Y547.356888 Z-0.125000
G01 X968.847564 Y562.734267 Z-0.125000
G01 X984.224943 Y562.734267 Z-0.125000
G01 X994.476529 Y572.985853 Z-0.125000
G01 X1009.853908 Y572.985853 Z-0.125000
G01 X1020.105494 Y578.111646 Z-0.125000
G01 X1035.482873 Y578.111646 Z-0.125000
G01 X1050.860252 Y583.237439 Z-0.125000
G01 X1061.111838 Y593.489025 Z-0.125000
G01 X1076.489217 Y603.740611 Z-0.125000
G01 X1076.489217 Y619.117990 Z-0.125000
G01 X1055.986045 Y619.117990 Z-0.125000
G01 X1040.608666 Y613.992197 Z-0.125000
G01 X1030.357080 Y603.740611 Z-0.125000
G01 X1014.979701 Y598.614818 Z-0.125000
G01 X1004.728115 Y598.614818 Z-0.125000
G01 X994.476529 Y593.489025 Z-0.125000
G01 X984.224943 Y583.237439 Z-0.125000
G01 X973.973357 Y578.111646 Z-0.125000
G01 X963.721771 Y572.985853 Z-0.125000
G01 X953.470185 Y572.985853 Z-0.125000
G01 X943.218599 Y567.860060 Z-0.125000
G01 X938.092806 Y562.734267 Z-0.125000
G01 X932.967013 Y552.482681 Z-0.125000
G01 X922.715427 Y567.860060 Z-0.125000
G01 X907.338048 Y562.734267 Z-0.125000
G01 X897.086462 Y547.356888 Z-0.125000
G01 X881.709083 Y537.105302 Z-0.125000
G01 X876.583290 Y521.727923 Z-0.125000
G01 X850.954325 Y521.727923 Z-0.125000
G01 X856.080118 Y542.231095 Z-0.125000
G01 X866.331704 Y562.734267 Z-0.125000
G01 X876.583290 Y578.111646 Z-0.125000
G01 X897.086462 Y588.363232 Z-0.125000
G01 X917.589634 Y588.363232 Z-0.125000
G01 X922.715427 Y598.614818 Z-0.125000
G01 X948.344392 Y598.614818 Z-0.125000
G01 X958.595978 Y613.992197 Z-0.125000
G01 X973.973357 Y629.369576 Z-0.125000
G01 X979.099150 Y644.746955 Z-0.125000
G01 X989.350736 Y644.746955 Z-0.125000
G01 X999.602322 Y644.746955 Z-0.125000
G01 X999.602322 Y624.243783 Z-0.125000
G01 X1009.853908 Y629.369576 Z-0.125000
G01 X1014.979701 Y613.992197 Z-0.125000
G01 X1020.105494 Y629.369576 Z-0.125000
G01 X1025.231287 Y634.495369 Z-0.125000
G01 X1040.608666 Y639.621162 Z-0.125000
G01 X1055.986045 Y639.621162 Z-0.125000
G01 X1066.237631 Y644.746955 Z-0.125000
G01 X1071.363424 Y665.250127 Z-0.125000
G01 X1081.615010 Y675.501713 Z-0.125000
G01 X1091.866596 Y690.879092 Z-0.125000
G01 X1112.369768 Y690.879092 Z-0.125000
G01 X1107.243975 Y706.256471 Z-0.125000
G01 X1127.747147 Y706.256471 Z-0.125000
G01 X1143.124526 Y716.508057 Z-0.125000
G01 X1148.250319 Y737.011229 Z-0.125000
G01 X1163.627698 Y721.633850 Z-0.125000
G01 X1168.753491 Y731.885436 Z-0.125000
G01 X1179.005077 Y747.262815 Z-0.125000
G01 X1194.382456 Y752.388608 Z-0.125000
G01 X1204.634042 Y762.640194 Z-0.125000
G01 X1225.137214 Y757.514401 Z-0.125000
G01 X1220.011421 Y772.891780 Z-0.125000
G01 X1230.263007 Y783.143366 Z-0.125000
G01 X1250.766179 Y793.394952 Z-0.125000
G01 X1250.766179 Y778.017573 Z-0.125000
G01 X1250.766179 Y762.640194 Z-0.125000
G01 X1245.640386 Y747.262815 Z-0.125000
G01 X1240.514593 Y726.759643 Z-0.125000
G01 X1261.017765 Y721.633850 Z-0.125000
G01 X1245.640386 Y701.130678 Z-0.125000
G01 X1245.640386 Y680.627506 Z-0.125000
G01 X1240.514593 Y665.250127 Z-0.125000
G01 X1235.388800 Y649.872748 Z-0.125000
G01 X1220.011421 Y639.621162 Z-0.125000
G01 X1209.759835 Y660.124334 Z-0.125000
G01 X1194.382456 Y649.872748 Z-0.125000
G01 X1184.130870 Y639.621162 Z-0.125000
G01 X1173.879284 Y629.369576 Z-0.125000
G01 X1158.501905 Y624.243783 Z-0.125000
G01 X1148.250319 Y603.740611 Z-0.125000
G01 X1168.753491 Y598.614818 Z-0.125000
G01 X1163.627698 Y583.237439 Z-0.125000
G01 X1153.376112 Y572.985853 Z-0.125000
G01 X1137.998733 Y567.860060 Z-0.125000
G01 X1137.998733 Y547.356888 Z-0.125000
G01 X1117.495561 Y542.231095 Z-0.125000
G01 X1107.243975 Y531.979509 Z-0.125000
G01 X1096.992389 Y521.727923 Z-0.125000
G01 X1112.369768 Y506.350544 Z-0.125000
G01 X1096.992389 Y496.098958 Z-0.125000
G01 X1086.740803 Y480.721579 Z-0.125000
G01 X1081.615010 Y470.469993 Z-0.125000
G01 X1086.740803 Y444.841028 Z-0.125000
G01 X1076.489217 Y434.589442 Z-0.125000
G01 X1076.489217 Y408.960477 Z-0.125000
G01 X1096.992389 Y414.086270 Z-0.125000
G01 X1112.369768 Y424.337856 Z-0.125000
G01 X1112.369768 Y444.841028 Z-0.125000
G01 X1112.369768 Y465.344200 Z-0.125000
G01 X1117.495561 Y480.721579 Z-0.125000
G01 X1137.998733 Y480.721579 Z-0.125000
G01 X1132.872940 Y506.350544 Z-0.125000
G01 X1137.998733 Y521.727923 Z-0.125000
G01 X1158.501905 Y526.853716 Z-0.125000
G01 X1158.501905 Y547.356888 Z-0.125000
G01 X1173.879284 Y557.608474 Z-0.125000
G01 X1189.256663 Y572.985853 Z-0.125000
G01 X1199.508249 Y583.237439 Z-0.125000
G01 X1184.130870 Y608.866404 Z-0.125000
G01 X1204.634042 Y608.866404 Z-0.125000
G01 X1209.759835 Y624.243783 Z-0.125000
G01 X1240.514593 Y619.117990 Z-0.125000
G01 X1230.263007 Y598.614818 Z-0.125000
G01 X1220.011421 Y583.237439 Z-0.125000
G01 X1214.885628 Y557.608474 Z-0.125000
G01 X1199.508249 Y547.356888 Z-0.125000
G01 X1204.634042 Y526.853716 Z-0.125000
G01 X1184.130870 Y526.853716 Z-0.125000
G01 X1179.005077 Y506.350544 Z-0.125000
G01 X1158.501905 Y501.224751 Z-0.125000
G01 X1163.627698 Y480.721579 Z-0.125000
G01 X1158.501905 Y460.218407 Z-0.125000
G01 X1143.124526 Y444.841028 Z-0.125000
G01 X1143.124526 Y424.337856 Z-0.125000
G01 X1143.124526 Y403.834684 Z-0.125000
G01 X1122.621354 Y398.708891 Z-0.125000
G01 X1112.369768 Y383.331512 Z-0.125000
G01 X1081.615010 Y393.583098 Z-0.125000
G01 X1061.111838 Y393.583098 Z-0.125000
G01 X1050.860252 Y383.331512 Z-0.125000
G01 X1035.482873 Y373.079926 Z-0.125000
G01 X1025.231287 Y347.450961 Z-0.125000
G01 X1040.608666 Y352.576754 Z-0.125000
G01 X1061.111838 Y352.576754 Z-0.125000
G01 X1071.363424 Y367.954133 Z-0.125000
G01 X1091.866596 Y373.079926 Z-0.125000
G01 X1107.243975 Y347.450961 Z-0.125000
G01 X1086.740803 Y342.325168 Z-0.125000
G01 X1081.615010 Y326.947789 Z-0.125000
G01 X1061.111838 Y326.947789 Z-0.125000
G01 X1040.608666 Y326.947789 Z-0.125000
G01 X1030.357080 Y306.444617 Z-0.125000
G01 X1020.105494 Y326.947789 Z-0.125000
G01 X1004.728115 Y321.821996 Z-0.125000
G01 X989.350736 Y316.696203 Z-0.125000
G01 X973.973357 Y311.570410 Z-0.125000
G01 X953.470185 Y311.570410 Z-0.125000
G01 X932.967013 Y301.318824 Z-0.125000
G01 X927.841220 Y285.941445 Z-0.125000
G01 X912.463841 Y280.815652 Z-0.125000
G01 X917.589634 Y260.312480 Z-0.125000
G01 X897.086462 Y265.438273 Z-0.125000
G01 X886.834876 Y255.186687 Z-0.125000
G01 X871.457497 Y255.186687 Z-0.125000
G01 X871.457497 Y280.815652 Z-0.125000
G01 X886.834876 Y285.941445 Z-0.125000
G01 X897.086462 Y301.318824 Z-0.125000
G01 X907.338048 Y311.570410 Z-0.125000
G01 X907.338048 Y326.947789 Z-0.125000
G01 X927.841220 Y321.821996 Z-0.125000
G01 X943.218599 Y332.073582 Z-0.125000
G01 X963.721771 Y332.073582 Z-0.125000
G01 X979.099150 Y342.325168 Z-0.125000
G01 X994.476529 Y347.450961 Z-0.125000
G01 X1004.728115 Y362.828340 Z-0.125000
G01 X1009.853908 Y378.205719 Z-0.125000
G01 X1014.979701 Y393.583098 Z-0.125000
G01 X1030.357080 Y398.708891 Z-0.125000
G01 X1035.482873 Y414.086270 Z-0.125000
G01 X1050.860252 Y424.337856 Z-0.125000
G01 X1045.734459 Y439.715235 Z-0.125000
G01 X1055.986045 Y455.092614 Z-0.125000
G01 X1061.111838 Y470.469993 Z-0.125000
G01 X1050.860252 Y490.973165 Z-0.125000
G01 X1055.986045 Y501.224751 Z-0.125000
G01 X1071.363424 Y506.350544 Z-0.125000
G01 X1076.489217 Y516.602130 Z-0.125000
G01 X1066.237631 Y537.105302 Z-0.125000
G01 X1081.615010 Y542.231095 Z-0.125000
G01 X1091.866596 Y552.482681 Z-0.125000
G01 X1107.243975 Y562.734267 Z-0.125000
G01 X1122.621354 Y567.860060 Z-0.125000
G01 X1122.621354 Y593.489025 Z-0.125000
G01 X1127.747147 Y603.740611 Z-0.125000
G01 X1137.998733 Y624.243783 Z-0.125000
G01 X1117.495561 Y624.243783 Z-0.125000
G01 X1117.495561 Y644.746955 Z-0.125000
G01 X1137.998733 Y644.746955 Z-0.125000
G01 X1148.250319 Y654.998541 Z-0.125000
G01 X1163.627698 Y660.124334 Z-0.125000
G01 X1168.753491 Y670.375920 Z-0.125000
G01 X1189.256663 Y675.501713 Z-0.125000
G01 X1209.759835 Y680.627506 Z-0.125000
G01 X1220.011421 Y685.753299 Z-0.125000
G01 X1220.011421 Y706.256471 Z-0.125000
G01 X1220.011421 Y721.633850 Z-0.125000
G01 X1220.011421 Y742.137022 Z-0.125000
G01 X1199.508249 Y731.885436 Z-0.125000
G01 X1194.382456 Y716.508057 Z-0.125000
G01 X1194.382456 Y701.130678 Z-0.125000
G01 X1179.005077 Y696.004885 Z-0.125000
G01 X1163.627698 Y696.004885 Z-0.125000
G01 X1148.250319 Y690.879092 Z-0.125000
G01 X1137.998733 Y680.627506 Z-0.125000
G01 X1127.747147 Y665.250127 Z-0.125000
G01 X1107.243975 Y670.375920 Z-0.125000
G01 X1096.992389 Y654.998541 Z-0.125000
G01 X1086.740803 Y644.746955 Z-0.125000
G01 X1091.866596 Y629.369576 Z-0.125000
G01 X1102.118182 Y603.740611 Z-0.125000
G01 X1102.118182 Y588.363232 Z-0.125000
G01 X1086.740803 Y583.237439 Z-0.125000
G01 X1076.489217 Y572.985853 Z-0.125000
G01 X1061.111838 Y562.734267 Z-0.125000
G01 X1045.734459 Y557.608474 Z-0.125000
G00 Z5.000000

(End cutting path id: path36)


(Start cutting path id: path34)
(Change tool to Default tool)

G00 Z5.000000
G00 X1542.936380 Y1018.929844

G01 Z-0.125000 F100.0(Penetrate)
G01 X1537.810587 Y1034.307223 Z-0.125000 F400.000000
G01 X1522.433208 Y1034.307223 Z-0.125000
G01 X1507.055829 Y1029.181430 Z-0.125000
G01 X1496.804243 Y1018.929844 Z-0.125000
G01 X1481.426864 Y1018.929844 Z-0.125000
G01 X1486.552657 Y1039.433016 Z-0.125000
G01 X1507.055829 Y1054.810395 Z-0.125000
G01 X1522.433208 Y1054.810395 Z-0.125000
G01 X1527.559001 Y1065.061981 Z-0.125000
G01 X1507.055829 Y1075.313567 Z-0.125000
G01 X1517.307415 Y1085.565153 Z-0.125000
G01 X1527.559001 Y1090.690946 Z-0.125000
G01 X1548.062173 Y1090.690946 Z-0.125000
G01 X1553.187966 Y1075.313567 Z-0.125000
G01 X1542.936380 Y1070.187774 Z-0.125000
G01 X1548.062173 Y1049.684602 Z-0.125000
G01 X1558.313759 Y1029.181430 Z-0.125000
G01 X1573.691138 Y1034.307223 Z-0.125000
G01 X1568.565345 Y1049.684602 Z-0.125000
G01 X1583.942724 Y1054.810395 Z-0.125000
G01 X1599.320103 Y1054.810395 Z-0.125000
G01 X1594.194310 Y1034.307223 Z-0.125000
G01 X1578.816931 Y1013.804051 Z-0.125000
G01 X1573.691138 Y998.426672 Z-0.125000
G01 X1594.194310 Y993.300879 Z-0.125000
G01 X1599.320103 Y1008.678258 Z-0.125000
G01 X1614.697482 Y1013.804051 Z-0.125000
G01 X1619.823275 Y1024.055637 Z-0.125000
G01 X1619.823275 Y1044.558809 Z-0.125000
G01 X1624.949068 Y1059.936188 Z-0.125000
G01 X1635.200654 Y1075.313567 Z-0.125000
G01 X1624.949068 Y1095.816739 Z-0.125000
G01 X1609.571689 Y1085.565153 Z-0.125000
G01 X1599.320103 Y1075.313567 Z-0.125000
G01 X1583.942724 Y1080.439360 Z-0.125000
G01 X1568.565345 Y1075.313567 Z-0.125000
G01 X1568.565345 Y1095.816739 Z-0.125000
G01 X1583.942724 Y1100.942532 Z-0.125000
G01 X1599.320103 Y1106.068325 Z-0.125000
G01 X1609.571689 Y1116.319911 Z-0.125000
G01 X1599.320103 Y1136.823083 Z-0.125000
G01 X1619.823275 Y1131.697290 Z-0.125000
G01 X1635.200654 Y1141.948876 Z-0.125000
G01 X1630.074861 Y1162.452048 Z-0.125000
G01 X1630.074861 Y1177.829427 Z-0.125000
G01 X1645.452240 Y1193.206806 Z-0.125000
G01 X1665.955412 Y1203.458392 Z-0.125000
G01 X1681.332791 Y1213.709978 Z-0.125000
G01 X1712.087549 Y1213.709978 Z-0.125000
G01 X1727.464928 Y1223.961564 Z-0.125000
G01 X1753.093893 Y1239.338943 Z-0.125000
G01 X1778.722858 Y1249.590529 Z-0.125000
G01 X1799.226030 Y1259.842115 Z-0.125000
G01 X1814.603409 Y1275.219494 Z-0.125000
G01 X1840.232374 Y1280.345287 Z-0.125000
G01 X1835.106581 Y1300.848459 Z-0.125000
G01 X1845.358167 Y1316.225838 Z-0.125000
G01 X1876.112925 Y1326.477424 Z-0.125000
G01 X1881.238718 Y1352.106389 Z-0.125000
G01 X1906.867683 Y1357.232182 Z-0.125000
G01 X1922.245062 Y1372.609561 Z-0.125000
G01 X1932.496648 Y1393.112733 Z-0.125000
G01 X1952.999820 Y1403.364319 Z-0.125000
G01 X1947.874027 Y1423.867491 Z-0.125000
G01 X1952.999820 Y1444.370663 Z-0.125000
G01 X1973.502992 Y1454.622249 Z-0.125000
G01 X1968.377199 Y1469.999628 Z-0.125000
G01 X1968.377199 Y1495.628593 Z-0.125000
G01 X1952.999820 Y1495.628593 Z-0.125000
G01 X1937.622441 Y1485.377007 Z-0.125000
G01 X1937.622441 Y1464.873835 Z-0.125000
G01 X1922.245062 Y1449.496456 Z-0.125000
G01 X1917.119269 Y1423.867491 Z-0.125000
G01 X1896.616097 Y1408.490112 Z-0.125000
G01 X1876.112925 Y1403.364319 Z-0.125000
G01 X1876.112925 Y1382.861147 Z-0.125000
G01 X1845.358167 Y1382.861147 Z-0.125000
G01 X1850.483960 Y1357.232182 Z-0.125000
G01 X1835.106581 Y1341.854803 Z-0.125000
G01 X1809.477616 Y1331.603217 Z-0.125000
G01 X1804.351823 Y1305.974252 Z-0.125000
G01 X1783.848651 Y1290.596873 Z-0.125000
G01 X1758.219686 Y1285.471080 Z-0.125000
G01 X1747.968100 Y1270.093701 Z-0.125000
G01 X1727.464928 Y1264.967908 Z-0.125000
G01 X1712.087549 Y1249.590529 Z-0.125000
G01 X1686.458584 Y1239.338943 Z-0.125000
G01 X1681.332791 Y1270.093701 Z-0.125000
G01 X1681.332791 Y1290.596873 Z-0.125000
G01 X1696.710170 Y1290.596873 Z-0.125000
G01 X1701.835963 Y1295.722666 Z-0.125000
G01 X1717.213342 Y1300.848459 Z-0.125000
G01 X1727.464928 Y1311.100045 Z-0.125000
G01 X1737.716514 Y1321.351631 Z-0.125000
G01 X1758.219686 Y1316.225838 Z-0.125000
G01 X1753.093893 Y1331.603217 Z-0.125000
G01 X1773.597065 Y1326.477424 Z-0.125000
G01 X1783.848651 Y1336.729010 Z-0.125000
G01 X1783.848651 Y1357.232182 Z-0.125000
G01 X1799.226030 Y1362.357975 Z-0.125000
G01 X1814.603409 Y1372.609561 Z-0.125000
G01 X1809.477616 Y1393.112733 Z-0.125000
G01 X1794.100237 Y1387.986940 Z-0.125000
G01 X1773.597065 Y1377.735354 Z-0.125000
G01 X1753.093893 Y1372.609561 Z-0.125000
G01 X1763.345479 Y1352.106389 Z-0.125000
G01 X1742.842307 Y1352.106389 Z-0.125000
G01 X1727.464928 Y1341.854803 Z-0.125000
G01 X1717.213342 Y1326.477424 Z-0.125000
G01 X1701.835963 Y1316.225838 Z-0.125000
G01 X1681.332791 Y1316.225838 Z-0.125000
G01 X1665.955412 Y1300.848459 Z-0.125000
G01 X1660.829619 Y1316.225838 Z-0.125000
G01 X1645.452240 Y1311.100045 Z-0.125000
G01 X1630.074861 Y1305.974252 Z-0.125000
G01 X1619.823275 Y1300.848459 Z-0.125000
G01 X1604.445896 Y1305.974252 Z-0.125000
G01 X1594.194310 Y1300.848459 Z-0.125000
G01 X1594.194310 Y1280.345287 Z-0.125000
G01 X1578.816931 Y1264.967908 Z-0.125000
G01 X1568.565345 Y1239.338943 Z-0.125000
G01 X1548.062173 Y1229.087357 Z-0.125000
G01 X1542.936380 Y1208.584185 Z-0.125000
G01 X1527.559001 Y1193.206806 Z-0.125000
G01 X1517.307415 Y1172.703634 Z-0.125000
G01 X1527.559001 Y1147.074669 Z-0.125000
G01 X1553.187966 Y1141.948876 Z-0.125000
G01 X1548.062173 Y1167.577841 Z-0.125000
G01 X1563.439552 Y1177.829427 Z-0.125000
G01 X1573.691138 Y1198.332599 Z-0.125000
G01 X1583.942724 Y1213.709978 Z-0.125000
G01 X1594.194310 Y1239.338943 Z-0.125000
G01 X1614.697482 Y1249.590529 Z-0.125000
G01 X1630.074861 Y1270.093701 Z-0.125000
G01 X1650.578033 Y1280.345287 Z-0.125000
G01 X1655.703826 Y1249.590529 Z-0.125000
G01 X1645.452240 Y1234.213150 Z-0.125000
G01 X1630.074861 Y1218.835771 Z-0.125000
G01 X1609.571689 Y1208.584185 Z-0.125000
G01 X1609.571689 Y1177.829427 Z-0.125000
G01 X1604.445896 Y1172.703634 Z-0.125000
G01 X1589.068517 Y1172.703634 Z-0.125000
G01 X1604.445896 Y1157.326255 Z-0.125000
G01 X1589.068517 Y1157.326255 Z-0.125000
G01 X1578.816931 Y1152.200462 Z-0.125000
G01 X1578.816931 Y1136.823083 Z-0.125000
G01 X1583.942724 Y1126.571497 Z-0.125000
G01 X1573.691138 Y1116.319911 Z-0.125000
G01 X1553.187966 Y1116.319911 Z-0.125000
G01 X1532.684794 Y1116.319911 Z-0.125000
G01 X1507.055829 Y1126.571497 Z-0.125000
G01 X1501.930036 Y1106.068325 Z-0.125000
G01 X1486.552657 Y1095.816739 Z-0.125000
G01 X1471.175278 Y1085.565153 Z-0.125000
G01 X1481.426864 Y1065.061981 Z-0.125000
G01 X1466.049485 Y1054.810395 Z-0.125000
G01 X1445.546313 Y1065.061981 Z-0.125000
G01 X1450.672106 Y1085.565153 Z-0.125000
G01 X1425.043141 Y1080.439360 Z-0.125000
G01 X1425.043141 Y1059.936188 Z-0.125000
G01 X1419.917348 Y1049.684602 Z-0.125000
G01 X1409.665762 Y1039.433016 Z-0.125000
G01 X1394.288383 Y1039.433016 Z-0.125000
G01 X1384.036797 Y1054.810395 Z-0.125000
G01 X1394.288383 Y1065.061981 Z-0.125000
G01 X1404.539969 Y1075.313567 Z-0.125000
G01 X1404.539969 Y1095.816739 Z-0.125000
G01 X1425.043141 Y1100.942532 Z-0.125000
G01 X1445.546313 Y1111.194118 Z-0.125000
G01 X1466.049485 Y1116.319911 Z-0.125000
G01 X1481.426864 Y1126.571497 Z-0.125000
G01 X1496.804243 Y1152.200462 Z-0.125000
G01 X1491.678450 Y1177.829427 Z-0.125000
G01 X1471.175278 Y1167.577841 Z-0.125000
G01 X1466.049485 Y1147.074669 Z-0.125000
G01 X1445.546313 Y1136.823083 Z-0.125000
G01 X1435.294727 Y1157.326255 Z-0.125000
G01 X1445.546313 Y1167.577841 Z-0.125000
G01 X1455.797899 Y1188.081013 Z-0.125000
G01 X1471.175278 Y1198.332599 Z-0.125000
G01 X1491.678450 Y1203.458392 Z-0.125000
G01 X1486.552657 Y1218.835771 Z-0.125000
G01 X1507.055829 Y1223.961564 Z-0.125000
G01 X1517.307415 Y1234.213150 Z-0.125000
G01 X1527.559001 Y1254.716322 Z-0.125000
G01 X1542.936380 Y1264.967908 Z-0.125000
G01 X1548.062173 Y1280.345287 Z-0.125000
G01 X1563.439552 Y1295.722666 Z-0.125000
G01 X1532.684794 Y1305.974252 Z-0.125000
G01 X1532.684794 Y1326.477424 Z-0.125000
G01 X1522.433208 Y1346.980596 Z-0.125000
G01 X1527.559001 Y1362.357975 Z-0.125000
G01 X1558.313759 Y1357.232182 Z-0.125000
G01 X1573.691138 Y1362.357975 Z-0.125000
G01 X1583.942724 Y1367.483768 Z-0.125000
G01 X1594.194310 Y1382.861147 Z-0.125000
G01 X1599.320103 Y1398.238526 Z-0.125000
G01 X1619.823275 Y1398.238526 Z-0.125000
G01 X1624.949068 Y1418.741698 Z-0.125000
G01 X1640.326447 Y1423.867491 Z-0.125000
G01 X1655.703826 Y1428.993284 Z-0.125000
G01 X1676.206998 Y1428.993284 Z-0.125000
G01 X1691.584377 Y1434.119077 Z-0.125000
G01 X1712.087549 Y1434.119077 Z-0.125000
G01 X1727.464928 Y1439.244870 Z-0.125000
G01 X1737.716514 Y1449.496456 Z-0.125000
G01 X1753.093893 Y1454.622249 Z-0.125000
G01 X1758.219686 Y1434.119077 Z-0.125000
G01 X1747.968100 Y1418.741698 Z-0.125000
G01 X1732.590721 Y1413.615905 Z-0.125000
G01 X1712.087549 Y1413.615905 Z-0.125000
G01 X1712.087549 Y1393.112733 Z-0.125000
G01 X1691.584377 Y1408.490112 Z-0.125000
G01 X1671.081205 Y1408.490112 Z-0.125000
G01 X1655.703826 Y1403.364319 Z-0.125000
G01 X1640.326447 Y1398.238526 Z-0.125000
G01 X1650.578033 Y1377.735354 Z-0.125000
G01 X1665.955412 Y1382.861147 Z-0.125000
G01 X1691.584377 Y1387.986940 Z-0.125000
G01 X1686.458584 Y1377.735354 Z-0.125000
G01 X1681.332791 Y1362.357975 Z-0.125000
G01 X1665.955412 Y1357.232182 Z-0.125000
G01 X1645.452240 Y1357.232182 Z-0.125000
G01 X1624.949068 Y1357.232182 Z-0.125000
G01 X1630.074861 Y1377.735354 Z-0.125000
G01 X1614.697482 Y1377.735354 Z-0.125000
G01 X1604.445896 Y1362.357975 Z-0.125000
G01 X1604.445896 Y1346.980596 Z-0.125000
G01 X1589.068517 Y1346.980596 Z-0.125000
G01 X1578.816931 Y1341.854803 Z-0.125000
G01 X1558.313759 Y1336.729010 Z-0.125000
G01 X1563.439552 Y1316.225838 Z-0.125000
G01 X1583.942724 Y1321.351631 Z-0.125000
G01 X1594.194310 Y1326.477424 Z-0.125000
G01 X1609.571689 Y1321.351631 Z-0.125000
