%
(Header)
(Generated by gcodetools from Inkscape.)
(Using default header. To add your own header create file "header" in the output dir.)
M3
(Header end.)
G21 (All units in mm)

(Start cutting path id: path24649)
(Change tool to Default tool)

G00 Z5.000000
G00 X337.580755 Y639.466828

G01 Z-0.125000 F100.0(Penetrate)
G01 X334.381666 Y638.400465 Z-0.125000 F400.000000
G01 X330.116214 Y638.400465 Z-0.125000
G01 X326.917124 Y638.400465 Z-0.125000
G01 X323.718035 Y638.400465 Z-0.125000
G01 X319.452583 Y637.334102 Z-0.125000
G01 X315.187131 Y636.267739 Z-0.125000
G01 X311.988042 Y636.267739 Z-0.125000
G01 X307.722589 Y635.201376 Z-0.125000
G01 X303.457137 Y634.135013 Z-0.125000
G01 X299.191685 Y633.068650 Z-0.125000
G01 X295.992595 Y632.002287 Z-0.125000
G01 X291.727143 Y630.935924 Z-0.125000
G01 X287.461691 Y628.803198 Z-0.125000
G01 X284.262602 Y627.736835 Z-0.125000
G01 X279.997149 Y626.670472 Z-0.125000
G01 X275.731697 Y624.537745 Z-0.125000
G01 X271.466245 Y622.405019 Z-0.125000
G01 X268.267156 Y620.272293 Z-0.125000
G01 X266.134430 Y619.205930 Z-0.125000
G01 X261.868977 Y617.073204 Z-0.125000
G01 X258.669888 Y614.940478 Z-0.125000
G01 X255.470799 Y612.807752 Z-0.125000
G01 X259.736251 Y609.608663 Z-0.125000
G01 X259.736251 Y604.276847 Z-0.125000
G01 X264.001703 Y605.343210 Z-0.125000
G01 X267.200793 Y602.144121 Z-0.125000
G01 X267.200793 Y596.812306 Z-0.125000
G01 X261.868977 Y596.812306 Z-0.125000
G01 X257.603525 Y597.878669 Z-0.125000
G01 X252.271710 Y600.011395 Z-0.125000
G01 X248.006257 Y602.144121 Z-0.125000
G01 X254.404436 Y606.409573 Z-0.125000
G01 X251.205347 Y609.608663 Z-0.125000
G01 X248.006257 Y607.475936 Z-0.125000
G01 X244.807168 Y605.343210 Z-0.125000
G01 X241.608079 Y602.144121 Z-0.125000
G01 X239.475353 Y598.945032 Z-0.125000
G01 X237.342627 Y597.878669 Z-0.125000
G01 X242.674442 Y596.812306 Z-0.125000
G01 X245.873531 Y594.679580 Z-0.125000
G01 X251.205347 Y594.679580 Z-0.125000
G01 X254.404436 Y591.480490 Z-0.125000
G01 X258.669888 Y590.414127 Z-0.125000
G01 X264.001703 Y590.414127 Z-0.125000
G01 X265.068066 Y586.148675 Z-0.125000
G01 X258.669888 Y584.015949 Z-0.125000
G01 X253.338073 Y585.082312 Z-0.125000
G01 X248.006257 Y582.949586 Z-0.125000
G01 X248.006257 Y588.281401 Z-0.125000
G01 X242.674442 Y586.148675 Z-0.125000
G01 X240.541716 Y589.347764 Z-0.125000
G01 X235.209900 Y589.347764 Z-0.125000
G01 X234.143537 Y594.679580 Z-0.125000
G01 X230.944448 Y592.546853 Z-0.125000
G01 X229.878085 Y589.347764 Z-0.125000
G01 X226.678996 Y587.215038 Z-0.125000
G01 X229.878085 Y582.949586 Z-0.125000
G01 X234.143537 Y582.949586 Z-0.125000
G01 X238.408990 Y580.816860 Z-0.125000
G01 X241.608079 Y579.750497 Z-0.125000
G01 X245.873531 Y576.551407 Z-0.125000
G01 X251.205347 Y578.684133 Z-0.125000
G01 X253.338073 Y575.485044 Z-0.125000
G01 X254.404436 Y570.153229 Z-0.125000
G01 X256.537162 Y565.887777 Z-0.125000
G01 X258.669888 Y562.688687 Z-0.125000
G01 X262.935340 Y560.555961 Z-0.125000
G01 X266.134430 Y556.290509 Z-0.125000
G01 X268.267156 Y553.091420 Z-0.125000
G01 X273.598971 Y552.025057 Z-0.125000
G01 X277.864423 Y552.025057 Z-0.125000
G01 X282.129876 Y550.958694 Z-0.125000
G01 X283.196239 Y546.693241 Z-0.125000
G01 X288.528054 Y548.825968 Z-0.125000
G01 X294.926232 Y549.892331 Z-0.125000
G01 X300.258048 Y549.892331 Z-0.125000
G01 X302.390774 Y545.626878 Z-0.125000
G01 X301.324411 Y540.295063 Z-0.125000
G01 X295.992595 Y538.162337 Z-0.125000
G01 X295.992595 Y543.494152 Z-0.125000
G01 X291.727143 Y543.494152 Z-0.125000
G01 X286.395328 Y542.427789 Z-0.125000
G01 X288.528054 Y537.095974 Z-0.125000
G01 X290.660780 Y532.830521 Z-0.125000
G01 X295.992595 Y531.764158 Z-0.125000
G01 X298.125322 Y528.565069 Z-0.125000
G01 X298.125322 Y525.365980 Z-0.125000
G01 X295.992595 Y525.365980 Z-0.125000
G01 X295.992595 Y522.166891 Z-0.125000
G01 X297.058959 Y520.034165 Z-0.125000
G01 X299.191685 Y522.166891 Z-0.125000
G01 X301.324411 Y520.034165 Z-0.125000
G01 X299.191685 Y518.967802 Z-0.125000
G01 X300.258048 Y516.835075 Z-0.125000
G01 X302.390774 Y515.768712 Z-0.125000
G01 X302.390774 Y513.635986 Z-0.125000
G01 X303.457137 Y511.503260 Z-0.125000
G01 X303.457137 Y506.171445 Z-0.125000
G01 X297.058959 Y508.304171 Z-0.125000
G01 X293.859869 Y511.503260 Z-0.125000
G01 X291.727143 Y514.702349 Z-0.125000
G01 X287.461691 Y516.835075 Z-0.125000
G01 X287.461691 Y521.100528 Z-0.125000
G01 X291.727143 Y521.100528 Z-0.125000
G01 X289.594417 Y526.432343 Z-0.125000
G01 X286.395328 Y527.498706 Z-0.125000
G01 X283.196239 Y530.697795 Z-0.125000
G01 X283.196239 Y536.029611 Z-0.125000
G01 X279.997149 Y539.228700 Z-0.125000
G01 X277.864423 Y542.427789 Z-0.125000
G01 X274.665334 Y544.560515 Z-0.125000
G01 X270.399882 Y544.560515 Z-0.125000
G01 X267.200793 Y546.693241 Z-0.125000
G01 X262.935340 Y548.825968 Z-0.125000
G01 X260.802614 Y554.157783 Z-0.125000
G01 X256.537162 Y556.290509 Z-0.125000
G01 X252.271710 Y556.290509 Z-0.125000
G01 X250.138983 Y559.489598 Z-0.125000
G01 X249.072620 Y563.755051 Z-0.125000
G01 X248.006257 Y569.086866 Z-0.125000
G01 X245.873531 Y570.153229 Z-0.125000
G01 X241.608079 Y570.153229 Z-0.125000
G01 X238.408990 Y573.352318 Z-0.125000
G01 X232.010811 Y575.485044 Z-0.125000
G01 X232.010811 Y571.219592 Z-0.125000
G01 X235.209900 Y566.954140 Z-0.125000
G01 X236.276264 Y561.622324 Z-0.125000
G01 X240.541716 Y562.688687 Z-0.125000
G01 X243.740805 Y559.489598 Z-0.125000
G01 X243.740805 Y554.157783 Z-0.125000
G01 X246.939894 Y550.958694 Z-0.125000
G01 X251.205347 Y548.825968 Z-0.125000
G01 X255.470799 Y548.825968 Z-0.125000
G01 X256.537162 Y545.626878 Z-0.125000
G01 X260.802614 Y542.427789 Z-0.125000
G01 X264.001703 Y539.228700 Z-0.125000
G01 X267.200793 Y537.095974 Z-0.125000
G01 X271.466245 Y537.095974 Z-0.125000
G01 X274.665334 Y533.896885 Z-0.125000
G01 X276.798060 Y530.697795 Z-0.125000
G01 X277.864423 Y525.365980 Z-0.125000
G01 X278.930786 Y522.166891 Z-0.125000
G01 X281.063512 Y522.166891 Z-0.125000
G01 X283.196239 Y521.100528 Z-0.125000
G01 X282.129876 Y516.835075 Z-0.125000
G01 X276.798060 Y516.835075 Z-0.125000
G01 X275.731697 Y522.166891 Z-0.125000
G01 X273.598971 Y524.299617 Z-0.125000
G01 X272.532608 Y525.365980 Z-0.125000
G01 X270.399882 Y526.432343 Z-0.125000
G01 X269.333519 Y528.565069 Z-0.125000
G01 X266.134430 Y527.498706 Z-0.125000
G01 X266.134430 Y530.697795 Z-0.125000
G01 X262.935340 Y530.697795 Z-0.125000
G01 X261.868977 Y532.830521 Z-0.125000
G01 X260.802614 Y533.896885 Z-0.125000
G01 X258.669888 Y537.095974 Z-0.125000
G01 X254.404436 Y539.228700 Z-0.125000
G01 X249.072620 Y538.162337 Z-0.125000
G01 X248.006257 Y542.427789 Z-0.125000
G01 X243.740805 Y544.560515 Z-0.125000
G01 X240.541716 Y547.759604 Z-0.125000
G01 X237.342627 Y552.025057 Z-0.125000
G01 X236.276264 Y555.224146 Z-0.125000
G01 X230.944448 Y557.356872 Z-0.125000
G01 X232.010811 Y556.290509 Z-0.125000
G01 X232.010811 Y553.091420 Z-0.125000
G01 X232.010811 Y549.892331 Z-0.125000
G01 X232.010811 Y547.759604 Z-0.125000
G01 X233.077174 Y545.626878 Z-0.125000
G01 X235.209900 Y542.427789 Z-0.125000
G01 X239.475353 Y539.228700 Z-0.125000
G01 X242.674442 Y537.095974 Z-0.125000
G01 X242.674442 Y531.764158 Z-0.125000
G01 X244.807168 Y530.697795 Z-0.125000
G01 X251.205347 Y532.830521 Z-0.125000
G01 X254.404436 Y529.631432 Z-0.125000
G01 X248.006257 Y526.432343 Z-0.125000
G01 X251.205347 Y523.233254 Z-0.125000
G01 X256.537162 Y524.299617 Z-0.125000
G01 X256.537162 Y521.100528 Z-0.125000
G01 X258.669888 Y518.967802 Z-0.125000
G01 X260.802614 Y523.233254 Z-0.125000
G01 X265.068066 Y522.166891 Z-0.125000
G01 X261.868977 Y518.967802 Z-0.125000
G01 X264.001703 Y517.901439 Z-0.125000
G01 X266.134430 Y515.768712 Z-0.125000
G01 X269.333519 Y516.835075 Z-0.125000
G01 X268.267156 Y518.967802 Z-0.125000
G01 X272.532608 Y516.835075 Z-0.125000
G01 X271.466245 Y513.635986 Z-0.125000
G01 X275.731697 Y511.503260 Z-0.125000
G01 X279.997149 Y510.436897 Z-0.125000
G01 X284.262602 Y510.436897 Z-0.125000
G01 X287.461691 Y507.237808 Z-0.125000
G01 X290.660780 Y504.038719 Z-0.125000
G01 X292.793506 Y500.839629 Z-0.125000
G01 X291.727143 Y494.441451 Z-0.125000
G01 X295.992595 Y491.242362 Z-0.125000
G01 X300.258048 Y493.375088 Z-0.125000
G01 X298.125322 Y497.640540 Z-0.125000
G01 X298.125322 Y502.972356 Z-0.125000
G01 X304.523500 Y500.839629 Z-0.125000
G01 X304.523500 Y495.507814 Z-0.125000
G01 X308.788952 Y496.574177 Z-0.125000
G01 X314.120768 Y495.507814 Z-0.125000
G01 X317.319857 Y493.375088 Z-0.125000
G01 X319.452583 Y488.043273 Z-0.125000
G01 X322.651672 Y484.844183 Z-0.125000
G01 X326.917124 Y486.976909 Z-0.125000
G01 X326.917124 Y492.308725 Z-0.125000
G01 X323.718035 Y494.441451 Z-0.125000
G01 X322.651672 Y500.839629 Z-0.125000
G01 X321.585309 Y501.905992 Z-0.125000
G01 X319.452583 Y502.972356 Z-0.125000
G01 X316.253494 Y502.972356 Z-0.125000
G01 X315.187131 Y504.038719 Z-0.125000
G01 X315.187131 Y506.171445 Z-0.125000
G01 X313.054405 Y508.304171 Z-0.125000
G01 X311.988042 Y505.105082 Z-0.125000
G01 X310.921678 Y506.171445 Z-0.125000
G01 X309.855315 Y508.304171 Z-0.125000
G01 X307.722589 Y509.370534 Z-0.125000
G01 X307.722589 Y511.503260 Z-0.125000
G01 X305.589863 Y513.635986 Z-0.125000
G01 X306.656226 Y516.835075 Z-0.125000
G01 X308.788952 Y515.768712 Z-0.125000
G01 X310.921678 Y514.702349 Z-0.125000
G01 X310.921678 Y511.503260 Z-0.125000
G01 X314.120768 Y511.503260 Z-0.125000
G01 X316.253494 Y509.370534 Z-0.125000
G01 X319.452583 Y509.370534 Z-0.125000
G01 X318.386220 Y506.171445 Z-0.125000
G01 X321.585309 Y506.171445 Z-0.125000
G01 X322.651672 Y505.105082 Z-0.125000
G01 X322.651672 Y509.370534 Z-0.125000
G01 X322.651672 Y511.503260 Z-0.125000
G01 X321.585309 Y513.635986 Z-0.125000
G01 X322.651672 Y515.768712 Z-0.125000
G01 X324.784398 Y513.635986 Z-0.125000
G01 X325.850761 Y511.503260 Z-0.125000
G01 X325.850761 Y509.370534 Z-0.125000
G01 X325.850761 Y507.237808 Z-0.125000
G01 X325.850761 Y504.038719 Z-0.125000
G01 X325.850761 Y501.905992 Z-0.125000
G01 X327.983488 Y500.839629 Z-0.125000
G01 X330.116214 Y499.773266 Z-0.125000
G01 X333.315303 Y498.706903 Z-0.125000
G01 X335.448029 Y500.839629 Z-0.125000
G01 X333.315303 Y501.905992 Z-0.125000
G01 X331.182577 Y502.972356 Z-0.125000
G01 X330.116214 Y504.038719 Z-0.125000
G01 X329.049851 Y506.171445 Z-0.125000
G01 X329.049851 Y508.304171 Z-0.125000
G01 X329.049851 Y510.436897 Z-0.125000
G01 X329.049851 Y512.569623 Z-0.125000
G01 X327.983488 Y514.702349 Z-0.125000
G01 X326.917124 Y516.835075 Z-0.125000
G01 X324.784398 Y517.901439 Z-0.125000
G01 X324.784398 Y520.034165 Z-0.125000
G01 X322.651672 Y518.967802 Z-0.125000
G01 X320.518946 Y520.034165 Z-0.125000
G01 X322.651672 Y522.166891 Z-0.125000
G01 X321.585309 Y523.233254 Z-0.125000
G01 X319.452583 Y523.233254 Z-0.125000
G01 X316.253494 Y524.299617 Z-0.125000
G01 X314.120768 Y525.365980 Z-0.125000
G01 X314.120768 Y527.498706 Z-0.125000
G01 X310.921678 Y527.498706 Z-0.125000
G01 X307.722589 Y528.565069 Z-0.125000
G01 X305.589863 Y530.697795 Z-0.125000
G01 X305.589863 Y527.498706 Z-0.125000
G01 X307.722589 Y525.365980 Z-0.125000
G01 X308.788952 Y523.233254 Z-0.125000
G01 X310.921678 Y524.299617 Z-0.125000
G01 X313.054405 Y522.166891 Z-0.125000
G01 X316.253494 Y521.100528 Z-0.125000
G01 X317.319857 Y520.034165 Z-0.125000
G01 X318.386220 Y517.901439 Z-0.125000
G01 X319.452583 Y515.768712 Z-0.125000
G01 X319.452583 Y512.569623 Z-0.125000
G01 X317.319857 Y513.635986 Z-0.125000
G01 X316.253494 Y515.768712 Z-0.125000
G01 X314.120768 Y514.702349 Z-0.125000
G01 X313.054405 Y517.901439 Z-0.125000
G01 X311.988042 Y518.967802 Z-0.125000
G01 X309.855315 Y520.034165 Z-0.125000
G01 X306.656226 Y520.034165 Z-0.125000
G01 X304.523500 Y518.967802 Z-0.125000
G01 X304.523500 Y522.166891 Z-0.125000
G01 X303.457137 Y524.299617 Z-0.125000
G01 X301.324411 Y525.365980 Z-0.125000
G01 X302.390774 Y528.565069 Z-0.125000
G01 X301.324411 Y529.631432 Z-0.125000
G01 X300.258048 Y531.764158 Z-0.125000
G01 X302.390774 Y532.830521 Z-0.125000
G01 X301.324411 Y534.963248 Z-0.125000
G01 X303.457137 Y537.095974 Z-0.125000
G01 X305.589863 Y536.029611 Z-0.125000
G01 X306.656226 Y533.896885 Z-0.125000
G01 X308.788952 Y532.830521 Z-0.125000
G01 X310.921678 Y531.764158 Z-0.125000
G01 X311.988042 Y530.697795 Z-0.125000
G01 X315.187131 Y530.697795 Z-0.125000
G01 X317.319857 Y533.896885 Z-0.125000
G01 X318.386220 Y531.764158 Z-0.125000
G01 X318.386220 Y529.631432 Z-0.125000
G01 X320.518946 Y528.565069 Z-0.125000
G01 X318.386220 Y527.498706 Z-0.125000
G01 X319.452583 Y525.365980 Z-0.125000
G01 X321.585309 Y526.432343 Z-0.125000
G01 X324.784398 Y525.365980 Z-0.125000
G01 X324.784398 Y527.498706 Z-0.125000
G01 X327.983488 Y526.432343 Z-0.125000
G01 X326.917124 Y524.299617 Z-0.125000
G01 X325.850761 Y522.166891 Z-0.125000
G01 X329.049851 Y522.166891 Z-0.125000
G01 X327.983488 Y520.034165 Z-0.125000
G01 X329.049851 Y517.901439 Z-0.125000
G01 X330.116214 Y515.768712 Z-0.125000
G01 X332.248940 Y513.635986 Z-0.125000
G01 X332.248940 Y510.436897 Z-0.125000
G01 X332.248940 Y508.304171 Z-0.125000
G01 X333.315303 Y507.237808 Z-0.125000
G01 X334.381666 Y505.105082 Z-0.125000
G01 X337.580755 Y506.171445 Z-0.125000
G01 X338.647118 Y504.038719 Z-0.125000
G01 X340.779844 Y502.972356 Z-0.125000
G01 X338.647118 Y500.839629 Z-0.125000
G01 X340.779844 Y499.773266 Z-0.125000
G01 X342.912571 Y500.839629 Z-0.125000
G01 X343.978934 Y495.507814 Z-0.125000
G01 X348.244386 Y495.507814 Z-0.125000
G01 X352.509838 Y495.507814 Z-0.125000
G01 X356.775290 Y493.375088 Z-0.125000
G01 X359.974380 Y492.308725 Z-0.125000
G01 X364.239832 Y491.242362 Z-0.125000
G01 X368.505284 Y489.109636 Z-0.125000
G01 X370.638010 Y484.844183 Z-0.125000
G01 X371.704373 Y480.578731 Z-0.125000
G01 X375.969826 Y479.512368 Z-0.125000
G01 X378.102552 Y475.246916 Z-0.125000
G01 X379.168915 Y470.981463 Z-0.125000
G01 X377.036189 Y469.915100 Z-0.125000
G01 X373.837100 Y469.915100 Z-0.125000
G01 X371.704373 Y469.915100 Z-0.125000
G01 X370.638010 Y474.180553 Z-0.125000
G01 X369.571647 Y469.915100 Z-0.125000
G01 X366.372558 Y469.915100 Z-0.125000
G01 X365.306195 Y473.114190 Z-0.125000
G01 X365.306195 Y477.379642 Z-0.125000
G01 X364.239832 Y481.645094 Z-0.125000
G01 X362.107106 Y484.844183 Z-0.125000
G01 X356.775290 Y480.578731 Z-0.125000
G01 X355.708927 Y484.844183 Z-0.125000
G01 X351.443475 Y486.976909 Z-0.125000
G01 X348.244386 Y489.109636 Z-0.125000
G01 X342.912571 Y488.043273 Z-0.125000
G01 X338.647118 Y488.043273 Z-0.125000
G01 X337.580755 Y492.308725 Z-0.125000
G01 X333.315303 Y493.375088 Z-0.125000
G01 X332.248940 Y486.976909 Z-0.125000
G01 X333.315303 Y481.645094 Z-0.125000
G01 X337.580755 Y480.578731 Z-0.125000
G01 X341.846207 Y481.645094 Z-0.125000
G01 X346.111660 Y481.645094 Z-0.125000
G01 X350.377112 Y479.512368 Z-0.125000
G01 X349.310749 Y474.180553 Z-0.125000
G01 X354.642564 Y474.180553 Z-0.125000
G01 X358.908017 Y475.246916 Z-0.125000
G01 X359.974380 Y469.915100 Z-0.125000
G01 X363.173469 Y469.915100 Z-0.125000
G01 X363.173469 Y462.450559 Z-0.125000
G01 X357.841654 Y462.450559 Z-0.125000
G01 X356.775290 Y456.052380 Z-0.125000
G01 X362.107106 Y457.118744 Z-0.125000
G01 X365.306195 Y454.986017 Z-0.125000
G01 X369.571647 Y461.384196 Z-0.125000
G01 X371.704373 Y457.118744 Z-0.125000
G01 X373.837100 Y456.052380 Z-0.125000
G01 X377.036189 Y451.786928 Z-0.125000
G01 X383.434367 Y450.720565 Z-0.125000
G01 X387.699819 Y449.654202 Z-0.125000
G01 X390.898909 Y447.521476 Z-0.125000
G01 X395.164361 Y445.388750 Z-0.125000
G01 X396.230724 Y441.123297 Z-0.125000
G01 X396.230724 Y435.791482 Z-0.125000
G01 X389.832546 Y436.857845 Z-0.125000
G01 X388.766183 Y441.123297 Z-0.125000
G01 X384.500730 Y441.123297 Z-0.125000
G01 X381.301641 Y444.322387 Z-0.125000
G01 X377.036189 Y446.455113 Z-0.125000
G01 X371.704373 Y448.587839 Z-0.125000
G01 X367.438921 Y449.654202 Z-0.125000
G01 X362.107106 Y447.521476 Z-0.125000
G01 X358.908017 Y449.654202 Z-0.125000
G01 X354.642564 Y449.654202 Z-0.125000
G01 X350.377112 Y448.587839 Z-0.125000
G01 X350.377112 Y453.919654 Z-0.125000
G01 X345.045297 Y452.853291 Z-0.125000
G01 X341.846207 Y454.986017 Z-0.125000
G01 X337.580755 Y458.185107 Z-0.125000
G01 X334.381666 Y460.317833 Z-0.125000
G01 X330.116214 Y460.317833 Z-0.125000
G01 X325.850761 Y463.516922 Z-0.125000
G01 X321.585309 Y467.782374 Z-0.125000
G01 X325.850761 Y468.848737 Z-0.125000
G01 X332.248940 Y466.716011 Z-0.125000
G01 X337.580755 Y467.782374 Z-0.125000
G01 X340.779844 Y465.649648 Z-0.125000
G01 X343.978934 Y461.384196 Z-0.125000
G01 X348.244386 Y460.317833 Z-0.125000
G01 X353.576201 Y461.384196 Z-0.125000
G01 X353.576201 Y466.716011 Z-0.125000
G01 X349.310749 Y467.782374 Z-0.125000
G01 X345.045297 Y468.848737 Z-0.125000
G01 X342.912571 Y474.180553 Z-0.125000
G01 X338.647118 Y474.180553 Z-0.125000
G01 X333.315303 Y473.114190 Z-0.125000
G01 X330.116214 Y475.246916 Z-0.125000
G01 X326.917124 Y480.578731 Z-0.125000
G01 X324.784398 Y475.246916 Z-0.125000
G01 X320.518946 Y477.379642 Z-0.125000
G01 X316.253494 Y479.512368 Z-0.125000
G01 X315.187131 Y484.844183 Z-0.125000
G01 X311.988042 Y486.976909 Z-0.125000
G01 X308.788952 Y490.175999 Z-0.125000
G01 X302.390774 Y488.043273 Z-0.125000
G01 X305.589863 Y483.777820 Z-0.125000
G01 X308.788952 Y480.578731 Z-0.125000
G01 X310.921678 Y476.313279 Z-0.125000
G01 X314.120768 Y473.114190 Z-0.125000
G01 X318.386220 Y470.981463 Z-0.125000
G01 X311.988042 Y466.716011 Z-0.125000
G01 X315.187131 Y463.516922 Z-0.125000
G01 X319.452583 Y460.317833 Z-0.125000
G01 X322.651672 Y457.118744 Z-0.125000
G01 X323.718035 Y452.853291 Z-0.125000
G01 X327.983488 Y453.919654 Z-0.125000
G01 X331.182577 Y451.786928 Z-0.125000
G01 X335.448029 Y451.786928 Z-0.125000
G01 X338.647118 Y447.521476 Z-0.125000
G01 X342.912571 Y446.455113 Z-0.125000
G01 X345.045297 Y443.256024 Z-0.125000
G01 X345.045297 Y440.056934 Z-0.125000
G01 X341.846207 Y440.056934 Z-0.125000
G01 X339.713481 Y441.123297 Z-0.125000
G01 X337.580755 Y440.056934 Z-0.125000
G01 X335.448029 Y441.123297 Z-0.125000
G01 X332.248940 Y440.056934 Z-0.125000
G01 X332.248940 Y445.388750 Z-0.125000
G01 X325.850761 Y445.388750 Z-0.125000
G01 X321.585309 Y445.388750 Z-0.125000
G01 X318.386220 Y446.455113 Z-0.125000
G01 X317.319857 Y451.786928 Z-0.125000
G01 X315.187131 Y454.986017 Z-0.125000
G01 X311.988042 Y457.118744 Z-0.125000
G01 X308.788952 Y460.317833 Z-0.125000
G01 X305.589863 Y462.450559 Z-0.125000
G01 X302.390774 Y466.716011 Z-0.125000
G01 X307.722589 Y468.848737 Z-0.125000
G01 X304.523500 Y473.114190 Z-0.125000
G01 X302.390774 Y476.313279 Z-0.125000
G01 X300.258048 Y480.578731 Z-0.125000
G01 X297.058959 Y483.777820 Z-0.125000
G01 X292.793506 Y483.777820 Z-0.125000
G01 X289.594417 Y488.043273 Z-0.125000
G01 X286.395328 Y491.242362 Z-0.125000
G01 X286.395328 Y496.574177 Z-0.125000
G01 X284.262602 Y500.839629 Z-0.125000
G01 X279.997149 Y504.038719 Z-0.125000
G01 X277.864423 Y497.640540 Z-0.125000
G01 X279.997149 Y494.441451 Z-0.125000
G01 X279.997149 Y489.109636 Z-0.125000
G01 X282.129876 Y484.844183 Z-0.125000
G01 X276.798060 Y480.578731 Z-0.125000
G01 X281.063512 Y478.446005 Z-0.125000
G01 X286.395328 Y481.645094 Z-0.125000
G01 X286.395328 Y476.313279 Z-0.125000
G01 X291.727143 Y477.379642 Z-0.125000
G01 X294.926232 Y475.246916 Z-0.125000
G01 X297.058959 Y470.981463 Z-0.125000
G01 X297.058959 Y465.649648 Z-0.125000
G01 X291.727143 Y466.716011 Z-0.125000
G01 X288.528054 Y469.915100 Z-0.125000
G01 X284.262602 Y469.915100 Z-0.125000
G01 X279.997149 Y472.047827 Z-0.125000
G01 X275.731697 Y473.114190 Z-0.125000
G01 X271.466245 Y476.313279 Z-0.125000
G01 X268.267156 Y478.446005 Z-0.125000
G01 X264.001703 Y478.446005 Z-0.125000
G01 X260.802614 Y480.578731 Z-0.125000
G01 X256.537162 Y478.446005 Z-0.125000
G01 X255.470799 Y483.777820 Z-0.125000
G01 X252.271710 Y486.976909 Z-0.125000
G01 X246.939894 Y485.910546 Z-0.125000
G01 X250.138983 Y480.578731 Z-0.125000
G01 X245.873531 Y478.446005 Z-0.125000
G01 X250.138983 Y474.180553 Z-0.125000
G01 X255.470799 Y472.047827 Z-0.125000
G01 X260.802614 Y472.047827 Z-0.125000
G01 X266.134430 Y470.981463 Z-0.125000
G01 X270.399882 Y469.915100 Z-0.125000
G01 X272.532608 Y465.649648 Z-0.125000
G01 X276.798060 Y465.649648 Z-0.125000
G01 X281.063512 Y463.516922 Z-0.125000
G01 X286.395328 Y462.450559 Z-0.125000
G01 X287.461691 Y458.185107 Z-0.125000
G01 X292.793506 Y460.317833 Z-0.125000
G01 X292.793506 Y454.986017 Z-0.125000
G01 X298.125322 Y454.986017 Z-0.125000
G01 X299.191685 Y460.317833 Z-0.125000
G01 X302.390774 Y454.986017 Z-0.125000
G01 X306.656226 Y452.853291 Z-0.125000
G01 X308.788952 Y448.587839 Z-0.125000
G01 X313.054405 Y446.455113 Z-0.125000
G01 X314.120768 Y441.123297 Z-0.125000
G01 X316.253494 Y440.056934 Z-0.125000
G01 X319.452583 Y440.056934 Z-0.125000
G01 X322.651672 Y440.056934 Z-0.125000
G01 X324.784398 Y440.056934 Z-0.125000
G01 X326.917124 Y440.056934 Z-0.125000
G01 X329.049851 Y440.056934 Z-0.125000
G01 X327.983488 Y435.791482 Z-0.125000
G01 X332.248940 Y436.857845 Z-0.125000
G01 X334.381666 Y434.725119 Z-0.125000
G01 X338.647118 Y434.725119 Z-0.125000
G01 X342.912571 Y435.791482 Z-0.125000
G01 X342.912571 Y431.526030 Z-0.125000
G01 X338.647118 Y429.393304 Z-0.125000
G01 X339.713481 Y425.127851 Z-0.125000
G01 X339.713481 Y420.862399 Z-0.125000
G01 X342.912571 Y418.729673 Z-0.125000
G01 X347.178023 Y417.663310 Z-0.125000
G01 X351.443475 Y416.596947 Z-0.125000
G01 X351.443475 Y420.862399 Z-0.125000
G01 X351.443475 Y425.127851 Z-0.125000
G01 X346.111660 Y422.995125 Z-0.125000
G01 X345.045297 Y427.260578 Z-0.125000
G01 X349.310749 Y428.326941 Z-0.125000
G01 X347.178023 Y432.592393 Z-0.125000
G01 X348.244386 Y436.857845 Z-0.125000
G01 X348.244386 Y441.123297 Z-0.125000
G01 X351.443475 Y442.189661 Z-0.125000
G01 X352.509838 Y440.056934 Z-0.125000
G01 X353.576201 Y437.924208 Z-0.125000
G01 X352.509838 Y433.658756 Z-0.125000
G01 X354.642564 Y430.459667 Z-0.125000
G01 X356.775290 Y427.260578 Z-0.125000
G01 X356.775290 Y422.995125 Z-0.125000
G01 X357.841654 Y419.796036 Z-0.125000
G01 X361.040743 Y417.663310 Z-0.125000
G01 X364.239832 Y415.530584 Z-0.125000
G01 X368.505284 Y415.530584 Z-0.125000
G01 X372.770736 Y413.397858 Z-0.125000
G01 X374.903463 Y411.265132 Z-0.125000
G01 X375.969826 Y406.999679 Z-0.125000
G01 X378.102552 Y402.734227 Z-0.125000
G01 X374.903463 Y401.667864 Z-0.125000
G01 X370.638010 Y401.667864 Z-0.125000
G01 X370.638010 Y405.933316 Z-0.125000
G01 X368.505284 Y409.132405 Z-0.125000
G01 X365.306195 Y410.198768 Z-0.125000
G01 X361.040743 Y410.198768 Z-0.125000
G01 X357.841654 Y412.331495 Z-0.125000
G01 X354.642564 Y414.464221 Z-0.125000
G01 X352.509838 Y409.132405 Z-0.125000
G01 X355.708927 Y406.999679 Z-0.125000
G01 X358.908017 Y404.866953 Z-0.125000
G01 X363.173469 Y404.866953 Z-0.125000
G01 X365.306195 Y402.734227 Z-0.125000
G01 X365.306195 Y398.468775 Z-0.125000
G01 X367.438921 Y395.269685 Z-0.125000
G01 X370.638010 Y396.336049 Z-0.125000
G01 X370.638010 Y391.004233 Z-0.125000
G01 X374.903463 Y387.805144 Z-0.125000
G01 X373.837100 Y383.539692 Z-0.125000
G01 X374.903463 Y379.274239 Z-0.125000
G01 X377.036189 Y376.075150 Z-0.125000
G01 X379.168915 Y375.008787 Z-0.125000
G01 X381.301641 Y371.809698 Z-0.125000
G01 X385.567093 Y370.743335 Z-0.125000
G01 X388.766183 Y369.676972 Z-0.125000
G01 X390.898909 Y366.477883 Z-0.125000
G01 X395.164361 Y364.345156 Z-0.125000
G01 X399.429813 Y366.477883 Z-0.125000
G01 X401.562539 Y363.278793 Z-0.125000
G01 X405.827992 Y364.345156 Z-0.125000
G01 X404.761629 Y368.610609 Z-0.125000
G01 X401.562539 Y371.809698 Z-0.125000
G01 X399.429813 Y375.008787 Z-0.125000
G01 X396.230724 Y369.676972 Z-0.125000
G01 X394.097998 Y372.876061 Z-0.125000
G01 X394.097998 Y376.075150 Z-0.125000
G01 X395.164361 Y380.340603 Z-0.125000
G01 X395.164361 Y384.606055 Z-0.125000
G01 X390.898909 Y384.606055 Z-0.125000
G01 X386.633456 Y382.473329 Z-0.125000
G01 X389.832546 Y379.274239 Z-0.125000
G01 X388.766183 Y375.008787 Z-0.125000
G01 X384.500730 Y377.141513 Z-0.125000
G01 X381.301641 Y380.340603 Z-0.125000
G01 X379.168915 Y383.539692 Z-0.125000
G01 X384.500730 Y385.672418 Z-0.125000
G01 X380.235278 Y387.805144 Z-0.125000
G01 X380.235278 Y392.070596 Z-0.125000
G01 X377.036189 Y393.136959 Z-0.125000
G01 X374.903463 Y396.336049 Z-0.125000
G01 X380.235278 Y398.468775 Z-0.125000
G01 X384.500730 Y397.402412 Z-0.125000
G01 X385.567093 Y393.136959 Z-0.125000
G01 X387.699819 Y392.070596 Z-0.125000
G01 X389.832546 Y388.871507 Z-0.125000
G01 X394.097998 Y388.871507 Z-0.125000
G01 X399.429813 Y388.871507 Z-0.125000
G01 X400.496176 Y384.606055 Z-0.125000
G01 X400.496176 Y380.340603 Z-0.125000
G01 X404.761629 Y381.406966 Z-0.125000
G01 X404.761629 Y377.141513 Z-0.125000
G01 X406.894355 Y373.942424 Z-0.125000
G01 X410.093444 Y371.809698 Z-0.125000
G01 X411.159807 Y368.610609 Z-0.125000
G01 X411.159807 Y364.345156 Z-0.125000
G01 X413.292533 Y361.146067 Z-0.125000
G01 X413.292533 Y355.814252 Z-0.125000
G01 X409.027081 Y356.880615 Z-0.125000
G01 X406.894355 Y360.079704 Z-0.125000
G01 X402.628902 Y359.013341 Z-0.125000
G01 X398.363450 Y356.880615 Z-0.125000
G01 X396.230724 Y360.079704 Z-0.125000
G01 X391.965272 Y359.013341 Z-0.125000
G01 X389.832546 Y362.212430 Z-0.125000
G01 X385.567093 Y364.345156 Z-0.125000
G01 X381.301641 Y366.477883 Z-0.125000
G01 X378.102552 Y365.411520 Z-0.125000
G01 X375.969826 Y368.610609 Z-0.125000
G01 X372.770736 Y369.676972 Z-0.125000
G01 X370.638010 Y371.809698 Z-0.125000
G01 X370.638010 Y376.075150 Z-0.125000
G01 X368.505284 Y378.207876 Z-0.125000
G01 X364.239832 Y379.274239 Z-0.125000
G01 X368.505284 Y382.473329 Z-0.125000
G01 X369.571647 Y386.738781 Z-0.125000
G01 X365.306195 Y387.805144 Z-0.125000
G01 X363.173469 Y388.871507 Z-0.125000
G01 X362.107106 Y393.136959 Z-0.125000
G01 X359.974380 Y396.336049 Z-0.125000
G01 X358.908017 Y399.535138 Z-0.125000
G01 X354.642564 Y400.601501 Z-0.125000
G01 X352.509838 Y402.734227 Z-0.125000
G01 X348.244386 Y404.866953 Z-0.125000
G01 X343.978934 Y404.866953 Z-0.125000
G01 X346.111660 Y410.198768 Z-0.125000
G01 X349.310749 Y411.265132 Z-0.125000
G01 X343.978934 Y413.397858 Z-0.125000
G01 X339.713481 Y413.397858 Z-0.125000
G01 X337.580755 Y415.530584 Z-0.125000
G01 X333.315303 Y416.596947 Z-0.125000
G01 X334.381666 Y420.862399 Z-0.125000
G01 X334.381666 Y425.127851 Z-0.125000
G01 X333.315303 Y429.393304 Z-0.125000
G01 X329.049851 Y430.459667 Z-0.125000
G01 X324.784398 Y430.459667 Z-0.125000
G01 X322.651672 Y434.725119 Z-0.125000
G01 X318.386220 Y434.725119 Z-0.125000
G01 X315.187131 Y435.791482 Z-0.125000
G01 X310.921678 Y437.924208 Z-0.125000
G01 X310.921678 Y441.123297 Z-0.125000
G01 X307.722589 Y441.123297 Z-0.125000
G01 X305.589863 Y440.056934 Z-0.125000
G01 X305.589863 Y443.256024 Z-0.125000
G01 X303.457137 Y442.189661 Z-0.125000
G01 X300.258048 Y442.189661 Z-0.125000
G01 X298.125322 Y443.256024 Z-0.125000
G01 X301.324411 Y447.521476 Z-0.125000
G01 X295.992595 Y448.587839 Z-0.125000
G01 X289.594417 Y448.587839 Z-0.125000
G01 X286.395328 Y451.786928 Z-0.125000
G01 X281.063512 Y453.919654 Z-0.125000
G01 X279.997149 Y458.185107 Z-0.125000
G01 X274.665334 Y458.185107 Z-0.125000
G01 X271.466245 Y459.251470 Z-0.125000
G01 X266.134430 Y459.251470 Z-0.125000
G01 X265.068066 Y463.516922 Z-0.125000
G01 X260.802614 Y465.649648 Z-0.125000
G01 X256.537162 Y465.649648 Z-0.125000
G01 X252.271710 Y465.649648 Z-0.125000
G01 X249.072620 Y468.848737 Z-0.125000
G01 X244.807168 Y467.782374 Z-0.125000
G01 X245.873531 Y464.583285 Z-0.125000
G01 X248.006257 Y462.450559 Z-0.125000
G01 X250.138983 Y461.384196 Z-0.125000
G01 X251.205347 Y459.251470 Z-0.125000
G01 X252.271710 Y457.118744 Z-0.125000
G01 X254.404436 Y459.251470 Z-0.125000
G01 X255.470799 Y457.118744 Z-0.125000
G01 X256.537162 Y456.052380 Z-0.125000
G01 X258.669888 Y454.986017 Z-0.125000
G01 X259.736251 Y458.185107 Z-0.125000
G01 X260.802614 Y453.919654 Z-0.125000
G01 X264.001703 Y453.919654 Z-0.125000
G01 X264.001703 Y451.786928 Z-0.125000
G01 X267.200793 Y452.853291 Z-0.125000
G01 X268.267156 Y450.720565 Z-0.125000
G01 X270.399882 Y449.654202 Z-0.125000
G01 X272.532608 Y448.587839 Z-0.125000
G01 X273.598971 Y451.786928 Z-0.125000
G01 X275.731697 Y448.587839 Z-0.125000
G01 X277.864423 Y447.521476 Z-0.125000
G01 X281.063512 Y448.587839 Z-0.125000
G01 X282.129876 Y446.455113 Z-0.125000
G01 X283.196239 Y444.322387 Z-0.125000
G01 X285.328965 Y445.388750 Z-0.125000
G01 X287.461691 Y444.322387 Z-0.125000
G01 X289.594417 Y444.322387 Z-0.125000
G01 X290.660780 Y442.189661 Z-0.125000
G01 X292.793506 Y443.256024 Z-0.125000
G01 X294.926232 Y443.256024 Z-0.125000
G01 X294.926232 Y438.990571 Z-0.125000
G01 X299.191685 Y438.990571 Z-0.125000
G01 X301.324411 Y435.791482 Z-0.125000
G01 X305.589863 Y434.725119 Z-0.125000
G01 X310.921678 Y433.658756 Z-0.125000
G01 X311.988042 Y429.393304 Z-0.125000
G01 X316.253494 Y429.393304 Z-0.125000
G01 X320.518946 Y429.393304 Z-0.125000
G01 X321.585309 Y425.127851 Z-0.125000
G01 X325.850761 Y425.127851 Z-0.125000
G01 X330.116214 Y425.127851 Z-0.125000
G01 X329.049851 Y419.796036 Z-0.125000
G01 X324.784398 Y419.796036 Z-0.125000
G01 X320.518946 Y419.796036 Z-0.125000
G01 X316.253494 Y419.796036 Z-0.125000
G01 X316.253494 Y424.061488 Z-0.125000
G01 X311.988042 Y424.061488 Z-0.125000
G01 X308.788952 Y422.995125 Z-0.125000
G01 X307.722589 Y427.260578 Z-0.125000
G01 X305.589863 Y430.459667 Z-0.125000
G01 X301.324411 Y430.459667 Z-0.125000
G01 X297.058959 Y430.459667 Z-0.125000
G01 X294.926232 Y433.658756 Z-0.125000
G01 X290.660780 Y434.725119 Z-0.125000
G01 X288.528054 Y435.791482 Z-0.125000
G01 X285.328965 Y437.924208 Z-0.125000
G01 X281.063512 Y438.990571 Z-0.125000
G01 X277.864423 Y443.256024 Z-0.125000
G01 X273.598971 Y443.256024 Z-0.125000
G01 X271.466245 Y444.322387 Z-0.125000
G01 X270.399882 Y437.924208 Z-0.125000
G01 X266.134430 Y438.990571 Z-0.125000
G01 X266.134430 Y443.256024 Z-0.125000
G01 X265.068066 Y446.455113 Z-0.125000
G01 X260.802614 Y447.521476 Z-0.125000
G01 X258.669888 Y451.786928 Z-0.125000
G01 X255.470799 Y452.853291 Z-0.125000
G01 X253.338073 Y453.919654 Z-0.125000
G01 X251.205347 Y453.919654 Z-0.125000
G01 X249.072620 Y453.919654 Z-0.125000
G01 X249.072620 Y457.118744 Z-0.125000
G01 X248.006257 Y459.251470 Z-0.125000
G01 X244.807168 Y459.251470 Z-0.125000
G01 X243.740805 Y457.118744 Z-0.125000
G01 X245.873531 Y456.052380 Z-0.125000
G01 X245.873531 Y453.919654 Z-0.125000
G01 X241.608079 Y454.986017 Z-0.125000
G01 X240.541716 Y457.118744 Z-0.125000
G01 X240.541716 Y459.251470 Z-0.125000
G01 X240.541716 Y462.450559 Z-0.125000
G01 X242.674442 Y461.384196 Z-0.125000
G01 X244.807168 Y462.450559 Z-0.125000
G01 X242.674442 Y464.583285 Z-0.125000
G01 X240.541716 Y466.716011 Z-0.125000
G01 X241.608079 Y468.848737 Z-0.125000
G01 X242.674442 Y470.981463 Z-0.125000
G01 X242.674442 Y473.114190 Z-0.125000
G01 X242.674442 Y476.313279 Z-0.125000
G01 X241.608079 Y478.446005 Z-0.125000
G01 X242.674442 Y481.645094 Z-0.125000
G01 X241.608079 Y483.777820 Z-0.125000
G01 X241.608079 Y485.910546 Z-0.125000
G01 X241.608079 Y488.043273 Z-0.125000
G01 X239.475353 Y490.175999 Z-0.125000
G01 X239.475353 Y492.308725 Z-0.125000
G01 X238.408990 Y495.507814 Z-0.125000
G01 X237.342627 Y497.640540 Z-0.125000
G01 X236.276264 Y499.773266 Z-0.125000
G01 X235.209900 Y501.905992 Z-0.125000
G01 X239.475353 Y500.839629 Z-0.125000
G01 X237.342627 Y505.105082 Z-0.125000
G01 X234.143537 Y505.105082 Z-0.125000
G01 X233.077174 Y506.171445 Z-0.125000
G01 X234.143537 Y509.370534 Z-0.125000
G01 X233.077174 Y511.503260 Z-0.125000
G01 X232.010811 Y513.635986 Z-0.125000
G01 X232.010811 Y515.768712 Z-0.125000
G01 X232.010811 Y517.901439 Z-0.125000
G01 X236.276264 Y515.768712 Z-0.125000
G01 X239.475353 Y511.503260 Z-0.125000
G01 X243.740805 Y511.503260 Z-0.125000
G01 X244.807168 Y506.171445 Z-0.125000
G01 X249.072620 Y509.370534 Z-0.125000
G01 X253.338073 Y508.304171 Z-0.125000
G01 X257.603525 Y506.171445 Z-0.125000
G01 X261.868977 Y502.972356 Z-0.125000
G01 X266.134430 Y500.839629 Z-0.125000
G01 X264.001703 Y494.441451 Z-0.125000
G01 X258.669888 Y495.507814 Z-0.125000
G01 X256.537162 Y499.773266 Z-0.125000
G01 X252.271710 Y500.839629 Z-0.125000
G01 X248.006257 Y501.905992 Z-0.125000
G01 X242.674442 Y497.640540 Z-0.125000
G01 X244.807168 Y493.375088 Z-0.125000
G01 X249.072620 Y494.441451 Z-0.125000
G01 X252.271710 Y492.308725 Z-0.125000
G01 X258.669888 Y490.175999 Z-0.125000
G01 X261.868977 Y486.976909 Z-0.125000
G01 X266.134430 Y488.043273 Z-0.125000
G01 X269.333519 Y484.844183 Z-0.125000
G01 X274.665334 Y484.844183 Z-0.125000
G01 X273.598971 Y490.175999 Z-0.125000
G01 X271.466245 Y494.441451 Z-0.125000
G01 X269.333519 Y496.574177 Z-0.125000
G01 X274.665334 Y501.905992 Z-0.125000
G01 X272.532608 Y505.105082 Z-0.125000
G01 X268.267156 Y507.237808 Z-0.125000
G01 X264.001703 Y509.370534 Z-0.125000
G01 X261.868977 Y512.569623 Z-0.125000
G01 X259.736251 Y513.635986 Z-0.125000
G01 X256.537162 Y513.635986 Z-0.125000
G01 X254.404436 Y514.702349 Z-0.125000
G01 X252.271710 Y515.768712 Z-0.125000
G01 X250.138983 Y515.768712 Z-0.125000
G01 X249.072620 Y517.901439 Z-0.125000
G01 X245.873531 Y517.901439 Z-0.125000
G01 X244.807168 Y520.034165 Z-0.125000
G01 X243.740805 Y521.100528 Z-0.125000
G01 X241.608079 Y523.233254 Z-0.125000
G01 X237.342627 Y523.233254 Z-0.125000
G01 X236.276264 Y528.565069 Z-0.125000
G01 X232.010811 Y529.631432 Z-0.125000
G01 X230.944448 Y526.432343 Z-0.125000
G01 X232.010811 Y524.299617 Z-0.125000
G01 X230.944448 Y521.100528 Z-0.125000
G01 X232.010811 Y520.034165 Z-0.125000
G01 X225.612633 Y522.166891 Z-0.125000
G01 X223.479907 Y525.365980 Z-0.125000
G01 X223.479907 Y530.697795 Z-0.125000
G01 X218.148091 Y529.631432 Z-0.125000
G01 X218.148091 Y534.963248 Z-0.125000
G01 X214.949002 Y538.162337 Z-0.125000
G01 X211.749913 Y540.295063 Z-0.125000
G01 X208.550824 Y543.494152 Z-0.125000
G01 X207.484461 Y547.759604 Z-0.125000
G01 X203.219008 Y544.560515 Z-0.125000
G01 X201.086282 Y548.825968 Z-0.125000
G01 X196.820830 Y550.958694 Z-0.125000
G01 X192.555378 Y553.091420 Z-0.125000
G01 X188.289925 Y558.423235 Z-0.125000
G01 X192.555378 Y558.423235 Z-0.125000
G01 X198.953556 Y557.356872 Z-0.125000
G01 X198.953556 Y562.688687 Z-0.125000
G01 X196.820830 Y565.887777 Z-0.125000
G01 X192.555378 Y565.887777 Z-0.125000
G01 X187.223562 Y564.821414 Z-0.125000
G01 X182.958110 Y564.821414 Z-0.125000
G01 X178.692658 Y564.821414 Z-0.125000
G01 X174.427206 Y564.821414 Z-0.125000
G01 X170.161753 Y564.821414 Z-0.125000
G01 X165.896301 Y564.821414 Z-0.125000
G01 X161.630849 Y563.755051 Z-0.125000
G01 X158.431759 Y565.887777 Z-0.125000
G01 X152.033581 Y563.755051 Z-0.125000
G01 X147.768129 Y566.954140 Z-0.125000
G01 X144.569040 Y572.285955 Z-0.125000
G01 X150.967218 Y573.352318 Z-0.125000
G01 X154.166307 Y570.153229 Z-0.125000
G01 X158.431759 Y573.352318 Z-0.125000
G01 X162.697212 Y572.285955 Z-0.125000
G01 X166.962664 Y572.285955 Z-0.125000
G01 X171.228116 Y572.285955 Z-0.125000
G01 X175.493569 Y572.285955 Z-0.125000
G01 X179.759021 Y572.285955 Z-0.125000
G01 X184.024473 Y572.285955 Z-0.125000
G01 X188.289925 Y572.285955 Z-0.125000
G01 X192.555378 Y572.285955 Z-0.125000
G01 X196.820830 Y572.285955 Z-0.125000
G01 X202.152645 Y572.285955 Z-0.125000
G01 X204.285371 Y568.020503 Z-0.125000
G01 X208.550824 Y565.887777 Z-0.125000
G01 X210.683550 Y561.622324 Z-0.125000
G01 X204.285371 Y560.555961 Z-0.125000
G01 X204.285371 Y555.224146 Z-0.125000
G01 X208.550824 Y555.224146 Z-0.125000
G01 X212.816276 Y555.224146 Z-0.125000
G01 X213.882639 Y550.958694 Z-0.125000
G01 X216.015365 Y547.759604 Z-0.125000
G01 X219.214454 Y545.626878 Z-0.125000
G01 X221.347181 Y541.361426 Z-0.125000
G01 X224.546270 Y537.095974 Z-0.125000
G01 X229.878085 Y536.029611 Z-0.125000
G01 X230.944448 Y533.896885 Z-0.125000
G01 X232.010811 Y532.830521 Z-0.125000
G01 X235.209900 Y532.830521 Z-0.125000
G01 X233.077174 Y537.095974 Z-0.125000
G01 X232.010811 Y540.295063 Z-0.125000
G01 X230.944448 Y542.427789 Z-0.125000
G01 X226.678996 Y543.494152 Z-0.125000
G01 X225.612633 Y548.825968 Z-0.125000
G01 X222.413544 Y552.025057 Z-0.125000
G01 X220.280818 Y555.224146 Z-0.125000
G01 X219.214454 Y560.555961 Z-0.125000
G01 X216.015365 Y562.688687 Z-0.125000
G01 X214.949002 Y568.020503 Z-0.125000
G01 X208.550824 Y573.352318 Z-0.125000
G01 X212.816276 Y573.352318 Z-0.125000
G01 X218.148091 Y575.485044 Z-0.125000
G01 X221.347181 Y573.352318 Z-0.125000
G01 X221.347181 Y566.954140 Z-0.125000
G01 X224.546270 Y562.688687 Z-0.125000
G01 X227.745359 Y559.489598 Z-0.125000
G01 X230.944448 Y560.555961 Z-0.125000
G01 X232.010811 Y562.688687 Z-0.125000
G01 X230.944448 Y565.887777 Z-0.125000
G01 X229.878085 Y568.020503 Z-0.125000
G01 X228.811722 Y571.219592 Z-0.125000
G01 X227.745359 Y573.352318 Z-0.125000
G01 X227.745359 Y575.485044 Z-0.125000
G01 X227.745359 Y577.617770 Z-0.125000
G01 X225.612633 Y579.750497 Z-0.125000
G01 X224.546270 Y581.883223 Z-0.125000
G01 X224.546270 Y584.015949 Z-0.125000
G01 X221.347181 Y582.949586 Z-0.125000
G01 X217.081728 Y581.883223 Z-0.125000
G01 X213.882639 Y580.816860 Z-0.125000
G01 X209.617187 Y580.816860 Z-0.125000
G01 X205.351735 Y579.750497 Z-0.125000
G01 X202.152645 Y579.750497 Z-0.125000
G01 X197.887193 Y579.750497 Z-0.125000
G01 X193.621741 Y579.750497 Z-0.125000
G01 X189.356288 Y579.750497 Z-0.125000
G01 X185.090836 Y579.750497 Z-0.125000
G01 X180.825384 Y579.750497 Z-0.125000
G01 X176.559932 Y579.750497 Z-0.125000
G01 X172.294479 Y579.750497 Z-0.125000
G01 X168.029027 Y579.750497 Z-0.125000
G01 X163.763575 Y579.750497 Z-0.125000
G01 X159.498123 Y579.750497 Z-0.125000
G01 X155.232670 Y579.750497 Z-0.125000
G01 X150.967218 Y579.750497 Z-0.125000
G01 X146.701766 Y579.750497 Z-0.125000
G01 X143.502676 Y579.750497 Z-0.125000
G01 X140.303587 Y578.684133 Z-0.125000
G01 X137.104498 Y580.816860 Z-0.125000
G01 X132.839046 Y580.816860 Z-0.125000
G01 X128.573594 Y580.816860 Z-0.125000
G01 X124.308141 Y580.816860 Z-0.125000
G01 X120.042689 Y580.816860 Z-0.125000
G01 X115.777237 Y580.816860 Z-0.125000
G01 X112.578147 Y581.883223 Z-0.125000
G01 X108.312695 Y581.883223 Z-0.125000
G01 X104.047243 Y581.883223 Z-0.125000
G01 X99.781791 Y581.883223 Z-0.125000
G01 X94.449975 Y582.949586 Z-0.125000
G01 X90.184523 Y582.949586 Z-0.125000
G01 X85.919071 Y584.015949 Z-0.125000
G01 X81.653618 Y584.015949 Z-0.125000
G01 X77.388166 Y584.015949 Z-0.125000
G01 X73.122714 Y584.015949 Z-0.125000
G01 X69.923625 Y585.082312 Z-0.125000
G01 X65.658172 Y585.082312 Z-0.125000
G01 X61.392720 Y586.148675 Z-0.125000
G01 X57.127268 Y586.148675 Z-0.125000
G01 X52.861816 Y586.148675 Z-0.125000
G01 X49.662726 Y585.082312 Z-0.125000
G01 X46.463637 Y587.215038 Z-0.125000
G01 X42.198185 Y587.215038 Z-0.125000
G01 X37.932733 Y587.215038 Z-0.125000
G01 X34.733643 Y588.281401 Z-0.125000
G01 X30.468191 Y588.281401 Z-0.125000
G01 X26.202739 Y588.281401 Z-0.125000
G01 X21.937287 Y588.281401 Z-0.125000
G01 X17.671834 Y588.281401 Z-0.125000
G01 X14.472745 Y588.281401 Z-0.125000
G01 X17.671834 Y580.816860 Z-0.125000
G01 X13.406382 Y580.816860 Z-0.125000
G01 X8.074567 Y581.883223 Z-0.125000
G01 X10.207293 Y588.281401 Z-0.125000
G01 X4.875477 Y587.215038 Z-0.125000
G01 X1.676388 Y585.082312 Z-0.125000
G01 X0.610025 Y581.883223 Z-0.125000
G01 X2.742751 Y579.750497 Z-0.125000
G01 X2.742751 Y576.551407 Z-0.125000
G01 X3.809114 Y575.485044 Z-0.125000
G01 X7.008204 Y575.485044 Z-0.125000
G01 X7.008204 Y573.352318 Z-0.125000
G01 X10.207293 Y572.285955 Z-0.125000
G01 X13.406382 Y573.352318 Z-0.125000
G01 X11.273656 Y569.086866 Z-0.125000
G01 X13.406382 Y568.020503 Z-0.125000
G01 X14.472745 Y565.887777 Z-0.125000
G01 X16.605471 Y564.821414 Z-0.125000
G01 X19.804560 Y562.688687 Z-0.125000
G01 X23.003650 Y560.555961 Z-0.125000
G01 X26.202739 Y558.423235 Z-0.125000
G01 X26.202739 Y556.290509 Z-0.125000
G01 X29.401828 Y556.290509 Z-0.125000
G01 X31.534554 Y554.157783 Z-0.125000
G01 X33.667280 Y552.025057 Z-0.125000
G01 X34.733643 Y555.224146 Z-0.125000
G01 X35.800006 Y560.555961 Z-0.125000
G01 X34.733643 Y561.622324 Z-0.125000
G01 X31.534554 Y561.622324 Z-0.125000
G01 X33.667280 Y565.887777 Z-0.125000
G01 X29.401828 Y566.954140 Z-0.125000
G01 X29.401828 Y563.755051 Z-0.125000
G01 X26.202739 Y564.821414 Z-0.125000
G01 X25.136376 Y566.954140 Z-0.125000
G01 X21.937287 Y566.954140 Z-0.125000
G01 X20.870923 Y569.086866 Z-0.125000
G01 X19.804560 Y571.219592 Z-0.125000
G01 X18.738197 Y573.352318 Z-0.125000
G01 X19.804560 Y576.551407 Z-0.125000
G01 X21.937287 Y576.551407 Z-0.125000
G01 X21.937287 Y580.816860 Z-0.125000
G01 X26.202739 Y580.816860 Z-0.125000
G01 X31.534554 Y580.816860 Z-0.125000
G01 X34.733643 Y578.684133 Z-0.125000
G01 X35.800006 Y575.485044 Z-0.125000
G01 X32.600917 Y576.551407 Z-0.125000
G01 X29.401828 Y576.551407 Z-0.125000
G01 X27.269102 Y577.617770 Z-0.125000
G01 X25.136376 Y576.551407 Z-0.125000
G01 X25.136376 Y571.219592 Z-0.125000
G01 X29.401828 Y571.219592 Z-0.125000
G01 X33.667280 Y571.219592 Z-0.125000
G01 X36.866370 Y570.153229 Z-0.125000
G01 X38.999096 Y568.020503 Z-0.125000
G01 X40.065459 Y564.821414 Z-0.125000
G01 X41.131822 Y561.622324 Z-0.125000
G01 X40.065459 Y558.423235 Z-0.125000
G01 X43.264548 Y559.489598 Z-0.125000
G01 X44.330911 Y557.356872 Z-0.125000
G01 X46.463637 Y556.290509 Z-0.125000
G01 X49.662726 Y553.091420 Z-0.125000
G01 X52.861816 Y552.025057 Z-0.125000
G01 X54.994542 Y549.892331 Z-0.125000
G01 X57.127268 Y547.759604 Z-0.125000
G01 X60.326357 Y550.958694 Z-0.125000
G01 X58.193631 Y554.157783 Z-0.125000
G01 X58.193631 Y558.423235 Z-0.125000
G01 X62.459083 Y556.290509 Z-0.125000
G01 X64.591809 Y554.157783 Z-0.125000
G01 X65.658172 Y549.892331 Z-0.125000
G01 X69.923625 Y549.892331 Z-0.125000
G01 X73.122714 Y547.759604 Z-0.125000
G01 X75.255440 Y544.560515 Z-0.125000
G01 X76.321803 Y541.361426 Z-0.125000
G01 X72.056351 Y539.228700 Z-0.125000
G01 X69.923625 Y543.494152 Z-0.125000
G01 X67.790899 Y545.626878 Z-0.125000
G01 X63.525446 Y545.626878 Z-0.125000
G01 X60.326357 Y546.693241 Z-0.125000
G01 X59.259994 Y542.427789 Z-0.125000
G01 X62.459083 Y541.361426 Z-0.125000
G01 X64.591809 Y539.228700 Z-0.125000
G01 X67.790899 Y539.228700 Z-0.125000
G01 X67.790899 Y534.963248 Z-0.125000
G01 X70.989988 Y534.963248 Z-0.125000
G01 X70.989988 Y531.764158 Z-0.125000
G01 X74.189077 Y530.697795 Z-0.125000
G01 X78.454529 Y529.631432 Z-0.125000
G01 X78.454529 Y526.432343 Z-0.125000
G01 X81.653618 Y525.365980 Z-0.125000
G01 X82.719982 Y523.233254 Z-0.125000
G01 X85.919071 Y521.100528 Z-0.125000
G01 X89.118160 Y521.100528 Z-0.125000
G01 X90.184523 Y516.835075 Z-0.125000
G01 X93.383612 Y522.166891 Z-0.125000
G01 X95.516338 Y520.034165 Z-0.125000
G01 X95.516338 Y516.835075 Z-0.125000
G01 X98.715428 Y515.768712 Z-0.125000
G01 X101.914517 Y513.635986 Z-0.125000
G01 X105.113606 Y512.569623 Z-0.125000
G01 X105.113606 Y515.768712 Z-0.125000
G01 X109.379058 Y513.635986 Z-0.125000
G01 X109.379058 Y510.436897 Z-0.125000
G01 X112.578147 Y511.503260 Z-0.125000
G01 X114.710874 Y509.370534 Z-0.125000
G01 X117.909963 Y508.304171 Z-0.125000
G01 X121.109052 Y507.237808 Z-0.125000
G01 X125.374504 Y509.370534 Z-0.125000
G01 X124.308141 Y506.171445 Z-0.125000
G01 X125.374504 Y505.105082 Z-0.125000
G01 X128.573594 Y505.105082 Z-0.125000
G01 X131.772683 Y501.905992 Z-0.125000
G01 X136.038135 Y502.972356 Z-0.125000
G01 X136.038135 Y507.237808 Z-0.125000
G01 X132.839046 Y506.171445 Z-0.125000
G01 X130.706320 Y509.370534 Z-0.125000
G01 X128.573594 Y513.635986 Z-0.125000
G01 X126.440867 Y515.768712 Z-0.125000
G01 X122.175415 Y516.835075 Z-0.125000
G01 X123.241778 Y512.569623 Z-0.125000
G01 X118.976326 Y512.569623 Z-0.125000
G01 X116.843600 Y514.702349 Z-0.125000
G01 X113.644511 Y516.835075 Z-0.125000
G01 X110.445421 Y518.967802 Z-0.125000
G01 X108.312695 Y521.100528 Z-0.125000
G01 X102.980880 Y518.967802 Z-0.125000
G01 X100.848154 Y521.100528 Z-0.125000
G01 X99.781791 Y524.299617 Z-0.125000
G01 X100.848154 Y528.565069 Z-0.125000
G01 X96.582701 Y526.432343 Z-0.125000
G01 X95.516338 Y529.631432 Z-0.125000
G01 X93.383612 Y532.830521 Z-0.125000
G01 X89.118160 Y533.896885 Z-0.125000
G01 X89.118160 Y529.631432 Z-0.125000
G01 X91.250886 Y526.432343 Z-0.125000
G01 X86.985434 Y525.365980 Z-0.125000
G01 X84.852708 Y529.631432 Z-0.125000
G01 X82.719982 Y531.764158 Z-0.125000
G01 X78.454529 Y533.896885 Z-0.125000
G01 X76.321803 Y537.095974 Z-0.125000
G01 X80.587255 Y539.228700 Z-0.125000
G01 X82.719982 Y536.029611 Z-0.125000
G01 X86.985434 Y537.095974 Z-0.125000
G01 X85.919071 Y540.295063 Z-0.125000
G01 X84.852708 Y543.494152 Z-0.125000
G01 X80.587255 Y543.494152 Z-0.125000
G01 X78.454529 Y548.825968 Z-0.125000
G01 X76.321803 Y552.025057 Z-0.125000
G01 X73.122714 Y554.157783 Z-0.125000
G01 X69.923625 Y555.224146 Z-0.125000
G01 X67.790899 Y558.423235 Z-0.125000
G01 X66.724535 Y561.622324 Z-0.125000
G01 X62.459083 Y561.622324 Z-0.125000
G01 X59.259994 Y563.755051 Z-0.125000
G01 X57.127268 Y565.887777 Z-0.125000
G01 X52.861816 Y564.821414 Z-0.125000
G01 X53.928179 Y560.555961 Z-0.125000
G01 X53.928179 Y556.290509 Z-0.125000
G01 X50.729089 Y557.356872 Z-0.125000
G01 X48.596363 Y560.555961 Z-0.125000
G01 X48.596363 Y564.821414 Z-0.125000
G01 X46.463637 Y565.887777 Z-0.125000
G01 X44.330911 Y569.086866 Z-0.125000
G01 X43.264548 Y572.285955 Z-0.125000
G01 X41.131822 Y575.485044 Z-0.125000
G01 X38.999096 Y576.551407 Z-0.125000
G01 X38.999096 Y579.750497 Z-0.125000
G01 X43.264548 Y579.750497 Z-0.125000
G01 X44.330911 Y576.551407 Z-0.125000
G01 X47.530000 Y576.551407 Z-0.125000
G01 X47.530000 Y574.418681 Z-0.125000
G01 X49.662726 Y570.153229 Z-0.125000
G01 X53.928179 Y570.153229 Z-0.125000
G01 X57.127268 Y570.153229 Z-0.125000
G01 X61.392720 Y570.153229 Z-0.125000
G01 X63.525446 Y566.954140 Z-0.125000
G01 X66.724535 Y565.887777 Z-0.125000
G01 X67.790899 Y570.153229 Z-0.125000
G01 X67.790899 Y573.352318 Z-0.125000
G01 X64.591809 Y573.352318 Z-0.125000
G01 X62.459083 Y574.418681 Z-0.125000
G01 X59.259994 Y574.418681 Z-0.125000
G01 X56.060905 Y574.418681 Z-0.125000
G01 X53.928179 Y575.485044 Z-0.125000
G01 X50.729089 Y574.418681 Z-0.125000
G01 X51.795452 Y578.684133 Z-0.125000
G01 X57.127268 Y579.750497 Z-0.125000
G01 X61.392720 Y578.684133 Z-0.125000
G01 X66.724535 Y577.617770 Z-0.125000
G01 X70.989988 Y576.551407 Z-0.125000
G01 X75.255440 Y576.551407 Z-0.125000
G01 X72.056351 Y573.352318 Z-0.125000
G01 X74.189077 Y572.285955 Z-0.125000
G01 X76.321803 Y572.285955 Z-0.125000
G01 X79.520892 Y572.285955 Z-0.125000
G01 X79.520892 Y576.551407 Z-0.125000
G01 X83.786345 Y576.551407 Z-0.125000
G01 X82.719982 Y572.285955 Z-0.125000
G01 X81.653618 Y569.086866 Z-0.125000
G01 X84.852708 Y566.954140 Z-0.125000
G01 X86.985434 Y563.755051 Z-0.125000
G01 X90.184523 Y568.020503 Z-0.125000
G01 X93.383612 Y565.887777 Z-0.125000
G01 X96.582701 Y566.954140 Z-0.125000
G01 X98.715428 Y564.821414 Z-0.125000
G01 X100.848154 Y561.622324 Z-0.125000
G01 X100.848154 Y557.356872 Z-0.125000
G01 X98.715428 Y553.091420 Z-0.125000
G01 X99.781791 Y549.892331 Z-0.125000
G01 X101.914517 Y547.759604 Z-0.125000
G01 X105.113606 Y544.560515 Z-0.125000
G01 X109.379058 Y543.494152 Z-0.125000
G01 X106.179969 Y540.295063 Z-0.125000
G01 X101.914517 Y542.427789 Z-0.125000
G01 X97.649064 Y542.427789 Z-0.125000
G01 X95.516338 Y544.560515 Z-0.125000
G01 X95.516338 Y548.825968 Z-0.125000
G01 X94.449975 Y553.091420 Z-0.125000
G01 X96.582701 Y557.356872 Z-0.125000
G01 X94.449975 Y560.555961 Z-0.125000
G01 X90.184523 Y561.622324 Z-0.125000
G01 X91.250886 Y557.356872 Z-0.125000
G01 X90.184523 Y553.091420 Z-0.125000
G01 X85.919071 Y554.157783 Z-0.125000
G01 X85.919071 Y557.356872 Z-0.125000
G01 X83.786345 Y559.489598 Z-0.125000
G01 X81.653618 Y562.688687 Z-0.125000
G01 X79.520892 Y563.755051 Z-0.125000
G01 X77.388166 Y565.887777 Z-0.125000
G01 X75.255440 Y568.020503 Z-0.125000
G01 X70.989988 Y566.954140 Z-0.125000
G01 X72.056351 Y562.688687 Z-0.125000
G01 X73.122714 Y559.489598 Z-0.125000
G01 X76.321803 Y558.423235 Z-0.125000
G01 X79.520892 Y556.290509 Z-0.125000
G01 X81.653618 Y553.091420 Z-0.125000
G01 X82.719982 Y548.825968 Z-0.125000
G01 X85.919071 Y548.825968 Z-0.125000
G01 X90.184523 Y548.825968 Z-0.125000
G01 X90.184523 Y545.626878 Z-0.125000
G01 X91.250886 Y541.361426 Z-0.125000
G01 X92.317249 Y538.162337 Z-0.125000
G01 X96.582701 Y538.162337 Z-0.125000
G01 X97.649064 Y534.963248 Z-0.125000
G01 X100.848154 Y532.830521 Z-0.125000
G01 X101.914517 Y537.095974 Z-0.125000
G01 X106.179969 Y536.029611 Z-0.125000
G01 X105.113606 Y531.764158 Z-0.125000
G01 X109.379058 Y530.697795 Z-0.125000
G01 X105.113606 Y527.498706 Z-0.125000
G01 X106.179969 Y524.299617 Z-0.125000
G01 X110.445421 Y526.432343 Z-0.125000
G01 X113.644511 Y526.432343 Z-0.125000
G01 X114.710874 Y522.166891 Z-0.125000
G01 X117.909963 Y520.034165 Z-0.125000
G01 X122.175415 Y521.100528 Z-0.125000
G01 X121.109052 Y524.299617 Z-0.125000
G01 X117.909963 Y526.432343 Z-0.125000
G01 X117.909963 Y530.697795 Z-0.125000
G01 X114.710874 Y531.764158 Z-0.125000
G01 X113.644511 Y534.963248 Z-0.125000
G01 X110.445421 Y536.029611 Z-0.125000
G01 X111.511784 Y540.295063 Z-0.125000
G01 X115.777237 Y541.361426 Z-0.125000
G01 X117.909963 Y538.162337 Z-0.125000
G01 X120.042689 Y534.963248 Z-0.125000
G01 X122.175415 Y530.697795 Z-0.125000
G01 X125.374504 Y529.631432 Z-0.125000
G01 X126.440867 Y526.432343 Z-0.125000
G01 X126.440867 Y522.166891 Z-0.125000
G01 X129.639957 Y520.034165 Z-0.125000
G01 X130.706320 Y524.299617 Z-0.125000
G01 X134.971772 Y522.166891 Z-0.125000
G01 X132.839046 Y517.901439 Z-0.125000
G01 X133.905409 Y514.702349 Z-0.125000
G01 X134.971772 Y511.503260 Z-0.125000
G01 X139.237224 Y511.503260 Z-0.125000
G01 X141.369950 Y508.304171 Z-0.125000
G01 X143.502676 Y505.105082 Z-0.125000
G01 X139.237224 Y502.972356 Z-0.125000
G01 X141.369950 Y500.839629 Z-0.125000
G01 X144.569040 Y500.839629 Z-0.125000
G01 X147.768129 Y499.773266 Z-0.125000
G01 X148.834492 Y498.706903 Z-0.125000
G01 X152.033581 Y498.706903 Z-0.125000
G01 X149.900855 Y502.972356 Z-0.125000
G01 X147.768129 Y504.038719 Z-0.125000
G01 X148.834492 Y508.304171 Z-0.125000
G01 X146.701766 Y510.436897 Z-0.125000
G01 X144.569040 Y512.569623 Z-0.125000
G01 X142.436313 Y515.768712 Z-0.125000
G01 X139.237224 Y516.835075 Z-0.125000
G01 X138.170861 Y520.034165 Z-0.125000
G01 X142.436313 Y522.166891 Z-0.125000
G01 X145.635403 Y520.034165 Z-0.125000
G01 X149.900855 Y522.166891 Z-0.125000
G01 X152.033581 Y518.967802 Z-0.125000
G01 X147.768129 Y516.835075 Z-0.125000
G01 X150.967218 Y513.635986 Z-0.125000
G01 X155.232670 Y512.569623 Z-0.125000
G01 X155.232670 Y516.835075 Z-0.125000
G01 X158.431759 Y520.034165 Z-0.125000
G01 X155.232670 Y523.233254 Z-0.125000
G01 X154.166307 Y526.432343 Z-0.125000
G01 X150.967218 Y527.498706 Z-0.125000
G01 X146.701766 Y525.365980 Z-0.125000
G01 X144.569040 Y528.565069 Z-0.125000
G01 X148.834492 Y530.697795 Z-0.125000
G01 X144.569040 Y532.830521 Z-0.125000
G01 X142.436313 Y536.029611 Z-0.125000
G01 X141.369950 Y539.228700 Z-0.125000
G01 X137.104498 Y538.162337 Z-0.125000
G01 X136.038135 Y533.896885 Z-0.125000
G01 X138.170861 Y531.764158 Z-0.125000
G01 X140.303587 Y529.631432 Z-0.125000
G01 X140.303587 Y525.365980 Z-0.125000
G01 X136.038135 Y526.432343 Z-0.125000
G01 X132.839046 Y528.565069 Z-0.125000
G01 X130.706320 Y530.697795 Z-0.125000
G01 X131.772683 Y534.963248 Z-0.125000
G01 X132.839046 Y539.228700 Z-0.125000
G01 X129.639957 Y540.295063 Z-0.125000
G01 X127.507230 Y534.963248 Z-0.125000
G01 X125.374504 Y536.029611 Z-0.125000
G01 X125.374504 Y540.295063 Z-0.125000
G01 X122.175415 Y540.295063 Z-0.125000
G01 X120.042689 Y543.494152 Z-0.125000
G01 X115.777237 Y545.626878 Z-0.125000
G01 X113.644511 Y547.759604 Z-0.125000
G01 X111.511784 Y549.892331 Z-0.125000
G01 X107.246332 Y548.825968 Z-0.125000
G01 X106.179969 Y552.025057 Z-0.125000
G01 X104.047243 Y554.157783 Z-0.125000
G01 X106.179969 Y558.423235 Z-0.125000
G01 X109.379058 Y556.290509 Z-0.125000
G01 X112.578147 Y554.157783 Z-0.125000
G01 X116.843600 Y553.091420 Z-0.125000
G01 X118.976326 Y550.958694 Z-0.125000
G01 X121.109052 Y548.825968 Z-0.125000
G01 X124.308141 Y546.693241 Z-0.125000
G01 X126.440867 Y545.626878 Z-0.125000
G01 X130.706320 Y544.560515 Z-0.125000
G01 X131.772683 Y548.825968 Z-0.125000
G01 X129.639957 Y550.958694 Z-0.125000
G01 X125.374504 Y552.025057 Z-0.125000
G01 X125.374504 Y555.224146 Z-0.125000
G01 X121.109052 Y556.290509 Z-0.125000
G01 X116.843600 Y557.356872 Z-0.125000
G01 X113.644511 Y559.489598 Z-0.125000
G01 X111.511784 Y561.622324 Z-0.125000
G01 X109.379058 Y563.755051 Z-0.125000
G01 X105.113606 Y562.688687 Z-0.125000
G01 X102.980880 Y566.954140 Z-0.125000
G01 X104.047243 Y570.153229 Z-0.125000
G01 X100.848154 Y570.153229 Z-0.125000
G01 X98.715428 Y571.219592 Z-0.125000
G01 X95.516338 Y571.219592 Z-0.125000
G01 X93.383612 Y571.219592 Z-0.125000
G01 X91.250886 Y572.285955 Z-0.125000
G01 X88.051797 Y571.219592 Z-0.125000
G01 X85.919071 Y572.285955 Z-0.125000
G01 X89.118160 Y575.485044 Z-0.125000
G01 X94.449975 Y577.617770 Z-0.125000
G01 X99.781791 Y575.485044 Z-0.125000
G01 X104.047243 Y574.418681 Z-0.125000
G01 X109.379058 Y574.418681 Z-0.125000
G01 X107.246332 Y570.153229 Z-0.125000
G01 X108.312695 Y568.020503 Z-0.125000
G01 X110.445421 Y569.086866 Z-0.125000
G01 X112.578147 Y569.086866 Z-0.125000
G01 X114.710874 Y573.352318 Z-0.125000
G01 X120.042689 Y574.418681 Z-0.125000
G01 X125.374504 Y573.352318 Z-0.125000
G01 X129.639957 Y573.352318 Z-0.125000
G01 X133.905409 Y573.352318 Z-0.125000
G01 X139.237224 Y571.219592 Z-0.125000
G01 X140.303587 Y565.887777 Z-0.125000
G01 X142.436313 Y564.821414 Z-0.125000
G01 X143.502676 Y561.622324 Z-0.125000
G01 X144.569040 Y560.555961 Z-0.125000
G01 X147.768129 Y560.555961 Z-0.125000
G01 X150.967218 Y559.489598 Z-0.125000
G01 X152.033581 Y558.423235 Z-0.125000
G01 X155.232670 Y558.423235 Z-0.125000
G01 X157.365396 Y557.356872 Z-0.125000
G01 X159.498123 Y556.290509 Z-0.125000
G01 X162.697212 Y557.356872 Z-0.125000
G01 X163.763575 Y555.224146 Z-0.125000
G01 X163.763575 Y552.025057 Z-0.125000
G01 X165.896301 Y548.825968 Z-0.125000
G01 X170.161753 Y548.825968 Z-0.125000
G01 X174.427206 Y547.759604 Z-0.125000
G01 X176.559932 Y544.560515 Z-0.125000
G01 X179.759021 Y541.361426 Z-0.125000
G01 X180.825384 Y538.162337 Z-0.125000
G01 X185.090836 Y538.162337 Z-0.125000
G01 X188.289925 Y537.095974 Z-0.125000
G01 X189.356288 Y533.896885 Z-0.125000
G01 X191.489015 Y530.697795 Z-0.125000
G01 X195.754467 Y530.697795 Z-0.125000
G01 X198.953556 Y529.631432 Z-0.125000
G01 X200.019919 Y525.365980 Z-0.125000
G01 X195.754467 Y525.365980 Z-0.125000
G01 X191.489015 Y526.432343 Z-0.125000
G01 X190.422652 Y522.166891 Z-0.125000
G01 X191.489015 Y517.901439 Z-0.125000
G01 X187.223562 Y518.967802 Z-0.125000
G01 X185.090836 Y522.166891 Z-0.125000
G01 X187.223562 Y526.432343 Z-0.125000
G01 X186.157199 Y529.631432 Z-0.125000
G01 X184.024473 Y532.830521 Z-0.125000
G01 X180.825384 Y533.896885 Z-0.125000
G01 X176.559932 Y534.963248 Z-0.125000
G01 X175.493569 Y539.228700 Z-0.125000
G01 X173.360842 Y540.295063 Z-0.125000
G01 X171.228116 Y543.494152 Z-0.125000
G01 X168.029027 Y544.560515 Z-0.125000
G01 X168.029027 Y539.228700 Z-0.125000
G01 X170.161753 Y534.963248 Z-0.125000
G01 X172.294479 Y532.830521 Z-0.125000
G01 X174.427206 Y529.631432 Z-0.125000
G01 X176.559932 Y528.565069 Z-0.125000
G01 X180.825384 Y528.565069 Z-0.125000
G01 X181.891747 Y524.299617 Z-0.125000
G01 X177.626295 Y524.299617 Z-0.125000
G01 X179.759021 Y520.034165 Z-0.125000
G01 X181.891747 Y517.901439 Z-0.125000
G01 X184.024473 Y514.702349 Z-0.125000
G01 X186.157199 Y513.635986 Z-0.125000
G01 X190.422652 Y513.635986 Z-0.125000
G01 X189.356288 Y509.370534 Z-0.125000
G01 X190.422652 Y506.171445 Z-0.125000
G01 X194.688104 Y507.237808 Z-0.125000
G01 X196.820830 Y505.105082 Z-0.125000
G01 X198.953556 Y501.905992 Z-0.125000
G01 X203.219008 Y501.905992 Z-0.125000
G01 X202.152645 Y497.640540 Z-0.125000
G01 X197.887193 Y497.640540 Z-0.125000
G01 X193.621741 Y499.773266 Z-0.125000
G01 X191.489015 Y501.905992 Z-0.125000
G01 X187.223562 Y501.905992 Z-0.125000
G01 X185.090836 Y505.105082 Z-0.125000
G01 X184.024473 Y508.304171 Z-0.125000
G01 X180.825384 Y509.370534 Z-0.125000
G01 X177.626295 Y512.569623 Z-0.125000
G01 X176.559932 Y508.304171 Z-0.125000
G01 X172.294479 Y509.370534 Z-0.125000
G01 X172.294479 Y512.569623 Z-0.125000
G01 X168.029027 Y513.635986 Z-0.125000
G01 X165.896301 Y516.835075 Z-0.125000
G01 X169.095390 Y520.034165 Z-0.125000
G01 X172.294479 Y516.835075 Z-0.125000
G01 X176.559932 Y516.835075 Z-0.125000
G01 X174.427206 Y521.100528 Z-0.125000
G01 X172.294479 Y524.299617 Z-0.125000
G01 X168.029027 Y524.299617 Z-0.125000
G01 X169.095390 Y528.565069 Z-0.125000
G01 X164.829938 Y528.565069 Z-0.125000
G01 X165.896301 Y532.830521 Z-0.125000
G01 X163.763575 Y533.896885 Z-0.125000
G01 X159.498123 Y536.029611 Z-0.125000
G01 X163.763575 Y538.162337 Z-0.125000
G01 X162.697212 Y541.361426 Z-0.125000
G01 X162.697212 Y544.560515 Z-0.125000
G01 X160.564486 Y547.759604 Z-0.125000
G01 X158.431759 Y552.025057 Z-0.125000
G01 X156.299033 Y547.759604 Z-0.125000
G01 X157.365396 Y543.494152 Z-0.125000
G01 X157.365396 Y539.228700 Z-0.125000
G01 X154.166307 Y540.295063 Z-0.125000
G01 X152.033581 Y543.494152 Z-0.125000
G01 X150.967218 Y546.693241 Z-0.125000
G01 X154.166307 Y550.958694 Z-0.125000
G01 X153.099944 Y554.157783 Z-0.125000
G01 X146.701766 Y556.290509 Z-0.125000
G01 X147.768129 Y553.091420 Z-0.125000
G01 X148.834492 Y549.892331 Z-0.125000
G01 X144.569040 Y548.825968 Z-0.125000
G01 X142.436313 Y552.025057 Z-0.125000
G01 X141.369950 Y555.224146 Z-0.125000
G01 X139.237224 Y557.356872 Z-0.125000
G01 X134.971772 Y559.489598 Z-0.125000
G01 X139.237224 Y561.622324 Z-0.125000
G01 X137.104498 Y563.755051 Z-0.125000
G01 X133.905409 Y566.954140 Z-0.125000
G01 X133.905409 Y563.755051 Z-0.125000
G01 X130.706320 Y563.755051 Z-0.125000
G01 X129.639957 Y565.887777 Z-0.125000
G01 X127.507230 Y566.954140 Z-0.125000
G01 X124.308141 Y566.954140 Z-0.125000
G01 X122.175415 Y565.887777 Z-0.125000
G01 X121.109052 Y568.020503 Z-0.125000
G01 X118.976326 Y569.086866 Z-0.125000
G01 X115.777237 Y569.086866 Z-0.125000
G01 X115.777237 Y565.887777 Z-0.125000
G01 X117.909963 Y562.688687 Z-0.125000
G01 X121.109052 Y560.555961 Z-0.125000
G01 X125.374504 Y562.688687 Z-0.125000
G01 X126.440867 Y559.489598 Z-0.125000
G01 X130.706320 Y559.489598 Z-0.125000
G01 X130.706320 Y555.224146 Z-0.125000
G01 X134.971772 Y554.157783 Z-0.125000
G01 X137.104498 Y550.958694 Z-0.125000
G01 X139.237224 Y547.759604 Z-0.125000
G01 X134.971772 Y545.626878 Z-0.125000
G01 X137.104498 Y542.427789 Z-0.125000
G01 X141.369950 Y544.560515 Z-0.125000
G01 X145.635403 Y544.560515 Z-0.125000
G01 X146.701766 Y541.361426 Z-0.125000
G01 X147.768129 Y538.162337 Z-0.125000
G01 X149.900855 Y536.029611 Z-0.125000
G01 X153.099944 Y534.963248 Z-0.125000
G01 X154.166307 Y531.764158 Z-0.125000
G01 X158.431759 Y531.764158 Z-0.125000
G01 X159.498123 Y528.565069 Z-0.125000
G01 X159.498123 Y524.299617 Z-0.125000
G01 X163.763575 Y524.299617 Z-0.125000
G01 X163.763575 Y520.034165 Z-0.125000
G01 X160.564486 Y516.835075 Z-0.125000
G01 X159.498123 Y512.569623 Z-0.125000
G01 X163.763575 Y511.503260 Z-0.125000
G01 X165.896301 Y509.370534 Z-0.125000
G01 X166.962664 Y506.171445 Z-0.125000
G01 X171.228116 Y505.105082 Z-0.125000
G01 X175.493569 Y504.038719 Z-0.125000
G01 X179.759021 Y504.038719 Z-0.125000
G01 X181.891747 Y500.839629 Z-0.125000
G01 X184.024473 Y497.640540 Z-0.125000
G01 X188.289925 Y496.574177 Z-0.125000
G01 X192.555378 Y495.507814 Z-0.125000
G01 X196.820830 Y493.375088 Z-0.125000
G01 X194.688104 Y489.109636 Z-0.125000
G01 X191.489015 Y491.242362 Z-0.125000
G01 X187.223562 Y492.308725 Z-0.125000
G01 X184.024473 Y493.375088 Z-0.125000
G01 X179.759021 Y493.375088 Z-0.125000
G01 X177.626295 Y495.507814 Z-0.125000
G01 X176.559932 Y498.706903 Z-0.125000
G01 X174.427206 Y499.773266 Z-0.125000
G01 X170.161753 Y500.839629 Z-0.125000
G01 X166.962664 Y501.905992 Z-0.125000
G01 X162.697212 Y501.905992 Z-0.125000
G01 X160.564486 Y504.038719 Z-0.125000
G01 X159.498123 Y507.237808 Z-0.125000
G01 X157.365396 Y508.304171 Z-0.125000
G01 X153.099944 Y508.304171 Z-0.125000
G01 X154.166307 Y502.972356 Z-0.125000
G01 X155.232670 Y499.773266 Z-0.125000
G01 X156.299033 Y497.640540 Z-0.125000
G01 X158.431759 Y498.706903 Z-0.125000
G01 X161.630849 Y497.640540 Z-0.125000
G01 X163.763575 Y496.574177 Z-0.125000
G01 X166.962664 Y496.574177 Z-0.125000
G01 X169.095390 Y495.507814 Z-0.125000
G01 X170.161753 Y493.375088 Z-0.125000
G01 X172.294479 Y494.441451 Z-0.125000
G01 X175.493569 Y492.308725 Z-0.125000
G01 X177.626295 Y490.175999 Z-0.125000
G01 X180.825384 Y490.175999 Z-0.125000
G01 X182.958110 Y489.109636 Z-0.125000
G01 X186.157199 Y488.043273 Z-0.125000
G01 X188.289925 Y486.976909 Z-0.125000
G01 X190.422652 Y485.910546 Z-0.125000
G01 X193.621741 Y484.844183 Z-0.125000
G01 X193.621741 Y482.711457 Z-0.125000
G01 X196.820830 Y481.645094 Z-0.125000
G01 X198.953556 Y480.578731 Z-0.125000
G01 X200.019919 Y479.512368 Z-0.125000
G01 X203.219008 Y479.512368 Z-0.125000
G01 X205.351735 Y478.446005 Z-0.125000
G01 X208.550824 Y477.379642 Z-0.125000
G01 X210.683550 Y480.578731 Z-0.125000
G01 X212.816276 Y478.446005 Z-0.125000
G01 X212.816276 Y476.313279 Z-0.125000
G01 X214.949002 Y475.246916 Z-0.125000
G01 X219.214454 Y476.313279 Z-0.125000
G01 X217.081728 Y478.446005 Z-0.125000
G01 X217.081728 Y482.711457 Z-0.125000
G01 X220.280818 Y479.512368 Z-0.125000
G01 X222.413544 Y477.379642 Z-0.125000
G01 X224.546270 Y479.512368 Z-0.125000
G01 X229.878085 Y477.379642 Z-0.125000
G01 X227.745359 Y481.645094 Z-0.125000
G01 X225.612633 Y483.777820 Z-0.125000
G01 X222.413544 Y484.844183 Z-0.125000
G01 X219.214454 Y488.043273 Z-0.125000
G01 X216.015365 Y486.976909 Z-0.125000
G01 X211.749913 Y484.844183 Z-0.125000
G01 X206.418098 Y482.711457 Z-0.125000
G01 X205.351735 Y485.910546 Z-0.125000
G01 X201.086282 Y483.777820 Z-0.125000
G01 X198.953556 Y485.910546 Z-0.125000
G01 X203.219008 Y489.109636 Z-0.125000
G01 X200.019919 Y491.242362 Z-0.125000
G01 X203.219008 Y494.441451 Z-0.125000
G01 X207.484461 Y494.441451 Z-0.125000
G01 X208.550824 Y491.242362 Z-0.125000
G01 X210.683550 Y489.109636 Z-0.125000
G01 X213.882639 Y490.175999 Z-0.125000
G01 X214.949002 Y494.441451 Z-0.125000
G01 X211.749913 Y496.574177 Z-0.125000
G01 X207.484461 Y498.706903 Z-0.125000
G01 X208.550824 Y502.972356 Z-0.125000
G01 X206.418098 Y506.171445 Z-0.125000
G01 X202.152645 Y506.171445 Z-0.125000
G01 X201.086282 Y509.370534 Z-0.125000
G01 X197.887193 Y511.503260 Z-0.125000
G01 X194.688104 Y512.569623 Z-0.125000
G01 X195.754467 Y516.835075 Z-0.125000
G01 X195.754467 Y521.100528 Z-0.125000
G01 X200.019919 Y520.034165 Z-0.125000
G01 X201.086282 Y516.835075 Z-0.125000
G01 X203.219008 Y515.768712 Z-0.125000
G01 X205.351735 Y513.635986 Z-0.125000
G01 X207.484461 Y511.503260 Z-0.125000
G01 X209.617187 Y515.768712 Z-0.125000
G01 X208.550824 Y518.967802 Z-0.125000
G01 X206.418098 Y521.100528 Z-0.125000
G01 X204.285371 Y524.299617 Z-0.125000
G01 X204.285371 Y527.498706 Z-0.125000
G01 X203.219008 Y530.697795 Z-0.125000
G01 X200.019919 Y533.896885 Z-0.125000
G01 X198.953556 Y537.095974 Z-0.125000
G01 X194.688104 Y534.963248 Z-0.125000
G01 X194.688104 Y539.228700 Z-0.125000
G01 X192.555378 Y541.361426 Z-0.125000
G01 X190.422652 Y543.494152 Z-0.125000
G01 X186.157199 Y542.427789 Z-0.125000
G01 X185.090836 Y545.626878 Z-0.125000
G01 X182.958110 Y546.693241 Z-0.125000
G01 X179.759021 Y548.825968 Z-0.125000
G01 X179.759021 Y552.025057 Z-0.125000
G01 X176.559932 Y552.025057 Z-0.125000
G01 X173.360842 Y552.025057 Z-0.125000
G01 X170.161753 Y553.091420 Z-0.125000
G01 X168.029027 Y554.157783 Z-0.125000
G01 X168.029027 Y557.356872 Z-0.125000
G01 X173.360842 Y557.356872 Z-0.125000
G01 X177.626295 Y557.356872 Z-0.125000
G01 X181.891747 Y557.356872 Z-0.125000
G01 X184.024473 Y553.091420 Z-0.125000
G01 X185.090836 Y550.958694 Z-0.125000
G01 X188.289925 Y550.958694 Z-0.125000
G01 X190.422652 Y548.825968 Z-0.125000
G01 X193.621741 Y548.825968 Z-0.125000
G01 X195.754467 Y546.693241 Z-0.125000
G01 X197.887193 Y544.560515 Z-0.125000
G01 X200.019919 Y542.427789 Z-0.125000
G01 X203.219008 Y540.295063 Z-0.125000
G01 X205.351735 Y537.095974 Z-0.125000
G01 X206.418098 Y534.963248 Z-0.125000
G01 X208.550824 Y532.830521 Z-0.125000
G01 X212.816276 Y530.697795 Z-0.125000
G01 X209.617187 Y529.631432 Z-0.125000
G01 X209.617187 Y525.365980 Z-0.125000
G01 X212.816276 Y524.299617 Z-0.125000
G01 X213.882639 Y520.034165 Z-0.125000
G01 X217.081728 Y524.299617 Z-0.125000
G01 X218.148091 Y520.034165 Z-0.125000
G01 X220.280818 Y515.768712 Z-0.125000
G01 X224.546270 Y515.768712 Z-0.125000
G01 X224.546270 Y509.370534 Z-0.125000
G01 X227.745359 Y505.105082 Z-0.125000
G01 X223.479907 Y502.972356 Z-0.125000
G01 X222.413544 Y504.038719 Z-0.125000
G01 X220.280818 Y505.105082 Z-0.125000
G01 X217.081728 Y505.105082 Z-0.125000
G01 X218.148091 Y508.304171 Z-0.125000
G01 X214.949002 Y510.436897 Z-0.125000
G01 X212.816276 Y513.635986 Z-0.125000
G01 X210.683550 Y509.370534 Z-0.125000
G01 X212.816276 Y506.171445 Z-0.125000
G01 X212.816276 Y501.905992 Z-0.125000
G01 X216.015365 Y499.773266 Z-0.125000
G01 X219.214454 Y497.640540 Z-0.125000
G01 X219.214454 Y493.375088 Z-0.125000
G01 X222.413544 Y492.308725 Z-0.125000
G01 X224.546270 Y489.109636 Z-0.125000
G01 X227.745359 Y493.375088 Z-0.125000
G01 X226.678996 Y496.574177 Z-0.125000
G01 X223.479907 Y498.706903 Z-0.125000
G01 X227.745359 Y500.839629 Z-0.125000
G01 X230.944448 Y498.706903 Z-0.125000
G01 X232.010811 Y495.507814 Z-0.125000
G01 X233.077174 Y493.375088 Z-0.125000
G01 X233.077174 Y490.175999 Z-0.125000
G01 X228.811722 Y489.109636 Z-0.125000
G01 X230.944448 Y486.976909 Z-0.125000
G01 X229.878085 Y484.844183 Z-0.125000
G01 X235.209900 Y484.844183 Z-0.125000
G01 X235.209900 Y479.512368 Z-0.125000
G01 X235.209900 Y474.180553 Z-0.125000
G01 X236.276264 Y470.981463 Z-0.125000
G01 X237.342627 Y465.649648 Z-0.125000
G01 X238.408990 Y463.516922 Z-0.125000
G01 X235.209900 Y463.516922 Z-0.125000
G01 X236.276264 Y461.384196 Z-0.125000
G01 X237.342627 Y460.317833 Z-0.125000
G01 X237.342627 Y456.052380 Z-0.125000
G01 X236.276264 Y457.118744 Z-0.125000
G01 X234.143537 Y458.185107 Z-0.125000
G01 X232.010811 Y459.251470 Z-0.125000
G01 X232.010811 Y461.384196 Z-0.125000
G01 X232.010811 Y463.516922 Z-0.125000
G01 X228.811722 Y465.649648 Z-0.125000
G01 X228.811722 Y470.981463 Z-0.125000
G01 X223.479907 Y473.114190 Z-0.125000
G01 X223.479907 Y467.782374 Z-0.125000
G01 X219.214454 Y465.649648 Z-0.125000
G01 X216.015365 Y468.848737 Z-0.125000
G01 X210.683550 Y467.782374 Z-0.125000
G01 X206.418098 Y469.915100 Z-0.125000
G01 X204.285371 Y473.114190 Z-0.125000
G01 X198.953556 Y470.981463 Z-0.125000
G01 X195.754467 Y472.047827 Z-0.125000
G01 X192.555378 Y476.313279 Z-0.125000
G01 X188.289925 Y476.313279 Z-0.125000
G01 X188.289925 Y481.645094 Z-0.125000
G01 X182.958110 Y482.711457 Z-0.125000
G01 X178.692658 Y482.711457 Z-0.125000
G01 X174.427206 Y482.711457 Z-0.125000
G01 X171.228116 Y485.910546 Z-0.125000
G01 X168.029027 Y486.976909 Z-0.125000
G01 X163.763575 Y488.043273 Z-0.125000
G01 X161.630849 Y491.242362 Z-0.125000
G01 X157.365396 Y492.308725 Z-0.125000
G01 X150.967218 Y490.175999 Z-0.125000
G01 X146.701766 Y491.242362 Z-0.125000
G01 X141.369950 Y492.308725 Z-0.125000
G01 X137.104498 Y494.441451 Z-0.125000
G01 X134.971772 Y497.640540 Z-0.125000
G01 X127.507230 Y495.507814 Z-0.125000
G01 X124.308141 Y497.640540 Z-0.125000
G01 X120.042689 Y497.640540 Z-0.125000
G01 X116.843600 Y500.839629 Z-0.125000
G01 X111.511784 Y502.972356 Z-0.125000
G01 X107.246332 Y502.972356 Z-0.125000
G01 X102.980880 Y505.105082 Z-0.125000
G01 X99.781791 Y506.171445 Z-0.125000
G01 X95.516338 Y508.304171 Z-0.125000
G01 X92.317249 Y510.436897 Z-0.125000
G01 X86.985434 Y510.436897 Z-0.125000
G01 X83.786345 Y513.635986 Z-0.125000
G01 X79.520892 Y514.702349 Z-0.125000
G01 X76.321803 Y517.901439 Z-0.125000
G01 X73.122714 Y522.166891 Z-0.125000
G01 X70.989988 Y525.365980 Z-0.125000
G01 X66.724535 Y525.365980 Z-0.125000
G01 X63.525446 Y528.565069 Z-0.125000
G01 X61.392720 Y532.830521 Z-0.125000
G01 X58.193631 Y534.963248 Z-0.125000
G01 X53.928179 Y537.095974 Z-0.125000
G01 X52.861816 Y542.427789 Z-0.125000
G01 X48.596363 Y544.560515 Z-0.125000
G01 X45.397274 Y546.693241 Z-0.125000
G01 X42.198185 Y549.892331 Z-0.125000
G01 X36.866370 Y550.958694 Z-0.125000
G01 X37.932733 Y548.825968 Z-0.125000
G01 X38.999096 Y546.693241 Z-0.125000
G01 X41.131822 Y544.560515 Z-0.125000
G01 X43.264548 Y542.427789 Z-0.125000
G01 X45.397274 Y539.228700 Z-0.125000
G01 X47.530000 Y537.095974 Z-0.125000
G01 X48.596363 Y534.963248 Z-0.125000
G01 X50.729089 Y532.830521 Z-0.125000
G01 X52.861816 Y530.697795 Z-0.125000
G01 X54.994542 Y528.565069 Z-0.125000
G01 X57.127268 Y526.432343 Z-0.125000
G01 X58.193631 Y524.299617 Z-0.125000
G01 X61.392720 Y522.166891 Z-0.125000
G01 X62.459083 Y520.034165 Z-0.125000
G01 X64.591809 Y518.967802 Z-0.125000
G01 X65.658172 Y516.835075 Z-0.125000
G01 X67.790899 Y515.768712 Z-0.125000
G01 X70.989988 Y515.768712 Z-0.125000
G01 X69.923625 Y512.569623 Z-0.125000
G01 X72.056351 Y511.503260 Z-0.125000
G01 X74.189077 Y511.503260 Z-0.125000
G01 X76.321803 Y509.370534 Z-0.125000
G01 X78.454529 Y508.304171 Z-0.125000
G01 X79.520892 Y507.237808 Z-0.125000
G01 X81.653618 Y505.105082 Z-0.125000
G01 X83.786345 Y505.105082 Z-0.125000
G01 X86.985434 Y504.038719 Z-0.125000
G01 X86.985434 Y501.905992 Z-0.125000
G01 X90.184523 Y501.905992 Z-0.125000
G01 X90.184523 Y499.773266 Z-0.125000
G01 X93.383612 Y500.839629 Z-0.125000
G01 X95.516338 Y498.706903 Z-0.125000
G01 X98.715428 Y498.706903 Z-0.125000
G01 X100.848154 Y496.574177 Z-0.125000
G01 X104.047243 Y496.574177 Z-0.125000
G01 X104.047243 Y494.441451 Z-0.125000
G01 X107.246332 Y494.441451 Z-0.125000
G01 X109.379058 Y493.375088 Z-0.125000
G01 X111.511784 Y497.640540 Z-0.125000
G01 X112.578147 Y493.375088 Z-0.125000
G01 X113.644511 Y491.242362 Z-0.125000
G01 X115.777237 Y492.308725 Z-0.125000
G01 X117.909963 Y491.242362 Z-0.125000
G01 X121.109052 Y491.242362 Z-0.125000
G01 X122.175415 Y489.109636 Z-0.125000
G01 X124.308141 Y490.175999 Z-0.125000
G01 X125.374504 Y488.043273 Z-0.125000
G01 X128.573594 Y491.242362 Z-0.125000
G01 X129.639957 Y489.109636 Z-0.125000
G01 X131.772683 Y488.043273 Z-0.125000
G01 X133.905409 Y488.043273 Z-0.125000
G01 X137.104498 Y488.043273 Z-0.125000
G01 X139.237224 Y486.976909 Z-0.125000
G01 X142.436313 Y485.910546 Z-0.125000
G01 X145.635403 Y485.910546 Z-0.125000
G01 X147.768129 Y484.844183 Z-0.125000
G01 X150.967218 Y483.777820 Z-0.125000
G01 X154.166307 Y485.910546 Z-0.125000
G01 X157.365396 Y483.777820 Z-0.125000
G01 X154.166307 Y481.645094 Z-0.125000
G01 X157.365396 Y480.578731 Z-0.125000
G01 X159.498123 Y480.578731 Z-0.125000
G01 X160.564486 Y478.446005 Z-0.125000
G01 X162.697212 Y479.512368 Z-0.125000
G01 X163.763575 Y477.379642 Z-0.125000
G01 X166.962664 Y479.512368 Z-0.125000
G01 X166.962664 Y476.313279 Z-0.125000
G01 X170.161753 Y475.246916 Z-0.125000
G01 X170.161753 Y473.114190 Z-0.125000
G01 X171.228116 Y470.981463 Z-0.125000
G01 X175.493569 Y468.848737 Z-0.125000
G01 X174.427206 Y470.981463 Z-0.125000
G01 X174.427206 Y475.246916 Z-0.125000
G01 X179.759021 Y476.313279 Z-0.125000
G01 X182.958110 Y475.246916 Z-0.125000
G01 X178.692658 Y468.848737 Z-0.125000
G01 X180.825384 Y466.716011 Z-0.125000
G01 X185.090836 Y468.848737 Z-0.125000
G01 X189.356288 Y468.848737 Z-0.125000
G01 X184.024473 Y464.583285 Z-0.125000
G01 X186.157199 Y463.516922 Z-0.125000
G01 X188.289925 Y462.450559 Z-0.125000
G01 X189.356288 Y460.317833 Z-0.125000
G01 X188.289925 Y457.118744 Z-0.125000
G01 X191.489015 Y454.986017 Z-0.125000
G01 X194.688104 Y451.786928 Z-0.125000
G01 X196.820830 Y448.587839 Z-0.125000
G01 X201.086282 Y448.587839 Z-0.125000
G01 X203.219008 Y445.388750 Z-0.125000
G01 X205.351735 Y441.123297 Z-0.125000
G01 X207.484461 Y437.924208 Z-0.125000
G01 X210.683550 Y436.857845 Z-0.125000
G01 X212.816276 Y433.658756 Z-0.125000
G01 X211.749913 Y429.393304 Z-0.125000
G01 X207.484461 Y428.326941 Z-0.125000
G01 X206.418098 Y431.526030 Z-0.125000
G01 X203.219008 Y433.658756 Z-0.125000
G01 X201.086282 Y436.857845 Z-0.125000
G01 X200.019919 Y440.056934 Z-0.125000
G01 X197.887193 Y443.256024 Z-0.125000
G01 X193.621741 Y443.256024 Z-0.125000
G01 X190.422652 Y444.322387 Z-0.125000
G01 X190.422652 Y448.587839 Z-0.125000
G01 X187.223562 Y450.720565 Z-0.125000
G01 X185.090836 Y453.919654 Z-0.125000
G01 X182.958110 Y451.786928 Z-0.125000
G01 X179.759021 Y448.587839 Z-0.125000
G01 X180.825384 Y446.455113 Z-0.125000
G01 X185.090836 Y445.388750 Z-0.125000
G01 X185.090836 Y441.123297 Z-0.125000
G01 X189.356288 Y438.990571 Z-0.125000
G01 X192.555378 Y437.924208 Z-0.125000
G01 X194.688104 Y436.857845 Z-0.125000
G01 X196.820830 Y432.592393 Z-0.125000
G01 X197.887193 Y429.393304 Z-0.125000
G01 X201.086282 Y428.326941 Z-0.125000
G01 X203.219008 Y424.061488 Z-0.125000
G01 X200.019919 Y422.995125 Z-0.125000
G01 X195.754467 Y424.061488 Z-0.125000
G01 X192.555378 Y426.194215 Z-0.125000
G01 X190.422652 Y427.260578 Z-0.125000
G01 X191.489015 Y431.526030 Z-0.125000
G01 X187.223562 Y432.592393 Z-0.125000
G01 X185.090836 Y434.725119 Z-0.125000
G01 X181.891747 Y436.857845 Z-0.125000
G01 X179.759021 Y441.123297 Z-0.125000
G01 X177.626295 Y444.322387 Z-0.125000
G01 X175.493569 Y441.123297 Z-0.125000
G01 X176.559932 Y437.924208 Z-0.125000
G01 X175.493569 Y434.725119 Z-0.125000
G01 X172.294479 Y432.592393 Z-0.125000
G01 X173.360842 Y430.459667 Z-0.125000
G01 X178.692658 Y432.592393 Z-0.125000
G01 X180.825384 Y429.393304 Z-0.125000
G01 X184.024473 Y427.260578 Z-0.125000
G01 X185.090836 Y424.061488 Z-0.125000
G01 X187.223562 Y420.862399 Z-0.125000
G01 X191.489015 Y419.796036 Z-0.125000
G01 X193.621741 Y417.663310 Z-0.125000
G01 X197.887193 Y417.663310 Z-0.125000
G01 X202.152645 Y417.663310 Z-0.125000
G01 X206.418098 Y417.663310 Z-0.125000
G01 X210.683550 Y417.663310 Z-0.125000
G01 X207.484461 Y422.995125 Z-0.125000
G01 X211.749913 Y425.127851 Z-0.125000
G01 X213.882639 Y424.061488 Z-0.125000
G01 X216.015365 Y420.862399 Z-0.125000
G01 X220.280818 Y420.862399 Z-0.125000
G01 X216.015365 Y415.530584 Z-0.125000
G01 X212.816276 Y414.464221 Z-0.125000
G01 X216.015365 Y410.198768 Z-0.125000
G01 X218.148091 Y406.999679 Z-0.125000
G01 X220.280818 Y403.800590 Z-0.125000
G01 X214.949002 Y401.667864 Z-0.125000
G01 X214.949002 Y397.402412 Z-0.125000
G01 X217.081728 Y393.136959 Z-0.125000
G01 X217.081728 Y388.871507 Z-0.125000
G01 X219.214454 Y386.738781 Z-0.125000
G01 X222.413544 Y384.606055 Z-0.125000
G01 X224.546270 Y381.406966 Z-0.125000
G01 X226.678996 Y378.207876 Z-0.125000
G01 X222.413544 Y376.075150 Z-0.125000
G01 X219.214454 Y378.207876 Z-0.125000
G01 X217.081728 Y381.406966 Z-0.125000
G01 X213.882639 Y383.539692 Z-0.125000
G01 X210.683550 Y386.738781 Z-0.125000
G01 X211.749913 Y391.004233 Z-0.125000
G01 X210.683550 Y395.269685 Z-0.125000
G01 X209.617187 Y399.535138 Z-0.125000
G01 X207.484461 Y402.734227 Z-0.125000
G01 X212.816276 Y404.866953 Z-0.125000
G01 X210.683550 Y409.132405 Z-0.125000
G01 X207.484461 Y408.066042 Z-0.125000
G01 X206.418098 Y412.331495 Z-0.125000
G01 X203.219008 Y408.066042 Z-0.125000
G01 X202.152645 Y412.331495 Z-0.125000
G01 X197.887193 Y412.331495 Z-0.125000
G01 X193.621741 Y412.331495 Z-0.125000
G01 X189.356288 Y412.331495 Z-0.125000
G01 X187.223562 Y415.530584 Z-0.125000
G01 X182.958110 Y415.530584 Z-0.125000
G01 X180.825384 Y416.596947 Z-0.125000
G01 X180.825384 Y420.862399 Z-0.125000
G01 X178.692658 Y424.061488 Z-0.125000
G01 X175.493569 Y426.194215 Z-0.125000
G01 X173.360842 Y427.260578 Z-0.125000
G01 X172.294479 Y424.061488 Z-0.125000
G01 X172.294479 Y420.862399 Z-0.125000
G01 X173.360842 Y418.729673 Z-0.125000
G01 X175.493569 Y417.663310 Z-0.125000
G01 X170.161753 Y416.596947 Z-0.125000
G01 X170.161753 Y413.397858 Z-0.125000
G01 X170.161753 Y410.198768 Z-0.125000
G01 X174.427206 Y412.331495 Z-0.125000
G01 X176.559932 Y410.198768 Z-0.125000
G01 X175.493569 Y405.933316 Z-0.125000
G01 X178.692658 Y403.800590 Z-0.125000
G01 X180.825384 Y400.601501 Z-0.125000
G01 X182.958110 Y397.402412 Z-0.125000
G01 X184.024473 Y394.203322 Z-0.125000
G01 X188.289925 Y393.136959 Z-0.125000
G01 X192.555378 Y393.136959 Z-0.125000
G01 X192.555378 Y388.871507 Z-0.125000
G01 X187.223562 Y387.805144 Z-0.125000
G01 X184.024473 Y388.871507 Z-0.125000
G01 X179.759021 Y388.871507 Z-0.125000
G01 X177.626295 Y391.004233 Z-0.125000
G01 X177.626295 Y395.269685 Z-0.125000
G01 X175.493569 Y398.468775 Z-0.125000
G01 X173.360842 Y400.601501 Z-0.125000
G01 X171.228116 Y403.800590 Z-0.125000
G01 X169.095390 Y406.999679 Z-0.125000
G01 X166.962664 Y404.866953 Z-0.125000
G01 X168.029027 Y401.667864 Z-0.125000
G01 X168.029027 Y398.468775 Z-0.125000
G01 X168.029027 Y395.269685 Z-0.125000
G01 X172.294479 Y392.070596 Z-0.125000
G01 X170.161753 Y393.136959 Z-0.125000
G01 X165.896301 Y392.070596 Z-0.125000
G01 X166.962664 Y388.871507 Z-0.125000
G01 X168.029027 Y387.805144 Z-0.125000
G01 X171.228116 Y387.805144 Z-0.125000
G01 X174.427206 Y386.738781 Z-0.125000
G01 X172.294479 Y384.606055 Z-0.125000
G01 X176.559932 Y383.539692 Z-0.125000
G01 X177.626295 Y381.406966 Z-0.125000
G01 X179.759021 Y380.340603 Z-0.125000
G01 X180.825384 Y383.539692 Z-0.125000
G01 X185.090836 Y382.473329 Z-0.125000
G01 X181.891747 Y379.274239 Z-0.125000
G01 X185.090836 Y378.207876 Z-0.125000
G01 X185.090836 Y376.075150 Z-0.125000
G01 X188.289925 Y376.075150 Z-0.125000
G01 X188.289925 Y373.942424 Z-0.125000
G01 X191.489015 Y373.942424 Z-0.125000
G01 X192.555378 Y372.876061 Z-0.125000
G01 X193.621741 Y370.743335 Z-0.125000
G01 X195.754467 Y369.676972 Z-0.125000
G01 X197.887193 Y368.610609 Z-0.125000
G01 X196.820830 Y372.876061 Z-0.125000
G01 X201.086282 Y372.876061 Z-0.125000
G01 X201.086282 Y368.610609 Z-0.125000
G01 X202.152645 Y366.477883 Z-0.125000
G01 X206.418098 Y367.544246 Z-0.125000
G01 X205.351735 Y364.345156 Z-0.125000
G01 X208.550824 Y364.345156 Z-0.125000
G01 X210.683550 Y363.278793 Z-0.125000
G01 X213.882639 Y362.212430 Z-0.125000
G01 X216.015365 Y361.146067 Z-0.125000
G01 X219.214454 Y362.212430 Z-0.125000
G01 X221.347181 Y360.079704 Z-0.125000
G01 X223.479907 Y363.278793 Z-0.125000
G01 X225.612633 Y362.212430 Z-0.125000
G01 X228.811722 Y362.212430 Z-0.125000
G01 X230.944448 Y360.079704 Z-0.125000
G01 X232.010811 Y357.946978 Z-0.125000
G01 X234.143537 Y356.880615 Z-0.125000
G01 X237.342627 Y356.880615 Z-0.125000
G01 X240.541716 Y356.880615 Z-0.125000
G01 X242.674442 Y359.013341 Z-0.125000
G01 X238.408990 Y360.079704 Z-0.125000
G01 X235.209900 Y362.212430 Z-0.125000
G01 X234.143537 Y366.477883 Z-0.125000
G01 X229.878085 Y366.477883 Z-0.125000
G01 X226.678996 Y368.610609 Z-0.125000
G01 X222.413544 Y367.544246 Z-0.125000
G01 X217.081728 Y365.411520 Z-0.125000
G01 X213.882639 Y367.544246 Z-0.125000
G01 X210.683550 Y369.676972 Z-0.125000
G01 X206.418098 Y371.809698 Z-0.125000
G01 X206.418098 Y376.075150 Z-0.125000
G01 X203.219008 Y378.207876 Z-0.125000
G01 X198.953556 Y378.207876 Z-0.125000
G01 X194.688104 Y379.274239 Z-0.125000
G01 X191.489015 Y380.340603 Z-0.125000
G01 X189.356288 Y383.539692 Z-0.125000
G01 X194.688104 Y385.672418 Z-0.125000
G01 X198.953556 Y383.539692 Z-0.125000
G01 X200.019919 Y387.805144 Z-0.125000
G01 X200.019919 Y392.070596 Z-0.125000
G01 X197.887193 Y393.136959 Z-0.125000
G01 X197.887193 Y397.402412 Z-0.125000
G01 X194.688104 Y398.468775 Z-0.125000
G01 X191.489015 Y401.667864 Z-0.125000
G01 X189.356288 Y397.402412 Z-0.125000
G01 X187.223562 Y401.667864 Z-0.125000
G01 X185.090836 Y404.866953 Z-0.125000
G01 X181.891747 Y410.198768 Z-0.125000
G01 X184.024473 Y409.132405 Z-0.125000
G01 X189.356288 Y406.999679 Z-0.125000
G01 X193.621741 Y406.999679 Z-0.125000
G01 X197.887193 Y406.999679 Z-0.125000
G01 X197.887193 Y402.734227 Z-0.125000
G01 X202.152645 Y402.734227 Z-0.125000
G01 X203.219008 Y398.468775 Z-0.125000
G01 X205.351735 Y395.269685 Z-0.125000
G01 X205.351735 Y391.004233 Z-0.125000
G01 X206.418098 Y387.805144 Z-0.125000
G01 X203.219008 Y383.539692 Z-0.125000
G01 X207.484461 Y382.473329 Z-0.125000
G01 X210.683550 Y380.340603 Z-0.125000
G01 X211.749913 Y376.075150 Z-0.125000
G01 X213.882639 Y375.008787 Z-0.125000
G01 X217.081728 Y372.876061 Z-0.125000
G01 X220.280818 Y370.743335 Z-0.125000
G01 X225.612633 Y372.876061 Z-0.125000
G01 X229.878085 Y375.008787 Z-0.125000
G01 X232.010811 Y371.809698 Z-0.125000
G01 X236.276264 Y371.809698 Z-0.125000
G01 X238.408990 Y368.610609 Z-0.125000
G01 X240.541716 Y365.411520 Z-0.125000
G01 X243.740805 Y364.345156 Z-0.125000
G01 X248.006257 Y364.345156 Z-0.125000
G01 X250.138983 Y361.146067 Z-0.125000
G01 X245.873531 Y359.013341 Z-0.125000
G01 X246.939894 Y356.880615 Z-0.125000
G01 X250.138983 Y357.946978 Z-0.125000
G01 X253.338073 Y356.880615 Z-0.125000
G01 X254.404436 Y354.747889 Z-0.125000
G01 X257.603525 Y356.880615 Z-0.125000
G01 X259.736251 Y355.814252 Z-0.125000
G01 X262.935340 Y356.880615 Z-0.125000
G01 X261.868977 Y359.013341 Z-0.125000
G01 X266.134430 Y359.013341 Z-0.125000
G01 X267.200793 Y356.880615 Z-0.125000
G01 X271.466245 Y356.880615 Z-0.125000
G01 X270.399882 Y359.013341 Z-0.125000
G01 X273.598971 Y362.212430 Z-0.125000
G01 X276.798060 Y360.079704 Z-0.125000
G01 X274.665334 Y356.880615 Z-0.125000
G01 X275.731697 Y355.814252 Z-0.125000
G01 X278.930786 Y356.880615 Z-0.125000
G01 X279.997149 Y354.747889 Z-0.125000
G01 X283.196239 Y355.814252 Z-0.125000
G01 X286.395328 Y355.814252 Z-0.125000
G01 X283.196239 Y359.013341 Z-0.125000
G01 X282.129876 Y363.278793 Z-0.125000
G01 X278.930786 Y365.411520 Z-0.125000
G01 X275.731697 Y367.544246 Z-0.125000
G01 X273.598971 Y370.743335 Z-0.125000
G01 X270.399882 Y369.676972 Z-0.125000
G01 X269.333519 Y364.345156 Z-0.125000
G01 X265.068066 Y364.345156 Z-0.125000
G01 X259.736251 Y365.411520 Z-0.125000
G01 X259.736251 Y362.212430 Z-0.125000
G01 X255.470799 Y361.146067 Z-0.125000
G01 X254.404436 Y365.411520 Z-0.125000
G01 X252.271710 Y368.610609 Z-0.125000
G01 X249.072620 Y369.676972 Z-0.125000
G01 X244.807168 Y369.676972 Z-0.125000
G01 X242.674442 Y372.876061 Z-0.125000
G01 X248.006257 Y375.008787 Z-0.125000
G01 X243.740805 Y377.141513 Z-0.125000
G01 X239.475353 Y377.141513 Z-0.125000
G01 X235.209900 Y377.141513 Z-0.125000
G01 X233.077174 Y380.340603 Z-0.125000
G01 X230.944448 Y383.539692 Z-0.125000
G01 X228.811722 Y386.738781 Z-0.125000
G01 X225.612633 Y388.871507 Z-0.125000
G01 X223.479907 Y392.070596 Z-0.125000
G01 X222.413544 Y395.269685 Z-0.125000
G01 X219.214454 Y398.468775 Z-0.125000
G01 X223.479907 Y400.601501 Z-0.125000
G01 X227.745359 Y399.535138 Z-0.125000
G01 X228.811722 Y395.269685 Z-0.125000
G01 X230.944448 Y392.070596 Z-0.125000
G01 X233.077174 Y388.871507 Z-0.125000
G01 X236.276264 Y385.672418 Z-0.125000
G01 X238.408990 Y382.473329 Z-0.125000
G01 X242.674442 Y382.473329 Z-0.125000
G01 X246.939894 Y383.539692 Z-0.125000
G01 X249.072620 Y380.340603 Z-0.125000
G01 X253.338073 Y380.340603 Z-0.125000
G01 X256.537162 Y377.141513 Z-0.125000
G01 X252.271710 Y375.008787 Z-0.125000
G01 X256.537162 Y372.876061 Z-0.125000
G01 X258.669888 Y369.676972 Z-0.125000
G01 X262.935340 Y371.809698 Z-0.125000
G01 X266.134430 Y369.676972 Z-0.125000
G01 X269.333519 Y373.942424 Z-0.125000
G01 X266.134430 Y377.141513 Z-0.125000
G01 X261.868977 Y376.075150 Z-0.125000
G01 X261.868977 Y380.340603 Z-0.125000
G01 X258.669888 Y382.473329 Z-0.125000
G01 X256.537162 Y385.672418 Z-0.125000
G01 X252.271710 Y385.672418 Z-0.125000
G01 X250.138983 Y388.871507 Z-0.125000
G01 X244.807168 Y387.805144 Z-0.125000
G01 X241.608079 Y388.871507 Z-0.125000
G01 X238.408990 Y391.004233 Z-0.125000
G01 X236.276264 Y394.203322 Z-0.125000
G01 X234.143537 Y397.402412 Z-0.125000
G01 X232.010811 Y400.601501 Z-0.125000
G01 X228.811722 Y403.800590 Z-0.125000
G01 X225.612633 Y405.933316 Z-0.125000
G01 X223.479907 Y409.132405 Z-0.125000
G01 X221.347181 Y412.331495 Z-0.125000
G01 X220.280818 Y416.596947 Z-0.125000
G01 X224.546270 Y417.663310 Z-0.125000
G01 X226.678996 Y422.995125 Z-0.125000
G01 X230.944448 Y422.995125 Z-0.125000
G01 X234.143537 Y421.928762 Z-0.125000
G01 X238.408990 Y422.995125 Z-0.125000
G01 X242.674442 Y422.995125 Z-0.125000
G01 X242.674442 Y418.729673 Z-0.125000
G01 X243.740805 Y415.530584 Z-0.125000
G01 X245.873531 Y412.331495 Z-0.125000
G01 X249.072620 Y411.265132 Z-0.125000
G01 X251.205347 Y408.066042 Z-0.125000
G01 X251.205347 Y403.800590 Z-0.125000
G01 X253.338073 Y400.601501 Z-0.125000
G01 X248.006257 Y398.468775 Z-0.125000
G01 X245.873531 Y401.667864 Z-0.125000
G01 X245.873531 Y405.933316 Z-0.125000
G01 X242.674442 Y408.066042 Z-0.125000
G01 X239.475353 Y410.198768 Z-0.125000
G01 X237.342627 Y413.397858 Z-0.125000
G01 X237.342627 Y417.663310 Z-0.125000
G01 X233.077174 Y415.530584 Z-0.125000
G01 X228.811722 Y417.663310 Z-0.125000
G01 X227.745359 Y413.397858 Z-0.125000
G01 X229.878085 Y410.198768 Z-0.125000
G01 X233.077174 Y409.132405 Z-0.125000
G01 X235.209900 Y405.933316 Z-0.125000
G01 X237.342627 Y403.800590 Z-0.125000
G01 X240.541716 Y402.734227 Z-0.125000
G01 X240.541716 Y398.468775 Z-0.125000
G01 X242.674442 Y395.269685 Z-0.125000
G01 X245.873531 Y393.136959 Z-0.125000
G01 X250.138983 Y395.269685 Z-0.125000
G01 X252.271710 Y394.203322 Z-0.125000
G01 X255.470799 Y391.004233 Z-0.125000
G01 X259.736251 Y389.937870 Z-0.125000
G01 X262.935340 Y387.805144 Z-0.125000
G01 X265.068066 Y385.672418 Z-0.125000
G01 X267.200793 Y382.473329 Z-0.125000
G01 X271.466245 Y380.340603 Z-0.125000
G01 X273.598971 Y379.274239 Z-0.125000
G01 X275.731697 Y376.075150 Z-0.125000
G01 X278.930786 Y375.008787 Z-0.125000
G01 X279.997149 Y370.743335 Z-0.125000
G01 X284.262602 Y368.610609 Z-0.125000
G01 X286.395328 Y365.411520 Z-0.125000
G01 X288.528054 Y361.146067 Z-0.125000
G01 X290.660780 Y357.946978 Z-0.125000
G01 X289.594417 Y354.747889 Z-0.125000
G01 X293.859869 Y354.747889 Z-0.125000
G01 X294.926232 Y353.681526 Z-0.125000
G01 X295.992595 Y351.548800 Z-0.125000
G01 X299.191685 Y354.747889 Z-0.125000
G01 X299.191685 Y351.548800 Z-0.125000
G01 X301.324411 Y351.548800 Z-0.125000
G01 X304.523500 Y351.548800 Z-0.125000
G01 X306.656226 Y350.482437 Z-0.125000
G01 X309.855315 Y350.482437 Z-0.125000
G01 X311.988042 Y349.416073 Z-0.125000
G01 X315.187131 Y351.548800 Z-0.125000
G01 X316.253494 Y349.416073 Z-0.125000
G01 X319.452583 Y349.416073 Z-0.125000
G01 X321.585309 Y348.349710 Z-0.125000
G01 X323.718035 Y351.548800 Z-0.125000
G01 X324.784398 Y348.349710 Z-0.125000
G01 X326.917124 Y348.349710 Z-0.125000
G01 X329.049851 Y347.283347 Z-0.125000
G01 X332.248940 Y347.283347 Z-0.125000
G01 X335.448029 Y347.283347 Z-0.125000
G01 X338.647118 Y346.216984 Z-0.125000
G01 X338.647118 Y348.349710 Z-0.125000
G01 X341.846207 Y347.283347 Z-0.125000
G01 X343.978934 Y346.216984 Z-0.125000
G01 X346.111660 Y347.283347 Z-0.125000
G01 X346.111660 Y350.482437 Z-0.125000
G01 X349.310749 Y351.548800 Z-0.125000
G01 X350.377112 Y348.349710 Z-0.125000
G01 X351.443475 Y347.283347 Z-0.125000
G01 X356.775290 Y347.283347 Z-0.125000
G01 X355.708927 Y348.349710 Z-0.125000
G01 X354.642564 Y350.482437 Z-0.125000
G01 X354.642564 Y354.747889 Z-0.125000
G01 X351.443475 Y357.946978 Z-0.125000
G01 X348.244386 Y356.880615 Z-0.125000
G01 X346.111660 Y359.013341 Z-0.125000
G01 X346.111660 Y363.278793 Z-0.125000
G01 X342.912571 Y365.411520 Z-0.125000
G01 X342.912571 Y369.676972 Z-0.125000
G01 X339.713481 Y373.942424 Z-0.125000
G01 X342.912571 Y375.008787 Z-0.125000
G01 X347.178023 Y373.942424 Z-0.125000
G01 X348.244386 Y369.676972 Z-0.125000
G01 X350.377112 Y365.411520 Z-0.125000
G01 X353.576201 Y363.278793 Z-0.125000
G01 X356.775290 Y361.146067 Z-0.125000
G01 X358.908017 Y360.079704 Z-0.125000
G01 X359.974380 Y355.814252 Z-0.125000
G01 X359.974380 Y351.548800 Z-0.125000
G01 X361.040743 Y349.416073 Z-0.125000
G01 X363.173469 Y348.349710 Z-0.125000
G01 X364.239832 Y351.548800 Z-0.125000
G01 X367.438921 Y350.482437 Z-0.125000
G01 X370.638010 Y350.482437 Z-0.125000
G01 X371.704373 Y349.416073 Z-0.125000
G01 X374.903463 Y350.482437 Z-0.125000
G01 X375.969826 Y349.416073 Z-0.125000
G01 X378.102552 Y349.416073 Z-0.125000
G01 X380.235278 Y345.150621 Z-0.125000
G01 X380.235278 Y341.951532 Z-0.125000
G01 X381.301641 Y340.885169 Z-0.125000
G01 X385.567093 Y343.017895 Z-0.125000
G01 X385.567093 Y339.818806 Z-0.125000
G01 X385.567093 Y336.619717 Z-0.125000
G01 X386.633456 Y333.420627 Z-0.125000
G01 X388.766183 Y332.354264 Z-0.125000
G01 X388.766183 Y329.155175 Z-0.125000
G01 X385.567093 Y329.155175 Z-0.125000
G01 X382.368004 Y330.221538 Z-0.125000
G01 X382.368004 Y333.420627 Z-0.125000
G01 X382.368004 Y337.686080 Z-0.125000
G01 X378.102552 Y336.619717 Z-0.125000
G01 X378.102552 Y333.420627 Z-0.125000
G01 X378.102552 Y330.221538 Z-0.125000
G01 X375.969826 Y327.022449 Z-0.125000
G01 X377.036189 Y323.823360 Z-0.125000
G01 X380.235278 Y327.022449 Z-0.125000
G01 X382.368004 Y324.889723 Z-0.125000
G01 X383.434367 Y322.756997 Z-0.125000
G01 X387.699819 Y320.624271 Z-0.125000
G01 X386.633456 Y322.756997 Z-0.125000
G01 X387.699819 Y325.956086 Z-0.125000
G01 X393.031635 Y323.823360 Z-0.125000
G01 X397.297087 Y317.425181 Z-0.125000
G01 X404.761629 Y314.226092 Z-0.125000
G01 X413.292533 Y308.894277 Z-0.125000
G01 X415.425259 Y297.164283 Z-0.125000
G01 X404.761629 Y293.965194 Z-0.125000
G01 X400.496176 Y300.363372 Z-0.125000
G01 X391.965272 Y298.230646 Z-0.125000
G01 X384.500730 Y298.230646 Z-0.125000
G01 X384.500730 Y301.429735 Z-0.125000
G01 X384.500730 Y304.628825 Z-0.125000
G01 X384.500730 Y306.761551 Z-0.125000
G01 X385.567093 Y309.960640 Z-0.125000
G01 X385.567093 Y313.159729 Z-0.125000
G01 X386.633456 Y316.358818 Z-0.125000
G01 X384.500730 Y317.425181 Z-0.125000
G01 X382.368004 Y318.491544 Z-0.125000
G01 X379.168915 Y319.557908 Z-0.125000
G01 X378.102552 Y321.690634 Z-0.125000
G01 X375.969826 Y320.624271 Z-0.125000
G01 X374.903463 Y316.358818 Z-0.125000
G01 X374.903463 Y313.159729 Z-0.125000
G01 X378.102552 Y315.292455 Z-0.125000
G01 X381.301641 Y313.159729 Z-0.125000
G01 X382.368004 Y309.960640 Z-0.125000
G01 X379.168915 Y307.827914 Z-0.125000
G01 X378.102552 Y311.027003 Z-0.125000
G01 X374.903463 Y309.960640 Z-0.125000
G01 X374.903463 Y306.761551 Z-0.125000
G01 X373.837100 Y303.562461 Z-0.125000
G01 X374.903463 Y301.429735 Z-0.125000
G01 X377.036189 Y302.496098 Z-0.125000
G01 X380.235278 Y304.628825 Z-0.125000
G01 X381.301641 Y301.429735 Z-0.125000
G01 X380.235278 Y298.230646 Z-0.125000
G01 X382.368004 Y296.097920 Z-0.125000
G01 X383.434367 Y293.965194 Z-0.125000
G01 X383.434367 Y289.699742 Z-0.125000
G01 X381.301641 Y290.766105 Z-0.125000
G01 X379.168915 Y292.898831 Z-0.125000
G01 X377.036189 Y295.031557 Z-0.125000
G01 X375.969826 Y298.230646 Z-0.125000
G01 X373.837100 Y297.164283 Z-0.125000
G01 X373.837100 Y293.965194 Z-0.125000
G01 X373.837100 Y290.766105 Z-0.125000
G01 X373.837100 Y288.633379 Z-0.125000
G01 X377.036189 Y288.633379 Z-0.125000
G01 X379.168915 Y286.500652 Z-0.125000
G01 X382.368004 Y286.500652 Z-0.125000
G01 X382.368004 Y284.367926 Z-0.125000
G01 X379.168915 Y282.235200 Z-0.125000
G01 X375.969826 Y283.301563 Z-0.125000
G01 X373.837100 Y285.434289 Z-0.125000
G01 X372.770736 Y282.235200 Z-0.125000
G01 X372.770736 Y279.036111 Z-0.125000
G01 X372.770736 Y275.837022 Z-0.125000
G01 X375.969826 Y279.036111 Z-0.125000
G01 X377.036189 Y276.903385 Z-0.125000
G01 X379.168915 Y274.770659 Z-0.125000
G01 X382.368004 Y274.770659 Z-0.125000
G01 X382.368004 Y277.969748 Z-0.125000
G01 X381.301641 Y280.102474 Z-0.125000
G01 X383.434367 Y281.168837 Z-0.125000
G01 X390.898909 Y280.102474 Z-0.125000
G01 X396.230724 Y275.837022 Z-0.125000
G01 X404.761629 Y280.102474 Z-0.125000
G01 X416.491622 Y285.434289 Z-0.125000
G01 X415.425259 Y273.704296 Z-0.125000
G01 X418.624348 Y267.306117 Z-0.125000
G01 X407.960718 Y271.571569 Z-0.125000
G01 X398.363450 Y266.239754 Z-0.125000
G01 X404.761629 Y258.775213 Z-0.125000
G01 X411.159807 Y255.576123 Z-0.125000
G01 X420.757075 Y257.708849 Z-0.125000
G01 X421.823438 Y249.177945 Z-0.125000
G01 X412.226170 Y245.978856 Z-0.125000
G01 X414.358896 Y237.447951 Z-0.125000
G01 X420.757075 Y239.580677 Z-0.125000
G01 X421.823438 Y232.116136 Z-0.125000
G01 X422.889801 Y224.651594 Z-0.125000
G01 X413.292533 Y225.717957 Z-0.125000
G01 X407.960718 Y225.717957 Z-0.125000
G01 X400.496176 Y223.585231 Z-0.125000
G01 X393.031635 Y221.452505 Z-0.125000
G01 X387.699819 Y221.452505 Z-0.125000
G01 X385.567093 Y227.850684 Z-0.125000
G01 X381.301641 Y226.784320 Z-0.125000
G01 X381.301641 Y228.917047 Z-0.125000
G01 X381.301641 Y231.049773 Z-0.125000
G01 X381.301641 Y233.182499 Z-0.125000
G01 X381.301641 Y235.315225 Z-0.125000
G01 X381.301641 Y238.514314 Z-0.125000
G01 X381.301641 Y240.647040 Z-0.125000
G01 X381.301641 Y242.779767 Z-0.125000
G01 X379.168915 Y243.846130 Z-0.125000
G01 X381.301641 Y247.045219 Z-0.125000
G01 X380.235278 Y248.111582 Z-0.125000
G01 X381.301641 Y251.310671 Z-0.125000
G01 X380.235278 Y252.377034 Z-0.125000
G01 X377.036189 Y252.377034 Z-0.125000
G01 X375.969826 Y256.642486 Z-0.125000
G01 X380.235278 Y256.642486 Z-0.125000
G01 X381.301641 Y255.576123 Z-0.125000
G01 X386.633456 Y251.310671 Z-0.125000
G01 X389.832546 Y241.713403 Z-0.125000
G01 X394.097998 Y236.381588 Z-0.125000
G01 X397.297087 Y232.116136 Z-0.125000
G01 X405.827992 Y234.248862 Z-0.125000
G01 X404.761629 Y242.779767 Z-0.125000
G01 X399.429813 Y247.045219 Z-0.125000
G01 X395.164361 Y254.509760 Z-0.125000
G01 X388.766183 Y263.040665 Z-0.125000
G01 X382.368004 Y263.040665 Z-0.125000
G01 X382.368004 Y259.841576 Z-0.125000
G01 X379.168915 Y259.841576 Z-0.125000
G01 X379.168915 Y263.040665 Z-0.125000
G01 X379.168915 Y266.239754 Z-0.125000
G01 X382.368004 Y266.239754 Z-0.125000
G01 X382.368004 Y269.438843 Z-0.125000
G01 X382.368004 Y271.571569 Z-0.125000
G01 X379.168915 Y271.571569 Z-0.125000
G01 X377.036189 Y268.372480 Z-0.125000
G01 X374.903463 Y272.637932 Z-0.125000
G01 X371.704373 Y272.637932 Z-0.125000
G01 X372.770736 Y269.438843 Z-0.125000
G01 X372.770736 Y267.306117 Z-0.125000
G01 X373.837100 Y265.173391 Z-0.125000
G01 X374.903463 Y263.040665 Z-0.125000
G01 X374.903463 Y259.841576 Z-0.125000
G01 X371.704373 Y260.907939 Z-0.125000
G01 X371.704373 Y257.708849 Z-0.125000
G01 X372.770736 Y254.509760 Z-0.125000
G01 X373.837100 Y252.377034 Z-0.125000
G01 X372.770736 Y249.177945 Z-0.125000
G01 X375.969826 Y248.111582 Z-0.125000
G01 X375.969826 Y244.912493 Z-0.125000
G01 X372.770736 Y244.912493 Z-0.125000
G01 X372.770736 Y241.713403 Z-0.125000
G01 X374.903463 Y240.647040 Z-0.125000
G01 X377.036189 Y238.514314 Z-0.125000
G01 X378.102552 Y235.315225 Z-0.125000
G01 X373.837100 Y236.381588 Z-0.125000
G01 X373.837100 Y233.182499 Z-0.125000
G01 X375.969826 Y231.049773 Z-0.125000
G01 X377.036189 Y229.983410 Z-0.125000
G01 X373.837100 Y226.784320 Z-0.125000
G01 X377.036189 Y225.717957 Z-0.125000
G01 X380.235278 Y223.585231 Z-0.125000
G01 X381.301641 Y221.452505 Z-0.125000
G01 X380.235278 Y218.253416 Z-0.125000
G01 X381.301641 Y216.120690 Z-0.125000
G01 X381.301641 Y212.921601 Z-0.125000
G01 X379.168915 Y211.855237 Z-0.125000
G01 X381.301641 Y209.722511 Z-0.125000
G01 X381.301641 Y207.589785 Z-0.125000
G01 X384.500730 Y204.390696 Z-0.125000
G01 X381.301641 Y204.390696 Z-0.125000
G01 X378.102552 Y205.457059 Z-0.125000
G01 X375.969826 Y207.589785 Z-0.125000
G01 X374.903463 Y210.788874 Z-0.125000
G01 X377.036189 Y213.987964 Z-0.125000
G01 X374.903463 Y216.120690 Z-0.125000
G01 X378.102552 Y219.319779 Z-0.125000
G01 X375.969826 Y221.452505 Z-0.125000
G01 X373.837100 Y222.518868 Z-0.125000
G01 X364.239832 Y223.585231 Z-0.125000
G01 X361.040743 Y232.116136 Z-0.125000
G01 X351.443475 Y223.585231 Z-0.125000
G01 X355.708927 Y218.253416 Z-0.125000
G01 X362.107106 Y210.788874 Z-0.125000
G01 X364.239832 Y203.324333 Z-0.125000
G01 X352.509838 Y205.457059 Z-0.125000
G01 X353.576201 Y195.859791 Z-0.125000
G01 X355.708927 Y189.461613 Z-0.125000
G01 X364.239832 Y192.660702 Z-0.125000
G01 X363.173469 Y180.930708 Z-0.125000
G01 X354.642564 Y177.731619 Z-0.125000
G01 X363.173469 Y171.333441 Z-0.125000
G01 X364.239832 Y162.802536 Z-0.125000
G01 X353.576201 Y166.001625 Z-0.125000
G01 X355.708927 Y156.404358 Z-0.125000
G01 X361.040743 Y150.006179 Z-0.125000
G01 X362.107106 Y141.475275 Z-0.125000
G01 X352.509838 Y138.276186 Z-0.125000
G01 X356.775290 Y128.678918 Z-0.125000
G01 X361.040743 Y125.479829 Z-0.125000
G01 X357.841654 Y110.550746 Z-0.125000
G01 X351.443475 Y108.418020 Z-0.125000
G01 X350.377112 Y105.218931 Z-0.125000
G01 X351.443475 Y102.019841 Z-0.125000
G01 X350.377112 Y98.820752 Z-0.125000
G01 X351.443475 Y97.754389 Z-0.125000
G01 X358.908017 Y98.820752 Z-0.125000
G01 X351.443475 Y94.555300 Z-0.125000
G01 X351.443475 Y91.356211 Z-0.125000
G01 X351.443475 Y88.157121 Z-0.125000
G01 X352.509838 Y86.024395 Z-0.125000
G01 X357.841654 Y82.825306 Z-0.125000
G01 X351.443475 Y82.825306 Z-0.125000
G01 X351.443475 Y79.626217 Z-0.125000
G01 X351.443475 Y76.427128 Z-0.125000
G01 X351.443475 Y73.228038 Z-0.125000
G01 X352.509838 Y70.028949 Z-0.125000
G01 X357.841654 Y66.829860 Z-0.125000
G01 X351.443475 Y66.829860 Z-0.125000
G01 X351.443475 Y63.630771 Z-0.125000
G01 X351.443475 Y59.365319 Z-0.125000
G01 X350.377112 Y55.099866 Z-0.125000
G01 X351.443475 Y50.834414 Z-0.125000
G01 X350.377112 Y46.568962 Z-0.125000
G01 X355.708927 Y42.303509 Z-0.125000
G01 X349.310749 Y42.303509 Z-0.125000
G01 X348.244386 Y35.905331 Z-0.125000
G01 X354.642564 Y25.241700 Z-0.125000
G01 X347.178023 Y28.440790 Z-0.125000
G01 X334.381666 Y26.308063 Z-0.125000
G01 X323.718035 Y20.976248 Z-0.125000
G01 X320.518946 Y29.507153 Z-0.125000
G01 X310.921678 Y32.706242 Z-0.125000
G01 X309.855315 Y45.502599 Z-0.125000
G01 X300.258048 Y39.104420 Z-0.125000
G01 X298.125322 Y25.241700 Z-0.125000
G01 X289.594417 Y23.108974 Z-0.125000
G01 X285.328965 Y31.639879 Z-0.125000
G01 X273.598971 Y33.772605 Z-0.125000
G01 X273.598971 Y22.042611 Z-0.125000
G01 X276.798060 Y14.578070 Z-0.125000
G01 X262.935340 Y6.047165 Z-0.125000
G01 X257.603525 Y10.312617 Z-0.125000
G01 X258.669888 Y15.644433 Z-0.125000
G01 X258.669888 Y19.909885 Z-0.125000
G01 X257.603525 Y24.175337 Z-0.125000
G01 X255.470799 Y27.374426 Z-0.125000
G01 X264.001703 Y29.507153 Z-0.125000
G01 X258.669888 Y31.639879 Z-0.125000
G01 X254.404436 Y31.639879 Z-0.125000
G01 X253.338073 Y33.772605 Z-0.125000
G01 X253.338073 Y35.905331 Z-0.125000
G01 X251.205347 Y38.038057 Z-0.125000
G01 X249.072620 Y40.170783 Z-0.125000
G01 X248.006257 Y42.303509 Z-0.125000
G01 X246.939894 Y44.436236 Z-0.125000
G01 X245.873531 Y46.568962 Z-0.125000
G01 X244.807168 Y47.635325 Z-0.125000
G01 X243.740805 Y49.768051 Z-0.125000
G01 X242.674442 Y51.900777 Z-0.125000
G01 X241.608079 Y54.033503 Z-0.125000
G01 X240.541716 Y56.166229 Z-0.125000
G01 X239.475353 Y58.298955 Z-0.125000
G01 X238.408990 Y60.431682 Z-0.125000
G01 X237.342627 Y62.564408 Z-0.125000
G01 X236.276264 Y64.697134 Z-0.125000
G01 X220.280818 Y66.829860 Z-0.125000
G01 X220.280818 Y77.493491 Z-0.125000
G01 X212.816276 Y82.825306 Z-0.125000
G01 X206.418098 Y82.825306 Z-0.125000
G01 X205.351735 Y83.891669 Z-0.125000
G01 X206.418098 Y79.626217 Z-0.125000
G01 X207.484461 Y77.493491 Z-0.125000
G01 X208.550824 Y74.294402 Z-0.125000
G01 X208.550824 Y71.095312 Z-0.125000
G01 X209.617187 Y70.028949 Z-0.125000
G01 X209.617187 Y66.829860 Z-0.125000
G01 X210.683550 Y65.763497 Z-0.125000
G01 X211.749913 Y62.564408 Z-0.125000
G01 X211.749913 Y59.365319 Z-0.125000
G01 X212.816276 Y57.232592 Z-0.125000
G01 X213.882639 Y54.033503 Z-0.125000
G01 X213.882639 Y50.834414 Z-0.125000
G01 X219.214454 Y50.834414 Z-0.125000
G01 X213.882639 Y45.502599 Z-0.125000
G01 X213.882639 Y41.237146 Z-0.125000
G01 X211.749913 Y34.838968 Z-0.125000
G01 X222.413544 Y42.303509 Z-0.125000
G01 X226.678996 Y34.838968 Z-0.125000
G01 X226.678996 Y22.042611 Z-0.125000
G01 X217.081728 Y18.843522 Z-0.125000
G01 X210.683550 Y23.108974 Z-0.125000
G01 X197.887193 Y22.042611 Z-0.125000
G01 X197.887193 Y34.838968 Z-0.125000
G01 X193.621741 Y44.436236 Z-0.125000
G01 X186.157199 Y44.436236 Z-0.125000
G01 X194.688104 Y60.431682 Z-0.125000
G01 X185.090836 Y59.365319 Z-0.125000
G01 X179.759021 Y65.763497 Z-0.125000
G01 X193.621741 Y75.360765 Z-0.125000
G01 X193.621741 Y86.024395 Z-0.125000
G01 X187.223562 Y84.958032 Z-0.125000
G01 X182.958110 Y88.157121 Z-0.125000
G01 X179.759021 Y94.555300 Z-0.125000
G01 X178.692658 Y109.484383 Z-0.125000
G01 X185.090836 Y111.617109 Z-0.125000
G01 X189.356288 Y110.550746 Z-0.125000
G01 X191.489015 Y100.953478 Z-0.125000
G01 X196.820830 Y97.754389 Z-0.125000
G01 X204.285371 Y88.157121 Z-0.125000
G01 X206.418098 Y87.090758 Z-0.125000
