%
(Header)
(Generated by gcodetools from Inkscape.)
(Using default header. To add your own header create file "header" in the output dir.)
M3
(Header end.)
G21 (All units in mm)

(Start cutting path id: path49170)
(Change tool to Default tool)

G00 Z5.000000
G00 X38.399999 Y29.866681

G01 Z-0.125000 F100.0(Penetrate)
G01 X42.666666 Y30.933347 Z-0.125000 F400.000000
G01 X45.866668 Y32.000014 Z-0.125000
G01 X48.000000 Y30.933347 Z-0.125000
G01 X51.199999 Y34.133347 Z-0.125000
G01 X54.400001 Y34.133347 Z-0.125000
G01 X57.600001 Y36.266681 Z-0.125000
G01 X52.266667 Y39.466681 Z-0.125000
G01 X46.933333 Y39.466681 Z-0.125000
G01 X44.800001 Y36.266681 Z-0.125000
G01 X42.666666 Y39.466681 Z-0.125000
G01 X44.800001 Y44.800014 Z-0.125000
G01 X48.000000 Y42.666681 Z-0.125000
G01 X49.066667 Y45.866681 Z-0.125000
G01 X50.133335 Y49.066681 Z-0.125000
G01 X45.866668 Y50.133347 Z-0.125000
G01 X45.866668 Y54.400015 Z-0.125000
G01 X46.933333 Y60.800013 Z-0.125000
G01 X49.066667 Y66.133347 Z-0.125000
G01 X51.199999 Y71.466681 Z-0.125000
G01 X55.466666 Y67.200015 Z-0.125000
G01 X58.666668 Y67.200015 Z-0.125000
G01 X61.866667 Y67.200015 Z-0.125000
G01 X59.733332 Y71.466681 Z-0.125000
G01 X57.600001 Y72.533349 Z-0.125000
G01 X56.533333 Y76.800015 Z-0.125000
G01 X52.266667 Y77.866680 Z-0.125000
G01 X51.199999 Y82.133347 Z-0.125000
G01 X52.266667 Y87.466681 Z-0.125000
G01 X57.600001 Y85.333349 Z-0.125000
G01 X60.800000 Y82.133347 Z-0.125000
G01 X61.866667 Y77.866680 Z-0.125000
G01 X63.999999 Y75.733348 Z-0.125000
G01 X65.066666 Y72.533349 Z-0.125000
G01 X68.266666 Y71.466681 Z-0.125000
G01 X71.466668 Y69.333347 Z-0.125000
G01 X75.733334 Y69.333347 Z-0.125000
G01 X78.933334 Y68.266679 Z-0.125000
G01 X82.133333 Y66.133347 Z-0.125000
G01 X86.400000 Y65.066680 Z-0.125000
G01 X86.400000 Y62.933348 Z-0.125000
G01 X83.200000 Y61.866681 Z-0.125000
G01 X81.066668 Y60.800013 Z-0.125000
G01 X83.200000 Y56.533347 Z-0.125000
G01 X78.933334 Y58.666682 Z-0.125000
G01 X76.800002 Y58.666682 Z-0.125000
G01 X77.866666 Y62.933348 Z-0.125000
G01 X74.666667 Y64.000013 Z-0.125000
G01 X69.333333 Y65.066680 Z-0.125000
G01 X66.133334 Y67.200015 Z-0.125000
G01 X63.999999 Y62.933348 Z-0.125000
G01 X68.266666 Y61.866681 Z-0.125000
G01 X70.400000 Y59.733346 Z-0.125000
G01 X73.600000 Y57.600014 Z-0.125000
G01 X74.666667 Y55.466679 Z-0.125000
G01 X71.466668 Y54.400015 Z-0.125000
G01 X69.333333 Y54.400015 Z-0.125000
G01 X66.133334 Y55.466679 Z-0.125000
G01 X63.999999 Y57.600014 Z-0.125000
G01 X60.800000 Y58.666682 Z-0.125000
G01 X58.666668 Y61.866681 Z-0.125000
G01 X56.533333 Y62.933348 Z-0.125000
G01 X52.266667 Y60.800013 Z-0.125000
G01 X55.466666 Y58.666682 Z-0.125000
G01 X57.600001 Y54.400015 Z-0.125000
G01 X54.400001 Y55.466679 Z-0.125000
G01 X52.266667 Y55.466679 Z-0.125000
G01 X52.266667 Y52.266680 Z-0.125000
G01 X53.333334 Y49.066681 Z-0.125000
G01 X56.533333 Y49.066681 Z-0.125000
G01 X55.466666 Y45.866681 Z-0.125000
G01 X58.666668 Y42.666681 Z-0.125000
G01 X60.800000 Y38.400014 Z-0.125000
G01 X63.999999 Y39.466681 Z-0.125000
G01 X67.200001 Y40.533347 Z-0.125000
G01 X70.400000 Y42.666681 Z-0.125000
G01 X65.066666 Y45.866681 Z-0.125000
G01 X60.800000 Y49.066681 Z-0.125000
G01 X60.800000 Y52.266680 Z-0.125000
G01 X63.999999 Y51.200013 Z-0.125000
G01 X67.200001 Y52.266680 Z-0.125000
G01 X71.466668 Y49.066681 Z-0.125000
G01 X73.600000 Y45.866681 Z-0.125000
G01 X75.733334 Y45.866681 Z-0.125000
G01 X77.866666 Y51.200013 Z-0.125000
G01 X78.933334 Y49.066681 Z-0.125000
G01 X82.133333 Y50.133347 Z-0.125000
G01 X86.400000 Y52.266680 Z-0.125000
G01 X89.600002 Y52.266680 Z-0.125000
G01 X92.800001 Y53.333348 Z-0.125000
G01 X97.066668 Y54.400015 Z-0.125000
G01 X100.266667 Y56.533347 Z-0.125000
G01 X94.933333 Y58.666682 Z-0.125000
G01 X89.600002 Y58.666682 Z-0.125000
G01 X89.600002 Y64.000013 Z-0.125000
G01 X90.666666 Y66.133347 Z-0.125000
G01 X93.866668 Y66.133347 Z-0.125000
G01 X97.066668 Y67.200015 Z-0.125000
G01 X96.000000 Y70.400014 Z-0.125000
G01 X100.266667 Y69.333347 Z-0.125000
G01 X99.199999 Y64.000013 Z-0.125000
G01 X102.400002 Y61.866681 Z-0.125000
G01 X103.466666 Y58.666682 Z-0.125000
G01 X106.666668 Y59.733346 Z-0.125000
G01 X107.733333 Y61.866681 Z-0.125000
G01 X109.866667 Y64.000013 Z-0.125000
G01 X113.066667 Y66.133347 Z-0.125000
G01 X114.133334 Y68.266679 Z-0.125000
G01 X111.999999 Y69.333347 Z-0.125000
G01 X106.666668 Y69.333347 Z-0.125000
G01 X104.533333 Y71.466681 Z-0.125000
G01 X102.400002 Y73.600013 Z-0.125000
G01 X106.666668 Y75.733348 Z-0.125000
G01 X104.533333 Y77.866680 Z-0.125000
G01 X106.666668 Y82.133347 Z-0.125000
G01 X109.866667 Y81.066682 Z-0.125000
G01 X113.066667 Y76.800015 Z-0.125000
G01 X116.266666 Y73.600013 Z-0.125000
G01 X117.333333 Y71.466681 Z-0.125000
G01 X119.466668 Y75.733348 Z-0.125000
G01 X119.466668 Y78.933347 Z-0.125000
G01 X122.666667 Y81.066682 Z-0.125000
G01 X120.533333 Y82.133347 Z-0.125000
G01 X115.200001 Y83.200014 Z-0.125000
G01 X111.999999 Y85.333349 Z-0.125000
G01 X107.733333 Y85.333349 Z-0.125000
G01 X103.466666 Y86.400013 Z-0.125000
G01 X103.466666 Y90.666680 Z-0.125000
G01 X107.733333 Y90.666680 Z-0.125000
G01 X111.999999 Y90.666680 Z-0.125000
G01 X114.133334 Y89.600015 Z-0.125000
G01 X115.200001 Y88.533348 Z-0.125000
G01 X116.266666 Y92.800015 Z-0.125000
G01 X115.200001 Y96.000014 Z-0.125000
G01 X118.400001 Y96.000014 Z-0.125000
G01 X122.666667 Y93.866682 Z-0.125000
G01 X121.600000 Y88.533348 Z-0.125000
G01 X122.666667 Y85.333349 Z-0.125000
G01 X124.799999 Y85.333349 Z-0.125000
G01 X125.866667 Y88.533348 Z-0.125000
G01 X126.933334 Y90.666680 Z-0.125000
G01 X129.066669 Y92.800015 Z-0.125000
G01 X132.266668 Y94.933346 Z-0.125000
G01 X134.400000 Y97.066681 Z-0.125000
G01 X129.066669 Y99.200013 Z-0.125000
G01 X131.200001 Y105.600014 Z-0.125000
G01 X135.466667 Y103.466680 Z-0.125000
G01 X137.600002 Y99.200013 Z-0.125000
G01 X139.733334 Y100.266680 Z-0.125000
G01 X141.866669 Y104.533347 Z-0.125000
G01 X142.933333 Y103.466680 Z-0.125000
G01 X145.066668 Y106.666682 Z-0.125000
G01 X147.200000 Y109.866681 Z-0.125000
G01 X146.133335 Y110.933348 Z-0.125000
G01 X149.333334 Y114.133348 Z-0.125000
G01 X152.533334 Y115.200015 Z-0.125000
G01 X155.733333 Y116.266680 Z-0.125000
G01 X158.933335 Y118.400014 Z-0.125000
G01 X162.133334 Y119.466682 Z-0.125000
G01 X162.133334 Y117.333347 Z-0.125000
G01 X164.266666 Y115.200015 Z-0.125000
G01 X164.266666 Y110.933348 Z-0.125000
G01 X165.333334 Y106.666682 Z-0.125000
G01 X169.600000 Y106.666682 Z-0.125000
G01 X170.666668 Y104.533347 Z-0.125000
G01 X173.866667 Y102.400015 Z-0.125000
G01 X174.933334 Y100.266680 Z-0.125000
G01 X177.066669 Y98.133349 Z-0.125000
G01 X180.266668 Y96.000014 Z-0.125000
G01 X183.466667 Y96.000014 Z-0.125000
G01 X186.666667 Y94.933346 Z-0.125000
G01 X190.933333 Y94.933346 Z-0.125000
G01 X195.200000 Y94.933346 Z-0.125000
G01 X196.266667 Y92.800015 Z-0.125000
G01 X198.400002 Y89.600015 Z-0.125000
G01 X201.600001 Y87.466681 Z-0.125000
G01 X205.866668 Y87.466681 Z-0.125000
G01 X203.733333 Y83.200014 Z-0.125000
G01 X208.000000 Y82.133347 Z-0.125000
G01 X212.266666 Y81.066682 Z-0.125000
G01 X217.600000 Y82.133347 Z-0.125000
G01 X215.466669 Y86.400013 Z-0.125000
G01 X211.200002 Y87.466681 Z-0.125000
G01 X212.266666 Y90.666680 Z-0.125000
G01 X209.066667 Y92.800015 Z-0.125000
G01 X204.800001 Y92.800015 Z-0.125000
G01 X201.600001 Y94.933346 Z-0.125000
G01 X200.533334 Y100.266680 Z-0.125000
G01 X204.800001 Y100.266680 Z-0.125000
G01 X206.933335 Y98.133349 Z-0.125000
G01 X211.200002 Y98.133349 Z-0.125000
G01 X214.400001 Y96.000014 Z-0.125000
G01 X217.600000 Y92.800015 Z-0.125000
G01 X219.733335 Y88.533348 Z-0.125000
G01 X221.866667 Y86.400013 Z-0.125000
G01 X226.133334 Y86.400013 Z-0.125000
G01 X230.400000 Y86.400013 Z-0.125000
G01 X233.600002 Y84.266681 Z-0.125000
G01 X232.533335 Y82.133347 Z-0.125000
G01 X229.333336 Y81.066682 Z-0.125000
G01 X227.200001 Y81.066682 Z-0.125000
G01 X224.000002 Y81.066682 Z-0.125000
G01 X220.800000 Y80.000015 Z-0.125000
G01 X224.000002 Y77.866680 Z-0.125000
G01 X226.133334 Y70.400014 Z-0.125000
G01 X229.333336 Y65.066680 Z-0.125000
G01 X231.466668 Y59.733346 Z-0.125000
G01 X237.866669 Y50.133347 Z-0.125000
G01 X240.000001 Y59.733346 Z-0.125000
G01 X241.066668 Y58.666682 Z-0.125000
G01 X243.200000 Y57.600014 Z-0.125000
G01 X245.333335 Y56.533347 Z-0.125000
G01 X247.466667 Y55.466679 Z-0.125000
G01 X249.600002 Y53.333348 Z-0.125000
G01 X252.800001 Y53.333348 Z-0.125000
G01 X254.933335 Y52.266680 Z-0.125000
G01 X248.533334 Y45.866681 Z-0.125000
G01 X253.866668 Y35.200014 Z-0.125000
G01 X254.933335 Y33.066681 Z-0.125000
G01 X257.066667 Y32.000014 Z-0.125000
G01 X256.000000 Y28.800014 Z-0.125000
G01 X258.133335 Y24.533347 Z-0.125000
G01 X260.266667 Y21.333347 Z-0.125000
G01 X262.400001 Y19.200014 Z-0.125000
G01 X265.600001 Y17.066680 Z-0.125000
G01 X267.733335 Y13.866681 Z-0.125000
G01 X272.000002 Y12.800014 Z-0.125000
G01 X275.200001 Y11.733347 Z-0.125000
G01 X278.400001 Y9.600014 Z-0.125000
G01 X281.600003 Y8.533347 Z-0.125000
G01 X284.800002 Y5.333347 Z-0.125000
G01 X289.066677 Y3.200014 Z-0.125000
G01 X293.333341 Y2.133347 Z-0.125000
G01 X297.600005 Y2.133347 Z-0.125000
G01 X301.866668 Y0.000014 Z-0.125000
G01 X306.133332 Y1.066680 Z-0.125000
G01 X301.866668 Y3.200014 Z-0.125000
G01 X298.666663 Y7.466681 Z-0.125000
G01 X294.400000 Y7.466681 Z-0.125000
G01 X290.133336 Y8.533347 Z-0.125000
G01 X286.933334 Y11.733347 Z-0.125000
G01 X283.733335 Y13.866681 Z-0.125000
G01 X280.533335 Y16.000014 Z-0.125000
G01 X277.333333 Y18.133347 Z-0.125000
G01 X273.066667 Y18.133347 Z-0.125000
G01 X270.933335 Y20.266681 Z-0.125000
G01 X267.733335 Y22.400014 Z-0.125000
G01 X265.600001 Y25.600014 Z-0.125000
G01 X262.400001 Y27.733347 Z-0.125000
G01 X260.266667 Y30.933347 Z-0.125000
G01 X262.400001 Y32.000014 Z-0.125000
G01 X264.533333 Y30.933347 Z-0.125000
G01 X266.666668 Y29.866681 Z-0.125000
G01 X269.866667 Y29.866681 Z-0.125000
G01 X270.933335 Y28.800014 Z-0.125000
G01 X274.133334 Y28.800014 Z-0.125000
G01 X273.066667 Y25.600014 Z-0.125000
G01 X277.333333 Y23.466681 Z-0.125000
G01 X277.333333 Y27.733347 Z-0.125000
G01 X281.600003 Y27.733347 Z-0.125000
G01 X280.533335 Y29.866681 Z-0.125000
G01 X284.800002 Y29.866681 Z-0.125000
G01 X286.933334 Y28.800014 Z-0.125000
G01 X285.866669 Y26.666680 Z-0.125000
G01 X281.600003 Y22.400014 Z-0.125000
G01 X284.800002 Y20.266681 Z-0.125000
G01 X287.999990 Y18.133347 Z-0.125000
G01 X291.199995 Y16.000014 Z-0.125000
G01 X292.266682 Y12.800014 Z-0.125000
G01 X296.533346 Y12.800014 Z-0.125000
G01 X300.800009 Y12.800014 Z-0.125000
G01 X302.933327 Y8.533347 Z-0.125000
G01 X307.199991 Y7.466681 Z-0.125000
G01 X310.399996 Y5.333347 Z-0.125000
G01 X310.399996 Y1.066680 Z-0.125000
G01 X314.666660 Y1.066680 Z-0.125000
G01 X314.666660 Y4.266681 Z-0.125000
G01 X318.933324 Y2.133347 Z-0.125000
G01 X323.199987 Y3.200014 Z-0.125000
G01 X323.199987 Y6.400014 Z-0.125000
G01 X320.000011 Y8.533347 Z-0.125000
G01 X315.733347 Y9.600014 Z-0.125000
G01 X311.466655 Y10.666680 Z-0.125000
G01 X307.199991 Y12.800014 Z-0.125000
G01 X305.066673 Y16.000014 Z-0.125000
G01 X300.800009 Y18.133347 Z-0.125000
G01 X296.533346 Y18.133347 Z-0.125000
G01 X300.800009 Y22.400014 Z-0.125000
G01 X296.533346 Y23.466681 Z-0.125000
G01 X292.266682 Y21.333347 Z-0.125000
G01 X289.066677 Y24.533347 Z-0.125000
G01 X293.333341 Y27.733347 Z-0.125000
G01 X290.133336 Y30.933347 Z-0.125000
G01 X292.266682 Y32.000014 Z-0.125000
G01 X295.466659 Y34.133347 Z-0.125000
G01 X296.533346 Y33.066681 Z-0.125000
G01 X297.600005 Y28.800014 Z-0.125000
G01 X300.800009 Y27.733347 Z-0.125000
G01 X305.066673 Y26.666680 Z-0.125000
G01 X306.133332 Y22.400014 Z-0.125000
G01 X308.266678 Y19.200014 Z-0.125000
G01 X311.466655 Y17.066680 Z-0.125000
G01 X314.666660 Y14.933347 Z-0.125000
G01 X316.800006 Y19.200014 Z-0.125000
G01 X314.666660 Y22.400014 Z-0.125000
G01 X311.466655 Y24.533347 Z-0.125000
G01 X310.399996 Y28.800014 Z-0.125000
G01 X310.399996 Y33.066681 Z-0.125000
G01 X306.133332 Y32.000014 Z-0.125000
G01 X304.000014 Y34.133347 Z-0.125000
G01 X300.800009 Y35.200014 Z-0.125000
G01 X299.733322 Y36.266681 Z-0.125000
G01 X304.000014 Y38.400014 Z-0.125000
G01 X306.133332 Y38.400014 Z-0.125000
G01 X309.333337 Y38.400014 Z-0.125000
G01 X309.333337 Y41.600014 Z-0.125000
G01 X306.133332 Y46.933347 Z-0.125000
G01 X295.466659 Y48.000014 Z-0.125000
G01 X282.666667 Y48.000014 Z-0.125000
G01 X266.666668 Y46.933347 Z-0.125000
G01 X262.400001 Y52.266680 Z-0.125000
G01 X259.200002 Y53.333348 Z-0.125000
G01 X266.666668 Y53.333348 Z-0.125000
G01 X272.000002 Y55.466679 Z-0.125000
G01 X275.200001 Y56.533347 Z-0.125000
G01 X277.333333 Y58.666682 Z-0.125000
G01 X280.533335 Y59.733346 Z-0.125000
G01 X280.533335 Y61.866681 Z-0.125000
G01 X282.666667 Y64.000013 Z-0.125000
G01 X273.066667 Y70.400014 Z-0.125000
G01 X268.800000 Y77.866680 Z-0.125000
G01 X275.200001 Y82.133347 Z-0.125000
G01 X278.400001 Y83.200014 Z-0.125000
G01 X280.533335 Y84.266681 Z-0.125000
G01 X283.733335 Y84.266681 Z-0.125000
G01 X287.999990 Y80.000015 Z-0.125000
G01 X296.533346 Y76.800015 Z-0.125000
G01 X293.333341 Y74.666681 Z-0.125000
G01 X290.133336 Y71.466681 Z-0.125000
G01 X287.999990 Y71.466681 Z-0.125000
G01 X287.999990 Y68.266679 Z-0.125000
G01 X284.800002 Y67.200015 Z-0.125000
G01 X285.866669 Y65.066680 Z-0.125000
G01 X294.400000 Y60.800013 Z-0.125000
G01 X304.000014 Y58.666682 Z-0.125000
G01 X314.666660 Y58.666682 Z-0.125000
G01 X322.133328 Y56.533347 Z-0.125000
G01 X326.399992 Y51.200013 Z-0.125000
G01 X328.533338 Y51.200013 Z-0.125000
G01 X329.599997 Y53.333348 Z-0.125000
G01 X332.800002 Y54.400015 Z-0.125000
G01 X333.866661 Y58.666682 Z-0.125000
G01 X334.933348 Y57.600014 Z-0.125000
G01 X337.066666 Y55.466679 Z-0.125000
G01 X336.000007 Y50.133347 Z-0.125000
G01 X331.733343 Y49.066681 Z-0.125000
G01 X332.800002 Y44.800014 Z-0.125000
G01 X336.000007 Y42.666681 Z-0.125000
G01 X338.133325 Y46.933347 Z-0.125000
G01 X341.333330 Y42.666681 Z-0.125000
G01 X340.266671 Y37.333347 Z-0.125000
G01 X342.399989 Y34.133347 Z-0.125000
G01 X345.599994 Y30.933347 Z-0.125000
G01 X347.733340 Y28.800014 Z-0.125000
G01 X349.866657 Y26.666680 Z-0.125000
G01 X353.066662 Y24.533347 Z-0.125000
G01 X353.066662 Y20.266681 Z-0.125000
G01 X347.733340 Y21.333347 Z-0.125000
G01 X344.533335 Y23.466681 Z-0.125000
G01 X341.333330 Y25.600014 Z-0.125000
G01 X340.266671 Y28.800014 Z-0.125000
G01 X337.066666 Y30.933347 Z-0.125000
G01 X334.933348 Y34.133347 Z-0.125000
G01 X336.000007 Y38.400014 Z-0.125000
G01 X331.733343 Y38.400014 Z-0.125000
G01 X328.533338 Y41.600014 Z-0.125000
G01 X326.399992 Y45.866681 Z-0.125000
G01 X324.266674 Y49.066681 Z-0.125000
G01 X322.133328 Y48.000014 Z-0.125000
G01 X320.000011 Y45.866681 Z-0.125000
G01 X320.000011 Y42.666681 Z-0.125000
G01 X316.800006 Y44.800014 Z-0.125000
G01 X315.733347 Y42.666681 Z-0.125000
G01 X312.533342 Y41.600014 Z-0.125000
G01 X313.600001 Y38.400014 Z-0.125000
G01 X316.800006 Y36.266681 Z-0.125000
G01 X314.666660 Y32.000014 Z-0.125000
G01 X315.733347 Y27.733347 Z-0.125000
G01 X320.000011 Y24.533347 Z-0.125000
G01 X323.199987 Y22.400014 Z-0.125000
G01 X321.066670 Y18.133347 Z-0.125000
G01 X318.933324 Y13.866681 Z-0.125000
G01 X323.199987 Y12.800014 Z-0.125000
G01 X327.466679 Y12.800014 Z-0.125000
G01 X328.533338 Y10.666680 Z-0.125000
G01 X327.466679 Y5.333347 Z-0.125000
G01 X329.599997 Y4.266681 Z-0.125000
G01 X333.866661 Y6.400014 Z-0.125000
G01 X332.800002 Y9.600014 Z-0.125000
G01 X338.133325 Y8.533347 Z-0.125000
G01 X340.266671 Y7.466681 Z-0.125000
G01 X342.399989 Y8.533347 Z-0.125000
G01 X345.599994 Y8.533347 Z-0.125000
G01 X344.533335 Y3.200014 Z-0.125000
G01 X348.799998 Y2.133347 Z-0.125000
G01 X353.066662 Y1.066680 Z-0.125000
G01 X356.266667 Y0.000014 Z-0.125000
G01 X358.400013 Y3.200014 Z-0.125000
G01 X359.466672 Y5.333347 Z-0.125000
G01 X358.400013 Y8.533347 Z-0.125000
G01 X356.266667 Y4.266681 Z-0.125000
G01 X354.133321 Y5.333347 Z-0.125000
G01 X352.000003 Y6.400014 Z-0.125000
G01 X349.866657 Y7.466681 Z-0.125000
G01 X348.799998 Y8.533347 Z-0.125000
G01 X347.733340 Y10.666680 Z-0.125000
G01 X345.599994 Y11.733347 Z-0.125000
G01 X341.333330 Y12.800014 Z-0.125000
G01 X337.066666 Y13.866681 Z-0.125000
G01 X333.866661 Y16.000014 Z-0.125000
G01 X330.666656 Y18.133347 Z-0.125000
G01 X326.399992 Y18.133347 Z-0.125000
G01 X328.533338 Y23.466681 Z-0.125000
G01 X326.399992 Y27.733347 Z-0.125000
G01 X322.133328 Y28.800014 Z-0.125000
G01 X320.000011 Y30.933347 Z-0.125000
G01 X321.066670 Y36.266681 Z-0.125000
G01 X323.199987 Y40.533347 Z-0.125000
G01 X325.333333 Y36.266681 Z-0.125000
G01 X326.399992 Y34.133347 Z-0.125000
G01 X329.599997 Y32.000014 Z-0.125000
G01 X331.733343 Y28.800014 Z-0.125000
G01 X333.866661 Y25.600014 Z-0.125000
G01 X332.800002 Y22.400014 Z-0.125000
G01 X337.066666 Y21.333347 Z-0.125000
G01 X340.266671 Y19.200014 Z-0.125000
G01 X343.466676 Y17.066680 Z-0.125000
G01 X347.733340 Y17.066680 Z-0.125000
G01 X350.933344 Y13.866681 Z-0.125000
G01 X352.000003 Y12.800014 Z-0.125000
G01 X355.200008 Y11.733347 Z-0.125000
G01 X357.333326 Y10.666680 Z-0.125000
G01 X355.200008 Y14.933347 Z-0.125000
G01 X358.400013 Y16.000014 Z-0.125000
G01 X361.599990 Y17.066680 Z-0.125000
G01 X364.799995 Y18.133347 Z-0.125000
G01 X361.599990 Y21.333347 Z-0.125000
G01 X357.333326 Y21.333347 Z-0.125000
G01 X358.400013 Y25.600014 Z-0.125000
G01 X356.266667 Y29.866681 Z-0.125000
G01 X354.133321 Y32.000014 Z-0.125000
G01 X352.000003 Y34.133347 Z-0.125000
G01 X347.733340 Y36.266681 Z-0.125000
G01 X345.599994 Y39.466681 Z-0.125000
G01 X347.733340 Y43.733347 Z-0.125000
G01 X346.666681 Y45.866681 Z-0.125000
G01 X343.466676 Y48.000014 Z-0.125000
G01 X341.333330 Y52.266680 Z-0.125000
G01 X342.399989 Y55.466679 Z-0.125000
G01 X346.666681 Y53.333348 Z-0.125000
G01 X348.799998 Y50.133347 Z-0.125000
G01 X354.133321 Y49.066681 Z-0.125000
G01 X357.333326 Y46.933347 Z-0.125000
G01 X357.333326 Y42.666681 Z-0.125000
G01 X352.000003 Y43.733347 Z-0.125000
G01 X352.000003 Y39.466681 Z-0.125000
G01 X356.266667 Y38.400014 Z-0.125000
G01 X359.466672 Y35.200014 Z-0.125000
G01 X361.599990 Y30.933347 Z-0.125000
G01 X363.733336 Y27.733347 Z-0.125000
G01 X365.866682 Y24.533347 Z-0.125000
G01 X368.000000 Y21.333347 Z-0.125000
G01 X369.066659 Y20.266681 Z-0.125000
G01 X372.266663 Y22.400014 Z-0.125000
G01 X375.466668 Y24.533347 Z-0.125000
G01 X371.200005 Y26.666680 Z-0.125000
G01 X369.066659 Y29.866681 Z-0.125000
G01 X368.000000 Y33.066681 Z-0.125000
G01 X364.799995 Y35.200014 Z-0.125000
G01 X364.799995 Y39.466681 Z-0.125000
G01 X361.599990 Y41.600014 Z-0.125000
G01 X362.666677 Y46.933347 Z-0.125000
G01 X366.933341 Y44.800014 Z-0.125000
G01 X370.133346 Y42.666681 Z-0.125000
G01 X370.133346 Y38.400014 Z-0.125000
G01 X373.333322 Y35.200014 Z-0.125000
G01 X375.466668 Y30.933347 Z-0.125000
G01 X376.533327 Y27.733347 Z-0.125000
G01 X378.666673 Y27.733347 Z-0.125000
G01 X379.733332 Y30.933347 Z-0.125000
G01 X380.799991 Y34.133347 Z-0.125000
G01 X381.866678 Y37.333347 Z-0.125000
G01 X377.600014 Y36.266681 Z-0.125000
G01 X375.466668 Y40.533347 Z-0.125000
G01 X375.466668 Y44.800014 Z-0.125000
G01 X373.333322 Y48.000014 Z-0.125000
G01 X369.066659 Y49.066681 Z-0.125000
G01 X366.933341 Y51.200013 Z-0.125000
G01 X363.733336 Y52.266680 Z-0.125000
G01 X359.466672 Y52.266680 Z-0.125000
G01 X355.200008 Y53.333348 Z-0.125000
G01 X352.000003 Y55.466679 Z-0.125000
G01 X347.733340 Y58.666682 Z-0.125000
G01 X346.666681 Y64.000013 Z-0.125000
G01 X349.866657 Y62.933348 Z-0.125000
G01 X353.066662 Y60.800013 Z-0.125000
G01 X356.266667 Y59.733346 Z-0.125000
G01 X359.466672 Y57.600014 Z-0.125000
G01 X363.733336 Y57.600014 Z-0.125000
G01 X368.000000 Y57.600014 Z-0.125000
G01 X371.200005 Y56.533347 Z-0.125000
G01 X374.400009 Y54.400015 Z-0.125000
G01 X378.666673 Y55.466679 Z-0.125000
G01 X377.600014 Y51.200013 Z-0.125000
G01 X380.799991 Y49.066681 Z-0.125000
G01 X379.733332 Y43.733347 Z-0.125000
G01 X381.866678 Y41.600014 Z-0.125000
G01 X383.999996 Y39.466681 Z-0.125000
G01 X385.066655 Y41.600014 Z-0.125000
G01 X385.066655 Y44.800014 Z-0.125000
G01 X385.066655 Y48.000014 Z-0.125000
G01 X385.066655 Y51.200013 Z-0.125000
G01 X385.066655 Y53.333348 Z-0.125000
G01 X382.933337 Y54.400015 Z-0.125000
G01 X386.133342 Y56.533347 Z-0.125000
G01 X383.999996 Y58.666682 Z-0.125000
G01 X381.866678 Y60.800013 Z-0.125000
G01 X379.733332 Y62.933348 Z-0.125000
G01 X376.533327 Y59.733346 Z-0.125000
G01 X373.333322 Y61.866681 Z-0.125000
G01 X370.133346 Y64.000013 Z-0.125000
G01 X365.866682 Y62.933348 Z-0.125000
G01 X361.599990 Y62.933348 Z-0.125000
G01 X358.400013 Y65.066680 Z-0.125000
G01 X360.533331 Y69.333347 Z-0.125000
G01 X364.799995 Y68.266679 Z-0.125000
G01 X369.066659 Y68.266679 Z-0.125000
G01 X369.066659 Y72.533349 Z-0.125000
G01 X364.799995 Y73.600013 Z-0.125000
G01 X361.599990 Y74.666681 Z-0.125000
G01 X359.466672 Y76.800015 Z-0.125000
G01 X354.133321 Y74.666681 Z-0.125000
G01 X355.200008 Y70.400014 Z-0.125000
G01 X354.133321 Y67.200015 Z-0.125000
G01 X349.866657 Y69.333347 Z-0.125000
G01 X348.799998 Y72.533349 Z-0.125000
G01 X346.666681 Y72.533349 Z-0.125000
G01 X345.599994 Y69.333347 Z-0.125000
G01 X343.466676 Y68.266679 Z-0.125000
G01 X342.399989 Y65.066680 Z-0.125000
G01 X340.266671 Y65.066680 Z-0.125000
G01 X341.333330 Y59.733346 Z-0.125000
G01 X339.200012 Y61.866681 Z-0.125000
G01 X337.066666 Y60.800013 Z-0.125000
G01 X330.666656 Y67.200015 Z-0.125000
G01 X321.066670 Y68.266679 Z-0.125000
G01 X311.466655 Y69.333347 Z-0.125000
G01 X308.266678 Y73.600013 Z-0.125000
G01 X311.466655 Y80.000015 Z-0.125000
G01 X308.266678 Y81.066682 Z-0.125000
G01 X306.133332 Y82.133347 Z-0.125000
G01 X304.000014 Y83.200014 Z-0.125000
G01 X301.866668 Y84.266681 Z-0.125000
G01 X298.666663 Y85.333349 Z-0.125000
G01 X297.600005 Y86.400013 Z-0.125000
G01 X294.400000 Y86.400013 Z-0.125000
G01 X291.199995 Y86.400013 Z-0.125000
G01 X287.999990 Y85.333349 Z-0.125000
G01 X285.866669 Y86.400013 Z-0.125000
G01 X281.600003 Y93.866682 Z-0.125000
G01 X281.600003 Y102.400015 Z-0.125000
G01 X286.933334 Y112.000013 Z-0.125000
G01 X292.266682 Y123.733348 Z-0.125000
G01 X292.266682 Y132.266682 Z-0.125000
G01 X298.666663 Y142.933347 Z-0.125000
G01 X287.999990 Y142.933347 Z-0.125000
G01 X281.600003 Y146.133349 Z-0.125000
G01 X276.266669 Y130.133347 Z-0.125000
G01 X274.133334 Y120.533349 Z-0.125000
G01 X274.133334 Y113.066680 Z-0.125000
G01 X268.800000 Y102.400015 Z-0.125000
G01 X268.800000 Y90.666680 Z-0.125000
G01 X256.000000 Y89.600015 Z-0.125000
G01 X256.000000 Y76.800015 Z-0.125000
G01 X246.400002 Y77.866680 Z-0.125000
G01 X242.133336 Y88.533348 Z-0.125000
G01 X240.000001 Y88.533348 Z-0.125000
G01 X237.866669 Y88.533348 Z-0.125000
G01 X236.800002 Y85.333349 Z-0.125000
G01 X234.666667 Y90.666680 Z-0.125000
G01 X230.400000 Y91.733347 Z-0.125000
G01 X226.133334 Y91.733347 Z-0.125000
G01 X222.933334 Y93.866682 Z-0.125000
G01 X220.800000 Y97.066681 Z-0.125000
G01 X218.666668 Y100.266680 Z-0.125000
G01 X215.466669 Y102.400015 Z-0.125000
G01 X211.200002 Y103.466680 Z-0.125000
G01 X210.133335 Y107.733346 Z-0.125000
G01 X214.400001 Y107.733346 Z-0.125000
G01 X218.666668 Y107.733346 Z-0.125000
G01 X220.800000 Y104.533347 Z-0.125000
G01 X225.066666 Y103.466680 Z-0.125000
G01 X226.133334 Y99.200013 Z-0.125000
G01 X229.333336 Y97.066681 Z-0.125000
G01 X233.600002 Y98.133349 Z-0.125000
G01 X235.733334 Y96.000014 Z-0.125000
G01 X238.933334 Y94.933346 Z-0.125000
G01 X242.133336 Y92.800015 Z-0.125000
G01 X244.266668 Y91.733347 Z-0.125000
G01 X246.400002 Y94.933346 Z-0.125000
G01 X248.533334 Y96.000014 Z-0.125000
G01 X245.333335 Y98.133349 Z-0.125000
G01 X242.133336 Y100.266680 Z-0.125000
G01 X237.866669 Y101.333348 Z-0.125000
G01 X235.733334 Y104.533347 Z-0.125000
G01 X230.400000 Y102.400015 Z-0.125000
G01 X231.466668 Y106.666682 Z-0.125000
G01 X227.200001 Y107.733346 Z-0.125000
G01 X224.000002 Y109.866681 Z-0.125000
G01 X221.866667 Y113.066680 Z-0.125000
G01 X217.600000 Y113.066680 Z-0.125000
G01 X213.333334 Y113.066680 Z-0.125000
G01 X210.133335 Y115.200015 Z-0.125000
G01 X206.933335 Y117.333347 Z-0.125000
G01 X204.800001 Y120.533349 Z-0.125000
G01 X202.666669 Y123.733348 Z-0.125000
G01 X198.400002 Y123.733348 Z-0.125000
G01 X196.266667 Y125.866680 Z-0.125000
G01 X194.133335 Y128.000015 Z-0.125000
G01 X192.000001 Y131.200014 Z-0.125000
G01 X188.800001 Y132.266682 Z-0.125000
G01 X190.933333 Y135.466681 Z-0.125000
G01 X187.733334 Y136.533348 Z-0.125000
G01 X185.600002 Y137.600016 Z-0.125000
G01 X184.533335 Y133.333349 Z-0.125000
G01 X180.266668 Y134.400013 Z-0.125000
G01 X182.400000 Y138.666680 Z-0.125000
G01 X181.333336 Y141.866682 Z-0.125000
G01 X178.133333 Y141.866682 Z-0.125000
G01 X178.133333 Y145.066681 Z-0.125000
G01 X178.133333 Y149.333348 Z-0.125000
G01 X180.266668 Y148.266681 Z-0.125000
G01 X181.333336 Y147.200013 Z-0.125000
G01 X185.600002 Y147.200013 Z-0.125000
G01 X187.733334 Y142.933347 Z-0.125000
G01 X192.000001 Y141.866682 Z-0.125000
G01 X195.200000 Y139.733347 Z-0.125000
G01 X194.133335 Y135.466681 Z-0.125000
G01 X196.266667 Y134.400013 Z-0.125000
G01 X198.400002 Y134.400013 Z-0.125000
G01 X200.533334 Y131.200014 Z-0.125000
G01 X203.733333 Y129.066682 Z-0.125000
G01 X208.000000 Y129.066682 Z-0.125000
G01 X209.066667 Y124.800016 Z-0.125000
G01 X211.200002 Y121.600014 Z-0.125000
G01 X214.400001 Y119.466682 Z-0.125000
G01 X217.600000 Y117.333347 Z-0.125000
G01 X222.933334 Y119.466682 Z-0.125000
G01 X226.133334 Y117.333347 Z-0.125000
G01 X228.266668 Y114.133348 Z-0.125000
G01 X231.466668 Y112.000013 Z-0.125000
G01 X235.733334 Y109.866681 Z-0.125000
G01 X240.000001 Y109.866681 Z-0.125000
G01 X241.066668 Y106.666682 Z-0.125000
G01 X244.266668 Y104.533347 Z-0.125000
G01 X248.533334 Y103.466680 Z-0.125000
G01 X249.600002 Y99.200013 Z-0.125000
G01 X251.733333 Y101.333348 Z-0.125000
G01 X252.800001 Y104.533347 Z-0.125000
G01 X256.000000 Y106.666682 Z-0.125000
G01 X254.933335 Y108.800014 Z-0.125000
G01 X250.666669 Y107.733346 Z-0.125000
G01 X247.466667 Y109.866681 Z-0.125000
G01 X245.333335 Y112.000013 Z-0.125000
G01 X244.266668 Y115.200015 Z-0.125000
G01 X240.000001 Y115.200015 Z-0.125000
G01 X235.733334 Y115.200015 Z-0.125000
G01 X233.600002 Y118.400014 Z-0.125000
G01 X231.466668 Y120.533349 Z-0.125000
G01 X228.266668 Y122.666681 Z-0.125000
G01 X227.200001 Y125.866680 Z-0.125000
G01 X222.933334 Y126.933348 Z-0.125000
G01 X220.800000 Y122.666681 Z-0.125000
G01 X216.533333 Y123.733348 Z-0.125000
G01 X214.400001 Y126.933348 Z-0.125000
G01 X219.733335 Y129.066682 Z-0.125000
G01 X217.600000 Y132.266682 Z-0.125000
G01 X212.266666 Y130.133347 Z-0.125000
G01 X211.200002 Y134.400013 Z-0.125000
G01 X210.133335 Y136.533348 Z-0.125000
G01 X206.933335 Y134.400013 Z-0.125000
G01 X205.866668 Y135.466681 Z-0.125000
G01 X203.733333 Y135.466681 Z-0.125000
G01 X201.600001 Y135.466681 Z-0.125000
G01 X200.533334 Y139.733347 Z-0.125000
G01 X202.666669 Y144.000014 Z-0.125000
G01 X205.866668 Y141.866682 Z-0.125000
G01 X210.133335 Y140.800015 Z-0.125000
G01 X210.133335 Y145.066681 Z-0.125000
G01 X208.000000 Y148.266681 Z-0.125000
G01 X205.866668 Y150.400015 Z-0.125000
G01 X201.600001 Y152.533347 Z-0.125000
G01 X197.333335 Y154.666682 Z-0.125000
G01 X196.266667 Y151.466680 Z-0.125000
G01 X199.466667 Y148.266681 Z-0.125000
G01 X198.400002 Y145.066681 Z-0.125000
G01 X194.133335 Y146.133349 Z-0.125000
G01 X190.933333 Y148.266681 Z-0.125000
G01 X190.933333 Y152.533347 Z-0.125000
G01 X194.133335 Y156.800014 Z-0.125000
G01 X190.933333 Y158.933349 Z-0.125000
G01 X186.666667 Y160.000013 Z-0.125000
G01 X184.533335 Y160.000013 Z-0.125000
G01 X182.400000 Y156.800014 Z-0.125000
G01 X185.600002 Y156.800014 Z-0.125000
G01 X186.666667 Y152.533347 Z-0.125000
G01 X181.333336 Y152.533347 Z-0.125000
G01 X180.266668 Y153.600015 Z-0.125000
G01 X178.133333 Y156.800014 Z-0.125000
G01 X177.066669 Y161.066681 Z-0.125000
G01 X176.000002 Y166.400015 Z-0.125000
G01 X172.799999 Y169.600014 Z-0.125000
G01 X173.866667 Y174.933348 Z-0.125000
G01 X168.533333 Y176.000015 Z-0.125000
G01 X167.466668 Y179.200014 Z-0.125000
G01 X162.133334 Y179.200014 Z-0.125000
G01 X157.866668 Y180.266682 Z-0.125000
G01 X158.933335 Y182.400014 Z-0.125000
G01 X156.800000 Y184.533348 Z-0.125000
G01 X160.000000 Y185.600016 Z-0.125000
G01 X158.933335 Y188.800015 Z-0.125000
G01 X164.266666 Y190.933347 Z-0.125000
G01 X165.333334 Y185.600016 Z-0.125000
G01 X169.600000 Y184.533348 Z-0.125000
G01 X174.933334 Y182.400014 Z-0.125000
G01 X179.200001 Y179.200014 Z-0.125000
G01 X181.333336 Y184.533348 Z-0.125000
G01 X180.266668 Y188.800015 Z-0.125000
G01 X176.000002 Y189.866682 Z-0.125000
G01 X170.666668 Y190.933347 Z-0.125000
G01 X170.666668 Y195.200014 Z-0.125000
G01 X171.733335 Y198.400016 Z-0.125000
G01 X173.866667 Y203.733347 Z-0.125000
G01 X171.733335 Y208.000013 Z-0.125000
G01 X168.533333 Y211.200016 Z-0.125000
G01 X168.533333 Y215.466682 Z-0.125000
G01 X169.600000 Y219.733349 Z-0.125000
G01 X176.000002 Y218.666681 Z-0.125000
G01 X176.000002 Y214.400015 Z-0.125000
G01 X178.133333 Y210.133348 Z-0.125000
G01 X180.266668 Y204.800014 Z-0.125000
G01 X181.333336 Y202.666682 Z-0.125000
G01 X184.533335 Y198.400016 Z-0.125000
G01 X178.133333 Y196.266681 Z-0.125000
G01 X182.400000 Y194.133349 Z-0.125000
G01 X188.800001 Y194.133349 Z-0.125000
G01 X186.666667 Y188.800015 Z-0.125000
G01 X187.733334 Y185.600016 Z-0.125000
G01 X192.000001 Y184.533348 Z-0.125000
G01 X195.200000 Y181.333349 Z-0.125000
G01 X197.333335 Y179.200014 Z-0.125000
G01 X199.466667 Y180.266682 Z-0.125000
G01 X199.466667 Y183.466681 Z-0.125000
G01 X199.466667 Y186.666680 Z-0.125000
G01 X201.600001 Y187.733348 Z-0.125000
G01 X203.733333 Y184.533348 Z-0.125000
G01 X204.800001 Y181.333349 Z-0.125000
G01 X205.866668 Y176.000015 Z-0.125000
G01 X206.933335 Y173.866680 Z-0.125000
G01 X206.933335 Y169.600014 Z-0.125000
G01 X210.133335 Y167.466682 Z-0.125000
G01 X213.333334 Y165.333347 Z-0.125000
G01 X216.533333 Y163.200015 Z-0.125000
G01 X216.533333 Y158.933349 Z-0.125000
G01 X212.266666 Y158.933349 Z-0.125000
G01 X209.066667 Y161.066681 Z-0.125000
G01 X205.866668 Y163.200015 Z-0.125000
G01 X202.666669 Y165.333347 Z-0.125000
G01 X200.533334 Y168.533346 Z-0.125000
G01 X199.466667 Y170.666681 Z-0.125000
G01 X201.600001 Y176.000015 Z-0.125000
G01 X197.333335 Y176.000015 Z-0.125000
G01 X195.200000 Y174.933348 Z-0.125000
G01 X195.200000 Y171.733349 Z-0.125000
G01 X194.133335 Y169.600014 Z-0.125000
G01 X190.933333 Y172.800016 Z-0.125000
G01 X188.800001 Y178.133347 Z-0.125000
G01 X184.533335 Y179.200014 Z-0.125000
G01 X185.600002 Y172.800016 Z-0.125000
G01 X179.200001 Y172.800016 Z-0.125000
G01 X181.333336 Y167.466682 Z-0.125000
G01 X184.533335 Y165.333347 Z-0.125000
G01 X188.800001 Y164.266680 Z-0.125000
G01 X189.866669 Y163.200015 Z-0.125000
G01 X190.933333 Y168.533346 Z-0.125000
G01 X192.000001 Y166.400015 Z-0.125000
G01 X195.200000 Y164.266680 Z-0.125000
G01 X197.333335 Y162.133348 Z-0.125000
G01 X200.533334 Y160.000013 Z-0.125000
G01 X203.733333 Y157.866681 Z-0.125000
G01 X206.933335 Y155.733347 Z-0.125000
G01 X211.200002 Y153.600015 Z-0.125000
G01 X213.333334 Y150.400015 Z-0.125000
G01 X215.466669 Y146.133349 Z-0.125000
G01 X219.733335 Y149.333348 Z-0.125000
G01 X217.600000 Y153.600015 Z-0.125000
G01 X219.733335 Y157.866681 Z-0.125000
G01 X221.866667 Y154.666682 Z-0.125000
G01 X225.066666 Y152.533347 Z-0.125000
G01 X227.200001 Y150.400015 Z-0.125000
G01 X230.400000 Y148.266681 Z-0.125000
G01 X231.466668 Y142.933347 Z-0.125000
G01 X234.666667 Y138.666680 Z-0.125000
G01 X231.466668 Y137.600016 Z-0.125000
G01 X232.533335 Y135.466681 Z-0.125000
G01 X228.266668 Y136.533348 Z-0.125000
G01 X227.200001 Y137.600016 Z-0.125000
G01 X226.133334 Y141.866682 Z-0.125000
G01 X225.066666 Y144.000014 Z-0.125000
G01 X221.866667 Y146.133349 Z-0.125000
G01 X219.733335 Y141.866682 Z-0.125000
G01 X215.466669 Y141.866682 Z-0.125000
G01 X213.333334 Y136.533348 Z-0.125000
G01 X215.466669 Y135.466681 Z-0.125000
G01 X217.600000 Y136.533348 Z-0.125000
G01 X219.733335 Y136.533348 Z-0.125000
G01 X221.866667 Y136.533348 Z-0.125000
G01 X224.000002 Y136.533348 Z-0.125000
G01 X224.000002 Y133.333349 Z-0.125000
G01 X227.200001 Y131.200014 Z-0.125000
G01 X231.466668 Y130.133347 Z-0.125000
G01 X233.600002 Y126.933348 Z-0.125000
G01 X236.800002 Y123.733348 Z-0.125000
G01 X238.933334 Y120.533349 Z-0.125000
G01 X243.200000 Y120.533349 Z-0.125000
G01 X247.466667 Y120.533349 Z-0.125000
G01 X250.666669 Y118.400014 Z-0.125000
G01 X251.733333 Y115.200015 Z-0.125000
G01 X253.866668 Y113.066680 Z-0.125000
G01 X256.000000 Y112.000013 Z-0.125000
G01 X258.133335 Y115.200015 Z-0.125000
G01 X258.133335 Y118.400014 Z-0.125000
G01 X259.200002 Y120.533349 Z-0.125000
G01 X256.000000 Y121.600014 Z-0.125000
G01 X252.800001 Y123.733348 Z-0.125000
G01 X249.600002 Y125.866680 Z-0.125000
G01 X245.333335 Y125.866680 Z-0.125000
G01 X242.133336 Y126.933348 Z-0.125000
G01 X237.866669 Y128.000015 Z-0.125000
G01 X236.800002 Y132.266682 Z-0.125000
G01 X236.800002 Y136.533348 Z-0.125000
G01 X238.933334 Y138.666680 Z-0.125000
G01 X241.066668 Y137.600016 Z-0.125000
G01 X242.133336 Y134.400013 Z-0.125000
G01 X243.200000 Y132.266682 Z-0.125000
G01 X247.466667 Y131.200014 Z-0.125000
G01 X251.733333 Y131.200014 Z-0.125000
G01 X254.933335 Y129.066682 Z-0.125000
G01 X258.133335 Y126.933348 Z-0.125000
G01 X260.266667 Y123.733348 Z-0.125000
G01 X261.333334 Y126.933348 Z-0.125000
G01 X262.400001 Y130.133347 Z-0.125000
G01 X264.533333 Y133.333349 Z-0.125000
G01 X263.466669 Y134.400013 Z-0.125000
G01 X260.266667 Y133.333349 Z-0.125000
G01 X257.066667 Y134.400013 Z-0.125000
G01 X253.866668 Y136.533348 Z-0.125000
G01 X249.600002 Y136.533348 Z-0.125000
G01 X249.600002 Y139.733347 Z-0.125000
G01 X245.333335 Y138.666680 Z-0.125000
G01 X244.266668 Y140.800015 Z-0.125000
G01 X241.066668 Y144.000014 Z-0.125000
G01 X236.800002 Y144.000014 Z-0.125000
G01 X234.666667 Y148.266681 Z-0.125000
G01 X238.933334 Y149.333348 Z-0.125000
G01 X243.200000 Y148.266681 Z-0.125000
G01 X246.400002 Y146.133349 Z-0.125000
G01 X250.666669 Y146.133349 Z-0.125000
G01 X253.866668 Y142.933347 Z-0.125000
G01 X257.066667 Y140.800015 Z-0.125000
G01 X261.333334 Y139.733347 Z-0.125000
G01 X264.533333 Y137.600016 Z-0.125000
G01 X265.600001 Y140.800015 Z-0.125000
G01 X265.600001 Y144.000014 Z-0.125000
G01 X267.733335 Y146.133349 Z-0.125000
G01 X269.866667 Y149.333348 Z-0.125000
G01 X267.733335 Y149.333348 Z-0.125000
G01 X263.466669 Y149.333348 Z-0.125000
G01 X261.333334 Y145.066681 Z-0.125000
G01 X257.066667 Y146.133349 Z-0.125000
G01 X254.933335 Y149.333348 Z-0.125000
G01 X249.600002 Y151.466680 Z-0.125000
G01 X248.533334 Y153.600015 Z-0.125000
G01 X244.266668 Y153.600015 Z-0.125000
G01 X242.133336 Y155.733347 Z-0.125000
G01 X242.133336 Y160.000013 Z-0.125000
G01 X240.000001 Y163.200015 Z-0.125000
G01 X236.800002 Y165.333347 Z-0.125000
G01 X235.733334 Y168.533346 Z-0.125000
G01 X233.600002 Y171.733349 Z-0.125000
G01 X232.533335 Y177.066683 Z-0.125000
G01 X236.800002 Y177.066683 Z-0.125000
G01 X238.933334 Y174.933348 Z-0.125000
G01 X241.066668 Y170.666681 Z-0.125000
G01 X243.200000 Y168.533346 Z-0.125000
G01 X245.333335 Y165.333347 Z-0.125000
G01 X247.466667 Y163.200015 Z-0.125000
G01 X247.466667 Y158.933349 Z-0.125000
G01 X251.733333 Y160.000013 Z-0.125000
G01 X253.866668 Y157.866681 Z-0.125000
G01 X254.933335 Y153.600015 Z-0.125000
G01 X260.266667 Y151.466680 Z-0.125000
G01 X260.266667 Y155.733347 Z-0.125000
G01 X259.200002 Y158.933349 Z-0.125000
G01 X258.133335 Y163.200015 Z-0.125000
G01 X253.866668 Y165.333347 Z-0.125000
G01 X252.800001 Y167.466682 Z-0.125000
G01 X249.600002 Y169.600014 Z-0.125000
G01 X247.466667 Y173.866680 Z-0.125000
G01 X244.266668 Y176.000015 Z-0.125000
G01 X244.266668 Y180.266682 Z-0.125000
G01 X240.000001 Y181.333349 Z-0.125000
G01 X240.000001 Y185.600016 Z-0.125000
G01 X241.066668 Y189.866682 Z-0.125000
G01 X237.866669 Y192.000014 Z-0.125000
G01 X235.733334 Y195.200014 Z-0.125000
G01 X243.200000 Y195.200014 Z-0.125000
G01 X241.066668 Y197.333348 Z-0.125000
G01 X238.933334 Y200.533348 Z-0.125000
G01 X234.666667 Y201.600015 Z-0.125000
G01 X232.533335 Y197.333348 Z-0.125000
G01 X229.333336 Y200.533348 Z-0.125000
G01 X227.200001 Y203.733347 Z-0.125000
G01 X227.200001 Y208.000013 Z-0.125000
G01 X224.000002 Y210.133348 Z-0.125000
G01 X221.866667 Y212.266680 Z-0.125000
G01 X222.933334 Y217.600014 Z-0.125000
G01 X220.800000 Y220.800013 Z-0.125000
G01 X219.733335 Y225.066683 Z-0.125000
G01 X221.866667 Y230.400014 Z-0.125000
G01 X225.066666 Y228.266682 Z-0.125000
G01 X227.200001 Y226.133347 Z-0.125000
G01 X226.133334 Y222.933348 Z-0.125000
G01 X227.200001 Y217.600014 Z-0.125000
G01 X228.266668 Y215.466682 Z-0.125000
G01 X230.400000 Y213.333347 Z-0.125000
G01 X232.533335 Y210.133348 Z-0.125000
G01 X232.533335 Y205.866682 Z-0.125000
G01 X236.800002 Y206.933349 Z-0.125000
G01 X240.000001 Y204.800014 Z-0.125000
G01 X244.266668 Y203.733347 Z-0.125000
G01 X246.400002 Y200.533348 Z-0.125000
G01 X249.600002 Y198.400016 Z-0.125000
G01 X251.733333 Y194.133349 Z-0.125000
G01 X246.400002 Y193.066682 Z-0.125000
G01 X246.400002 Y188.800015 Z-0.125000
G01 X245.333335 Y185.600016 Z-0.125000
G01 X249.600002 Y183.466681 Z-0.125000
G01 X249.600002 Y179.200014 Z-0.125000
G01 X251.733333 Y174.933348 Z-0.125000
G01 X254.933335 Y172.800016 Z-0.125000
G01 X259.200002 Y171.733349 Z-0.125000
G01 X260.266667 Y167.466682 Z-0.125000
G01 X263.466669 Y165.333347 Z-0.125000
G01 X268.800000 Y164.266680 Z-0.125000
G01 X264.533333 Y161.066681 Z-0.125000
G01 X265.600001 Y156.800014 Z-0.125000
G01 X266.666668 Y154.666682 Z-0.125000
G01 X269.866667 Y153.600015 Z-0.125000
G01 X272.000002 Y154.666682 Z-0.125000
G01 X272.000002 Y157.866681 Z-0.125000
G01 X270.933335 Y161.066681 Z-0.125000
G01 X274.133334 Y161.066681 Z-0.125000
G01 X274.133334 Y164.266680 Z-0.125000
G01 X277.333333 Y164.266680 Z-0.125000
G01 X280.533335 Y164.266680 Z-0.125000
G01 X283.733335 Y164.266680 Z-0.125000
G01 X286.933334 Y165.333347 Z-0.125000
G01 X287.999990 Y164.266680 Z-0.125000
G01 X291.199995 Y164.266680 Z-0.125000
G01 X291.199995 Y156.800014 Z-0.125000
G01 X294.400000 Y164.266680 Z-0.125000
G01 X297.600005 Y165.333347 Z-0.125000
G01 X299.733322 Y164.266680 Z-0.125000
G01 X302.933327 Y165.333347 Z-0.125000
G01 X305.066673 Y164.266680 Z-0.125000
G01 X305.066673 Y155.733347 Z-0.125000
G01 X314.666660 Y151.466680 Z-0.125000
G01 X310.399996 Y141.866682 Z-0.125000
G01 X308.266678 Y135.466681 Z-0.125000
G01 X306.133332 Y125.866680 Z-0.125000
G01 X302.933327 Y117.333347 Z-0.125000
G01 X298.666663 Y106.666682 Z-0.125000
G01 X300.800009 Y101.333348 Z-0.125000
G01 X310.399996 Y101.333348 Z-0.125000
G01 X315.733347 Y96.000014 Z-0.125000
G01 X321.066670 Y90.666680 Z-0.125000
G01 X314.666660 Y81.066682 Z-0.125000
G01 X315.733347 Y80.000015 Z-0.125000
G01 X317.866665 Y78.933347 Z-0.125000
G01 X320.000011 Y78.933347 Z-0.125000
G01 X322.133328 Y77.866680 Z-0.125000
G01 X324.266674 Y77.866680 Z-0.125000
G01 X326.399992 Y76.800015 Z-0.125000
G01 X329.599997 Y76.800015 Z-0.125000
G01 X331.733343 Y75.733348 Z-0.125000
G01 X334.933348 Y75.733348 Z-0.125000
G01 X338.133325 Y76.800015 Z-0.125000
G01 X339.200012 Y75.733348 Z-0.125000
G01 X342.399989 Y75.733348 Z-0.125000
G01 X344.533335 Y75.733348 Z-0.125000
G01 X347.733340 Y76.800015 Z-0.125000
G01 X349.866657 Y75.733348 Z-0.125000
G01 X352.000003 Y77.866680 Z-0.125000
G01 X354.133321 Y78.933347 Z-0.125000
G01 X355.200008 Y81.066682 Z-0.125000
G01 X358.400013 Y81.066682 Z-0.125000
G01 X358.400013 Y84.266681 Z-0.125000
G01 X350.933344 Y86.400013 Z-0.125000
G01 X342.399989 Y87.466681 Z-0.125000
G01 X338.133325 Y92.800015 Z-0.125000
G01 X336.000007 Y98.133349 Z-0.125000
G01 X328.533338 Y101.333348 Z-0.125000
G01 X323.199987 Y106.666682 Z-0.125000
G01 X315.733347 Y110.933348 Z-0.125000
G01 X312.533342 Y116.266680 Z-0.125000
G01 X316.800006 Y124.800016 Z-0.125000
G01 X327.466679 Y124.800016 Z-0.125000
G01 X328.533338 Y117.333347 Z-0.125000
G01 X334.933348 Y114.133348 Z-0.125000
G01 X339.200012 Y110.933348 Z-0.125000
G01 X343.466676 Y107.733346 Z-0.125000
G01 X347.733340 Y103.466680 Z-0.125000
G01 X349.866657 Y96.000014 Z-0.125000
G01 X357.333326 Y94.933346 Z-0.125000
G01 X364.799995 Y93.866682 Z-0.125000
G01 X365.866682 Y87.466681 Z-0.125000
G01 X361.599990 Y85.333349 Z-0.125000
G01 X362.666677 Y84.266681 Z-0.125000
G01 X364.799995 Y80.000015 Z-0.125000
G01 X369.066659 Y77.866680 Z-0.125000
G01 X373.333322 Y76.800015 Z-0.125000
G01 X374.400009 Y72.533349 Z-0.125000
G01 X374.400009 Y68.266679 Z-0.125000
G01 X377.600014 Y66.133347 Z-0.125000
G01 X379.733332 Y66.133347 Z-0.125000
G01 X379.733332 Y69.333347 Z-0.125000
G01 X378.666673 Y72.533349 Z-0.125000
G01 X378.666673 Y75.733348 Z-0.125000
G01 X376.533327 Y76.800015 Z-0.125000
G01 X375.466668 Y80.000015 Z-0.125000
G01 X373.333322 Y81.066682 Z-0.125000
G01 X371.200005 Y82.133347 Z-0.125000
G01 X369.066659 Y84.266681 Z-0.125000
G01 X366.933341 Y84.266681 Z-0.125000
G01 X368.000000 Y87.466681 Z-0.125000
G01 X371.200005 Y88.533348 Z-0.125000
G01 X375.466668 Y89.600015 Z-0.125000
G01 X379.733332 Y89.600015 Z-0.125000
G01 X383.999996 Y88.533348 Z-0.125000
G01 X389.333347 Y87.466681 Z-0.125000
G01 X393.600011 Y85.333349 Z-0.125000
G01 X404.266656 Y83.200014 Z-0.125000
G01 X402.133338 Y88.533348 Z-0.125000
G01 X399.999992 Y94.933346 Z-0.125000
G01 X393.600011 Y96.000014 Z-0.125000
G01 X388.266660 Y99.200013 Z-0.125000
G01 X387.200001 Y102.400015 Z-0.125000
G01 X381.866678 Y106.666682 Z-0.125000
G01 X377.600014 Y98.133349 Z-0.125000
G01 X370.133346 Y101.333348 Z-0.125000
G01 X362.666677 Y103.466680 Z-0.125000
G01 X357.333326 Y105.600014 Z-0.125000
G01 X355.200008 Y113.066680 Z-0.125000
G01 X352.000003 Y118.400014 Z-0.125000
G01 X347.733340 Y122.666681 Z-0.125000
G01 X341.333330 Y125.866680 Z-0.125000
G01 X339.200012 Y130.133347 Z-0.125000
G01 X338.133325 Y136.533348 Z-0.125000
G01 X327.466679 Y134.400013 Z-0.125000
G01 X318.933324 Y135.466681 Z-0.125000
G01 X322.133328 Y145.066681 Z-0.125000
G01 X327.466679 Y146.133349 Z-0.125000
G01 X330.666656 Y146.133349 Z-0.125000
G01 X334.933348 Y146.133349 Z-0.125000
G01 X339.200012 Y144.000014 Z-0.125000
G01 X340.266671 Y147.200013 Z-0.125000
G01 X345.599994 Y146.133349 Z-0.125000
G01 X349.866657 Y146.133349 Z-0.125000
G01 X353.066662 Y146.133349 Z-0.125000
G01 X356.266667 Y145.066681 Z-0.125000
G01 X359.466672 Y146.133349 Z-0.125000
G01 X361.599990 Y145.066681 Z-0.125000
G01 X353.066662 Y138.666680 Z-0.125000
G01 X354.133321 Y133.333349 Z-0.125000
G01 X358.400013 Y129.066682 Z-0.125000
G01 X362.666677 Y123.733348 Z-0.125000
G01 X366.933341 Y121.600014 Z-0.125000
G01 X364.799995 Y114.133348 Z-0.125000
G01 X372.266663 Y113.066680 Z-0.125000
G01 X375.466668 Y109.866681 Z-0.125000
G01 X376.533327 Y121.600014 Z-0.125000
G01 X377.600014 Y129.066682 Z-0.125000
G01 X378.666673 Y135.466681 Z-0.125000
G01 X369.066659 Y132.266682 Z-0.125000
G01 X365.866682 Y138.666680 Z-0.125000
G01 X364.799995 Y144.000014 Z-0.125000
G01 X368.000000 Y145.066681 Z-0.125000
G01 X370.133346 Y144.000014 Z-0.125000
G01 X373.333322 Y142.933347 Z-0.125000
G01 X375.466668 Y142.933347 Z-0.125000
G01 X377.600014 Y141.866682 Z-0.125000
G01 X380.799991 Y142.933347 Z-0.125000
G01 X381.866678 Y141.866682 Z-0.125000
G01 X385.066655 Y141.866682 Z-0.125000
G01 X386.133342 Y140.800015 Z-0.125000
G01 X389.333347 Y140.800015 Z-0.125000
G01 X390.400006 Y139.733347 Z-0.125000
G01 X393.600011 Y139.733347 Z-0.125000
G01 X395.733328 Y138.666680 Z-0.125000
G01 X398.933333 Y137.600016 Z-0.125000
G01 X401.066679 Y137.600016 Z-0.125000
G01 X403.199997 Y134.400013 Z-0.125000
G01 X404.266656 Y137.600016 Z-0.125000
G01 X407.466661 Y136.533348 Z-0.125000
G01 X409.600007 Y135.466681 Z-0.125000
G01 X411.733325 Y135.466681 Z-0.125000
G01 X413.866671 Y134.400013 Z-0.125000
G01 X417.066676 Y134.400013 Z-0.125000
G01 X417.066676 Y136.533348 Z-0.125000
G01 X420.266681 Y135.466681 Z-0.125000
G01 X419.199993 Y132.266682 Z-0.125000
G01 X423.466657 Y134.400013 Z-0.125000
G01 X424.533344 Y133.333349 Z-0.125000
G01 X427.733321 Y133.333349 Z-0.125000
G01 X430.933326 Y133.333349 Z-0.125000
G01 X433.066672 Y133.333349 Z-0.125000
G01 X435.199990 Y133.333349 Z-0.125000
G01 X437.333336 Y133.333349 Z-0.125000
G01 X439.466682 Y132.266682 Z-0.125000
G01 X442.666659 Y133.333349 Z-0.125000
G01 X443.733346 Y132.266682 Z-0.125000
G01 X443.733346 Y129.066682 Z-0.125000
G01 X448.000009 Y132.266682 Z-0.125000
G01 X451.200014 Y133.333349 Z-0.125000
G01 X452.266673 Y132.266682 Z-0.125000
G01 X454.399991 Y132.266682 Z-0.125000
G01 X457.599996 Y132.266682 Z-0.125000
G01 X460.800001 Y133.333349 Z-0.125000
G01 X464.000006 Y133.333349 Z-0.125000
G01 X467.200011 Y133.333349 Z-0.125000
G01 X470.400016 Y133.333349 Z-0.125000
G01 X473.599992 Y133.333349 Z-0.125000
G01 X476.799997 Y134.400013 Z-0.125000
G01 X480.000002 Y134.400013 Z-0.125000
G01 X483.200007 Y135.466681 Z-0.125000
G01 X487.466671 Y136.533348 Z-0.125000
G01 X492.799993 Y137.600016 Z-0.125000
G01 X488.533330 Y131.200014 Z-0.125000
G01 X493.866681 Y122.666681 Z-0.125000
G01 X494.933339 Y120.533349 Z-0.125000
G01 X498.133344 Y122.666681 Z-0.125000
G01 X500.266662 Y121.600014 Z-0.125000
G01 X503.466667 Y122.666681 Z-0.125000
G01 X500.266662 Y132.266682 Z-0.125000
G01 X499.200003 Y138.666680 Z-0.125000
G01 X501.333349 Y148.266681 Z-0.125000
G01 X490.666676 Y148.266681 Z-0.125000
G01 X483.200007 Y152.533347 Z-0.125000
G01 X473.599992 Y153.600015 Z-0.125000
G01 X477.866656 Y142.933347 Z-0.125000
G01 X469.333328 Y144.000014 Z-0.125000
G01 X460.800001 Y144.000014 Z-0.125000
G01 X461.866660 Y151.466680 Z-0.125000
G01 X455.466678 Y153.600015 Z-0.125000
G01 X452.266673 Y144.000014 Z-0.125000
G01 X445.866663 Y152.533347 Z-0.125000
G01 X443.733346 Y145.066681 Z-0.125000
G01 X435.199990 Y145.066681 Z-0.125000
G01 X434.133331 Y151.466680 Z-0.125000
G01 X434.133331 Y156.800014 Z-0.125000
G01 X433.066672 Y162.133348 Z-0.125000
G01 X436.266677 Y163.200015 Z-0.125000
G01 X438.399995 Y162.133348 Z-0.125000
G01 X441.600000 Y162.133348 Z-0.125000
G01 X444.800005 Y163.200015 Z-0.125000
G01 X445.866663 Y162.133348 Z-0.125000
G01 X449.066668 Y163.200015 Z-0.125000
G01 X450.133327 Y161.066681 Z-0.125000
G01 X453.333332 Y163.200015 Z-0.125000
G01 X455.466678 Y162.133348 Z-0.125000
G01 X457.599996 Y162.133348 Z-0.125000
G01 X460.800001 Y162.133348 Z-0.125000
G01 X462.933347 Y162.133348 Z-0.125000
G01 X466.133324 Y163.200015 Z-0.125000
G01 X467.200011 Y161.066681 Z-0.125000
G01 X470.400016 Y162.133348 Z-0.125000
G01 X473.599992 Y161.066681 Z-0.125000
G01 X474.666679 Y163.200015 Z-0.125000
G01 X477.866656 Y162.133348 Z-0.125000
G01 X481.066661 Y163.200015 Z-0.125000
G01 X482.133348 Y162.133348 Z-0.125000
G01 X485.333325 Y162.133348 Z-0.125000
G01 X487.466671 Y162.133348 Z-0.125000
G01 X490.666676 Y162.133348 Z-0.125000
G01 X493.866681 Y163.200015 Z-0.125000
G01 X494.933339 Y162.133348 Z-0.125000
G01 X499.200003 Y157.866681 Z-0.125000
G01 X502.400008 Y162.133348 Z-0.125000
G01 X499.200003 Y162.133348 Z-0.125000
G01 X498.133344 Y163.200015 Z-0.125000
G01 X498.133344 Y171.733349 Z-0.125000
G01 X490.666676 Y172.800016 Z-0.125000
G01 X483.200007 Y173.866680 Z-0.125000
G01 X474.666679 Y172.800016 Z-0.125000
G01 X480.000002 Y181.333349 Z-0.125000
G01 X476.799997 Y187.733348 Z-0.125000
G01 X474.666679 Y195.200014 Z-0.125000
G01 X471.466674 Y199.466680 Z-0.125000
G01 X468.266670 Y204.800014 Z-0.125000
G01 X471.466674 Y212.266680 Z-0.125000
G01 X474.666679 Y212.266680 Z-0.125000
G01 X478.933343 Y213.333347 Z-0.125000
G01 X480.000002 Y209.066681 Z-0.125000
G01 X483.200007 Y203.733347 Z-0.125000
G01 X485.333325 Y198.400016 Z-0.125000
G01 X486.400012 Y190.933347 Z-0.125000
G01 X489.599989 Y185.600016 Z-0.125000
G01 X491.733335 Y181.333349 Z-0.125000
G01 X500.266662 Y180.266682 Z-0.125000
G01 X502.400008 Y188.800015 Z-0.125000
G01 X499.200003 Y194.133349 Z-0.125000
G01 X494.933339 Y198.400016 Z-0.125000
G01 X495.999998 Y206.933349 Z-0.125000
G01 X504.533326 Y205.866682 Z-0.125000
G01 X509.866677 Y201.600015 Z-0.125000
G01 X514.133341 Y198.400016 Z-0.125000
G01 X513.066682 Y189.866682 Z-0.125000
G01 X510.933336 Y181.333349 Z-0.125000
G01 X511.999995 Y177.066683 Z-0.125000
G01 X521.600009 Y174.933348 Z-0.125000
G01 X533.333342 Y177.066683 Z-0.125000
G01 X536.533347 Y184.533348 Z-0.125000
G01 X526.933332 Y185.600016 Z-0.125000
G01 X525.866673 Y190.933347 Z-0.125000
G01 X525.866673 Y198.400016 Z-0.125000
G01 X526.933332 Y206.933349 Z-0.125000
G01 X538.666665 Y202.666682 Z-0.125000
G01 X542.933328 Y197.333348 Z-0.125000
G01 X553.600002 Y196.266681 Z-0.125000
G01 X553.600002 Y188.800015 Z-0.125000
G01 X549.333338 Y180.266682 Z-0.125000
G01 X542.933328 Y167.466682 Z-0.125000
G01 X544.000016 Y166.400015 Z-0.125000
G01 X547.199992 Y166.400015 Z-0.125000
G01 X550.399997 Y168.533346 Z-0.125000
G01 X552.533343 Y168.533346 Z-0.125000
G01 X555.733348 Y168.533346 Z-0.125000
G01 X558.933325 Y169.600014 Z-0.125000
G01 X561.066671 Y169.600014 Z-0.125000
G01 X564.266676 Y170.666681 Z-0.125000
G01 X566.399993 Y170.666681 Z-0.125000
G01 X569.599998 Y170.666681 Z-0.125000
G01 X571.733344 Y172.800016 Z-0.125000
G01 X573.866662 Y171.733349 Z-0.125000
G01 X577.066667 Y172.800016 Z-0.125000
G01 X580.266672 Y172.800016 Z-0.125000
G01 X583.466677 Y173.866680 Z-0.125000
G01 X585.599995 Y172.800016 Z-0.125000
G01 X588.800000 Y173.866680 Z-0.125000
G01 X590.933346 Y173.866680 Z-0.125000
G01 X594.133322 Y174.933348 Z-0.125000
G01 X595.200009 Y173.866680 Z-0.125000
G01 X598.400014 Y173.866680 Z-0.125000
G01 X595.200009 Y168.533346 Z-0.125000
G01 X588.800000 Y156.800014 Z-0.125000
G01 X578.133326 Y157.866681 Z-0.125000
G01 X573.866662 Y165.333347 Z-0.125000
G01 X557.866666 Y155.733347 Z-0.125000
G01 X562.133330 Y150.400015 Z-0.125000
G01 X570.666657 Y145.066681 Z-0.125000
G01 X578.133326 Y142.933347 Z-0.125000
G01 X567.466681 Y131.200014 Z-0.125000
G01 X574.933349 Y126.933348 Z-0.125000
G01 X572.800003 Y119.466682 Z-0.125000
G01 X557.866666 Y117.333347 Z-0.125000
G01 X554.666661 Y107.733346 Z-0.125000
G01 X539.733324 Y108.800014 Z-0.125000
G01 X530.133337 Y113.066680 Z-0.125000
G01 X525.866673 Y118.400014 Z-0.125000
G01 X524.800014 Y125.866680 Z-0.125000
G01 X527.999991 Y124.800016 Z-0.125000
G01 X533.333342 Y125.866680 Z-0.125000
G01 X538.666665 Y124.800016 Z-0.125000
G01 X548.266679 Y120.533349 Z-0.125000
G01 X551.466656 Y129.066682 Z-0.125000
G01 X552.533343 Y137.600016 Z-0.125000
G01 X544.000016 Y140.800015 Z-0.125000
G01 X535.466660 Y142.933347 Z-0.125000
G01 X526.933332 Y148.266681 Z-0.125000
G01 X542.933328 Y153.600015 Z-0.125000
G01 X539.733324 Y160.000013 Z-0.125000
G01 X539.733324 Y165.333347 Z-0.125000
G01 X536.533347 Y165.333347 Z-0.125000
G01 X533.333342 Y164.266680 Z-0.125000
G01 X532.266655 Y165.333347 Z-0.125000
G01 X529.066678 Y164.266680 Z-0.125000
G01 X527.999991 Y165.333347 Z-0.125000
G01 X524.800014 Y163.200015 Z-0.125000
G01 X521.600009 Y163.200015 Z-0.125000
G01 X519.466663 Y164.266680 Z-0.125000
G01 X516.266658 Y163.200015 Z-0.125000
G01 X513.066682 Y163.200015 Z-0.125000
G01 X509.866677 Y163.200015 Z-0.125000
G01 X507.733331 Y163.200015 Z-0.125000
G01 X505.600013 Y163.200015 Z-0.125000
G01 X509.866677 Y157.866681 Z-0.125000
G01 X513.066682 Y150.400015 Z-0.125000
G01 X511.999995 Y145.066681 Z-0.125000
G01 X513.066682 Y136.533348 Z-0.125000
G01 X519.466663 Y133.333349 Z-0.125000
G01 X521.600009 Y124.800016 Z-0.125000
G01 X518.400005 Y124.800016 Z-0.125000
G01 X515.200000 Y124.800016 Z-0.125000
G01 X511.999995 Y123.733348 Z-0.125000
G01 X508.799990 Y123.733348 Z-0.125000
G01 X506.666672 Y123.733348 Z-0.125000
G01 X507.733331 Y117.333347 Z-0.125000
G01 X513.066682 Y112.000013 Z-0.125000
G01 X513.066682 Y104.533347 Z-0.125000
G01 X514.133341 Y100.266680 Z-0.125000
G01 X523.733327 Y99.200013 Z-0.125000
G01 X518.400005 Y91.733347 Z-0.125000
G01 X505.600013 Y88.533348 Z-0.125000
G01 X499.200003 Y91.733347 Z-0.125000
G01 X495.999998 Y96.000014 Z-0.125000
G01 X500.266662 Y103.466680 Z-0.125000
G01 X497.066657 Y108.800014 Z-0.125000
G01 X489.599989 Y113.066680 Z-0.125000
G01 X490.666676 Y119.466682 Z-0.125000
G01 X487.466671 Y120.533349 Z-0.125000
G01 X486.400012 Y118.400014 Z-0.125000
G01 X483.200007 Y118.400014 Z-0.125000
G01 X481.066661 Y118.400014 Z-0.125000
G01 X477.866656 Y117.333347 Z-0.125000
G01 X476.799997 Y118.400014 Z-0.125000
G01 X474.666679 Y124.800016 Z-0.125000
G01 X466.133324 Y124.800016 Z-0.125000
G01 X456.533337 Y128.000015 Z-0.125000
G01 X455.466678 Y121.600014 Z-0.125000
G01 X446.933322 Y121.600014 Z-0.125000
G01 X437.333336 Y119.466682 Z-0.125000
G01 X432.000013 Y120.533349 Z-0.125000
G01 X430.933326 Y126.933348 Z-0.125000
G01 X424.533344 Y129.066682 Z-0.125000
G01 X423.466657 Y119.466682 Z-0.125000
G01 X418.133335 Y122.666681 Z-0.125000
G01 X410.666666 Y123.733348 Z-0.125000
G01 X405.333343 Y126.933348 Z-0.125000
G01 X402.133338 Y117.333347 Z-0.125000
G01 X396.800016 Y120.533349 Z-0.125000
G01 X395.733328 Y125.866680 Z-0.125000
G01 X389.333347 Y133.333349 Z-0.125000
G01 X387.200001 Y128.000015 Z-0.125000
G01 X385.066655 Y120.533349 Z-0.125000
G01 X387.200001 Y115.200015 Z-0.125000
G01 X391.466665 Y112.000013 Z-0.125000
G01 X396.800016 Y109.866681 Z-0.125000
G01 X398.933333 Y104.533347 Z-0.125000
G01 X404.266656 Y101.333348 Z-0.125000
G01 X408.533348 Y96.000014 Z-0.125000
G01 X411.733325 Y91.733347 Z-0.125000
G01 X418.133335 Y89.600015 Z-0.125000
G01 X410.666666 Y82.133347 Z-0.125000
G01 X417.066676 Y81.066682 Z-0.125000
G01 X423.466657 Y80.000015 Z-0.125000
G01 X425.600003 Y89.600015 Z-0.125000
G01 X430.933326 Y86.400013 Z-0.125000
G01 X432.000013 Y81.066682 Z-0.125000
G01 X436.266677 Y78.933347 Z-0.125000
G01 X442.666659 Y77.866680 Z-0.125000
G01 X449.066668 Y77.866680 Z-0.125000
G01 X455.466678 Y76.800015 Z-0.125000
G01 X459.733342 Y76.800015 Z-0.125000
G01 X466.133324 Y77.866680 Z-0.125000
G01 X470.400016 Y76.800015 Z-0.125000
G01 X476.799997 Y76.800015 Z-0.125000
G01 X469.333328 Y86.400013 Z-0.125000
G01 X467.200011 Y94.933346 Z-0.125000
G01 X467.200011 Y101.333348 Z-0.125000
G01 X464.000006 Y105.600014 Z-0.125000
G01 X454.399991 Y104.533347 Z-0.125000
G01 X452.266673 Y97.066681 Z-0.125000
G01 X457.599996 Y93.866682 Z-0.125000
G01 X460.800001 Y86.400013 Z-0.125000
G01 X451.200014 Y86.400013 Z-0.125000
G01 X442.666659 Y87.466681 Z-0.125000
G01 X440.533341 Y91.733347 Z-0.125000
G01 X444.800005 Y100.266680 Z-0.125000
G01 X439.466682 Y103.466680 Z-0.125000
G01 X435.199990 Y94.933346 Z-0.125000
G01 X428.800008 Y97.066681 Z-0.125000
G01 X421.333340 Y97.066681 Z-0.125000
G01 X418.133335 Y101.333348 Z-0.125000
G01 X413.866671 Y104.533347 Z-0.125000
G01 X408.533348 Y108.800014 Z-0.125000
G01 X404.266656 Y114.133348 Z-0.125000
G01 X407.466661 Y114.133348 Z-0.125000
G01 X412.800012 Y113.066680 Z-0.125000
G01 X415.999989 Y112.000013 Z-0.125000
G01 X419.199993 Y110.933348 Z-0.125000
G01 X422.399998 Y110.933348 Z-0.125000
G01 X425.600003 Y110.933348 Z-0.125000
G01 X427.733321 Y109.866681 Z-0.125000
G01 X428.800008 Y106.666682 Z-0.125000
G01 X433.066672 Y104.533347 Z-0.125000
G01 X432.000013 Y110.933348 Z-0.125000
G01 X435.199990 Y110.933348 Z-0.125000
G01 X438.399995 Y110.933348 Z-0.125000
G01 X441.600000 Y110.933348 Z-0.125000
G01 X443.733346 Y112.000013 Z-0.125000
G01 X445.866663 Y110.933348 Z-0.125000
G01 X449.066668 Y112.000013 Z-0.125000
G01 X451.200014 Y112.000013 Z-0.125000
G01 X453.333332 Y112.000013 Z-0.125000
G01 X456.533337 Y112.000013 Z-0.125000
G01 X457.599996 Y114.133348 Z-0.125000
G01 X460.800001 Y113.066680 Z-0.125000
G01 X462.933347 Y115.200015 Z-0.125000
G01 X465.066665 Y114.133348 Z-0.125000
G01 X467.200011 Y115.200015 Z-0.125000
G01 X469.333328 Y115.200015 Z-0.125000
G01 X472.533333 Y117.333347 Z-0.125000
G01 X473.599992 Y115.200015 Z-0.125000
G01 X475.733338 Y110.933348 Z-0.125000
G01 X478.933343 Y105.600014 Z-0.125000
G01 X484.266666 Y101.333348 Z-0.125000
G01 X485.333325 Y96.000014 Z-0.125000
G01 X475.733338 Y94.933346 Z-0.125000
G01 X478.933343 Y87.466681 Z-0.125000
G01 X485.333325 Y85.333349 Z-0.125000
G01 X483.200007 Y77.866680 Z-0.125000
G01 X487.466671 Y76.800015 Z-0.125000
G01 X491.733335 Y76.800015 Z-0.125000
G01 X498.133344 Y77.866680 Z-0.125000
G01 X504.533326 Y78.933347 Z-0.125000
G01 X508.799990 Y78.933347 Z-0.125000
G01 X514.133341 Y81.066682 Z-0.125000
G01 X519.466663 Y82.133347 Z-0.125000
G01 X523.733327 Y83.200014 Z-0.125000
G01 X527.999991 Y85.333349 Z-0.125000
G01 X532.266655 Y87.466681 Z-0.125000
G01 X535.466660 Y88.533348 Z-0.125000
G01 X540.800011 Y90.666680 Z-0.125000
G01 X538.666665 Y91.733347 Z-0.125000
G01 X536.533347 Y99.200013 Z-0.125000
G01 X545.066674 Y93.866682 Z-0.125000
G01 X549.333338 Y94.933346 Z-0.125000
G01 X553.600002 Y94.933346 Z-0.125000
G01 X557.866666 Y96.000014 Z-0.125000
G01 X562.133330 Y96.000014 Z-0.125000
G01 X566.399993 Y98.133349 Z-0.125000
G01 X569.599998 Y99.200013 Z-0.125000
G01 X571.733344 Y102.400015 Z-0.125000
G01 X573.866662 Y105.600014 Z-0.125000
G01 X569.599998 Y109.866681 Z-0.125000
G01 X576.000008 Y108.800014 Z-0.125000
G01 X578.133326 Y112.000013 Z-0.125000
G01 X579.200013 Y115.200015 Z-0.125000
G01 X582.399990 Y118.400014 Z-0.125000
G01 X581.333331 Y119.466682 Z-0.125000
G01 X583.466677 Y123.733348 Z-0.125000
G01 X585.599995 Y124.800016 Z-0.125000
G01 X585.599995 Y128.000015 Z-0.125000
G01 X587.733341 Y131.200014 Z-0.125000
G01 X587.733341 Y133.333349 Z-0.125000
G01 X589.866658 Y136.533348 Z-0.125000
G01 X586.666682 Y140.800015 Z-0.125000
G01 X593.066663 Y139.733347 Z-0.125000
G01 X592.000004 Y140.800015 Z-0.125000
G01 X594.133322 Y145.066681 Z-0.125000
G01 X596.266668 Y148.266681 Z-0.125000
G01 X596.266668 Y151.466680 Z-0.125000
G01 X598.400014 Y150.400015 Z-0.125000
G01 X599.466673 Y153.600015 Z-0.125000
G01 X599.466673 Y156.800014 Z-0.125000
G01 X601.599991 Y158.933349 Z-0.125000
G01 X602.666678 Y161.066681 Z-0.125000
G01 X602.666678 Y164.266680 Z-0.125000
G01 X604.799996 Y163.200015 Z-0.125000
G01 X605.866683 Y167.466682 Z-0.125000
G01 X604.799996 Y168.533346 Z-0.125000
G01 X601.599991 Y173.866680 Z-0.125000
G01 X604.799996 Y173.866680 Z-0.125000
G01 X605.866683 Y172.800016 Z-0.125000
G01 X609.066660 Y174.933348 Z-0.125000
G01 X609.066660 Y178.133347 Z-0.125000
G01 X610.133347 Y181.333349 Z-0.125000
G01 X611.200006 Y183.466681 Z-0.125000
G01 X611.200006 Y186.666680 Z-0.125000
G01 X609.066660 Y190.933347 Z-0.125000
G01 X613.333324 Y188.800015 Z-0.125000
G01 X613.333324 Y192.000014 Z-0.125000
G01 X614.400011 Y195.200014 Z-0.125000
G01 X614.400011 Y197.333348 Z-0.125000
G01 X614.400011 Y200.533348 Z-0.125000
G01 X614.400011 Y203.733347 Z-0.125000
G01 X616.533328 Y205.866682 Z-0.125000
G01 X615.466670 Y208.000013 Z-0.125000
G01 X614.400011 Y210.133348 Z-0.125000
G01 X615.466670 Y213.333347 Z-0.125000
G01 X615.466670 Y216.533347 Z-0.125000
G01 X612.266665 Y215.466682 Z-0.125000
G01 X614.400011 Y219.733349 Z-0.125000
G01 X615.466670 Y221.866681 Z-0.125000
G01 X612.266665 Y221.866681 Z-0.125000
G01 X609.066660 Y221.866681 Z-0.125000
G01 X605.866683 Y221.866681 Z-0.125000
G01 X601.599991 Y219.733349 Z-0.125000
G01 X602.666678 Y222.933348 Z-0.125000
G01 X601.599991 Y226.133347 Z-0.125000
G01 X605.866683 Y226.133347 Z-0.125000
G01 X609.066660 Y226.133347 Z-0.125000
G01 X612.266665 Y226.133347 Z-0.125000
G01 X614.400011 Y225.066683 Z-0.125000
G01 X614.400011 Y229.333349 Z-0.125000
G01 X613.333324 Y230.400014 Z-0.125000
G01 X612.266665 Y232.533349 Z-0.125000
G01 X612.266665 Y235.733348 Z-0.125000
G01 X611.200006 Y238.933347 Z-0.125000
G01 X611.200006 Y242.133349 Z-0.125000
G01 X605.866683 Y242.133349 Z-0.125000
G01 X611.200006 Y245.333349 Z-0.125000
G01 X610.133347 Y247.466680 Z-0.125000
G01 X609.066660 Y249.600015 Z-0.125000
G01 X609.066660 Y252.800014 Z-0.125000
G01 X605.866683 Y253.866682 Z-0.125000
G01 X609.066660 Y257.066681 Z-0.125000
G01 X608.000001 Y259.200016 Z-0.125000
G01 X608.000001 Y262.400015 Z-0.125000
G01 X609.066660 Y264.533347 Z-0.125000
G01 X606.933342 Y265.600014 Z-0.125000
G01 X608.000001 Y268.800014 Z-0.125000
G01 X606.933342 Y269.866681 Z-0.125000
G01 X606.933342 Y273.066680 Z-0.125000
G01 X606.933342 Y276.266682 Z-0.125000
G01 X608.000001 Y279.466682 Z-0.125000
G01 X606.933342 Y280.533349 Z-0.125000
G01 X608.000001 Y284.800015 Z-0.125000
G01 X600.533332 Y282.666681 Z-0.125000
G01 X599.466673 Y291.200014 Z-0.125000
G01 X596.266668 Y297.600015 Z-0.125000
G01 X609.066660 Y289.066682 Z-0.125000
G01 X609.066660 Y292.266681 Z-0.125000
G01 X610.133347 Y295.466681 Z-0.125000
G01 X611.200006 Y297.600015 Z-0.125000
G01 X611.200006 Y300.800015 Z-0.125000
G01 X612.266665 Y304.000014 Z-0.125000
G01 X613.333324 Y307.200005 Z-0.125000
G01 X613.333324 Y310.400010 Z-0.125000
G01 X615.466670 Y313.600015 Z-0.125000
G01 X615.466670 Y316.800019 Z-0.125000
G01 X617.600016 Y320.000024 Z-0.125000
G01 X617.600016 Y322.133342 Z-0.125000
G01 X617.600016 Y325.333347 Z-0.125000
G01 X619.733333 Y327.466693 Z-0.125000
G01 X618.666674 Y329.600011 Z-0.125000
G01 X619.733333 Y332.800016 Z-0.125000
G01 X619.733333 Y336.000021 Z-0.125000
G01 X620.799992 Y339.200026 Z-0.125000
G01 X619.733333 Y340.266684 Z-0.125000
G01 X619.733333 Y343.466689 Z-0.125000
G01 X618.666674 Y345.600007 Z-0.125000
G01 X611.200006 Y332.800016 Z-0.125000
G01 X605.866683 Y332.800016 Z-0.125000
G01 X601.599991 Y332.800016 Z-0.125000
G01 X598.400014 Y332.800016 Z-0.125000
G01 X595.200009 Y333.866675 Z-0.125000
G01 X592.000004 Y334.933362 Z-0.125000
G01 X589.866658 Y336.000021 Z-0.125000
G01 X586.666682 Y337.066680 Z-0.125000
G01 X584.533336 Y339.200026 Z-0.125000
G01 X582.399990 Y340.266684 Z-0.125000
G01 X580.266672 Y341.333343 Z-0.125000
G01 X578.133326 Y342.400002 Z-0.125000
G01 X576.000008 Y343.466689 Z-0.125000
G01 X573.866662 Y345.600007 Z-0.125000
G01 X572.800003 Y346.666694 Z-0.125000
G01 X570.666657 Y347.733353 Z-0.125000
G01 X568.533339 Y348.800012 Z-0.125000
G01 X566.399993 Y349.866671 Z-0.125000
G01 X563.199989 Y350.933358 Z-0.125000
G01 X562.133330 Y353.066676 Z-0.125000
G01 X556.800007 Y354.133335 Z-0.125000
G01 X554.666661 Y354.133335 Z-0.125000
G01 X558.933325 Y352.000017 Z-0.125000
G01 X562.133330 Y346.666694 Z-0.125000
G01 X572.800003 Y332.800016 Z-0.125000
G01 X576.000008 Y327.466693 Z-0.125000
G01 X587.733341 Y325.333347 Z-0.125000
G01 X598.400014 Y323.200001 Z-0.125000
G01 X600.533332 Y315.733361 Z-0.125000
G01 X596.266668 Y307.200005 Z-0.125000
G01 X584.533336 Y309.333351 Z-0.125000
G01 X577.066667 Y312.533356 Z-0.125000
G01 X569.599998 Y316.800019 Z-0.125000
G01 X560.000012 Y322.133342 Z-0.125000
G01 X556.800007 Y331.733357 Z-0.125000
G01 X555.733348 Y336.000021 Z-0.125000
G01 X546.133333 Y339.200026 Z-0.125000
G01 X542.933328 Y343.466689 Z-0.125000
G01 X547.199992 Y350.933358 Z-0.125000
G01 X551.466656 Y355.200022 Z-0.125000
G01 X548.266679 Y356.266681 Z-0.125000
G01 X546.133333 Y356.266681 Z-0.125000
G01 X544.000016 Y356.266681 Z-0.125000
G01 X542.933328 Y357.333340 Z-0.125000
G01 X539.733324 Y356.266681 Z-0.125000
G01 X537.600006 Y357.333340 Z-0.125000
G01 X534.400001 Y356.266681 Z-0.125000
G01 X531.199996 Y356.266681 Z-0.125000
G01 X530.133337 Y357.333340 Z-0.125000
G01 X525.866673 Y357.333340 Z-0.125000
G01 X526.933332 Y355.200022 Z-0.125000
G01 X529.066678 Y348.800012 Z-0.125000
G01 X531.199996 Y343.466689 Z-0.125000
G01 X527.999991 Y334.933362 Z-0.125000
G01 X531.199996 Y330.666670 Z-0.125000
G01 X540.800011 Y329.600011 Z-0.125000
G01 X539.733324 Y324.266688 Z-0.125000
G01 X547.199992 Y321.066683 Z-0.125000
G01 X542.933328 Y312.533356 Z-0.125000
G01 X550.399997 Y309.333351 Z-0.125000
G01 X556.800007 Y305.066681 Z-0.125000
G01 X564.266676 Y300.800015 Z-0.125000
G01 X571.733344 Y296.533348 Z-0.125000
G01 X582.399990 Y296.533348 Z-0.125000
G01 X578.133326 Y286.933347 Z-0.125000
G01 X583.466677 Y280.533349 Z-0.125000
G01 X582.399990 Y273.066680 Z-0.125000
G01 X594.133322 Y270.933348 Z-0.125000
G01 X593.066663 Y259.200016 Z-0.125000
G01 X581.333331 Y260.266680 Z-0.125000
G01 X569.599998 Y260.266680 Z-0.125000
G01 X561.066671 Y262.400015 Z-0.125000
G01 X567.466681 Y273.066680 Z-0.125000
G01 X561.066671 Y279.466682 Z-0.125000
G01 X557.866666 Y284.800015 Z-0.125000
G01 X550.399997 Y289.066682 Z-0.125000
G01 X542.933328 Y293.333349 Z-0.125000
G01 X538.666665 Y297.600015 Z-0.125000
G01 X536.533347 Y302.933349 Z-0.125000
G01 X534.400001 Y312.533356 Z-0.125000
G01 X525.866673 Y313.600015 Z-0.125000
G01 X525.866673 Y320.000024 Z-0.125000
G01 X518.400005 Y323.200001 Z-0.125000
G01 X515.200000 Y330.666670 Z-0.125000
G01 X518.400005 Y339.200026 Z-0.125000
G01 X515.200000 Y346.666694 Z-0.125000
G01 X509.866677 Y350.933358 Z-0.125000
G01 X511.999995 Y353.066676 Z-0.125000
G01 X514.133341 Y353.066676 Z-0.125000
G01 X517.333346 Y354.133335 Z-0.125000
G01 X519.466663 Y354.133335 Z-0.125000
G01 X522.666668 Y355.200022 Z-0.125000
G01 X517.333346 Y364.800008 Z-0.125000
G01 X506.666672 Y364.800008 Z-0.125000
G01 X505.600013 Y371.200018 Z-0.125000
G01 X502.400008 Y371.200018 Z-0.125000
G01 X501.333349 Y369.066672 Z-0.125000
G01 X498.133344 Y368.000013 Z-0.125000
G01 X497.066657 Y365.866695 Z-0.125000
G01 X493.866681 Y364.800008 Z-0.125000
G01 X492.799993 Y362.666691 Z-0.125000
G01 X489.599989 Y361.600003 Z-0.125000
G01 X488.533330 Y359.466686 Z-0.125000
G01 X485.333325 Y359.466686 Z-0.125000
G01 X484.266666 Y357.333340 Z-0.125000
G01 X481.066661 Y356.266681 Z-0.125000
G01 X477.866656 Y354.133335 Z-0.125000
G01 X475.733338 Y355.200022 Z-0.125000
G01 X476.799997 Y361.600003 Z-0.125000
G01 X470.400016 Y366.933354 Z-0.125000
G01 X466.133324 Y359.466686 Z-0.125000
G01 X459.733342 Y364.800008 Z-0.125000
G01 X460.800001 Y371.200018 Z-0.125000
G01 X465.066665 Y379.733346 Z-0.125000
G01 X461.866660 Y385.066668 Z-0.125000
G01 X454.399991 Y387.200014 Z-0.125000
G01 X454.399991 Y375.466682 Z-0.125000
G01 X450.133327 Y378.666687 Z-0.125000
G01 X445.866663 Y386.133356 Z-0.125000
G01 X440.533341 Y388.266673 Z-0.125000
G01 X437.333336 Y392.533337 Z-0.125000
G01 X436.266677 Y394.666683 Z-0.125000
G01 X440.533341 Y395.733342 Z-0.125000
G01 X441.600000 Y394.666683 Z-0.125000
G01 X444.800005 Y395.733342 Z-0.125000
G01 X448.000009 Y396.800029 Z-0.125000
G01 X452.266673 Y396.800029 Z-0.125000
G01 X451.200014 Y398.933347 Z-0.125000
G01 X451.200014 Y404.266670 Z-0.125000
G01 X455.466678 Y398.933347 Z-0.125000
G01 X458.666655 Y398.933347 Z-0.125000
G01 X461.866660 Y400.000006 Z-0.125000
G01 X460.800001 Y395.733342 Z-0.125000
G01 X467.200011 Y393.600024 Z-0.125000
G01 X473.599992 Y389.333360 Z-0.125000
G01 X475.733338 Y384.000010 Z-0.125000
G01 X472.533333 Y376.533341 Z-0.125000
G01 X478.933343 Y374.400023 Z-0.125000
G01 X482.133348 Y370.133359 Z-0.125000
G01 X489.599989 Y368.000013 Z-0.125000
G01 X493.866681 Y375.466682 Z-0.125000
G01 X490.666676 Y380.800005 Z-0.125000
G01 X485.333325 Y384.000010 Z-0.125000
G01 X485.333325 Y392.533337 Z-0.125000
G01 X482.133348 Y397.866688 Z-0.125000
G01 X477.866656 Y400.000006 Z-0.125000
G01 X473.599992 Y401.066693 Z-0.125000
G01 X469.333328 Y400.000006 Z-0.125000
G01 X466.133324 Y401.066693 Z-0.125000
G01 X465.066665 Y408.533362 Z-0.125000
G01 X475.733338 Y410.666680 Z-0.125000
G01 X485.333325 Y408.533362 Z-0.125000
G01 X492.799993 Y403.200011 Z-0.125000
G01 X501.333349 Y402.133352 Z-0.125000
G01 X493.866681 Y392.533337 Z-0.125000
G01 X499.200003 Y389.333360 Z-0.125000
G01 X503.466667 Y384.000010 Z-0.125000
G01 X504.533326 Y377.600028 Z-0.125000
G01 X506.666672 Y374.400023 Z-0.125000
G01 X508.799990 Y373.333336 Z-0.125000
G01 X510.933336 Y376.533341 Z-0.125000
G01 X513.066682 Y376.533341 Z-0.125000
G01 X516.266658 Y378.666687 Z-0.125000
G01 X518.400005 Y379.733346 Z-0.125000
G01 X522.666668 Y374.400023 Z-0.125000
G01 X529.066678 Y366.933354 Z-0.125000
G01 X534.400001 Y375.466682 Z-0.125000
G01 X541.866670 Y369.066672 Z-0.125000
G01 X551.466656 Y369.066672 Z-0.125000
G01 X567.466681 Y371.200018 Z-0.125000
G01 X576.000008 Y366.933354 Z-0.125000
G01 X588.800000 Y365.866695 Z-0.125000
G01 X587.733341 Y377.600028 Z-0.125000
G01 X582.399990 Y376.533341 Z-0.125000
G01 X577.066667 Y375.466682 Z-0.125000
G01 X572.800003 Y375.466682 Z-0.125000
G01 X568.533339 Y375.466682 Z-0.125000
G01 X565.333335 Y376.533341 Z-0.125000
G01 X563.199989 Y377.600028 Z-0.125000
G01 X560.000012 Y377.600028 Z-0.125000
G01 X556.800007 Y378.666687 Z-0.125000
G01 X555.733348 Y379.733346 Z-0.125000
G01 X552.533343 Y379.733346 Z-0.125000
G01 X548.266679 Y378.666687 Z-0.125000
G01 X549.333338 Y381.866692 Z-0.125000
G01 X546.133333 Y381.866692 Z-0.125000
G01 X544.000016 Y382.933351 Z-0.125000
G01 X541.866670 Y382.933351 Z-0.125000
G01 X538.666665 Y382.933351 Z-0.125000
G01 X536.533347 Y382.933351 Z-0.125000
G01 X534.400001 Y384.000010 Z-0.125000
G01 X531.199996 Y382.933351 Z-0.125000
G01 X527.999991 Y381.866692 Z-0.125000
G01 X525.866673 Y382.933351 Z-0.125000
G01 X522.666668 Y380.800005 Z-0.125000
G01 X521.600009 Y381.866692 Z-0.125000
G01 X518.400005 Y389.333360 Z-0.125000
G01 X513.066682 Y394.666683 Z-0.125000
G01 X509.866677 Y400.000006 Z-0.125000
G01 X513.066682 Y411.733338 Z-0.125000
G01 X520.533322 Y409.600021 Z-0.125000
G01 X524.800014 Y404.266670 Z-0.125000
G01 X526.933332 Y400.000006 Z-0.125000
G01 X530.133337 Y393.600024 Z-0.125000
G01 X538.666665 Y391.466678 Z-0.125000
G01 X540.800011 Y404.266670 Z-0.125000
G01 X551.466656 Y403.200011 Z-0.125000
G01 X557.866666 Y397.866688 Z-0.125000
G01 X571.733344 Y397.866688 Z-0.125000
G01 X574.933349 Y406.400016 Z-0.125000
G01 X582.399990 Y394.666683 Z-0.125000
G01 X594.133322 Y393.600024 Z-0.125000
G01 X602.666678 Y389.333360 Z-0.125000
G01 X600.533332 Y379.733346 Z-0.125000
G01 X604.799996 Y373.333336 Z-0.125000
G01 X598.400014 Y362.666691 Z-0.125000
G01 X604.799996 Y357.333340 Z-0.125000
G01 X613.333324 Y353.066676 Z-0.125000
G01 X618.666674 Y348.800012 Z-0.125000
G01 X617.600016 Y352.000017 Z-0.125000
G01 X618.666674 Y355.200022 Z-0.125000
G01 X617.600016 Y357.333340 Z-0.125000
G01 X616.533328 Y359.466686 Z-0.125000
G01 X616.533328 Y362.666691 Z-0.125000
G01 X615.466670 Y365.866695 Z-0.125000
G01 X614.400011 Y368.000013 Z-0.125000
G01 X614.400011 Y371.200018 Z-0.125000
G01 X613.333324 Y373.333336 Z-0.125000
G01 X614.400011 Y376.533341 Z-0.125000
G01 X613.333324 Y377.600028 Z-0.125000
G01 X612.266665 Y379.733346 Z-0.125000
G01 X612.266665 Y382.933351 Z-0.125000
G01 X611.200006 Y384.000010 Z-0.125000
G01 X610.133347 Y386.133356 Z-0.125000
G01 X610.133347 Y389.333360 Z-0.125000
G01 X609.066660 Y390.400019 Z-0.125000
G01 X608.000001 Y392.533337 Z-0.125000
G01 X605.866683 Y395.733342 Z-0.125000
G01 X605.866683 Y397.866688 Z-0.125000
G01 X603.733337 Y400.000006 Z-0.125000
G01 X603.733337 Y403.200011 Z-0.125000
G01 X601.599991 Y403.200011 Z-0.125000
G01 X599.466673 Y405.333357 Z-0.125000
G01 X597.333327 Y408.533362 Z-0.125000
G01 X596.266668 Y410.666680 Z-0.125000
G01 X593.066663 Y411.733338 Z-0.125000
G01 X589.866658 Y405.333357 Z-0.125000
G01 X590.933346 Y413.866684 Z-0.125000
G01 X588.800000 Y413.866684 Z-0.125000
G01 X585.599995 Y414.933343 Z-0.125000
G01 X582.399990 Y416.000002 Z-0.125000
G01 X579.200013 Y416.000002 Z-0.125000
G01 X576.000008 Y417.066689 Z-0.125000
G01 X573.866662 Y418.133348 Z-0.125000
G01 X570.666657 Y417.066689 Z-0.125000
G01 X567.466681 Y417.066689 Z-0.125000
G01 X567.466681 Y411.733338 Z-0.125000
G01 X564.266676 Y417.066689 Z-0.125000
G01 X561.066671 Y417.066689 Z-0.125000
G01 X557.866666 Y417.066689 Z-0.125000
G01 X554.666661 Y418.133348 Z-0.125000
G01 X552.533343 Y418.133348 Z-0.125000
G01 X548.266679 Y418.133348 Z-0.125000
G01 X546.133333 Y419.200007 Z-0.125000
G01 X542.933328 Y418.133348 Z-0.125000
G01 X541.866670 Y412.800026 Z-0.125000
G01 X539.733324 Y417.066689 Z-0.125000
G01 X536.533347 Y418.133348 Z-0.125000
G01 X533.333342 Y417.066689 Z-0.125000
G01 X530.133337 Y418.133348 Z-0.125000
G01 X526.933332 Y418.133348 Z-0.125000
G01 X524.800014 Y418.133348 Z-0.125000
G01 X521.600009 Y418.133348 Z-0.125000
G01 X518.400005 Y418.133348 Z-0.125000
G01 X515.200000 Y418.133348 Z-0.125000
G01 X511.999995 Y418.133348 Z-0.125000
G01 X508.799990 Y417.066689 Z-0.125000
G01 X505.600013 Y418.133348 Z-0.125000
G01 X502.400008 Y417.066689 Z-0.125000
G01 X499.200003 Y418.133348 Z-0.125000
G01 X498.133344 Y410.666680 Z-0.125000
G01 X495.999998 Y417.066689 Z-0.125000
G01 X492.799993 Y417.066689 Z-0.125000
G01 X489.599989 Y417.066689 Z-0.125000
G01 X486.400012 Y417.066689 Z-0.125000
G01 X483.200007 Y417.066689 Z-0.125000
G01 X480.000002 Y417.066689 Z-0.125000
G01 X476.799997 Y417.066689 Z-0.125000
G01 X473.599992 Y417.066689 Z-0.125000
G01 X470.400016 Y417.066689 Z-0.125000
G01 X467.200011 Y417.066689 Z-0.125000
G01 X462.933347 Y417.066689 Z-0.125000
G01 X460.800001 Y412.800026 Z-0.125000
G01 X459.733342 Y417.066689 Z-0.125000
G01 X456.533337 Y416.000002 Z-0.125000
G01 X453.333332 Y416.000002 Z-0.125000
G01 X450.133327 Y417.066689 Z-0.125000
G01 X446.933322 Y416.000002 Z-0.125000
G01 X443.733346 Y417.066689 Z-0.125000
G01 X440.533341 Y416.000002 Z-0.125000
G01 X437.333336 Y417.066689 Z-0.125000
G01 X441.600000 Y411.733338 Z-0.125000
G01 X444.800005 Y406.400016 Z-0.125000
G01 X435.199990 Y403.200011 Z-0.125000
G01 X432.000013 Y410.666680 Z-0.125000
G01 X434.133331 Y416.000002 Z-0.125000
G01 X430.933326 Y416.000002 Z-0.125000
G01 X427.733321 Y416.000002 Z-0.125000
G01 X424.533344 Y416.000002 Z-0.125000
G01 X422.399998 Y417.066689 Z-0.125000
G01 X419.199993 Y416.000002 Z-0.125000
G01 X415.999989 Y416.000002 Z-0.125000
G01 X414.933330 Y410.666680 Z-0.125000
G01 X412.800012 Y416.000002 Z-0.125000
G01 X409.600007 Y416.000002 Z-0.125000
G01 X407.466661 Y417.066689 Z-0.125000
G01 X405.333343 Y417.066689 Z-0.125000
G01 X402.133338 Y417.066689 Z-0.125000
G01 X399.999992 Y420.266694 Z-0.125000
G01 X402.133338 Y420.266694 Z-0.125000
G01 X405.333343 Y423.466671 Z-0.125000
G01 X402.133338 Y424.533358 Z-0.125000
G01 X401.066679 Y427.733363 Z-0.125000
G01 X399.999992 Y432.000027 Z-0.125000
G01 X397.866674 Y434.133345 Z-0.125000
G01 X398.933333 Y438.400008 Z-0.125000
G01 X396.800016 Y442.666672 Z-0.125000
G01 X392.533324 Y442.666672 Z-0.125000
G01 X391.466665 Y445.866677 Z-0.125000
G01 X389.333347 Y448.000023 Z-0.125000
G01 X386.133342 Y450.133341 Z-0.125000
G01 X385.066655 Y453.333346 Z-0.125000
G01 X387.200001 Y457.600010 Z-0.125000
G01 X383.999996 Y459.733356 Z-0.125000
G01 X379.733332 Y459.733356 Z-0.125000
G01 X375.466668 Y459.733356 Z-0.125000
G01 X377.600014 Y465.066678 Z-0.125000
G01 X377.600014 Y469.333342 Z-0.125000
G01 X373.333322 Y471.466688 Z-0.125000
G01 X369.066659 Y473.600006 Z-0.125000
G01 X369.066659 Y468.266683 Z-0.125000
G01 X372.266663 Y466.133337 Z-0.125000
G01 X372.266663 Y461.866673 Z-0.125000
G01 X368.000000 Y461.866673 Z-0.125000
G01 X364.799995 Y464.000019 Z-0.125000
G01 X362.666677 Y467.200024 Z-0.125000
G01 X364.799995 Y471.466688 Z-0.125000
G01 X360.533331 Y472.533347 Z-0.125000
G01 X360.533331 Y476.800011 Z-0.125000
G01 X361.599990 Y480.000016 Z-0.125000
G01 X359.466672 Y483.200021 Z-0.125000
G01 X356.266667 Y485.333338 Z-0.125000
G01 X354.133321 Y489.600002 Z-0.125000
G01 X353.066662 Y491.733348 Z-0.125000
G01 X348.799998 Y491.733348 Z-0.125000
G01 X348.799998 Y496.000012 Z-0.125000
G01 X346.666681 Y499.200017 Z-0.125000
G01 X348.799998 Y503.466681 Z-0.125000
G01 X353.066662 Y503.466681 Z-0.125000
G01 X353.066662 Y499.200017 Z-0.125000
G01 X355.200008 Y496.000012 Z-0.125000
G01 X359.466672 Y493.866694 Z-0.125000
G01 X359.466672 Y489.600002 Z-0.125000
G01 X363.733336 Y489.600002 Z-0.125000
G01 X364.799995 Y485.333338 Z-0.125000
G01 X368.000000 Y483.200021 Z-0.125000
G01 X365.866682 Y477.866670 Z-0.125000
G01 X370.133346 Y478.933357 Z-0.125000
G01 X373.333322 Y476.800011 Z-0.125000
G01 X377.600014 Y474.666693 Z-0.125000
G01 X381.866678 Y472.533347 Z-0.125000
G01 X382.933337 Y468.266683 Z-0.125000
G01 X381.866678 Y465.066678 Z-0.125000
G01 X387.200001 Y466.133337 Z-0.125000
G01 X388.266660 Y464.000019 Z-0.125000
G01 X391.466665 Y461.866673 Z-0.125000
G01 X391.466665 Y456.533351 Z-0.125000
G01 X392.533324 Y453.333346 Z-0.125000
G01 X395.733328 Y451.200028 Z-0.125000
G01 X397.866674 Y448.000023 Z-0.125000
G01 X402.133338 Y449.066682 Z-0.125000
G01 X402.133338 Y444.800018 Z-0.125000
G01 X403.199997 Y442.666672 Z-0.125000
G01 X404.266656 Y438.400008 Z-0.125000
G01 X405.333343 Y436.266691 Z-0.125000
G01 X405.333343 Y432.000027 Z-0.125000
G01 X408.533348 Y429.866681 Z-0.125000
G01 X408.533348 Y425.600017 Z-0.125000
G01 X410.666666 Y426.666676 Z-0.125000
G01 X412.800012 Y428.800022 Z-0.125000
G01 X414.933330 Y430.933340 Z-0.125000
G01 X412.800012 Y433.066686 Z-0.125000
G01 X410.666666 Y436.266691 Z-0.125000
G01 X410.666666 Y441.600013 Z-0.125000
G01 X408.533348 Y444.800018 Z-0.125000
G01 X407.466661 Y449.066682 Z-0.125000
G01 X407.466661 Y453.333346 Z-0.125000
G01 X405.333343 Y456.533351 Z-0.125000
G01 X401.066679 Y453.333346 Z-0.125000
G01 X398.933333 Y456.533351 Z-0.125000
G01 X396.800016 Y458.666668 Z-0.125000
G01 X395.733328 Y461.866673 Z-0.125000
G01 X401.066679 Y464.000019 Z-0.125000
G01 X403.199997 Y461.866673 Z-0.125000
G01 X404.266656 Y464.000019 Z-0.125000
G01 X406.400002 Y461.866673 Z-0.125000
G01 X408.533348 Y461.866673 Z-0.125000
G01 X409.600007 Y459.733356 Z-0.125000
G01 X411.733325 Y456.533351 Z-0.125000
G01 X412.800012 Y453.333346 Z-0.125000
G01 X412.800012 Y449.066682 Z-0.125000
G01 X414.933330 Y445.866677 Z-0.125000
G01 X414.933330 Y441.600013 Z-0.125000
G01 X415.999989 Y438.400008 Z-0.125000
G01 X417.066676 Y434.133345 Z-0.125000
G01 X419.199993 Y436.266691 Z-0.125000
G01 X422.399998 Y439.466695 Z-0.125000
G01 X421.333340 Y440.533354 Z-0.125000
G01 X420.266681 Y443.733359 Z-0.125000
G01 X423.466657 Y443.733359 Z-0.125000
G01 X423.466657 Y446.933336 Z-0.125000
G01 X423.466657 Y450.133341 Z-0.125000
G01 X422.399998 Y452.266687 Z-0.125000
G01 X420.266681 Y448.000023 Z-0.125000
G01 X418.133335 Y451.200028 Z-0.125000
G01 X420.266681 Y455.466692 Z-0.125000
G01 X418.133335 Y455.466692 Z-0.125000
G01 X415.999989 Y457.600010 Z-0.125000
G01 X413.866671 Y459.733356 Z-0.125000
G01 X412.800012 Y460.800014 Z-0.125000
G01 X414.933330 Y465.066678 Z-0.125000
G01 X412.800012 Y466.133337 Z-0.125000
G01 X412.800012 Y469.333342 Z-0.125000
G01 X410.666666 Y469.333342 Z-0.125000
G01 X410.666666 Y472.533347 Z-0.125000
G01 X408.533348 Y474.666693 Z-0.125000
G01 X405.333343 Y470.400029 Z-0.125000
G01 X405.333343 Y474.666693 Z-0.125000
G01 X406.400002 Y477.866670 Z-0.125000
G01 X404.266656 Y478.933357 Z-0.125000
G01 X403.199997 Y482.133362 Z-0.125000
G01 X401.066679 Y478.933357 Z-0.125000
G01 X399.999992 Y482.133362 Z-0.125000
G01 X395.733328 Y483.200021 Z-0.125000
G01 X398.933333 Y485.333338 Z-0.125000
G01 X396.800016 Y487.466684 Z-0.125000
G01 X395.733328 Y488.533343 Z-0.125000
G01 X393.600011 Y489.600002 Z-0.125000
G01 X391.466665 Y491.733348 Z-0.125000
G01 X388.266660 Y490.666689 Z-0.125000
G01 X390.400006 Y486.400026 Z-0.125000
G01 X382.933337 Y484.266679 Z-0.125000
G01 X383.999996 Y481.066675 Z-0.125000
G01 X389.333347 Y480.000016 Z-0.125000
G01 X391.466665 Y476.800011 Z-0.125000
G01 X394.666670 Y474.666693 Z-0.125000
G01 X397.866674 Y471.466688 Z-0.125000
G01 X398.933333 Y466.133337 Z-0.125000
G01 X396.800016 Y466.133337 Z-0.125000
G01 X394.666670 Y467.200024 Z-0.125000
G01 X392.533324 Y468.266683 Z-0.125000
G01 X390.400006 Y470.400029 Z-0.125000
G01 X388.266660 Y471.466688 Z-0.125000
G01 X386.133342 Y473.600006 Z-0.125000
G01 X383.999996 Y475.733352 Z-0.125000
G01 X381.866678 Y476.800011 Z-0.125000
G01 X379.733332 Y478.933357 Z-0.125000
G01 X377.600014 Y481.066675 Z-0.125000
G01 X375.466668 Y482.133362 Z-0.125000
G01 X376.533327 Y484.266679 Z-0.125000
G01 X373.333322 Y484.266679 Z-0.125000
G01 X370.133346 Y487.466684 Z-0.125000
G01 X373.333322 Y487.466684 Z-0.125000
G01 X375.466668 Y487.466684 Z-0.125000
G01 X378.666673 Y488.533343 Z-0.125000
G01 X381.866678 Y489.600002 Z-0.125000
G01 X383.999996 Y491.733348 Z-0.125000
G01 X382.933337 Y492.800007 Z-0.125000
G01 X380.799991 Y498.133358 Z-0.125000
G01 X377.600014 Y502.400022 Z-0.125000
G01 X383.999996 Y504.533340 Z-0.125000
G01 X387.200001 Y501.333363 Z-0.125000
G01 X387.200001 Y497.066671 Z-0.125000
G01 X387.200001 Y494.933353 Z-0.125000
G01 X389.333347 Y494.933353 Z-0.125000
G01 X391.466665 Y498.133358 Z-0.125000
G01 X395.733328 Y499.200017 Z-0.125000
G01 X395.733328 Y502.400022 Z-0.125000
G01 X399.999992 Y500.266676 Z-0.125000
G01 X404.266656 Y502.400022 Z-0.125000
G01 X405.333343 Y501.333363 Z-0.125000
G01 X408.533348 Y501.333363 Z-0.125000
G01 X411.733325 Y504.533340 Z-0.125000
G01 X413.866671 Y506.666686 Z-0.125000
G01 X411.733325 Y508.800003 Z-0.125000
G01 X413.866671 Y510.933349 Z-0.125000
G01 X415.999989 Y513.066695 Z-0.125000
G01 X413.866671 Y515.200013 Z-0.125000
G01 X411.733325 Y517.333359 Z-0.125000
G01 X408.533348 Y516.266672 Z-0.125000
G01 X405.333343 Y517.333359 Z-0.125000
G01 X407.466661 Y514.133354 Z-0.125000
G01 X410.666666 Y513.066695 Z-0.125000
G01 X409.600007 Y508.800003 Z-0.125000
G01 X407.466661 Y508.800003 Z-0.125000
G01 X405.333343 Y508.800003 Z-0.125000
G01 X403.199997 Y508.800003 Z-0.125000
G01 X403.199997 Y512.000008 Z-0.125000
G01 X402.133338 Y513.066695 Z-0.125000
G01 X402.133338 Y515.200013 Z-0.125000
G01 X399.999992 Y517.333359 Z-0.125000
G01 X398.933333 Y519.466677 Z-0.125000
G01 X395.733328 Y519.466677 Z-0.125000
G01 X395.733328 Y522.666682 Z-0.125000
G01 X398.933333 Y522.666682 Z-0.125000
G01 X401.066679 Y522.666682 Z-0.125000
G01 X404.266656 Y523.733341 Z-0.125000
G01 X402.133338 Y525.866687 Z-0.125000
G01 X398.933333 Y526.933346 Z-0.125000
G01 X395.733328 Y525.866687 Z-0.125000
G01 X393.600011 Y526.933346 Z-0.125000
G01 X390.400006 Y525.866687 Z-0.125000
G01 X386.133342 Y524.800028 Z-0.125000
G01 X388.266660 Y522.666682 Z-0.125000
G01 X391.466665 Y522.666682 Z-0.125000
G01 X392.533324 Y520.533336 Z-0.125000
G01 X391.466665 Y516.266672 Z-0.125000
G01 X390.400006 Y513.066695 Z-0.125000
G01 X393.600011 Y513.066695 Z-0.125000
G01 X396.800016 Y514.133354 Z-0.125000
G01 X398.933333 Y514.133354 Z-0.125000
G01 X398.933333 Y508.800003 Z-0.125000
G01 X392.533324 Y506.666686 Z-0.125000
G01 X390.400006 Y509.866691 Z-0.125000
G01 X387.200001 Y510.933349 Z-0.125000
G01 X385.066655 Y510.933349 Z-0.125000
G01 X386.133342 Y517.333359 Z-0.125000
G01 X380.799991 Y519.466677 Z-0.125000
G01 X381.866678 Y523.733341 Z-0.125000
G01 X378.666673 Y522.666682 Z-0.125000
G01 X375.466668 Y521.600023 Z-0.125000
G01 X373.333322 Y521.600023 Z-0.125000
G01 X371.200005 Y518.400018 Z-0.125000
G01 X374.400009 Y515.200013 Z-0.125000
G01 X378.666673 Y513.066695 Z-0.125000
G01 X380.799991 Y509.866691 Z-0.125000
G01 X381.866678 Y508.800003 Z-0.125000
G01 X377.600014 Y506.666686 Z-0.125000
G01 X376.533327 Y507.733345 Z-0.125000
G01 X373.333322 Y505.600027 Z-0.125000
G01 X371.200005 Y503.466681 Z-0.125000
G01 X372.266663 Y507.733345 Z-0.125000
G01 X369.066659 Y510.933349 Z-0.125000
G01 X368.000000 Y516.266672 Z-0.125000
G01 X364.799995 Y514.133354 Z-0.125000
G01 X361.599990 Y513.066695 Z-0.125000
G01 X360.533331 Y509.866691 Z-0.125000
G01 X361.599990 Y507.733345 Z-0.125000
G01 X362.666677 Y505.600027 Z-0.125000
G01 X363.733336 Y503.466681 Z-0.125000
G01 X365.866682 Y502.400022 Z-0.125000
G01 X368.000000 Y501.333363 Z-0.125000
G01 X369.066659 Y499.200017 Z-0.125000
G01 X371.200005 Y498.133358 Z-0.125000
G01 X374.400009 Y494.933353 Z-0.125000
G01 X376.533327 Y491.733348 Z-0.125000
G01 X371.200005 Y491.733348 Z-0.125000
G01 X368.000000 Y490.666689 Z-0.125000
G01 X369.066659 Y494.933353 Z-0.125000
G01 X364.799995 Y494.933353 Z-0.125000
G01 X365.866682 Y498.133358 Z-0.125000
G01 X360.533331 Y499.200017 Z-0.125000
G01 X358.400013 Y501.333363 Z-0.125000
G01 X358.400013 Y505.600027 Z-0.125000
G01 X355.200008 Y508.800003 Z-0.125000
G01 X358.400013 Y512.000008 Z-0.125000
G01 X356.266667 Y514.133354 Z-0.125000
G01 X355.200008 Y515.200013 Z-0.125000
G01 X353.066662 Y516.266672 Z-0.125000
G01 X350.933344 Y517.333359 Z-0.125000
G01 X348.799998 Y519.466677 Z-0.125000
G01 X352.000003 Y521.600023 Z-0.125000
G01 X349.866657 Y522.666682 Z-0.125000
G01 X346.666681 Y523.733341 Z-0.125000
G01 X345.599994 Y521.600023 Z-0.125000
G01 X343.466676 Y523.733341 Z-0.125000
G01 X340.266671 Y523.733341 Z-0.125000
G01 X337.066666 Y522.666682 Z-0.125000
G01 X338.133325 Y518.400018 Z-0.125000
G01 X341.333330 Y517.333359 Z-0.125000
G01 X344.533335 Y515.200013 Z-0.125000
G01 X346.666681 Y512.000008 Z-0.125000
G01 X350.933344 Y512.000008 Z-0.125000
G01 X349.866657 Y508.800003 Z-0.125000
G01 X345.599994 Y505.600027 Z-0.125000
G01 X342.399989 Y507.733345 Z-0.125000
G01 X340.266671 Y510.933349 Z-0.125000
G01 X337.066666 Y513.066695 Z-0.125000
G01 X332.800002 Y515.200013 Z-0.125000
G01 X331.733343 Y517.333359 Z-0.125000
G01 X333.866661 Y522.666682 Z-0.125000
G01 X330.666656 Y522.666682 Z-0.125000
G01 X328.533338 Y522.666682 Z-0.125000
G01 X325.333333 Y521.600023 Z-0.125000
G01 X322.133328 Y520.533336 Z-0.125000
G01 X324.266674 Y518.400018 Z-0.125000
G01 X327.466679 Y516.266672 Z-0.125000
G01 X325.333333 Y510.933349 Z-0.125000
G01 X329.599997 Y509.866691 Z-0.125000
G01 X332.800002 Y508.800003 Z-0.125000
G01 X330.666656 Y504.533340 Z-0.125000
G01 X336.000007 Y506.666686 Z-0.125000
G01 X336.000007 Y502.400022 Z-0.125000
G01 X339.200012 Y502.400022 Z-0.125000
G01 X342.399989 Y500.266676 Z-0.125000
G01 X341.333330 Y496.000012 Z-0.125000
G01 X337.066666 Y497.066671 Z-0.125000
G01 X334.933348 Y492.800007 Z-0.125000
G01 X331.733343 Y496.000012 Z-0.125000
G01 X330.666656 Y500.266676 Z-0.125000
G01 X326.399992 Y498.133358 Z-0.125000
G01 X325.333333 Y502.400022 Z-0.125000
G01 X324.266674 Y506.666686 Z-0.125000
G01 X320.000011 Y509.866691 Z-0.125000
G01 X321.066670 Y513.066695 Z-0.125000
G01 X317.866665 Y515.200013 Z-0.125000
G01 X318.933324 Y519.466677 Z-0.125000
G01 X315.733347 Y519.466677 Z-0.125000
G01 X313.600001 Y516.266672 Z-0.125000
G01 X309.333337 Y514.133354 Z-0.125000
G01 X311.466655 Y512.000008 Z-0.125000
G01 X314.666660 Y509.866691 Z-0.125000
G01 X314.666660 Y505.600027 Z-0.125000
G01 X318.933324 Y504.533340 Z-0.125000
G01 X320.000011 Y501.333363 Z-0.125000
G01 X321.066670 Y497.066671 Z-0.125000
G01 X321.066670 Y492.800007 Z-0.125000
G01 X324.266674 Y489.600002 Z-0.125000
G01 X326.399992 Y493.866694 Z-0.125000
G01 X329.599997 Y490.666689 Z-0.125000
G01 X332.800002 Y487.466684 Z-0.125000
G01 X333.866661 Y483.200021 Z-0.125000
G01 X333.866661 Y478.933357 Z-0.125000
G01 X336.000007 Y474.666693 Z-0.125000
G01 X338.133325 Y471.466688 Z-0.125000
G01 X338.133325 Y467.200024 Z-0.125000
G01 X340.266671 Y464.000019 Z-0.125000
G01 X343.466676 Y462.933360 Z-0.125000
G01 X346.666681 Y460.800014 Z-0.125000
G01 X346.666681 Y456.533351 Z-0.125000
G01 X345.599994 Y452.266687 Z-0.125000
G01 X341.333330 Y453.333346 Z-0.125000
G01 X341.333330 Y457.600010 Z-0.125000
G01 X337.066666 Y457.600010 Z-0.125000
G01 X334.933348 Y460.800014 Z-0.125000
G01 X332.800002 Y464.000019 Z-0.125000
G01 X332.800002 Y468.266683 Z-0.125000
G01 X330.666656 Y470.400029 Z-0.125000
G01 X330.666656 Y474.666693 Z-0.125000
G01 X328.533338 Y478.933357 Z-0.125000
G01 X328.533338 Y483.200021 Z-0.125000
G01 X326.399992 Y486.400026 Z-0.125000
G01 X323.199987 Y481.066675 Z-0.125000
G01 X321.066670 Y484.266679 Z-0.125000
G01 X318.933324 Y487.466684 Z-0.125000
G01 X315.733347 Y490.666689 Z-0.125000
G01 X315.733347 Y494.933353 Z-0.125000
G01 X314.666660 Y498.133358 Z-0.125000
G01 X312.533342 Y501.333363 Z-0.125000
G01 X309.333337 Y502.400022 Z-0.125000
G01 X309.333337 Y506.666686 Z-0.125000
G01 X307.199991 Y510.933349 Z-0.125000
G01 X304.000014 Y507.733345 Z-0.125000
G01 X301.866668 Y504.533340 Z-0.125000
G01 X299.733322 Y502.400022 Z-0.125000
G01 X302.933327 Y501.333363 Z-0.125000
G01 X305.066673 Y498.133358 Z-0.125000
G01 X309.333337 Y496.000012 Z-0.125000
G01 X310.399996 Y492.800007 Z-0.125000
G01 X310.399996 Y488.533343 Z-0.125000
G01 X312.533342 Y485.333338 Z-0.125000
G01 X313.600001 Y483.200021 Z-0.125000
G01 X315.733347 Y480.000016 Z-0.125000
G01 X318.933324 Y477.866670 Z-0.125000
G01 X323.199987 Y476.800011 Z-0.125000
G01 X324.266674 Y473.600006 Z-0.125000
G01 X326.399992 Y470.400029 Z-0.125000
G01 X327.466679 Y465.066678 Z-0.125000
G01 X327.466679 Y460.800014 Z-0.125000
G01 X330.666656 Y458.666668 Z-0.125000
G01 X332.800002 Y454.400005 Z-0.125000
G01 X336.000007 Y452.266687 Z-0.125000
G01 X339.200012 Y449.066682 Z-0.125000
G01 X342.399989 Y446.933336 Z-0.125000
G01 X341.333330 Y443.733359 Z-0.125000
G01 X344.533335 Y440.533354 Z-0.125000
G01 X346.666681 Y437.333349 Z-0.125000
G01 X347.733340 Y435.200003 Z-0.125000
G01 X350.933344 Y433.066686 Z-0.125000
G01 X349.866657 Y427.733363 Z-0.125000
G01 X347.733340 Y428.800022 Z-0.125000
G01 X345.599994 Y429.866681 Z-0.125000
G01 X343.466676 Y432.000027 Z-0.125000
G01 X341.333330 Y433.066686 Z-0.125000
G01 X341.333330 Y436.266691 Z-0.125000
G01 X338.133325 Y435.200003 Z-0.125000
G01 X339.200012 Y438.400008 Z-0.125000
G01 X337.066666 Y439.466695 Z-0.125000
G01 X334.933348 Y440.533354 Z-0.125000
G01 X336.000007 Y443.733359 Z-0.125000
G01 X332.800002 Y442.666672 Z-0.125000
G01 X330.666656 Y444.800018 Z-0.125000
G01 X333.866661 Y446.933336 Z-0.125000
G01 X329.599997 Y449.066682 Z-0.125000
G01 X328.533338 Y446.933336 Z-0.125000
G01 X325.333333 Y446.933336 Z-0.125000
G01 X326.399992 Y451.200028 Z-0.125000
G01 X327.466679 Y453.333346 Z-0.125000
G01 X323.199987 Y452.266687 Z-0.125000
G01 X324.266674 Y455.466692 Z-0.125000
G01 X322.133328 Y456.533351 Z-0.125000
G01 X320.000011 Y456.533351 Z-0.125000
G01 X317.866665 Y458.666668 Z-0.125000
G01 X321.066670 Y459.733356 Z-0.125000
G01 X323.199987 Y465.066678 Z-0.125000
G01 X321.066670 Y468.266683 Z-0.125000
G01 X318.933324 Y471.466688 Z-0.125000
G01 X315.733347 Y473.600006 Z-0.125000
G01 X311.466655 Y474.666693 Z-0.125000
G01 X310.399996 Y477.866670 Z-0.125000
G01 X307.199991 Y481.066675 Z-0.125000
G01 X305.066673 Y483.200021 Z-0.125000
G01 X305.066673 Y487.466684 Z-0.125000
G01 X301.866668 Y487.466684 Z-0.125000
G01 X299.733322 Y490.666689 Z-0.125000
G01 X305.066673 Y492.800007 Z-0.125000
G01 X300.800009 Y496.000012 Z-0.125000
G01 X297.600005 Y499.200017 Z-0.125000
G01 X295.466659 Y496.000012 Z-0.125000
G01 X295.466659 Y491.733348 Z-0.125000
G01 X294.400000 Y488.533343 Z-0.125000
G01 X291.199995 Y486.400026 Z-0.125000
G01 X287.999990 Y483.200021 Z-0.125000
G01 X284.800002 Y480.000016 Z-0.125000
G01 X295.466659 Y485.333338 Z-0.125000
G01 X297.600005 Y484.266679 Z-0.125000
G01 X298.666663 Y481.066675 Z-0.125000
G01 X300.800009 Y481.066675 Z-0.125000
G01 X300.800009 Y477.866670 Z-0.125000
G01 X302.933327 Y476.800011 Z-0.125000
G01 X305.066673 Y475.733352 Z-0.125000
G01 X305.066673 Y473.600006 Z-0.125000
G01 X307.199991 Y471.466688 Z-0.125000
G01 X309.333337 Y470.400029 Z-0.125000
G01 X311.466655 Y469.333342 Z-0.125000
G01 X312.533342 Y467.200024 Z-0.125000
G01 X314.666660 Y466.133337 Z-0.125000
G01 X316.800006 Y464.000019 Z-0.125000
G01 X317.866665 Y461.866673 Z-0.125000
G01 X313.600001 Y461.866673 Z-0.125000
G01 X308.266678 Y464.000019 Z-0.125000
G01 X307.199991 Y452.266687 Z-0.125000
G01 X311.466655 Y448.000023 Z-0.125000
G01 X314.666660 Y442.666672 Z-0.125000
G01 X321.066670 Y439.466695 Z-0.125000
G01 X324.266674 Y436.266691 Z-0.125000
G01 X329.599997 Y433.066686 Z-0.125000
G01 X332.800002 Y426.666676 Z-0.125000
G01 X339.200012 Y425.600017 Z-0.125000
G01 X345.599994 Y423.466671 Z-0.125000
G01 X352.000003 Y425.600017 Z-0.125000
G01 X354.133321 Y425.600017 Z-0.125000
G01 X354.133321 Y421.333353 Z-0.125000
G01 X357.333326 Y416.000002 Z-0.125000
G01 X366.933341 Y414.933343 Z-0.125000
G01 X366.933341 Y420.266694 Z-0.125000
G01 X364.799995 Y421.333353 Z-0.125000
G01 X362.666677 Y422.400012 Z-0.125000
G01 X361.599990 Y423.466671 Z-0.125000
G01 X358.400013 Y423.466671 Z-0.125000
G01 X357.333326 Y425.600017 Z-0.125000
G01 X357.333326 Y429.866681 Z-0.125000
G01 X355.200008 Y432.000027 Z-0.125000
G01 X355.200008 Y437.333349 Z-0.125000
G01 X353.066662 Y440.533354 Z-0.125000
G01 X350.933344 Y443.733359 Z-0.125000
G01 X347.733340 Y445.866677 Z-0.125000
G01 X348.799998 Y450.133341 Z-0.125000
G01 X353.066662 Y450.133341 Z-0.125000
G01 X355.200008 Y446.933336 Z-0.125000
G01 X357.333326 Y442.666672 Z-0.125000
G01 X359.466672 Y446.933336 Z-0.125000
G01 X363.733336 Y445.866677 Z-0.125000
G01 X365.866682 Y450.133341 Z-0.125000
G01 X362.666677 Y452.266687 Z-0.125000
G01 X358.400013 Y452.266687 Z-0.125000
G01 X356.266667 Y455.466692 Z-0.125000
G01 X352.000003 Y455.466692 Z-0.125000
G01 X352.000003 Y459.733356 Z-0.125000
G01 X352.000003 Y464.000019 Z-0.125000
G01 X350.933344 Y467.200024 Z-0.125000
G01 X346.666681 Y467.200024 Z-0.125000
G01 X343.466676 Y469.333342 Z-0.125000
G01 X343.466676 Y473.600006 Z-0.125000
G01 X349.866657 Y472.533347 Z-0.125000
G01 X348.799998 Y474.666693 Z-0.125000
G01 X346.666681 Y477.866670 Z-0.125000
G01 X342.399989 Y477.866670 Z-0.125000
G01 X338.133325 Y478.933357 Z-0.125000
G01 X340.266671 Y483.200021 Z-0.125000
G01 X338.133325 Y486.400026 Z-0.125000
G01 X338.133325 Y490.666689 Z-0.125000
G01 X343.466676 Y492.800007 Z-0.125000
G01 X343.466676 Y488.533343 Z-0.125000
G01 X345.599994 Y483.200021 Z-0.125000
G01 X346.666681 Y486.400026 Z-0.125000
G01 X350.933344 Y484.266679 Z-0.125000
G01 X352.000003 Y481.066675 Z-0.125000
G01 X355.200008 Y478.933357 Z-0.125000
G01 X355.200008 Y474.666693 Z-0.125000
G01 X355.200008 Y470.400029 Z-0.125000
G01 X357.333326 Y467.200024 Z-0.125000
G01 X357.333326 Y462.933360 Z-0.125000
G01 X358.400013 Y460.800014 Z-0.125000
G01 X361.599990 Y458.666668 Z-0.125000
G01 X364.799995 Y457.600010 Z-0.125000
G01 X368.000000 Y455.466692 Z-0.125000
G01 X372.266663 Y455.466692 Z-0.125000
G01 X376.533327 Y454.400005 Z-0.125000
G01 X380.799991 Y454.400005 Z-0.125000
G01 X379.733332 Y450.133341 Z-0.125000
G01 X381.866678 Y445.866677 Z-0.125000
G01 X385.066655 Y443.733359 Z-0.125000
G01 X387.200001 Y440.533354 Z-0.125000
G01 X389.333347 Y437.333349 Z-0.125000
G01 X393.600011 Y437.333349 Z-0.125000
G01 X393.600011 Y433.066686 Z-0.125000
G01 X390.400006 Y427.733363 Z-0.125000
G01 X394.666670 Y427.733363 Z-0.125000
G01 X396.800016 Y424.533358 Z-0.125000
G01 X391.466665 Y422.400012 Z-0.125000
G01 X387.200001 Y422.400012 Z-0.125000
G01 X383.999996 Y424.533358 Z-0.125000
G01 X386.133342 Y428.800022 Z-0.125000
G01 X387.200001 Y432.000027 Z-0.125000
G01 X383.999996 Y434.133345 Z-0.125000
G01 X381.866678 Y437.333349 Z-0.125000
G01 X379.733332 Y440.533354 Z-0.125000
G01 X377.600014 Y445.866677 Z-0.125000
G01 X374.400009 Y449.066682 Z-0.125000
G01 X371.200005 Y451.200028 Z-0.125000
G01 X369.066659 Y445.866677 Z-0.125000
G01 X372.266663 Y443.733359 Z-0.125000
G01 X374.400009 Y440.533354 Z-0.125000
G01 X373.333322 Y437.333349 Z-0.125000
G01 X376.533327 Y435.200003 Z-0.125000
G01 X378.666673 Y432.000027 Z-0.125000
G01 X380.799991 Y428.800022 Z-0.125000
G01 X378.666673 Y424.533358 Z-0.125000
G01 X375.466668 Y426.666676 Z-0.125000
G01 X373.333322 Y430.933340 Z-0.125000
G01 X369.066659 Y432.000027 Z-0.125000
G01 X366.933341 Y434.133345 Z-0.125000
G01 X368.000000 Y438.400008 Z-0.125000
G01 X365.866682 Y440.533354 Z-0.125000
G01 X361.599990 Y441.600013 Z-0.125000
G01 X359.466672 Y437.333349 Z-0.125000
G01 X361.599990 Y434.133345 Z-0.125000
G01 X362.666677 Y429.866681 Z-0.125000
G01 X366.933341 Y427.733363 Z-0.125000
G01 X370.133346 Y425.600017 Z-0.125000
G01 X370.133346 Y421.333353 Z-0.125000
G01 X371.200005 Y420.266694 Z-0.125000
G01 X373.333322 Y419.200007 Z-0.125000
G01 X375.466668 Y418.133348 Z-0.125000
G01 X377.600014 Y412.800026 Z-0.125000
G01 X379.733332 Y418.133348 Z-0.125000
G01 X378.666673 Y419.200007 Z-0.125000
G01 X381.866678 Y418.133348 Z-0.125000
G01 X383.999996 Y416.000002 Z-0.125000
G01 X387.200001 Y417.066689 Z-0.125000
G01 X389.333347 Y416.000002 Z-0.125000
G01 X387.200001 Y412.800026 Z-0.125000
G01 X388.266660 Y411.733338 Z-0.125000
G01 X391.466665 Y414.933343 Z-0.125000
G01 X393.600011 Y419.200007 Z-0.125000
G01 X394.666670 Y417.066689 Z-0.125000
G01 X396.800016 Y418.133348 Z-0.125000
G01 X398.933333 Y417.066689 Z-0.125000
G01 X397.866674 Y411.733338 Z-0.125000
G01 X402.133338 Y407.466675 Z-0.125000
G01 X404.266656 Y402.133352 Z-0.125000
G01 X407.466661 Y398.933347 Z-0.125000
G01 X412.800012 Y395.733342 Z-0.125000
G01 X419.199993 Y406.400016 Z-0.125000
G01 X423.466657 Y402.133352 Z-0.125000
G01 X421.333340 Y395.733342 Z-0.125000
G01 X419.199993 Y388.266673 Z-0.125000
G01 X422.399998 Y388.266673 Z-0.125000
G01 X424.533344 Y390.400019 Z-0.125000
G01 X426.666662 Y389.333360 Z-0.125000
G01 X428.800008 Y392.533337 Z-0.125000
G01 X433.066672 Y392.533337 Z-0.125000
G01 X430.933326 Y390.400019 Z-0.125000
G01 X428.800008 Y382.933351 Z-0.125000
G01 X432.000013 Y377.600028 Z-0.125000
G01 X433.066672 Y370.133359 Z-0.125000
G01 X439.466682 Y377.600028 Z-0.125000
G01 X440.533341 Y371.200018 Z-0.125000
G01 X444.800005 Y368.000013 Z-0.125000
G01 X450.133327 Y365.866695 Z-0.125000
G01 X450.133327 Y360.533345 Z-0.125000
G01 X455.466678 Y357.333340 Z-0.125000
G01 X456.533337 Y349.866671 Z-0.125000
G01 X460.800001 Y349.866671 Z-0.125000
G01 X464.000006 Y350.933358 Z-0.125000
G01 X465.066665 Y345.600007 Z-0.125000
G01 X467.200011 Y350.933358 Z-0.125000
G01 X470.400016 Y352.000017 Z-0.125000
G01 X473.599992 Y352.000017 Z-0.125000
G01 X475.733338 Y347.733353 Z-0.125000
G01 X474.666679 Y340.266684 Z-0.125000
G01 X478.933343 Y340.266684 Z-0.125000
G01 X483.200007 Y341.333343 Z-0.125000
G01 X486.400012 Y342.400002 Z-0.125000
G01 X489.599989 Y343.466689 Z-0.125000
G01 X492.799993 Y344.533348 Z-0.125000
G01 X495.999998 Y345.600007 Z-0.125000
G01 X487.466671 Y350.933358 Z-0.125000
G01 X498.133344 Y357.333340 Z-0.125000
G01 X504.533326 Y355.200022 Z-0.125000
G01 X506.666672 Y349.866671 Z-0.125000
G01 X504.533326 Y349.866671 Z-0.125000
G01 X501.333349 Y348.800012 Z-0.125000
G01 X499.200003 Y346.666694 Z-0.125000
G01 X501.333349 Y342.400002 Z-0.125000
G01 X506.666672 Y338.133338 Z-0.125000
G01 X506.666672 Y330.666670 Z-0.125000
G01 X507.733331 Y322.133342 Z-0.125000
G01 X503.466667 Y313.600015 Z-0.125000
G01 X511.999995 Y312.533356 Z-0.125000
G01 X511.999995 Y306.133346 Z-0.125000
G01 X519.466663 Y301.866682 Z-0.125000
G01 X522.666668 Y298.666683 Z-0.125000
G01 X521.600009 Y291.200014 Z-0.125000
G01 X526.933332 Y288.000015 Z-0.125000
G01 X535.466660 Y284.800015 Z-0.125000
G01 X536.533347 Y276.266682 Z-0.125000
G01 X541.866670 Y272.000016 Z-0.125000
G01 X549.333338 Y266.666682 Z-0.125000
G01 X545.066674 Y257.066681 Z-0.125000
G01 X533.333342 Y259.200016 Z-0.125000
G01 X524.800014 Y262.400015 Z-0.125000
G01 X521.600009 Y266.666682 Z-0.125000
G01 X524.800014 Y275.200015 Z-0.125000
G01 X518.400005 Y278.400014 Z-0.125000
G01 X509.866677 Y279.466682 Z-0.125000
G01 X510.933336 Y289.066682 Z-0.125000
G01 X506.666672 Y296.533348 Z-0.125000
G01 X499.200003 Y300.800015 Z-0.125000
G01 X495.999998 Y304.000014 Z-0.125000
G01 X492.799993 Y310.400010 Z-0.125000
G01 X494.933339 Y316.800019 Z-0.125000
G01 X493.866681 Y321.066683 Z-0.125000
G01 X497.066657 Y329.600011 Z-0.125000
G01 X492.799993 Y332.800016 Z-0.125000
G01 X488.533330 Y336.000021 Z-0.125000
G01 X485.333325 Y324.266688 Z-0.125000
G01 X478.933343 Y327.466693 Z-0.125000
G01 X473.599992 Y330.666670 Z-0.125000
G01 X473.599992 Y336.000021 Z-0.125000
G01 X469.333328 Y339.200026 Z-0.125000
G01 X461.866660 Y338.133338 Z-0.125000
G01 X454.399991 Y339.200026 Z-0.125000
G01 X455.466678 Y345.600007 Z-0.125000
G01 X453.333332 Y349.866671 Z-0.125000
G01 X450.133327 Y349.866671 Z-0.125000
G01 X446.933322 Y349.866671 Z-0.125000
G01 X443.733346 Y350.933358 Z-0.125000
G01 X440.533341 Y353.066676 Z-0.125000
G01 X440.533341 Y359.466686 Z-0.125000
G01 X435.199990 Y362.666691 Z-0.125000
G01 X433.066672 Y354.133335 Z-0.125000
G01 X434.133331 Y349.866671 Z-0.125000
G01 X435.199990 Y345.600007 Z-0.125000
G01 X440.533341 Y342.400002 Z-0.125000
G01 X445.866663 Y340.266684 Z-0.125000
G01 X444.800005 Y333.866675 Z-0.125000
G01 X442.666659 Y325.333347 Z-0.125000
G01 X443.733346 Y318.933337 Z-0.125000
G01 X446.933322 Y314.666673 Z-0.125000
G01 X453.333332 Y313.600015 Z-0.125000
G01 X456.533337 Y310.400010 Z-0.125000
G01 X456.533337 Y321.066683 Z-0.125000
G01 X452.266673 Y324.266688 Z-0.125000
G01 X451.200014 Y331.733357 Z-0.125000
G01 X458.666655 Y331.733357 Z-0.125000
G01 X464.000006 Y328.533352 Z-0.125000
G01 X466.133324 Y321.066683 Z-0.125000
G01 X473.599992 Y320.000024 Z-0.125000
G01 X482.133348 Y317.866678 Z-0.125000
G01 X483.200007 Y311.466668 Z-0.125000
G01 X485.333325 Y301.866682 Z-0.125000
G01 X478.933343 Y304.000014 Z-0.125000
