%
(Header)
(Generated by gcodetools from Inkscape.)
(Using default header. To add your own header create file "header" in the output dir.)
M3
(Header end.)
G21 (All units in mm)

(Start cutting path id: path95857)
(Change tool to Default tool)

G00 Z5.000000
G00 X1.659769 Y330.374130

G01 Z-0.125000 F100.0(Penetrate)
G01 X1.659769 Y325.948075 Z-0.125000 F400.000000
G01 X0.553255 Y322.628534 Z-0.125000
G01 X0.553255 Y318.202478 Z-0.125000
G01 X0.553255 Y314.882937 Z-0.125000
G01 X0.553255 Y311.563396 Z-0.125000
G01 X0.553255 Y308.243854 Z-0.125000
G01 X0.553255 Y304.924313 Z-0.125000
G01 X0.553255 Y301.604771 Z-0.125000
G00 Z5.000000

(End cutting path id: path95857)


(Start cutting path id: path95855)
(Change tool to Default tool)

G00 Z5.000000
G00 X61.411515 Y413.362666

G01 Z-0.125000 F100.0(Penetrate)
G01 X60.305001 Y415.575694 Z-0.125000 F400.000000
G01 X63.624543 Y415.575694 Z-0.125000
G01 X62.518029 Y417.788721 Z-0.125000
G01 X59.198487 Y420.001749 Z-0.125000
G01 X61.411515 Y421.108263 Z-0.125000
G01 X62.518029 Y423.321290 Z-0.125000
G01 X62.518029 Y425.534318 Z-0.125000
G01 X63.624543 Y427.747346 Z-0.125000
G01 X64.731056 Y429.960373 Z-0.125000
G01 X65.837570 Y432.173401 Z-0.125000
G01 X68.050598 Y433.279915 Z-0.125000
G01 X70.263625 Y435.492942 Z-0.125000
G01 X72.476653 Y436.599456 Z-0.125000
G01 X71.370139 Y441.025511 Z-0.125000
G01 X69.157112 Y441.025511 Z-0.125000
G01 X66.944084 Y439.918998 Z-0.125000
G01 X64.731056 Y438.812484 Z-0.125000
G01 X62.518029 Y437.705970 Z-0.125000
G01 X63.624543 Y436.599456 Z-0.125000
G01 X60.305001 Y435.492942 Z-0.125000
G01 X58.091974 Y434.386428 Z-0.125000
G01 X58.091974 Y432.173401 Z-0.125000
G01 X55.878946 Y431.066887 Z-0.125000
G01 X54.772432 Y429.960373 Z-0.125000
G01 X52.559405 Y428.853859 Z-0.125000
G01 X51.452891 Y432.173401 Z-0.125000
G01 X51.452891 Y437.705970 Z-0.125000
G01 X54.772432 Y441.025511 Z-0.125000
G01 X55.878946 Y444.345053 Z-0.125000
G01 X62.518029 Y445.451567 Z-0.125000
G01 X60.305001 Y450.984136 Z-0.125000
G01 X63.624543 Y454.303677 Z-0.125000
G01 X68.050598 Y453.197163 Z-0.125000
G01 X70.263625 Y453.197163 Z-0.125000
G01 X72.476653 Y455.410191 Z-0.125000
G01 X74.689681 Y456.516705 Z-0.125000
G01 X74.689681 Y459.836246 Z-0.125000
G01 X78.009222 Y459.836246 Z-0.125000
G01 X78.009222 Y463.155788 Z-0.125000
G01 X80.222250 Y465.368815 Z-0.125000
G01 X83.541791 Y465.368815 Z-0.125000
G01 X84.648305 Y467.581843 Z-0.125000
G01 X86.861333 Y468.688357 Z-0.125000
G01 X89.074360 Y470.901384 Z-0.125000
G01 X92.393902 Y470.901384 Z-0.125000
G01 X94.606929 Y473.114412 Z-0.125000
G01 X96.819957 Y475.327439 Z-0.125000
G01 X91.287388 Y475.327439 Z-0.125000
G01 X92.393902 Y478.646981 Z-0.125000
G01 X94.606929 Y480.860008 Z-0.125000
G01 X94.606929 Y484.179550 Z-0.125000
G01 X97.926471 Y484.179550 Z-0.125000
G01 X97.926471 Y480.860008 Z-0.125000
G01 X99.032985 Y477.540467 Z-0.125000
G01 X102.352526 Y477.540467 Z-0.125000
G01 X103.459040 Y474.220926 Z-0.125000
G01 X101.246012 Y473.114412 Z-0.125000
G01 X99.032985 Y470.901384 Z-0.125000
G01 X96.819957 Y468.688357 Z-0.125000
G01 X94.606929 Y466.475329 Z-0.125000
G01 X91.287388 Y466.475329 Z-0.125000
G01 X89.074360 Y464.262301 Z-0.125000
G01 X93.500415 Y462.049274 Z-0.125000
G01 X94.606929 Y457.623218 Z-0.125000
G01 X96.819957 Y459.836246 Z-0.125000
G01 X97.926471 Y463.155788 Z-0.125000
G01 X100.139498 Y465.368815 Z-0.125000
G01 X102.352526 Y467.581843 Z-0.125000
G01 X104.565554 Y468.688357 Z-0.125000
G01 X105.672067 Y470.901384 Z-0.125000
G01 X107.885095 Y466.475329 Z-0.125000
G01 X104.565554 Y463.155788 Z-0.125000
G01 X102.352526 Y460.942760 Z-0.125000
G01 X104.565554 Y457.623218 Z-0.125000
G01 X107.885095 Y458.729732 Z-0.125000
G01 X107.885095 Y463.155788 Z-0.125000
G01 X110.098123 Y462.049274 Z-0.125000
G01 X111.204636 Y463.155788 Z-0.125000
G01 X112.311150 Y459.836246 Z-0.125000
G01 X111.204636 Y457.623218 Z-0.125000
G01 X114.524178 Y456.516705 Z-0.125000
G01 X114.524178 Y454.303677 Z-0.125000
G01 X110.098123 Y454.303677 Z-0.125000
G01 X106.778581 Y454.303677 Z-0.125000
G01 X106.778581 Y450.984136 Z-0.125000
G01 X111.204636 Y449.877622 Z-0.125000
G01 X114.524178 Y450.984136 Z-0.125000
G01 X116.737205 Y452.090649 Z-0.125000
G01 X117.843719 Y448.771108 Z-0.125000
G01 X117.843719 Y445.451567 Z-0.125000
G01 X113.417664 Y446.558080 Z-0.125000
G01 X112.311150 Y444.345053 Z-0.125000
G01 X107.885095 Y445.451567 Z-0.125000
G01 X106.778581 Y447.664594 Z-0.125000
G01 X102.352526 Y447.664594 Z-0.125000
G01 X102.352526 Y450.984136 Z-0.125000
G01 X102.352526 Y454.303677 Z-0.125000
G01 X100.139498 Y457.623218 Z-0.125000
G01 X97.926471 Y454.303677 Z-0.125000
G01 X97.926471 Y450.984136 Z-0.125000
G01 X97.926471 Y447.664594 Z-0.125000
G01 X94.606929 Y446.558080 Z-0.125000
G01 X90.180874 Y446.558080 Z-0.125000
G01 X90.180874 Y449.877622 Z-0.125000
G01 X93.500415 Y450.984136 Z-0.125000
G01 X93.500415 Y454.303677 Z-0.125000
G01 X89.074360 Y453.197163 Z-0.125000
G01 X86.861333 Y456.516705 Z-0.125000
G01 X90.180874 Y457.623218 Z-0.125000
G01 X89.074360 Y460.942760 Z-0.125000
G01 X85.754819 Y460.942760 Z-0.125000
G01 X82.435277 Y460.942760 Z-0.125000
G01 X82.435277 Y457.623218 Z-0.125000
G01 X80.222250 Y455.410191 Z-0.125000
G01 X79.115736 Y453.197163 Z-0.125000
G01 X75.796195 Y452.090649 Z-0.125000
G01 X72.476653 Y449.877622 Z-0.125000
G01 X70.263625 Y448.771108 Z-0.125000
G01 X69.157112 Y445.451567 Z-0.125000
G01 X73.583167 Y445.451567 Z-0.125000
G01 X73.583167 Y442.132025 Z-0.125000
G01 X75.796195 Y443.238539 Z-0.125000
G01 X79.115736 Y442.132025 Z-0.125000
G01 X80.222250 Y443.238539 Z-0.125000
G01 X76.902708 Y446.558080 Z-0.125000
G01 X78.009222 Y448.771108 Z-0.125000
G01 X81.328764 Y449.877622 Z-0.125000
G01 X84.648305 Y453.197163 Z-0.125000
G01 X85.754819 Y449.877622 Z-0.125000
G01 X85.754819 Y446.558080 Z-0.125000
G01 X82.435277 Y445.451567 Z-0.125000
G01 X83.541791 Y442.132025 Z-0.125000
G01 X84.648305 Y443.238539 Z-0.125000
G01 X87.967846 Y442.132025 Z-0.125000
G01 X89.074360 Y443.238539 Z-0.125000
G01 X91.287388 Y442.132025 Z-0.125000
G01 X93.500415 Y443.238539 Z-0.125000
G01 X95.713443 Y442.132025 Z-0.125000
G01 X97.926471 Y442.132025 Z-0.125000
G01 X100.139498 Y444.345053 Z-0.125000
G01 X100.139498 Y441.025511 Z-0.125000
G01 X102.352526 Y441.025511 Z-0.125000
G01 X104.565554 Y443.238539 Z-0.125000
G01 X105.672067 Y441.025511 Z-0.125000
G01 X107.885095 Y441.025511 Z-0.125000
G01 X110.098123 Y441.025511 Z-0.125000
G01 X112.311150 Y441.025511 Z-0.125000
G01 X114.524178 Y441.025511 Z-0.125000
G01 X116.737205 Y442.132025 Z-0.125000
G01 X118.950233 Y442.132025 Z-0.125000
G01 X121.163261 Y442.132025 Z-0.125000
G01 X122.269775 Y443.238539 Z-0.125000
G01 X122.269775 Y445.451567 Z-0.125000
G01 X125.589316 Y444.345053 Z-0.125000
G01 X126.695830 Y446.558080 Z-0.125000
G01 X128.908857 Y446.558080 Z-0.125000
G01 X131.121885 Y447.664594 Z-0.125000
G01 X132.228399 Y445.451567 Z-0.125000
G01 X134.441426 Y446.558080 Z-0.125000
G01 X136.654454 Y444.345053 Z-0.125000
G01 X135.547940 Y438.812484 Z-0.125000
G01 X141.080509 Y443.238539 Z-0.125000
G01 X138.867482 Y444.345053 Z-0.125000
G01 X138.867482 Y446.558080 Z-0.125000
G01 X136.654454 Y448.771108 Z-0.125000
G01 X136.654454 Y450.984136 Z-0.125000
G01 X134.441426 Y453.197163 Z-0.125000
G01 X132.228399 Y455.410191 Z-0.125000
G01 X130.015371 Y456.516705 Z-0.125000
G01 X130.015371 Y453.197163 Z-0.125000
G01 X123.376288 Y452.090649 Z-0.125000
G01 X126.695830 Y458.729732 Z-0.125000
G01 X124.482802 Y460.942760 Z-0.125000
G01 X121.163261 Y458.729732 Z-0.125000
G01 X121.163261 Y462.049274 Z-0.125000
G01 X122.269775 Y463.155788 Z-0.125000
G01 X120.056747 Y465.368815 Z-0.125000
G01 X117.843719 Y467.581843 Z-0.125000
G01 X117.843719 Y469.794870 Z-0.125000
G01 X115.630692 Y470.901384 Z-0.125000
G01 X114.524178 Y467.581843 Z-0.125000
G01 X112.311150 Y473.114412 Z-0.125000
G01 X114.524178 Y474.220926 Z-0.125000
G01 X113.417664 Y477.540467 Z-0.125000
G01 X111.204636 Y478.646981 Z-0.125000
G01 X111.204636 Y481.966522 Z-0.125000
G01 X108.991609 Y483.073036 Z-0.125000
G01 X104.565554 Y484.179550 Z-0.125000
G01 X107.885095 Y486.392578 Z-0.125000
G01 X105.672067 Y487.499091 Z-0.125000
G01 X104.565554 Y489.712119 Z-0.125000
G01 X101.246012 Y490.818633 Z-0.125000
G01 X101.246012 Y493.031660 Z-0.125000
G01 X99.032985 Y495.244688 Z-0.125000
G01 X96.819957 Y495.244688 Z-0.125000
G01 X94.606929 Y491.925147 Z-0.125000
G01 X94.606929 Y497.457716 Z-0.125000
G01 X92.393902 Y497.457716 Z-0.125000
G01 X87.967846 Y499.670743 Z-0.125000
G01 X85.754819 Y500.777257 Z-0.125000
G01 X82.435277 Y499.670743 Z-0.125000
G01 X79.115736 Y501.883771 Z-0.125000
G01 X76.902708 Y502.990285 Z-0.125000
G01 X74.689681 Y502.990285 Z-0.125000
G01 X70.263625 Y502.990285 Z-0.125000
G01 X72.476653 Y505.203312 Z-0.125000
G01 X70.263625 Y507.416340 Z-0.125000
G01 X68.050598 Y509.629368 Z-0.125000
G01 X65.837570 Y509.629368 Z-0.125000
G01 X61.411515 Y507.416340 Z-0.125000
G01 X62.518029 Y511.842395 Z-0.125000
G01 X60.305001 Y512.948909 Z-0.125000
G01 X56.985460 Y515.161937 Z-0.125000
G01 X54.772432 Y515.161937 Z-0.125000
G01 X51.452891 Y517.374964 Z-0.125000
G01 X48.133349 Y517.374964 Z-0.125000
G01 X48.133349 Y519.587992 Z-0.125000
G01 X44.813808 Y519.587992 Z-0.125000
G01 X42.600780 Y520.694506 Z-0.125000
G01 X39.281239 Y521.801019 Z-0.125000
G01 X34.855184 Y522.907533 Z-0.125000
G01 X33.748670 Y519.587992 Z-0.125000
G01 X34.855184 Y514.055423 Z-0.125000
G01 X34.855184 Y510.735881 Z-0.125000
G01 X35.961697 Y506.309826 Z-0.125000
G01 X37.068211 Y500.777257 Z-0.125000
G01 X38.174725 Y496.351202 Z-0.125000
G01 X38.174725 Y493.031660 Z-0.125000
G01 X39.281239 Y490.818633 Z-0.125000
G01 X39.281239 Y488.605605 Z-0.125000
G01 X40.387753 Y485.286064 Z-0.125000
G01 X41.494266 Y481.966522 Z-0.125000
G01 X41.494266 Y479.753495 Z-0.125000
G01 X41.494266 Y476.433953 Z-0.125000
G01 X42.600780 Y473.114412 Z-0.125000
G01 X42.600780 Y469.794870 Z-0.125000
G01 X43.707294 Y464.262301 Z-0.125000
G01 X44.813808 Y459.836246 Z-0.125000
G01 X44.813808 Y456.516705 Z-0.125000
G01 X49.239863 Y464.262301 Z-0.125000
G01 X51.452891 Y468.688357 Z-0.125000
G01 X50.346377 Y474.220926 Z-0.125000
G01 X50.346377 Y479.753495 Z-0.125000
G01 X56.985460 Y481.966522 Z-0.125000
G01 X55.878946 Y484.179550 Z-0.125000
G01 X59.198487 Y485.286064 Z-0.125000
G01 X61.411515 Y487.499091 Z-0.125000
G01 X62.518029 Y490.818633 Z-0.125000
G01 X59.198487 Y490.818633 Z-0.125000
G01 X55.878946 Y489.712119 Z-0.125000
G01 X54.772432 Y488.605605 Z-0.125000
G01 X52.559405 Y487.499091 Z-0.125000
G01 X48.133349 Y485.286064 Z-0.125000
G01 X45.920322 Y493.031660 Z-0.125000
G01 X50.346377 Y495.244688 Z-0.125000
G01 X52.559405 Y495.244688 Z-0.125000
G01 X52.559405 Y491.925147 Z-0.125000
G01 X55.878946 Y494.138174 Z-0.125000
G01 X59.198487 Y495.244688 Z-0.125000
G01 X60.305001 Y498.564229 Z-0.125000
G01 X56.985460 Y498.564229 Z-0.125000
G01 X53.665918 Y498.564229 Z-0.125000
G01 X50.346377 Y498.564229 Z-0.125000
G01 X50.346377 Y501.883771 Z-0.125000
G01 X48.133349 Y501.883771 Z-0.125000
G01 X42.600780 Y500.777257 Z-0.125000
G01 X42.600780 Y505.203312 Z-0.125000
G01 X42.600780 Y509.629368 Z-0.125000
G01 X40.387753 Y515.161937 Z-0.125000
G01 X43.707294 Y515.161937 Z-0.125000
G01 X44.813808 Y511.842395 Z-0.125000
G01 X45.920322 Y509.629368 Z-0.125000
G01 X47.026835 Y506.309826 Z-0.125000
G01 X48.133349 Y505.203312 Z-0.125000
G01 X52.559405 Y504.096798 Z-0.125000
G01 X53.665918 Y509.629368 Z-0.125000
G01 X55.878946 Y504.096798 Z-0.125000
G01 X56.985460 Y502.990285 Z-0.125000
G01 X60.305001 Y501.883771 Z-0.125000
G01 X62.518029 Y500.777257 Z-0.125000
G01 X64.731056 Y499.670743 Z-0.125000
G01 X66.944084 Y498.564229 Z-0.125000
G01 X69.157112 Y497.457716 Z-0.125000
G01 X65.837570 Y496.351202 Z-0.125000
G01 X63.624543 Y494.138174 Z-0.125000
G01 X66.944084 Y490.818633 Z-0.125000
G01 X69.157112 Y491.925147 Z-0.125000
G01 X70.263625 Y495.244688 Z-0.125000
G01 X72.476653 Y495.244688 Z-0.125000
G01 X74.689681 Y494.138174 Z-0.125000
G01 X78.009222 Y495.244688 Z-0.125000
G01 X78.009222 Y491.925147 Z-0.125000
G01 X76.902708 Y491.925147 Z-0.125000
G01 X73.583167 Y490.818633 Z-0.125000
G01 X71.370139 Y487.499091 Z-0.125000
G01 X68.050598 Y486.392578 Z-0.125000
G01 X65.837570 Y485.286064 Z-0.125000
G01 X63.624543 Y483.073036 Z-0.125000
G01 X61.411515 Y480.860008 Z-0.125000
G01 X60.305001 Y477.540467 Z-0.125000
G01 X56.985460 Y478.646981 Z-0.125000
G01 X58.091974 Y474.220926 Z-0.125000
G01 X59.198487 Y472.007898 Z-0.125000
G01 X59.198487 Y468.688357 Z-0.125000
G01 X59.198487 Y465.368815 Z-0.125000
G01 X62.518029 Y466.475329 Z-0.125000
G01 X64.731056 Y468.688357 Z-0.125000
G01 X68.050598 Y469.794870 Z-0.125000
G01 X71.370139 Y469.794870 Z-0.125000
G01 X73.583167 Y472.007898 Z-0.125000
G01 X75.796195 Y474.220926 Z-0.125000
G01 X79.115736 Y474.220926 Z-0.125000
G01 X81.328764 Y476.433953 Z-0.125000
G01 X83.541791 Y478.646981 Z-0.125000
G01 X82.435277 Y481.966522 Z-0.125000
G01 X79.115736 Y480.860008 Z-0.125000
G01 X76.902708 Y478.646981 Z-0.125000
G01 X73.583167 Y478.646981 Z-0.125000
G01 X71.370139 Y476.433953 Z-0.125000
G01 X69.157112 Y474.220926 Z-0.125000
G01 X65.837570 Y473.114412 Z-0.125000
G01 X62.518029 Y473.114412 Z-0.125000
G01 X64.731056 Y477.540467 Z-0.125000
G01 X66.944084 Y478.646981 Z-0.125000
G01 X69.157112 Y480.860008 Z-0.125000
G01 X71.370139 Y483.073036 Z-0.125000
G01 X74.689681 Y483.073036 Z-0.125000
G01 X76.902708 Y485.286064 Z-0.125000
G01 X75.796195 Y487.499091 Z-0.125000
G01 X80.222250 Y486.392578 Z-0.125000
G01 X80.222250 Y490.818633 Z-0.125000
G01 X82.435277 Y489.712119 Z-0.125000
G01 X87.967846 Y491.925147 Z-0.125000
G01 X84.648305 Y488.605605 Z-0.125000
G01 X84.648305 Y485.286064 Z-0.125000
G01 X86.861333 Y487.499091 Z-0.125000
G01 X89.074360 Y486.392578 Z-0.125000
G01 X91.287388 Y486.392578 Z-0.125000
G01 X90.180874 Y483.073036 Z-0.125000
G01 X86.861333 Y481.966522 Z-0.125000
G01 X87.967846 Y478.646981 Z-0.125000
G01 X86.861333 Y475.327439 Z-0.125000
G01 X84.648305 Y473.114412 Z-0.125000
G01 X81.328764 Y470.901384 Z-0.125000
G01 X78.009222 Y469.794870 Z-0.125000
G01 X75.796195 Y467.581843 Z-0.125000
G01 X73.583167 Y465.368815 Z-0.125000
G01 X71.370139 Y464.262301 Z-0.125000
G01 X68.050598 Y465.368815 Z-0.125000
G01 X65.837570 Y463.155788 Z-0.125000
G01 X70.263625 Y460.942760 Z-0.125000
G01 X68.050598 Y458.729732 Z-0.125000
G01 X65.837570 Y456.516705 Z-0.125000
G01 X63.624543 Y458.729732 Z-0.125000
G01 X62.518029 Y462.049274 Z-0.125000
G01 X61.411515 Y460.942760 Z-0.125000
G01 X56.985460 Y460.942760 Z-0.125000
G01 X53.665918 Y456.516705 Z-0.125000
G01 X52.559405 Y450.984136 Z-0.125000
G01 X45.920322 Y450.984136 Z-0.125000
G01 X45.920322 Y447.664594 Z-0.125000
G01 X44.813808 Y445.451567 Z-0.125000
G01 X45.920322 Y443.238539 Z-0.125000
G01 X44.813808 Y441.025511 Z-0.125000
G01 X45.920322 Y437.705970 Z-0.125000
G01 X45.920322 Y434.386428 Z-0.125000
G01 X45.920322 Y431.066887 Z-0.125000
G01 X44.813808 Y428.853859 Z-0.125000
G01 X50.346377 Y425.534318 Z-0.125000
G01 X45.920322 Y424.427804 Z-0.125000
G01 X44.813808 Y420.001749 Z-0.125000
G01 X53.665918 Y417.788721 Z-0.125000
G01 X51.452891 Y414.469180 Z-0.125000
G01 X50.346377 Y411.149638 Z-0.125000
G01 X42.600780 Y414.469180 Z-0.125000
G01 X40.387753 Y412.256152 Z-0.125000
G01 X38.174725 Y408.936611 Z-0.125000
G01 X37.068211 Y406.723583 Z-0.125000
G01 X34.855184 Y403.404042 Z-0.125000
G01 X33.748670 Y400.084500 Z-0.125000
G01 X31.535642 Y396.764959 Z-0.125000
G01 X29.322615 Y393.445418 Z-0.125000
G01 X28.216101 Y390.125876 Z-0.125000
G01 X26.003073 Y386.806335 Z-0.125000
G01 X23.790045 Y383.486793 Z-0.125000
G01 X21.577018 Y381.273766 Z-0.125000
G01 X21.577018 Y376.847710 Z-0.125000
G01 X18.257476 Y373.528169 Z-0.125000
G01 X17.150963 Y371.315141 Z-0.125000
G01 X14.937935 Y369.102114 Z-0.125000
G01 X13.831421 Y365.782572 Z-0.125000
G01 X12.724907 Y363.569545 Z-0.125000
G01 X11.618394 Y359.143489 Z-0.125000
G01 X10.511880 Y356.930462 Z-0.125000
G01 X8.298852 Y353.610920 Z-0.125000
G01 X7.192338 Y350.291379 Z-0.125000
G01 X6.085825 Y346.971838 Z-0.125000
G01 X4.979311 Y344.758810 Z-0.125000
G01 X3.872797 Y339.226241 Z-0.125000
G01 X3.872797 Y333.693672 Z-0.125000
G01 X1.659769 Y330.374130 Z-0.125000
G00 Z5.000000

(End cutting path id: path95855)


(Start cutting path id: path95853)
(Change tool to Default tool)

G00 Z5.000000
G00 X113.417664 Y247.385595

G01 Z-0.125000 F100.0(Penetrate)
G01 X113.417664 Y245.172567 Z-0.125000 F400.000000
G01 X113.417664 Y242.959539 Z-0.125000
G01 X111.204636 Y244.066053 Z-0.125000
G01 X104.565554 Y246.279081 Z-0.125000
G01 X103.459040 Y245.172567 Z-0.125000
G01 X101.246012 Y245.172567 Z-0.125000
G01 X101.246012 Y241.853026 Z-0.125000
G01 X99.032985 Y241.853026 Z-0.125000
G01 X97.926471 Y239.639998 Z-0.125000
G01 X95.713443 Y238.533484 Z-0.125000
G01 X94.606929 Y236.320457 Z-0.125000
G01 X94.606929 Y231.894401 Z-0.125000
G01 X90.180874 Y228.574860 Z-0.125000
G01 X85.754819 Y226.361832 Z-0.125000
G01 X80.222250 Y226.361832 Z-0.125000
G01 X74.689681 Y225.255318 Z-0.125000
G01 X70.263625 Y223.042291 Z-0.125000
G01 X71.370139 Y216.403208 Z-0.125000
G01 X78.009222 Y218.616236 Z-0.125000
G01 X83.541791 Y219.722749 Z-0.125000
G01 X89.074360 Y219.722749 Z-0.125000
G01 X93.500415 Y220.829263 Z-0.125000
G01 X96.819957 Y225.255318 Z-0.125000
G01 X102.352526 Y226.361832 Z-0.125000
G01 X103.459040 Y231.894401 Z-0.125000
G01 X106.778581 Y234.107429 Z-0.125000
G01 X108.991609 Y236.320457 Z-0.125000
G01 X108.991609 Y238.533484 Z-0.125000
G01 X111.204636 Y240.746512 Z-0.125000
G01 X112.311150 Y238.533484 Z-0.125000
G01 X116.737205 Y238.533484 Z-0.125000
G01 X115.630692 Y236.320457 Z-0.125000
G01 X115.630692 Y234.107429 Z-0.125000
G01 X114.524178 Y231.894401 Z-0.125000
G01 X112.311150 Y230.787888 Z-0.125000
G01 X114.524178 Y229.681374 Z-0.125000
G01 X113.417664 Y227.468346 Z-0.125000
G01 X111.204636 Y227.468346 Z-0.125000
G01 X110.098123 Y225.255318 Z-0.125000
G01 X108.991609 Y223.042291 Z-0.125000
G01 X107.885095 Y221.935777 Z-0.125000
G01 X104.565554 Y219.722749 Z-0.125000
G01 X100.139498 Y217.509722 Z-0.125000
G01 X95.713443 Y213.083667 Z-0.125000
G01 X93.500415 Y211.977153 Z-0.125000
G01 X92.393902 Y211.977153 Z-0.125000
G01 X90.180874 Y211.977153 Z-0.125000
G01 X87.967846 Y211.977153 Z-0.125000
G01 X86.861333 Y213.083667 Z-0.125000
G01 X84.648305 Y211.977153 Z-0.125000
G01 X82.435277 Y213.083667 Z-0.125000
G01 X80.222250 Y211.977153 Z-0.125000
G01 X78.009222 Y213.083667 Z-0.125000
G01 X75.796195 Y211.977153 Z-0.125000
G01 X73.583167 Y211.977153 Z-0.125000
G01 X71.370139 Y211.977153 Z-0.125000
G01 X69.157112 Y211.977153 Z-0.125000
G01 X68.050598 Y210.870639 Z-0.125000
G01 X64.731056 Y211.977153 Z-0.125000
G01 X64.731056 Y209.764125 Z-0.125000
G01 X62.518029 Y209.764125 Z-0.125000
G01 X60.305001 Y209.764125 Z-0.125000
G01 X58.091974 Y208.657611 Z-0.125000
G01 X56.985460 Y206.444584 Z-0.125000
G01 X54.772432 Y205.338070 Z-0.125000
G01 X53.665918 Y206.444584 Z-0.125000
G01 X53.665918 Y210.870639 Z-0.125000
G01 X58.091974 Y216.403208 Z-0.125000
G01 X61.411515 Y219.722749 Z-0.125000
G01 X64.731056 Y221.935777 Z-0.125000
G01 X65.837570 Y228.574860 Z-0.125000
G01 X68.050598 Y233.000915 Z-0.125000
G01 X69.157112 Y237.426970 Z-0.125000
G01 X74.689681 Y238.533484 Z-0.125000
G01 X78.009222 Y240.746512 Z-0.125000
G01 X75.796195 Y231.894401 Z-0.125000
G01 X82.435277 Y233.000915 Z-0.125000
G01 X85.754819 Y236.320457 Z-0.125000
G01 X86.861333 Y238.533484 Z-0.125000
G01 X89.074360 Y242.959539 Z-0.125000
G01 X93.500415 Y245.172567 Z-0.125000
G01 X92.393902 Y251.811650 Z-0.125000
G01 X86.861333 Y249.598622 Z-0.125000
G01 X82.435277 Y245.172567 Z-0.125000
G01 X75.796195 Y247.385595 Z-0.125000
G01 X80.222250 Y251.811650 Z-0.125000
G01 X84.648305 Y256.237705 Z-0.125000
G01 X89.074360 Y258.450733 Z-0.125000
G01 X93.500415 Y262.876788 Z-0.125000
G01 X95.713443 Y267.302843 Z-0.125000
G01 X94.606929 Y272.835412 Z-0.125000
G01 X87.967846 Y273.941926 Z-0.125000
G01 X86.861333 Y268.409357 Z-0.125000
G01 X83.541791 Y265.089816 Z-0.125000
G01 X78.009222 Y262.876788 Z-0.125000
G01 X75.796195 Y258.450733 Z-0.125000
G01 X72.476653 Y254.024678 Z-0.125000
G01 X68.050598 Y251.811650 Z-0.125000
G01 X70.263625 Y245.172567 Z-0.125000
G01 X65.837570 Y244.066053 Z-0.125000
G01 X60.305001 Y242.959539 Z-0.125000
G01 X59.198487 Y239.639998 Z-0.125000
G01 X59.198487 Y235.213943 Z-0.125000
G01 X59.198487 Y229.681374 Z-0.125000
G01 X56.985460 Y225.255318 Z-0.125000
G01 X52.559405 Y223.042291 Z-0.125000
G01 X51.452891 Y217.509722 Z-0.125000
G01 X45.920322 Y215.296694 Z-0.125000
G01 X42.600780 Y220.829263 Z-0.125000
G01 X45.920322 Y224.148805 Z-0.125000
G01 X48.133349 Y229.681374 Z-0.125000
G01 X50.346377 Y233.000915 Z-0.125000
G01 X49.239863 Y237.426970 Z-0.125000
G01 X51.452891 Y239.639998 Z-0.125000
G01 X53.665918 Y245.172567 Z-0.125000
G01 X58.091974 Y249.598622 Z-0.125000
G01 X62.518029 Y251.811650 Z-0.125000
G01 X63.624543 Y258.450733 Z-0.125000
G01 X68.050598 Y261.770274 Z-0.125000
G01 X70.263625 Y266.196329 Z-0.125000
G01 X75.796195 Y269.515871 Z-0.125000
G01 X75.796195 Y276.154954 Z-0.125000
G01 X80.222250 Y273.941926 Z-0.125000
G01 X81.328764 Y279.474495 Z-0.125000
G01 X82.435277 Y285.007064 Z-0.125000
G01 X83.541791 Y287.220092 Z-0.125000
G01 X84.648305 Y289.433119 Z-0.125000
G01 X82.435277 Y290.539633 Z-0.125000
G01 X82.435277 Y292.752661 Z-0.125000
G01 X80.222250 Y292.752661 Z-0.125000
G01 X76.902708 Y292.752661 Z-0.125000
G01 X74.689681 Y288.326606 Z-0.125000
G01 X71.370139 Y283.900550 Z-0.125000
G01 X70.263625 Y282.794037 Z-0.125000
G01 X72.476653 Y280.581009 Z-0.125000
G01 X72.476653 Y277.261468 Z-0.125000
G01 X66.944084 Y275.048440 Z-0.125000
G01 X64.731056 Y271.728898 Z-0.125000
G01 X59.198487 Y266.196329 Z-0.125000
G01 X58.091974 Y270.622385 Z-0.125000
G01 X58.091974 Y277.261468 Z-0.125000
G01 X51.452891 Y277.261468 Z-0.125000
G01 X50.346377 Y271.728898 Z-0.125000
G01 X45.920322 Y268.409357 Z-0.125000
G01 X39.281239 Y266.196329 Z-0.125000
G01 X37.068211 Y260.663760 Z-0.125000
G01 X34.855184 Y256.237705 Z-0.125000
G01 X31.535642 Y252.918164 Z-0.125000
G01 X23.790045 Y250.705136 Z-0.125000
G01 X24.896559 Y254.024678 Z-0.125000
G01 X27.109587 Y259.557247 Z-0.125000
G01 X28.216101 Y263.983302 Z-0.125000
G01 X32.642156 Y266.196329 Z-0.125000
G01 X37.068211 Y271.728898 Z-0.125000
G01 X40.387753 Y275.048440 Z-0.125000
G01 X43.707294 Y278.367981 Z-0.125000
G01 X42.600780 Y283.900550 Z-0.125000
G01 X48.133349 Y285.007064 Z-0.125000
G01 X54.772432 Y283.900550 Z-0.125000
G01 X58.091974 Y288.326606 Z-0.125000
G01 X62.518029 Y281.687523 Z-0.125000
G01 X66.944084 Y283.900550 Z-0.125000
G01 X68.050598 Y287.220092 Z-0.125000
G01 X66.944084 Y290.539633 Z-0.125000
G01 X63.624543 Y290.539633 Z-0.125000
G01 X64.731056 Y292.752661 Z-0.125000
G01 X65.837570 Y294.965688 Z-0.125000
G01 X63.624543 Y296.072202 Z-0.125000
G01 X65.837570 Y298.285230 Z-0.125000
G01 X63.624543 Y299.391744 Z-0.125000
G01 X63.624543 Y301.604771 Z-0.125000
G01 X64.731056 Y302.711285 Z-0.125000
G01 X62.518029 Y304.924313 Z-0.125000
G01 X64.731056 Y306.030827 Z-0.125000
G01 X64.731056 Y309.350368 Z-0.125000
G01 X62.518029 Y308.243854 Z-0.125000
G01 X62.518029 Y311.563396 Z-0.125000
G01 X63.624543 Y313.776423 Z-0.125000
G01 X61.411515 Y314.882937 Z-0.125000
G01 X63.624543 Y315.989451 Z-0.125000
G01 X64.731056 Y319.308992 Z-0.125000
G01 X63.624543 Y319.308992 Z-0.125000
G01 X60.305001 Y320.415506 Z-0.125000
G01 X63.624543 Y322.628534 Z-0.125000
G01 X64.731056 Y324.841561 Z-0.125000
G01 X64.731056 Y327.054589 Z-0.125000
G01 X64.731056 Y329.267617 Z-0.125000
G01 X65.837570 Y331.480644 Z-0.125000
G01 X66.944084 Y333.693672 Z-0.125000
G01 X68.050598 Y335.906699 Z-0.125000
G01 X69.157112 Y338.119727 Z-0.125000
G01 X71.370139 Y341.439268 Z-0.125000
G01 X66.944084 Y343.652296 Z-0.125000
G01 X63.624543 Y340.332755 Z-0.125000
G01 X62.518029 Y334.800186 Z-0.125000
G01 X59.198487 Y329.267617 Z-0.125000
G01 X53.665918 Y327.054589 Z-0.125000
G01 X50.346377 Y323.735048 Z-0.125000
G01 X44.813808 Y321.522020 Z-0.125000
G01 X38.174725 Y320.415506 Z-0.125000
G01 X37.068211 Y315.989451 Z-0.125000
G01 X33.748670 Y311.563396 Z-0.125000
G01 X28.216101 Y308.243854 Z-0.125000
G01 X26.003073 Y303.817799 Z-0.125000
G01 X22.683532 Y300.498258 Z-0.125000
G01 X19.363990 Y297.178716 Z-0.125000
G01 X16.044449 Y293.859175 Z-0.125000
G01 X17.150963 Y289.433119 Z-0.125000
G01 X14.937935 Y286.113578 Z-0.125000
G01 X16.044449 Y280.581009 Z-0.125000
G01 X10.511880 Y279.474495 Z-0.125000
G01 X9.405366 Y286.113578 Z-0.125000
G01 X8.298852 Y293.859175 Z-0.125000
G01 X9.405366 Y299.391744 Z-0.125000
G01 X11.618394 Y303.817799 Z-0.125000
G01 X14.937935 Y304.924313 Z-0.125000
G01 X16.044449 Y308.243854 Z-0.125000
G01 X10.511880 Y309.350368 Z-0.125000
G01 X10.511880 Y314.882937 Z-0.125000
G01 X9.405366 Y319.308992 Z-0.125000
G01 X13.831421 Y320.415506 Z-0.125000
G01 X13.831421 Y322.628534 Z-0.125000
G01 X10.511880 Y323.735048 Z-0.125000
G01 X12.724907 Y325.948075 Z-0.125000
G01 X13.831421 Y327.054589 Z-0.125000
G01 X13.831421 Y329.267617 Z-0.125000
G01 X11.618394 Y330.374130 Z-0.125000
G01 X12.724907 Y332.587158 Z-0.125000
G01 X10.511880 Y334.800186 Z-0.125000
G01 X12.724907 Y335.906699 Z-0.125000
G01 X10.511880 Y338.119727 Z-0.125000
G01 X11.618394 Y340.332755 Z-0.125000
G01 X11.618394 Y342.545782 Z-0.125000
G01 X11.618394 Y344.758810 Z-0.125000
G01 X11.618394 Y346.971838 Z-0.125000
G01 X11.618394 Y349.184865 Z-0.125000
G01 X19.363990 Y348.078351 Z-0.125000
G01 X20.470504 Y352.504407 Z-0.125000
G01 X22.683532 Y358.036976 Z-0.125000
G01 X24.896559 Y362.463031 Z-0.125000
G01 X27.109587 Y366.889086 Z-0.125000
G01 X30.429128 Y370.208628 Z-0.125000
G01 X31.535642 Y374.634683 Z-0.125000
G01 X31.535642 Y381.273766 Z-0.125000
G01 X32.642156 Y383.486793 Z-0.125000
G01 X33.748670 Y384.593307 Z-0.125000
G01 X35.961697 Y387.912848 Z-0.125000
G01 X38.174725 Y390.125876 Z-0.125000
G01 X40.387753 Y391.232390 Z-0.125000
G01 X39.281239 Y389.019362 Z-0.125000
G01 X41.494266 Y382.380279 Z-0.125000
G01 X41.494266 Y376.847710 Z-0.125000
G01 X39.281239 Y372.421655 Z-0.125000
G01 X39.281239 Y366.889086 Z-0.125000
G01 X35.961697 Y362.463031 Z-0.125000
G01 X33.748670 Y359.143489 Z-0.125000
G01 X32.642156 Y355.823948 Z-0.125000
G01 X29.322615 Y352.504407 Z-0.125000
G01 X28.216101 Y346.971838 Z-0.125000
G01 X33.748670 Y345.865324 Z-0.125000
G01 X34.855184 Y348.078351 Z-0.125000
G01 X35.961697 Y349.184865 Z-0.125000
G01 X35.961697 Y352.504407 Z-0.125000
G01 X37.068211 Y354.717434 Z-0.125000
G01 X38.174725 Y356.930462 Z-0.125000
G01 X39.281239 Y359.143489 Z-0.125000
G01 X40.387753 Y360.250003 Z-0.125000
G01 X42.600780 Y362.463031 Z-0.125000
G01 X44.813808 Y362.463031 Z-0.125000
G01 X44.813808 Y364.676058 Z-0.125000
G01 X47.026835 Y364.676058 Z-0.125000
G01 X47.026835 Y367.995600 Z-0.125000
G01 X50.346377 Y364.676058 Z-0.125000
G01 X51.452891 Y365.782572 Z-0.125000
G01 X53.665918 Y366.889086 Z-0.125000
G01 X54.772432 Y364.676058 Z-0.125000
G01 X58.091974 Y367.995600 Z-0.125000
G01 X58.091974 Y364.676058 Z-0.125000
G01 X61.411515 Y364.676058 Z-0.125000
G01 X62.518029 Y365.782572 Z-0.125000
G01 X65.837570 Y365.782572 Z-0.125000
G01 X69.157112 Y367.995600 Z-0.125000
G01 X70.263625 Y372.421655 Z-0.125000
G01 X74.689681 Y375.741197 Z-0.125000
G01 X65.837570 Y379.060738 Z-0.125000
G01 X60.305001 Y376.847710 Z-0.125000
G01 X61.411515 Y372.421655 Z-0.125000
G01 X53.665918 Y375.741197 Z-0.125000
G01 X49.239863 Y374.634683 Z-0.125000
G01 X49.239863 Y382.380279 Z-0.125000
G01 X54.772432 Y383.486793 Z-0.125000
G01 X59.198487 Y385.699821 Z-0.125000
G01 X62.518029 Y389.019362 Z-0.125000
G01 X60.305001 Y390.125876 Z-0.125000
G01 X58.091974 Y391.232390 Z-0.125000
G01 X56.985460 Y391.232390 Z-0.125000
G01 X56.985460 Y395.658445 Z-0.125000
G01 X54.772432 Y392.338904 Z-0.125000
G01 X52.559405 Y392.338904 Z-0.125000
G01 X51.452891 Y393.445418 Z-0.125000
G01 X49.239863 Y393.445418 Z-0.125000
G01 X47.026835 Y392.338904 Z-0.125000
G01 X45.920322 Y391.232390 Z-0.125000
G01 X42.600780 Y391.232390 Z-0.125000
G01 X42.600780 Y394.551931 Z-0.125000
G01 X41.494266 Y401.191014 Z-0.125000
G01 X43.707294 Y402.297528 Z-0.125000
G01 X44.813808 Y403.404042 Z-0.125000
G01 X47.026835 Y405.617069 Z-0.125000
G01 X48.133349 Y403.404042 Z-0.125000
G01 X50.346377 Y404.510556 Z-0.125000
G01 X51.452891 Y405.617069 Z-0.125000
G01 X53.665918 Y403.404042 Z-0.125000
G01 X55.878946 Y404.510556 Z-0.125000
G01 X56.985460 Y403.404042 Z-0.125000
G01 X59.198487 Y402.297528 Z-0.125000
G01 X62.518029 Y401.191014 Z-0.125000
G01 X61.411515 Y398.977987 Z-0.125000
G01 X63.624543 Y396.764959 Z-0.125000
G01 X62.518029 Y394.551931 Z-0.125000
G01 X64.731056 Y392.338904 Z-0.125000
G01 X65.837570 Y390.125876 Z-0.125000
G01 X64.731056 Y387.912848 Z-0.125000
G01 X66.944084 Y385.699821 Z-0.125000
G01 X69.157112 Y384.593307 Z-0.125000
G01 X70.263625 Y382.380279 Z-0.125000
G01 X72.476653 Y382.380279 Z-0.125000
G01 X75.796195 Y381.273766 Z-0.125000
G01 X76.902708 Y380.167252 Z-0.125000
G01 X80.222250 Y379.060738 Z-0.125000
G01 X81.328764 Y383.486793 Z-0.125000
G01 X83.541791 Y387.912848 Z-0.125000
G01 X86.861333 Y390.125876 Z-0.125000
G01 X84.648305 Y396.764959 Z-0.125000
G01 X85.754819 Y400.084500 Z-0.125000
G01 X87.967846 Y398.977987 Z-0.125000
G01 X87.967846 Y401.191014 Z-0.125000
G01 X90.180874 Y401.191014 Z-0.125000
G01 X90.180874 Y403.404042 Z-0.125000
G01 X91.287388 Y404.510556 Z-0.125000
G01 X89.074360 Y405.617069 Z-0.125000
G01 X86.861333 Y403.404042 Z-0.125000
G01 X84.648305 Y404.510556 Z-0.125000
G01 X83.541791 Y402.297528 Z-0.125000
G01 X81.328764 Y403.404042 Z-0.125000
G01 X82.435277 Y404.510556 Z-0.125000
G01 X83.541791 Y407.830097 Z-0.125000
G01 X85.754819 Y407.830097 Z-0.125000
G01 X86.861333 Y408.936611 Z-0.125000
G01 X89.074360 Y408.936611 Z-0.125000
G01 X90.180874 Y407.830097 Z-0.125000
G01 X91.287388 Y408.936611 Z-0.125000
G01 X93.500415 Y407.830097 Z-0.125000
G01 X94.606929 Y410.043125 Z-0.125000
G01 X95.713443 Y412.256152 Z-0.125000
G01 X96.819957 Y414.469180 Z-0.125000
G01 X99.032985 Y413.362666 Z-0.125000
G01 X99.032985 Y415.575694 Z-0.125000
G01 X97.926471 Y417.788721 Z-0.125000
G01 X96.819957 Y417.788721 Z-0.125000
G01 X94.606929 Y417.788721 Z-0.125000
G01 X94.606929 Y415.575694 Z-0.125000
G01 X92.393902 Y416.682208 Z-0.125000
G01 X91.287388 Y418.895235 Z-0.125000
G01 X90.180874 Y417.788721 Z-0.125000
G01 X89.074360 Y415.575694 Z-0.125000
G01 X91.287388 Y414.469180 Z-0.125000
G01 X93.500415 Y413.362666 Z-0.125000
G01 X92.393902 Y411.149638 Z-0.125000
G01 X90.180874 Y412.256152 Z-0.125000
G01 X87.967846 Y412.256152 Z-0.125000
G01 X86.861333 Y414.469180 Z-0.125000
G01 X85.754819 Y412.256152 Z-0.125000
G01 X83.541791 Y412.256152 Z-0.125000
G01 X82.435277 Y414.469180 Z-0.125000
G01 X80.222250 Y415.575694 Z-0.125000
G01 X78.009222 Y415.575694 Z-0.125000
G01 X75.796195 Y415.575694 Z-0.125000
G01 X74.689681 Y414.469180 Z-0.125000
G01 X73.583167 Y416.682208 Z-0.125000
G01 X71.370139 Y414.469180 Z-0.125000
G01 X72.476653 Y408.936611 Z-0.125000
G01 X75.796195 Y411.149638 Z-0.125000
G01 X78.009222 Y412.256152 Z-0.125000
G01 X80.222250 Y412.256152 Z-0.125000
G01 X82.435277 Y410.043125 Z-0.125000
G01 X81.328764 Y407.830097 Z-0.125000
G01 X78.009222 Y408.936611 Z-0.125000
G01 X79.115736 Y407.830097 Z-0.125000
G01 X79.115736 Y405.617069 Z-0.125000
G01 X75.796195 Y402.297528 Z-0.125000
G01 X78.009222 Y395.658445 Z-0.125000
G01 X75.796195 Y389.019362 Z-0.125000
G01 X71.370139 Y395.658445 Z-0.125000
G01 X68.050598 Y402.297528 Z-0.125000
G01 X65.837570 Y407.830097 Z-0.125000
G01 X61.411515 Y404.510556 Z-0.125000
G01 X60.305001 Y406.723583 Z-0.125000
G01 X61.411515 Y408.936611 Z-0.125000
G01 X60.305001 Y411.149638 Z-0.125000
G01 X61.411515 Y413.362666 Z-0.125000
G00 Z5.000000

(End cutting path id: path95853)


(Start cutting path id: path95851)
(Change tool to Default tool)

G00 Z5.000000
G00 X107.885095 Y323.735048

G01 Z-0.125000 F100.0(Penetrate)
G01 X105.672067 Y323.735048 Z-0.125000 F400.000000
G01 X104.565554 Y325.948075 Z-0.125000
G01 X103.459040 Y323.735048 Z-0.125000
G01 X101.246012 Y324.841561 Z-0.125000
G01 X99.032985 Y324.841561 Z-0.125000
G01 X97.926471 Y327.054589 Z-0.125000
G01 X95.713443 Y325.948075 Z-0.125000
G01 X93.500415 Y325.948075 Z-0.125000
G01 X94.606929 Y329.267617 Z-0.125000
G01 X95.713443 Y330.374130 Z-0.125000
G01 X97.926471 Y331.480644 Z-0.125000
G01 X100.139498 Y331.480644 Z-0.125000
G01 X99.032985 Y329.267617 Z-0.125000
G01 X102.352526 Y328.161103 Z-0.125000
G01 X104.565554 Y329.267617 Z-0.125000
G01 X106.778581 Y329.267617 Z-0.125000
G01 X106.778581 Y332.587158 Z-0.125000
G01 X104.565554 Y332.587158 Z-0.125000
G01 X102.352526 Y331.480644 Z-0.125000
G01 X102.352526 Y334.800186 Z-0.125000
G01 X104.565554 Y335.906699 Z-0.125000
G01 X106.778581 Y335.906699 Z-0.125000
G01 X108.991609 Y335.906699 Z-0.125000
G01 X108.991609 Y332.587158 Z-0.125000
G01 X111.204636 Y333.693672 Z-0.125000
G01 X113.417664 Y334.800186 Z-0.125000
G01 X115.630692 Y334.800186 Z-0.125000
G01 X117.843719 Y335.906699 Z-0.125000
G01 X118.950233 Y334.800186 Z-0.125000
G01 X117.843719 Y332.587158 Z-0.125000
G01 X115.630692 Y331.480644 Z-0.125000
G01 X113.417664 Y331.480644 Z-0.125000
G01 X111.204636 Y330.374130 Z-0.125000
G01 X110.098123 Y328.161103 Z-0.125000
G01 X112.311150 Y327.054589 Z-0.125000
G01 X114.524178 Y327.054589 Z-0.125000
G01 X115.630692 Y328.161103 Z-0.125000
G01 X117.843719 Y328.161103 Z-0.125000
G01 X118.950233 Y330.374130 Z-0.125000
G01 X121.163261 Y331.480644 Z-0.125000
G01 X126.695830 Y331.480644 Z-0.125000
G01 X128.908857 Y334.800186 Z-0.125000
G01 X131.121885 Y339.226241 Z-0.125000
G01 X133.334913 Y343.652296 Z-0.125000
G01 X137.760968 Y346.971838 Z-0.125000
G01 X143.293537 Y348.078351 Z-0.125000
G01 X148.826106 Y349.184865 Z-0.125000
G01 X143.293537 Y355.823948 Z-0.125000
G01 X146.613078 Y358.036976 Z-0.125000
G01 X144.400051 Y363.569545 Z-0.125000
G01 X149.932620 Y365.782572 Z-0.125000
G01 X149.932620 Y363.569545 Z-0.125000
G01 X152.145647 Y362.463031 Z-0.125000
G01 X151.039134 Y360.250003 Z-0.125000
G01 X152.145647 Y358.036976 Z-0.125000
G01 X153.252161 Y354.717434 Z-0.125000
G01 X154.358675 Y353.610920 Z-0.125000
G01 X153.252161 Y351.397893 Z-0.125000
G01 X155.465189 Y349.184865 Z-0.125000
G01 X155.465189 Y346.971838 Z-0.125000
G01 X154.358675 Y345.865324 Z-0.125000
G01 X154.358675 Y342.545782 Z-0.125000
G01 X155.465189 Y339.226241 Z-0.125000
G01 X163.210785 Y338.119727 Z-0.125000
G01 X165.423813 Y342.545782 Z-0.125000
G01 X165.423813 Y346.971838 Z-0.125000
G01 X172.062896 Y346.971838 Z-0.125000
G01 X174.275924 Y351.397893 Z-0.125000
G01 X180.915006 Y351.397893 Z-0.125000
G01 X183.128034 Y355.823948 Z-0.125000
G01 X180.915006 Y361.356517 Z-0.125000
G01 X180.915006 Y365.782572 Z-0.125000
G01 X185.341062 Y367.995600 Z-0.125000
G01 X189.767117 Y367.995600 Z-0.125000
G01 X189.767117 Y370.208628 Z-0.125000
G01 X190.873631 Y371.315141 Z-0.125000
G01 X194.193172 Y372.421655 Z-0.125000
G01 X196.406200 Y374.634683 Z-0.125000
G01 X196.406200 Y377.954224 Z-0.125000
G01 X199.725741 Y377.954224 Z-0.125000
G01 X204.151796 Y379.060738 Z-0.125000
G01 X208.577852 Y381.273766 Z-0.125000
G01 X208.577852 Y385.699821 Z-0.125000
G01 X213.003907 Y384.593307 Z-0.125000
G01 X213.003907 Y387.912848 Z-0.125000
G01 X216.323448 Y389.019362 Z-0.125000
G01 X220.749504 Y389.019362 Z-0.125000
G01 X220.749504 Y385.699821 Z-0.125000
G01 X217.429962 Y384.593307 Z-0.125000
G01 X217.429962 Y380.167252 Z-0.125000
G01 X213.003907 Y380.167252 Z-0.125000
G01 X211.897393 Y377.954224 Z-0.125000
G01 X208.577852 Y376.847710 Z-0.125000
G01 X205.258310 Y374.634683 Z-0.125000
G01 X201.938769 Y373.528169 Z-0.125000
G01 X205.258310 Y370.208628 Z-0.125000
G01 X203.045283 Y367.995600 Z-0.125000
G01 X198.619227 Y370.208628 Z-0.125000
G01 X199.725741 Y365.782572 Z-0.125000
G01 X195.299686 Y367.995600 Z-0.125000
G01 X193.086658 Y365.782572 Z-0.125000
G01 X190.873631 Y364.676058 Z-0.125000
G01 X190.873631 Y362.463031 Z-0.125000
G01 X189.767117 Y360.250003 Z-0.125000
G01 X191.980145 Y359.143489 Z-0.125000
G01 X190.873631 Y356.930462 Z-0.125000
G01 X190.873631 Y354.717434 Z-0.125000
G01 X189.767117 Y351.397893 Z-0.125000
G01 X189.767117 Y348.078351 Z-0.125000
G01 X190.873631 Y348.078351 Z-0.125000
G01 X191.980145 Y351.397893 Z-0.125000
G01 X195.299686 Y351.397893 Z-0.125000
G01 X195.299686 Y354.717434 Z-0.125000
G01 X195.299686 Y360.250003 Z-0.125000
G01 X197.512714 Y362.463031 Z-0.125000
G01 X201.938769 Y361.356517 Z-0.125000
G01 X205.258310 Y362.463031 Z-0.125000
G01 X207.471338 Y364.676058 Z-0.125000
G01 X209.684365 Y366.889086 Z-0.125000
G01 X209.684365 Y370.208628 Z-0.125000
G01 X210.790879 Y372.421655 Z-0.125000
G01 X214.110421 Y373.528169 Z-0.125000
G01 X218.536476 Y371.315141 Z-0.125000
G01 X215.216935 Y369.102114 Z-0.125000
G01 X215.216935 Y365.782572 Z-0.125000
G01 X211.897393 Y362.463031 Z-0.125000
G01 X211.897393 Y359.143489 Z-0.125000
G01 X208.577852 Y359.143489 Z-0.125000
G01 X210.790879 Y354.717434 Z-0.125000
G01 X208.577852 Y352.504407 Z-0.125000
G01 X208.577852 Y348.078351 Z-0.125000
G01 X205.258310 Y349.184865 Z-0.125000
G01 X204.151796 Y353.610920 Z-0.125000
G01 X205.258310 Y356.930462 Z-0.125000
G01 X200.832255 Y358.036976 Z-0.125000
G01 X198.619227 Y355.823948 Z-0.125000
G01 X199.725741 Y351.397893 Z-0.125000
G01 X200.832255 Y348.078351 Z-0.125000
G01 X198.619227 Y345.865324 Z-0.125000
G01 X195.299686 Y345.865324 Z-0.125000
G01 X193.086658 Y343.652296 Z-0.125000
G01 X189.767117 Y344.758810 Z-0.125000
G01 X187.554089 Y344.758810 Z-0.125000
G01 X180.915006 Y344.758810 Z-0.125000
G01 X177.595465 Y340.332755 Z-0.125000
G01 X174.275924 Y338.119727 Z-0.125000
G01 X172.062896 Y333.693672 Z-0.125000
G01 X166.530327 Y331.480644 Z-0.125000
G01 X164.317299 Y327.054589 Z-0.125000
G01 X156.571703 Y325.948075 Z-0.125000
G01 X154.358675 Y321.522020 Z-0.125000
G01 X148.826106 Y319.308992 Z-0.125000
G01 X146.613078 Y313.776423 Z-0.125000
G01 X142.187023 Y310.456882 Z-0.125000
G01 X148.826106 Y306.030827 Z-0.125000
G01 X153.252161 Y309.350368 Z-0.125000
G01 X155.465189 Y313.776423 Z-0.125000
G01 X160.997758 Y314.882937 Z-0.125000
G01 X163.210785 Y319.308992 Z-0.125000
G01 X167.636841 Y321.522020 Z-0.125000
G01 X173.169410 Y324.841561 Z-0.125000
G01 X177.595465 Y327.054589 Z-0.125000
G01 X179.808493 Y330.374130 Z-0.125000
G01 X184.234548 Y333.693672 Z-0.125000
G01 X186.447575 Y338.119727 Z-0.125000
G01 X187.554089 Y335.906699 Z-0.125000
G01 X189.767117 Y337.013213 Z-0.125000
G01 X189.767117 Y339.226241 Z-0.125000
G01 X188.660603 Y341.439268 Z-0.125000
G01 X193.086658 Y339.226241 Z-0.125000
G01 X197.512714 Y340.332755 Z-0.125000
G01 X200.832255 Y340.332755 Z-0.125000
G01 X203.045283 Y342.545782 Z-0.125000
G01 X205.258310 Y344.758810 Z-0.125000
G01 X209.684365 Y343.652296 Z-0.125000
G01 X214.110421 Y342.545782 Z-0.125000
G01 X213.003907 Y339.226241 Z-0.125000
G01 X215.216935 Y334.800186 Z-0.125000
G01 X217.429962 Y337.013213 Z-0.125000
G01 X218.536476 Y340.332755 Z-0.125000
G01 X220.749504 Y342.545782 Z-0.125000
G01 X225.175559 Y344.758810 Z-0.125000
G01 X225.175559 Y341.439268 Z-0.125000
G01 X224.069045 Y338.119727 Z-0.125000
G01 X221.856017 Y335.906699 Z-0.125000
G01 X219.642990 Y331.480644 Z-0.125000
G01 X215.216935 Y330.374130 Z-0.125000
G01 X211.897393 Y329.267617 Z-0.125000
G01 X208.577852 Y328.161103 Z-0.125000
G01 X205.258310 Y327.054589 Z-0.125000
G01 X201.938769 Y325.948075 Z-0.125000
G01 X201.938769 Y322.628534 Z-0.125000
G01 X201.938769 Y319.308992 Z-0.125000
G01 X206.364824 Y321.522020 Z-0.125000
G01 X209.684365 Y322.628534 Z-0.125000
G01 X211.897393 Y324.841561 Z-0.125000
G01 X216.323448 Y325.948075 Z-0.125000
G01 X219.642990 Y327.054589 Z-0.125000
G01 X222.962531 Y328.161103 Z-0.125000
G01 X224.069045 Y331.480644 Z-0.125000
G01 X227.388586 Y332.587158 Z-0.125000
G01 X228.495100 Y335.906699 Z-0.125000
G01 X229.601614 Y339.226241 Z-0.125000
G01 X229.601614 Y343.652296 Z-0.125000
G01 X229.601614 Y346.971838 Z-0.125000
G01 X231.814642 Y349.184865 Z-0.125000
G01 X230.708128 Y352.504407 Z-0.125000
G01 X234.027669 Y353.610920 Z-0.125000
G01 X236.240697 Y349.184865 Z-0.125000
G01 X240.666752 Y348.078351 Z-0.125000
G01 X239.560238 Y344.758810 Z-0.125000
G01 X235.134183 Y344.758810 Z-0.125000
G01 X234.027669 Y342.545782 Z-0.125000
G01 X238.453725 Y340.332755 Z-0.125000
G01 X234.027669 Y338.119727 Z-0.125000
G01 X232.921155 Y334.800186 Z-0.125000
G01 X232.921155 Y331.480644 Z-0.125000
G01 X230.708128 Y329.267617 Z-0.125000
G01 X227.388586 Y327.054589 Z-0.125000
G01 X225.175559 Y323.735048 Z-0.125000
G01 X221.856017 Y322.628534 Z-0.125000
G01 X220.749504 Y320.415506 Z-0.125000
G01 X222.962531 Y315.989451 Z-0.125000
G01 X221.856017 Y312.669909 Z-0.125000
G01 X218.536476 Y311.563396 Z-0.125000
G01 X215.216935 Y310.456882 Z-0.125000
G01 X213.003907 Y308.243854 Z-0.125000
G01 X210.790879 Y304.924313 Z-0.125000
G01 X208.577852 Y302.711285 Z-0.125000
G01 X206.364824 Y299.391744 Z-0.125000
G01 X206.364824 Y296.072202 Z-0.125000
G01 X207.471338 Y293.859175 Z-0.125000
G01 X207.471338 Y289.433119 Z-0.125000
G01 X206.364824 Y286.113578 Z-0.125000
G01 X201.938769 Y288.326606 Z-0.125000
G01 X199.725741 Y286.113578 Z-0.125000
G01 X197.512714 Y283.900550 Z-0.125000
G01 X196.406200 Y281.687523 Z-0.125000
G01 X195.299686 Y277.261468 Z-0.125000
G01 X190.873631 Y279.474495 Z-0.125000
G01 X190.873631 Y275.048440 Z-0.125000
G01 X187.554089 Y273.941926 Z-0.125000
G01 X184.234548 Y273.941926 Z-0.125000
G01 X186.447575 Y278.367981 Z-0.125000
G01 X186.447575 Y281.687523 Z-0.125000
G01 X187.554089 Y285.007064 Z-0.125000
G01 X191.980145 Y282.794037 Z-0.125000
G01 X191.980145 Y286.113578 Z-0.125000
G01 X194.193172 Y288.326606 Z-0.125000
G01 X196.406200 Y290.539633 Z-0.125000
G01 X198.619227 Y292.752661 Z-0.125000
G01 X203.045283 Y291.646147 Z-0.125000
G01 X201.938769 Y294.965688 Z-0.125000
G01 X201.938769 Y299.391744 Z-0.125000
G01 X204.151796 Y303.817799 Z-0.125000
G01 X200.832255 Y303.817799 Z-0.125000
G01 X197.512714 Y300.498258 Z-0.125000
G01 X196.406200 Y298.285230 Z-0.125000
G01 X194.193172 Y296.072202 Z-0.125000
G01 X191.980145 Y293.859175 Z-0.125000
G01 X189.767117 Y291.646147 Z-0.125000
G01 X187.554089 Y289.433119 Z-0.125000
G01 X183.128034 Y289.433119 Z-0.125000
G01 X182.021520 Y290.539633 Z-0.125000
G01 X183.128034 Y292.752661 Z-0.125000
G01 X183.128034 Y294.965688 Z-0.125000
G01 X184.234548 Y296.072202 Z-0.125000
G01 X187.554089 Y297.178716 Z-0.125000
G01 X189.767117 Y299.391744 Z-0.125000
G01 X191.980145 Y301.604771 Z-0.125000
G01 X193.086658 Y304.924313 Z-0.125000
G01 X196.406200 Y304.924313 Z-0.125000
G01 X196.406200 Y308.243854 Z-0.125000
G01 X200.832255 Y308.243854 Z-0.125000
G01 X203.045283 Y310.456882 Z-0.125000
G01 X206.364824 Y307.137340 Z-0.125000
G01 X207.471338 Y310.456882 Z-0.125000
G01 X208.577852 Y312.669909 Z-0.125000
G01 X210.790879 Y313.776423 Z-0.125000
G01 X215.216935 Y314.882937 Z-0.125000
G01 X218.536476 Y317.095965 Z-0.125000
G01 X216.323448 Y321.522020 Z-0.125000
G01 X214.110421 Y319.308992 Z-0.125000
G01 X210.790879 Y318.202478 Z-0.125000
G01 X206.364824 Y317.095965 Z-0.125000
G01 X203.045283 Y314.882937 Z-0.125000
G01 X199.725741 Y313.776423 Z-0.125000
G01 X196.406200 Y312.669909 Z-0.125000
G01 X191.980145 Y310.456882 Z-0.125000
G01 X189.767117 Y308.243854 Z-0.125000
G01 X187.554089 Y303.817799 Z-0.125000
G01 X184.234548 Y302.711285 Z-0.125000
G01 X183.128034 Y300.498258 Z-0.125000
G01 X182.021520 Y298.285230 Z-0.125000
G01 X178.701979 Y294.965688 Z-0.125000
G01 X173.169410 Y292.752661 Z-0.125000
G01 X167.636841 Y289.433119 Z-0.125000
G01 X165.423813 Y286.113578 Z-0.125000
G01 X158.784730 Y286.113578 Z-0.125000
G01 X156.571703 Y281.687523 Z-0.125000
G01 X153.252161 Y278.367981 Z-0.125000
G01 X148.826106 Y276.154954 Z-0.125000
G01 X146.613078 Y270.622385 Z-0.125000
G01 X145.506565 Y267.302843 Z-0.125000
G01 X138.867482 Y266.196329 Z-0.125000
G01 X135.547940 Y262.876788 Z-0.125000
G01 X128.908857 Y260.663760 Z-0.125000
G01 X126.695830 Y256.237705 Z-0.125000
G01 X121.163261 Y251.811650 Z-0.125000
G01 X118.950233 Y258.450733 Z-0.125000
G01 X121.163261 Y263.983302 Z-0.125000
G01 X127.802344 Y267.302843 Z-0.125000
G01 X130.015371 Y271.728898 Z-0.125000
G01 X136.654454 Y271.728898 Z-0.125000
G01 X138.867482 Y277.261468 Z-0.125000
G01 X139.973995 Y280.581009 Z-0.125000
G01 X144.400051 Y283.900550 Z-0.125000
G01 X146.613078 Y287.220092 Z-0.125000
G01 X148.826106 Y290.539633 Z-0.125000
G01 X155.465189 Y291.646147 Z-0.125000
G01 X159.891244 Y294.965688 Z-0.125000
G01 X165.423813 Y297.178716 Z-0.125000
G01 X169.849868 Y299.391744 Z-0.125000
G01 X173.169410 Y302.711285 Z-0.125000
G01 X178.701979 Y304.924313 Z-0.125000
G01 X182.021520 Y304.924313 Z-0.125000
G01 X183.128034 Y307.137340 Z-0.125000
G01 X185.341062 Y308.243854 Z-0.125000
G01 X184.234548 Y311.563396 Z-0.125000
G01 X182.021520 Y311.563396 Z-0.125000
G01 X179.808493 Y310.456882 Z-0.125000
G01 X182.021520 Y314.882937 Z-0.125000
G01 X184.234548 Y314.882937 Z-0.125000
G01 X186.447575 Y318.202478 Z-0.125000
G01 X188.660603 Y313.776423 Z-0.125000
G01 X191.980145 Y314.882937 Z-0.125000
G01 X194.193172 Y318.202478 Z-0.125000
G01 X197.512714 Y318.202478 Z-0.125000
G01 X197.512714 Y322.628534 Z-0.125000
G01 X193.086658 Y322.628534 Z-0.125000
G01 X189.767117 Y319.308992 Z-0.125000
G01 X188.660603 Y322.628534 Z-0.125000
G01 X190.873631 Y327.054589 Z-0.125000
G01 X194.193172 Y327.054589 Z-0.125000
G01 X197.512714 Y327.054589 Z-0.125000
G01 X199.725741 Y330.374130 Z-0.125000
G01 X203.045283 Y331.480644 Z-0.125000
G01 X206.364824 Y332.587158 Z-0.125000
G01 X209.684365 Y333.693672 Z-0.125000
G01 X210.790879 Y335.906699 Z-0.125000
G01 X208.577852 Y340.332755 Z-0.125000
G01 X205.258310 Y338.119727 Z-0.125000
G01 X201.938769 Y335.906699 Z-0.125000
G01 X198.619227 Y335.906699 Z-0.125000
G01 X195.299686 Y334.800186 Z-0.125000
G01 X195.299686 Y331.480644 Z-0.125000
G01 X190.873631 Y332.587158 Z-0.125000
G01 X187.554089 Y332.587158 Z-0.125000
G01 X186.447575 Y330.374130 Z-0.125000
G01 X186.447575 Y328.161103 Z-0.125000
G01 X185.341062 Y327.054589 Z-0.125000
G01 X184.234548 Y324.841561 Z-0.125000
G01 X184.234548 Y322.628534 Z-0.125000
G01 X182.021520 Y321.522020 Z-0.125000
G01 X182.021520 Y319.308992 Z-0.125000
G01 X180.915006 Y318.202478 Z-0.125000
G01 X175.382437 Y317.095965 Z-0.125000
G01 X170.956382 Y313.776423 Z-0.125000
G01 X169.849868 Y309.350368 Z-0.125000
G01 X164.317299 Y308.243854 Z-0.125000
G01 X160.997758 Y304.924313 Z-0.125000
G01 X156.571703 Y301.604771 Z-0.125000
G01 X151.039134 Y299.391744 Z-0.125000
G01 X145.506565 Y297.178716 Z-0.125000
G01 X143.293537 Y302.711285 Z-0.125000
G01 X137.760968 Y300.498258 Z-0.125000
G01 X139.973995 Y293.859175 Z-0.125000
G01 X137.760968 Y289.433119 Z-0.125000
G01 X133.334913 Y286.113578 Z-0.125000
G01 X132.228399 Y279.474495 Z-0.125000
G01 X126.695830 Y277.261468 Z-0.125000
G01 X121.163261 Y275.048440 Z-0.125000
G01 X120.056747 Y269.515871 Z-0.125000
G01 X114.524178 Y266.196329 Z-0.125000
G01 X108.991609 Y265.089816 Z-0.125000
G01 X104.565554 Y265.089816 Z-0.125000
G01 X108.991609 Y261.770274 Z-0.125000
G01 X108.991609 Y259.557247 Z-0.125000
G01 X110.098123 Y257.344219 Z-0.125000
G01 X107.885095 Y256.237705 Z-0.125000
G01 X103.459040 Y256.237705 Z-0.125000
G01 X102.352526 Y260.663760 Z-0.125000
G01 X96.819957 Y256.237705 Z-0.125000
G01 X100.139498 Y249.598622 Z-0.125000
G01 X104.565554 Y249.598622 Z-0.125000
G01 X105.672067 Y251.811650 Z-0.125000
G01 X107.885095 Y252.918164 Z-0.125000
G01 X107.885095 Y250.705136 Z-0.125000
G01 X113.417664 Y251.811650 Z-0.125000
G01 X113.417664 Y249.598622 Z-0.125000
G01 X113.417664 Y247.385595 Z-0.125000
G00 Z5.000000

(End cutting path id: path95851)


(Start cutting path id: path95849)
(Change tool to Default tool)

G00 Z5.000000
G00 X73.583167 Y344.758810

G01 Z-0.125000 F100.0(Penetrate)
G01 X76.902708 Y346.971838 Z-0.125000 F400.000000
G01 X79.115736 Y352.504407 Z-0.125000
G01 X81.328764 Y356.930462 Z-0.125000
G01 X87.967846 Y358.036976 Z-0.125000
G01 X86.861333 Y362.463031 Z-0.125000
G01 X93.500415 Y363.569545 Z-0.125000
G01 X89.074360 Y370.208628 Z-0.125000
G01 X94.606929 Y372.421655 Z-0.125000
G01 X99.032985 Y374.634683 Z-0.125000
G01 X103.459040 Y376.847710 Z-0.125000
G01 X106.778581 Y376.847710 Z-0.125000
G01 X108.991609 Y377.954224 Z-0.125000
G01 X111.204636 Y379.060738 Z-0.125000
G01 X113.417664 Y379.060738 Z-0.125000
G01 X112.311150 Y376.847710 Z-0.125000
G01 X112.311150 Y370.208628 Z-0.125000
G01 X107.885095 Y367.995600 Z-0.125000
G01 X102.352526 Y366.889086 Z-0.125000
G01 X99.032985 Y364.676058 Z-0.125000
G01 X100.139498 Y358.036976 Z-0.125000
G01 X96.819957 Y354.717434 Z-0.125000
G01 X91.287388 Y351.397893 Z-0.125000
G01 X86.861333 Y349.184865 Z-0.125000
G01 X84.648305 Y344.758810 Z-0.125000
G01 X84.648305 Y339.226241 Z-0.125000
G01 X78.009222 Y339.226241 Z-0.125000
G01 X81.328764 Y333.693672 Z-0.125000
G01 X75.796195 Y332.587158 Z-0.125000
G01 X73.583167 Y327.054589 Z-0.125000
G01 X71.370139 Y321.522020 Z-0.125000
G01 X74.689681 Y315.989451 Z-0.125000
G01 X72.476653 Y311.563396 Z-0.125000
G01 X78.009222 Y312.669909 Z-0.125000
G01 X78.009222 Y310.456882 Z-0.125000
G01 X81.328764 Y310.456882 Z-0.125000
G01 X83.541791 Y310.456882 Z-0.125000
G01 X85.754819 Y309.350368 Z-0.125000
G01 X86.861333 Y310.456882 Z-0.125000
G01 X86.861333 Y312.669909 Z-0.125000
G01 X84.648305 Y313.776423 Z-0.125000
G01 X89.074360 Y311.563396 Z-0.125000
G01 X91.287388 Y311.563396 Z-0.125000
G01 X90.180874 Y309.350368 Z-0.125000
G01 X89.074360 Y307.137340 Z-0.125000
G01 X87.967846 Y306.030827 Z-0.125000
G01 X85.754819 Y306.030827 Z-0.125000
G01 X83.541791 Y307.137340 Z-0.125000
G01 X81.328764 Y307.137340 Z-0.125000
G01 X79.115736 Y308.243854 Z-0.125000
G01 X76.902708 Y308.243854 Z-0.125000
G01 X78.009222 Y304.924313 Z-0.125000
G01 X75.796195 Y304.924313 Z-0.125000
G01 X74.689681 Y302.711285 Z-0.125000
G01 X75.796195 Y297.178716 Z-0.125000
G01 X79.115736 Y296.072202 Z-0.125000
G01 X81.328764 Y296.072202 Z-0.125000
G01 X84.648305 Y297.178716 Z-0.125000
G01 X86.861333 Y296.072202 Z-0.125000
G01 X84.648305 Y294.965688 Z-0.125000
G01 X85.754819 Y291.646147 Z-0.125000
G01 X87.967846 Y292.752661 Z-0.125000
G01 X90.180874 Y293.859175 Z-0.125000
G01 X92.393902 Y294.965688 Z-0.125000
G01 X91.287388 Y297.178716 Z-0.125000
G01 X89.074360 Y296.072202 Z-0.125000
G01 X89.074360 Y299.391744 Z-0.125000
G01 X86.861333 Y299.391744 Z-0.125000
G01 X84.648305 Y300.498258 Z-0.125000
G01 X82.435277 Y300.498258 Z-0.125000
G01 X81.328764 Y299.391744 Z-0.125000
G01 X79.115736 Y298.285230 Z-0.125000
G01 X78.009222 Y300.498258 Z-0.125000
G01 X79.115736 Y302.711285 Z-0.125000
G01 X81.328764 Y303.817799 Z-0.125000
G01 X83.541791 Y303.817799 Z-0.125000
G01 X85.754819 Y302.711285 Z-0.125000
G01 X87.967846 Y302.711285 Z-0.125000
G01 X90.180874 Y302.711285 Z-0.125000
G01 X91.287388 Y303.817799 Z-0.125000
G01 X93.500415 Y302.711285 Z-0.125000
G01 X93.500415 Y306.030827 Z-0.125000
G01 X92.393902 Y306.030827 Z-0.125000
G01 X93.500415 Y309.350368 Z-0.125000
G01 X94.606929 Y308.243854 Z-0.125000
G01 X96.819957 Y307.137340 Z-0.125000
G01 X95.713443 Y304.924313 Z-0.125000
G01 X96.819957 Y303.817799 Z-0.125000
G01 X99.032985 Y304.924313 Z-0.125000
G01 X100.139498 Y304.924313 Z-0.125000
G01 X101.246012 Y307.137340 Z-0.125000
G01 X102.352526 Y309.350368 Z-0.125000
G01 X100.139498 Y309.350368 Z-0.125000
G01 X99.032985 Y308.243854 Z-0.125000
G01 X96.819957 Y309.350368 Z-0.125000
G01 X95.713443 Y311.563396 Z-0.125000
G01 X93.500415 Y312.669909 Z-0.125000
G01 X94.606929 Y314.882937 Z-0.125000
G01 X95.713443 Y315.989451 Z-0.125000
G01 X97.926471 Y315.989451 Z-0.125000
G01 X97.926471 Y313.776423 Z-0.125000
G01 X97.926471 Y311.563396 Z-0.125000
G01 X100.139498 Y312.669909 Z-0.125000
G01 X102.352526 Y311.563396 Z-0.125000
G01 X104.565554 Y310.456882 Z-0.125000
G01 X104.565554 Y308.243854 Z-0.125000
G01 X106.778581 Y309.350368 Z-0.125000
G01 X107.885095 Y308.243854 Z-0.125000
G01 X110.098123 Y309.350368 Z-0.125000
G01 X110.098123 Y307.137340 Z-0.125000
G01 X112.311150 Y306.030827 Z-0.125000
G01 X113.417664 Y306.030827 Z-0.125000
G01 X114.524178 Y308.243854 Z-0.125000
G01 X116.737205 Y309.350368 Z-0.125000
G01 X116.737205 Y307.137340 Z-0.125000
G01 X118.950233 Y306.030827 Z-0.125000
G01 X121.163261 Y304.924313 Z-0.125000
G01 X123.376288 Y303.817799 Z-0.125000
G01 X122.269775 Y301.604771 Z-0.125000
G01 X121.163261 Y300.498258 Z-0.125000
G01 X118.950233 Y300.498258 Z-0.125000
G01 X120.056747 Y302.711285 Z-0.125000
G01 X117.843719 Y303.817799 Z-0.125000
G01 X116.737205 Y302.711285 Z-0.125000
G01 X115.630692 Y304.924313 Z-0.125000
G01 X114.524178 Y302.711285 Z-0.125000
G01 X112.311150 Y302.711285 Z-0.125000
G01 X110.098123 Y303.817799 Z-0.125000
G01 X108.991609 Y304.924313 Z-0.125000
G01 X106.778581 Y303.817799 Z-0.125000
G01 X106.778581 Y306.030827 Z-0.125000
G01 X104.565554 Y306.030827 Z-0.125000
G01 X103.459040 Y304.924313 Z-0.125000
G01 X103.459040 Y302.711285 Z-0.125000
G01 X101.246012 Y302.711285 Z-0.125000
G01 X99.032985 Y301.604771 Z-0.125000
G01 X101.246012 Y300.498258 Z-0.125000
G01 X100.139498 Y298.285230 Z-0.125000
G01 X100.139498 Y296.072202 Z-0.125000
G01 X97.926471 Y294.965688 Z-0.125000
G01 X100.139498 Y293.859175 Z-0.125000
G01 X102.352526 Y293.859175 Z-0.125000
G01 X101.246012 Y291.646147 Z-0.125000
G01 X103.459040 Y291.646147 Z-0.125000
G01 X104.565554 Y292.752661 Z-0.125000
G01 X105.672067 Y290.539633 Z-0.125000
G01 X107.885095 Y291.646147 Z-0.125000
G01 X110.098123 Y291.646147 Z-0.125000
G01 X111.204636 Y292.752661 Z-0.125000
G01 X108.991609 Y293.859175 Z-0.125000
G01 X110.098123 Y296.072202 Z-0.125000
G01 X108.991609 Y297.178716 Z-0.125000
G01 X106.778581 Y298.285230 Z-0.125000
G01 X106.778581 Y296.072202 Z-0.125000
G01 X105.672067 Y294.965688 Z-0.125000
G01 X103.459040 Y296.072202 Z-0.125000
G01 X102.352526 Y297.178716 Z-0.125000
G01 X103.459040 Y299.391744 Z-0.125000
G01 X104.565554 Y299.391744 Z-0.125000
G01 X105.672067 Y301.604771 Z-0.125000
G01 X107.885095 Y300.498258 Z-0.125000
G01 X108.991609 Y301.604771 Z-0.125000
G01 X111.204636 Y300.498258 Z-0.125000
G01 X110.098123 Y299.391744 Z-0.125000
G01 X112.311150 Y298.285230 Z-0.125000
G01 X114.524178 Y298.285230 Z-0.125000
G01 X114.524178 Y300.498258 Z-0.125000
G01 X116.737205 Y299.391744 Z-0.125000
G01 X118.950233 Y298.285230 Z-0.125000
G01 X117.843719 Y296.072202 Z-0.125000
G01 X116.737205 Y296.072202 Z-0.125000
G01 X114.524178 Y296.072202 Z-0.125000
G01 X112.311150 Y294.965688 Z-0.125000
G01 X114.524178 Y293.859175 Z-0.125000
G01 X113.417664 Y291.646147 Z-0.125000
G01 X112.311150 Y290.539633 Z-0.125000
G01 X110.098123 Y289.433119 Z-0.125000
G01 X107.885095 Y288.326606 Z-0.125000
G01 X110.098123 Y287.220092 Z-0.125000
G01 X112.311150 Y286.113578 Z-0.125000
G01 X114.524178 Y286.113578 Z-0.125000
G01 X115.630692 Y287.220092 Z-0.125000
G01 X117.843719 Y286.113578 Z-0.125000
G01 X116.737205 Y282.794037 Z-0.125000
G01 X114.524178 Y282.794037 Z-0.125000
G01 X112.311150 Y282.794037 Z-0.125000
G01 X110.098123 Y283.900550 Z-0.125000
G01 X107.885095 Y285.007064 Z-0.125000
G01 X108.991609 Y281.687523 Z-0.125000
G01 X106.778581 Y282.794037 Z-0.125000
G01 X104.565554 Y281.687523 Z-0.125000
G01 X102.352526 Y281.687523 Z-0.125000
G01 X100.139498 Y280.581009 Z-0.125000
G01 X99.032985 Y279.474495 Z-0.125000
G01 X96.819957 Y279.474495 Z-0.125000
G01 X96.819957 Y282.794037 Z-0.125000
G01 X99.032985 Y283.900550 Z-0.125000
G01 X100.139498 Y285.007064 Z-0.125000
G01 X102.352526 Y285.007064 Z-0.125000
G01 X104.565554 Y285.007064 Z-0.125000
G01 X105.672067 Y287.220092 Z-0.125000
G01 X103.459040 Y288.326606 Z-0.125000
G01 X101.246012 Y288.326606 Z-0.125000
G01 X99.032985 Y288.326606 Z-0.125000
G01 X99.032985 Y291.646147 Z-0.125000
G01 X96.819957 Y290.539633 Z-0.125000
G01 X95.713443 Y292.752661 Z-0.125000
G01 X93.500415 Y291.646147 Z-0.125000
G01 X92.393902 Y290.539633 Z-0.125000
G01 X90.180874 Y290.539633 Z-0.125000
G01 X90.180874 Y288.326606 Z-0.125000
G01 X87.967846 Y289.433119 Z-0.125000
G01 X86.861333 Y287.220092 Z-0.125000
G01 X85.754819 Y286.113578 Z-0.125000
G01 X86.861333 Y282.794037 Z-0.125000
G01 X89.074360 Y282.794037 Z-0.125000
G01 X89.074360 Y285.007064 Z-0.125000
G01 X92.393902 Y283.900550 Z-0.125000
G01 X91.287388 Y281.687523 Z-0.125000
G01 X90.180874 Y279.474495 Z-0.125000
G01 X92.393902 Y279.474495 Z-0.125000
G01 X94.606929 Y280.581009 Z-0.125000
G01 X94.606929 Y277.261468 Z-0.125000
G01 X96.819957 Y276.154954 Z-0.125000
G01 X99.032985 Y276.154954 Z-0.125000
G01 X99.032985 Y273.941926 Z-0.125000
G01 X101.246012 Y272.835412 Z-0.125000
G01 X101.246012 Y276.154954 Z-0.125000
G01 X102.352526 Y277.261468 Z-0.125000
G01 X104.565554 Y278.367981 Z-0.125000
G01 X106.778581 Y279.474495 Z-0.125000
G01 X107.885095 Y277.261468 Z-0.125000
G01 X105.672067 Y276.154954 Z-0.125000
G01 X104.565554 Y273.941926 Z-0.125000
G01 X103.459040 Y271.728898 Z-0.125000
G01 X105.672067 Y271.728898 Z-0.125000
G01 X107.885095 Y269.515871 Z-0.125000
G01 X107.885095 Y272.835412 Z-0.125000
G01 X108.991609 Y273.941926 Z-0.125000
G01 X111.204636 Y273.941926 Z-0.125000
G01 X113.417664 Y273.941926 Z-0.125000
G01 X115.630692 Y276.154954 Z-0.125000
G01 X112.311150 Y277.261468 Z-0.125000
G01 X110.098123 Y277.261468 Z-0.125000
G01 X111.204636 Y279.474495 Z-0.125000
G01 X113.417664 Y279.474495 Z-0.125000
G01 X115.630692 Y279.474495 Z-0.125000
G01 X117.843719 Y279.474495 Z-0.125000
G01 X118.950233 Y281.687523 Z-0.125000
G01 X120.056747 Y282.794037 Z-0.125000
G01 X122.269775 Y283.900550 Z-0.125000
G01 X120.056747 Y286.113578 Z-0.125000
G01 X122.269775 Y287.220092 Z-0.125000
G01 X123.376288 Y286.113578 Z-0.125000
G01 X124.482802 Y288.326606 Z-0.125000
G01 X124.482802 Y290.539633 Z-0.125000
G01 X125.589316 Y292.752661 Z-0.125000
G01 X127.802344 Y293.859175 Z-0.125000
G01 X127.802344 Y297.178716 Z-0.125000
G01 X125.589316 Y296.072202 Z-0.125000
G01 X123.376288 Y294.965688 Z-0.125000
G01 X122.269775 Y292.752661 Z-0.125000
G01 X121.163261 Y291.646147 Z-0.125000
G01 X120.056747 Y289.433119 Z-0.125000
G01 X117.843719 Y289.433119 Z-0.125000
G01 X115.630692 Y290.539633 Z-0.125000
G01 X116.737205 Y292.752661 Z-0.125000
G01 X118.950233 Y292.752661 Z-0.125000
G01 X120.056747 Y294.965688 Z-0.125000
G01 X121.163261 Y297.178716 Z-0.125000
G01 X123.376288 Y298.285230 Z-0.125000
G01 X124.482802 Y299.391744 Z-0.125000
G01 X125.589316 Y301.604771 Z-0.125000
G01 X127.802344 Y299.391744 Z-0.125000
G01 X127.802344 Y301.604771 Z-0.125000
G01 X128.908857 Y302.711285 Z-0.125000
G01 X135.547940 Y307.137340 Z-0.125000
G01 X134.441426 Y313.776423 Z-0.125000
G01 X136.654454 Y318.202478 Z-0.125000
G01 X141.080509 Y320.415506 Z-0.125000
G01 X144.400051 Y325.948075 Z-0.125000
G01 X146.613078 Y329.267617 Z-0.125000
G01 X149.932620 Y332.587158 Z-0.125000
G01 X154.358675 Y332.587158 Z-0.125000
G01 X156.571703 Y333.693672 Z-0.125000
G01 X155.465189 Y335.906699 Z-0.125000
G01 X152.145647 Y335.906699 Z-0.125000
G01 X148.826106 Y341.439268 Z-0.125000
G01 X142.187023 Y340.332755 Z-0.125000
G01 X139.973995 Y337.013213 Z-0.125000
G01 X137.760968 Y332.587158 Z-0.125000
G01 X136.654454 Y327.054589 Z-0.125000
G01 X131.121885 Y324.841561 Z-0.125000
G01 X126.695830 Y319.308992 Z-0.125000
G01 X125.589316 Y318.202478 Z-0.125000
G01 X123.376288 Y318.202478 Z-0.125000
G01 X121.163261 Y318.202478 Z-0.125000
G01 X118.950233 Y318.202478 Z-0.125000
G01 X117.843719 Y315.989451 Z-0.125000
G01 X120.056747 Y314.882937 Z-0.125000
G01 X122.269775 Y314.882937 Z-0.125000
G01 X124.482802 Y314.882937 Z-0.125000
G01 X126.695830 Y314.882937 Z-0.125000
G01 X127.802344 Y312.669909 Z-0.125000
G01 X127.802344 Y310.456882 Z-0.125000
G01 X127.802344 Y307.137340 Z-0.125000
G01 X126.695830 Y304.924313 Z-0.125000
G01 X123.376288 Y306.030827 Z-0.125000
G01 X124.482802 Y307.137340 Z-0.125000
G01 X125.589316 Y309.350368 Z-0.125000
G01 X124.482802 Y311.563396 Z-0.125000
G01 X122.269775 Y311.563396 Z-0.125000
G01 X122.269775 Y309.350368 Z-0.125000
G01 X121.163261 Y308.243854 Z-0.125000
G01 X118.950233 Y308.243854 Z-0.125000
G01 X118.950233 Y310.456882 Z-0.125000
G01 X120.056747 Y312.669909 Z-0.125000
G01 X117.843719 Y312.669909 Z-0.125000
G01 X116.737205 Y312.669909 Z-0.125000
G01 X114.524178 Y311.563396 Z-0.125000
G01 X112.311150 Y309.350368 Z-0.125000
G01 X112.311150 Y311.563396 Z-0.125000
G01 X113.417664 Y313.776423 Z-0.125000
G01 X112.311150 Y313.776423 Z-0.125000
G01 X110.098123 Y312.669909 Z-0.125000
G01 X108.991609 Y314.882937 Z-0.125000
G01 X107.885095 Y313.776423 Z-0.125000
G01 X107.885095 Y311.563396 Z-0.125000
G01 X105.672067 Y312.669909 Z-0.125000
G01 X103.459040 Y313.776423 Z-0.125000
G01 X101.246012 Y314.882937 Z-0.125000
G01 X100.139498 Y315.989451 Z-0.125000
G01 X100.139498 Y318.202478 Z-0.125000
G01 X97.926471 Y319.308992 Z-0.125000
G01 X95.713443 Y319.308992 Z-0.125000
G01 X93.500415 Y319.308992 Z-0.125000
G01 X91.287388 Y320.415506 Z-0.125000
G01 X90.180874 Y318.202478 Z-0.125000
G01 X92.393902 Y317.095965 Z-0.125000
G01 X91.287388 Y314.882937 Z-0.125000
G01 X89.074360 Y314.882937 Z-0.125000
G01 X86.861333 Y315.989451 Z-0.125000
G01 X87.967846 Y318.202478 Z-0.125000
G01 X86.861333 Y320.415506 Z-0.125000
G01 X84.648305 Y319.308992 Z-0.125000
G01 X83.541791 Y318.202478 Z-0.125000
G01 X82.435277 Y315.989451 Z-0.125000
G01 X81.328764 Y313.776423 Z-0.125000
G01 X79.115736 Y314.882937 Z-0.125000
G01 X79.115736 Y317.095965 Z-0.125000
G01 X80.222250 Y318.202478 Z-0.125000
G01 X80.222250 Y320.415506 Z-0.125000
G01 X80.222250 Y323.735048 Z-0.125000
G01 X82.435277 Y321.522020 Z-0.125000
G01 X83.541791 Y323.735048 Z-0.125000
G01 X84.648305 Y324.841561 Z-0.125000
G01 X83.541791 Y328.161103 Z-0.125000
G01 X86.861333 Y327.054589 Z-0.125000
G01 X87.967846 Y329.267617 Z-0.125000
G01 X90.180874 Y330.374130 Z-0.125000
G01 X92.393902 Y329.267617 Z-0.125000
G01 X90.180874 Y328.161103 Z-0.125000
G01 X89.074360 Y325.948075 Z-0.125000
G01 X86.861333 Y323.735048 Z-0.125000
G01 X89.074360 Y322.628534 Z-0.125000
G01 X91.287388 Y323.735048 Z-0.125000
G01 X93.500415 Y322.628534 Z-0.125000
G01 X95.713443 Y322.628534 Z-0.125000
G01 X97.926471 Y322.628534 Z-0.125000
G01 X100.139498 Y321.522020 Z-0.125000
G01 X102.352526 Y321.522020 Z-0.125000
G01 X104.565554 Y320.415506 Z-0.125000
G01 X106.778581 Y320.415506 Z-0.125000
G01 X104.565554 Y318.202478 Z-0.125000
G01 X102.352526 Y318.202478 Z-0.125000
G01 X103.459040 Y315.989451 Z-0.125000
G01 X105.672067 Y315.989451 Z-0.125000
G01 X106.778581 Y317.095965 Z-0.125000
G01 X108.991609 Y318.202478 Z-0.125000
G01 X110.098123 Y317.095965 Z-0.125000
G01 X112.311150 Y317.095965 Z-0.125000
G01 X111.204636 Y319.308992 Z-0.125000
G01 X113.417664 Y320.415506 Z-0.125000
G01 X114.524178 Y318.202478 Z-0.125000
G01 X115.630692 Y319.308992 Z-0.125000
G01 X117.843719 Y320.415506 Z-0.125000
G01 X120.056747 Y321.522020 Z-0.125000
G01 X122.269775 Y321.522020 Z-0.125000
G01 X124.482802 Y321.522020 Z-0.125000
G01 X125.589316 Y323.735048 Z-0.125000
G01 X123.376288 Y324.841561 Z-0.125000
G01 X123.376288 Y327.054589 Z-0.125000
G01 X121.163261 Y328.161103 Z-0.125000
G01 X121.163261 Y324.841561 Z-0.125000
G01 X118.950233 Y324.841561 Z-0.125000
G01 X116.737205 Y324.841561 Z-0.125000
G01 X115.630692 Y322.628534 Z-0.125000
G01 X113.417664 Y323.735048 Z-0.125000
G01 X111.204636 Y322.628534 Z-0.125000
G01 X110.098123 Y325.948075 Z-0.125000
G01 X107.885095 Y325.948075 Z-0.125000
G01 X107.885095 Y323.735048 Z-0.125000
G00 Z5.000000

(End cutting path id: path95849)


(Start cutting path id: path95847)
(Change tool to Default tool)

G00 Z5.000000
G00 X158.784730 Y435.492942

G01 Z-0.125000 F100.0(Penetrate)
G01 X157.678216 Y432.173401 Z-0.125000 F400.000000
G01 X159.891244 Y429.960373 Z-0.125000
G01 X160.997758 Y427.747346 Z-0.125000
G01 X156.571703 Y425.534318 Z-0.125000
G01 X154.358675 Y421.108263 Z-0.125000
G01 X153.252161 Y415.575694 Z-0.125000
G01 X147.719592 Y412.256152 Z-0.125000
G01 X148.826106 Y405.617069 Z-0.125000
G01 X155.465189 Y408.936611 Z-0.125000
G01 X160.997758 Y411.149638 Z-0.125000
G01 X163.210785 Y405.617069 Z-0.125000
G01 X160.997758 Y401.191014 Z-0.125000
G01 X155.465189 Y401.191014 Z-0.125000
G01 X147.719592 Y398.977987 Z-0.125000
G01 X146.613078 Y393.445418 Z-0.125000
G01 X141.080509 Y390.125876 Z-0.125000
G01 X143.293537 Y382.380279 Z-0.125000
G01 X139.973995 Y379.060738 Z-0.125000
G01 X141.080509 Y373.528169 Z-0.125000
G01 X137.760968 Y370.208628 Z-0.125000
G01 X135.547940 Y365.782572 Z-0.125000
G01 X133.334913 Y362.463031 Z-0.125000
G01 X136.654454 Y355.823948 Z-0.125000
G01 X132.228399 Y353.610920 Z-0.125000
G01 X127.802344 Y351.397893 Z-0.125000
G01 X124.482802 Y348.078351 Z-0.125000
G01 X122.269775 Y344.758810 Z-0.125000
G01 X121.163261 Y340.332755 Z-0.125000
G01 X115.630692 Y338.119727 Z-0.125000
G01 X113.417664 Y338.119727 Z-0.125000
G01 X111.204636 Y337.013213 Z-0.125000
G01 X111.204636 Y340.332755 Z-0.125000
G01 X113.417664 Y340.332755 Z-0.125000
G01 X113.417664 Y345.865324 Z-0.125000
G01 X107.885095 Y343.652296 Z-0.125000
G01 X108.991609 Y339.226241 Z-0.125000
G01 X106.778581 Y339.226241 Z-0.125000
G01 X104.565554 Y339.226241 Z-0.125000
G01 X102.352526 Y338.119727 Z-0.125000
G01 X100.139498 Y337.013213 Z-0.125000
G01 X100.139498 Y334.800186 Z-0.125000
G01 X97.926471 Y334.800186 Z-0.125000
G01 X95.713443 Y333.693672 Z-0.125000
G01 X93.500415 Y332.587158 Z-0.125000
G01 X91.287388 Y332.587158 Z-0.125000
G01 X92.393902 Y338.119727 Z-0.125000
G01 X93.500415 Y341.439268 Z-0.125000
G01 X96.819957 Y344.758810 Z-0.125000
G01 X100.139498 Y348.078351 Z-0.125000
G01 X105.672067 Y350.291379 Z-0.125000
G01 X107.885095 Y354.717434 Z-0.125000
G01 X108.991609 Y360.250003 Z-0.125000
G01 X115.630692 Y362.463031 Z-0.125000
G01 X115.630692 Y355.823948 Z-0.125000
G01 X115.630692 Y351.397893 Z-0.125000
G01 X120.056747 Y356.930462 Z-0.125000
G01 X122.269775 Y356.930462 Z-0.125000
G01 X124.482802 Y358.036976 Z-0.125000
G01 X126.695830 Y360.250003 Z-0.125000
G01 X126.695830 Y362.463031 Z-0.125000
G01 X125.589316 Y365.782572 Z-0.125000
G01 X121.163261 Y363.569545 Z-0.125000
G01 X120.056747 Y369.102114 Z-0.125000
G01 X125.589316 Y369.102114 Z-0.125000
G01 X127.802344 Y372.421655 Z-0.125000
G01 X122.269775 Y374.634683 Z-0.125000
G01 X124.482802 Y380.167252 Z-0.125000
G01 X125.589316 Y376.847710 Z-0.125000
G01 X127.802344 Y376.847710 Z-0.125000
G01 X132.228399 Y377.954224 Z-0.125000
G01 X131.121885 Y383.486793 Z-0.125000
G01 X134.441426 Y386.806335 Z-0.125000
G01 X133.334913 Y392.338904 Z-0.125000
G01 X137.760968 Y397.871473 Z-0.125000
G01 X139.973995 Y401.191014 Z-0.125000
G01 X141.080509 Y407.830097 Z-0.125000
G01 X139.973995 Y413.362666 Z-0.125000
G01 X139.973995 Y418.895235 Z-0.125000
G01 X145.506565 Y420.001749 Z-0.125000
G01 X146.613078 Y424.427804 Z-0.125000
G01 X148.826106 Y429.960373 Z-0.125000
G01 X154.358675 Y431.066887 Z-0.125000
G01 X155.465189 Y433.279915 Z-0.125000
G01 X155.465189 Y435.492942 Z-0.125000
G01 X152.145647 Y436.599456 Z-0.125000
G01 X153.252161 Y437.705970 Z-0.125000
G01 X149.932620 Y438.812484 Z-0.125000
G01 X147.719592 Y439.918998 Z-0.125000
G01 X144.400051 Y441.025511 Z-0.125000
G01 X143.293537 Y437.705970 Z-0.125000
G01 X141.080509 Y432.173401 Z-0.125000
G01 X138.867482 Y427.747346 Z-0.125000
G01 X134.441426 Y425.534318 Z-0.125000
G01 X132.228399 Y420.001749 Z-0.125000
G01 X132.228399 Y414.469180 Z-0.125000
G01 X133.334913 Y408.936611 Z-0.125000
G01 X131.121885 Y404.510556 Z-0.125000
G01 X130.015371 Y398.977987 Z-0.125000
G01 X123.376288 Y397.871473 Z-0.125000
G01 X125.589316 Y392.338904 Z-0.125000
G01 X123.376288 Y387.912848 Z-0.125000
G01 X123.376288 Y383.486793 Z-0.125000
G01 X120.056747 Y383.486793 Z-0.125000
G01 X117.843719 Y382.380279 Z-0.125000
G01 X115.630692 Y382.380279 Z-0.125000
G01 X113.417664 Y384.593307 Z-0.125000
G01 X111.204636 Y383.486793 Z-0.125000
G01 X111.204636 Y386.806335 Z-0.125000
G01 X113.417664 Y386.806335 Z-0.125000
G01 X114.524178 Y389.019362 Z-0.125000
G01 X112.311150 Y390.125876 Z-0.125000
G01 X110.098123 Y390.125876 Z-0.125000
G01 X108.991609 Y387.912848 Z-0.125000
G01 X106.778581 Y389.019362 Z-0.125000
G01 X102.352526 Y383.486793 Z-0.125000
G01 X104.565554 Y389.019362 Z-0.125000
G01 X102.352526 Y390.125876 Z-0.125000
G01 X102.352526 Y392.338904 Z-0.125000
G01 X100.139498 Y392.338904 Z-0.125000
G01 X100.139498 Y394.551931 Z-0.125000
G01 X102.352526 Y394.551931 Z-0.125000
G01 X102.352526 Y396.764959 Z-0.125000
G01 X100.139498 Y397.871473 Z-0.125000
G01 X101.246012 Y400.084500 Z-0.125000
G01 X102.352526 Y402.297528 Z-0.125000
G01 X100.139498 Y403.404042 Z-0.125000
G01 X99.032985 Y401.191014 Z-0.125000
G01 X96.819957 Y402.297528 Z-0.125000
G01 X95.713443 Y403.404042 Z-0.125000
G01 X97.926471 Y404.510556 Z-0.125000
G01 X99.032985 Y406.723583 Z-0.125000
G01 X100.139498 Y407.830097 Z-0.125000
G01 X102.352526 Y408.936611 Z-0.125000
G01 X104.565554 Y407.830097 Z-0.125000
G01 X103.459040 Y406.723583 Z-0.125000
G01 X101.246012 Y405.617069 Z-0.125000
G01 X103.459040 Y404.510556 Z-0.125000
G01 X105.672067 Y403.404042 Z-0.125000
G01 X106.778581 Y403.404042 Z-0.125000
G01 X107.885095 Y405.617069 Z-0.125000
G01 X106.778581 Y406.723583 Z-0.125000
G01 X108.991609 Y408.936611 Z-0.125000
G01 X111.204636 Y407.830097 Z-0.125000
G01 X110.098123 Y406.723583 Z-0.125000
G01 X110.098123 Y404.510556 Z-0.125000
G01 X108.991609 Y402.297528 Z-0.125000
G01 X108.991609 Y400.084500 Z-0.125000
G01 X107.885095 Y398.977987 Z-0.125000
G01 X105.672067 Y400.084500 Z-0.125000
G01 X104.565554 Y401.191014 Z-0.125000
G01 X103.459040 Y398.977987 Z-0.125000
G01 X105.672067 Y397.871473 Z-0.125000
G01 X104.565554 Y395.658445 Z-0.125000
G01 X105.672067 Y394.551931 Z-0.125000
G01 X104.565554 Y392.338904 Z-0.125000
G01 X106.778581 Y391.232390 Z-0.125000
G01 X107.885095 Y393.445418 Z-0.125000
G01 X107.885095 Y395.658445 Z-0.125000
G01 X110.098123 Y395.658445 Z-0.125000
G01 X110.098123 Y393.445418 Z-0.125000
G01 X112.311150 Y393.445418 Z-0.125000
G01 X114.524178 Y392.338904 Z-0.125000
G01 X115.630692 Y395.658445 Z-0.125000
G01 X117.843719 Y396.764959 Z-0.125000
G01 X115.630692 Y398.977987 Z-0.125000
G01 X114.524178 Y398.977987 Z-0.125000
G01 X113.417664 Y396.764959 Z-0.125000
G01 X112.311150 Y395.658445 Z-0.125000
G01 X111.204636 Y397.871473 Z-0.125000
G01 X112.311150 Y400.084500 Z-0.125000
G01 X111.204636 Y401.191014 Z-0.125000
G01 X112.311150 Y403.404042 Z-0.125000
G01 X113.417664 Y404.510556 Z-0.125000
G01 X114.524178 Y402.297528 Z-0.125000
G01 X116.737205 Y401.191014 Z-0.125000
G01 X117.843719 Y402.297528 Z-0.125000
G01 X120.056747 Y403.404042 Z-0.125000
G01 X117.843719 Y404.510556 Z-0.125000
G01 X118.950233 Y406.723583 Z-0.125000
G01 X121.163261 Y406.723583 Z-0.125000
G01 X121.163261 Y408.936611 Z-0.125000
G01 X120.056747 Y411.149638 Z-0.125000
G01 X122.269775 Y412.256152 Z-0.125000
G01 X122.269775 Y414.469180 Z-0.125000
G01 X122.269775 Y416.682208 Z-0.125000
G01 X120.056747 Y414.469180 Z-0.125000
G01 X116.737205 Y415.575694 Z-0.125000
G01 X117.843719 Y416.682208 Z-0.125000
G01 X120.056747 Y417.788721 Z-0.125000
G01 X121.163261 Y420.001749 Z-0.125000
G01 X122.269775 Y421.108263 Z-0.125000
G01 X118.950233 Y421.108263 Z-0.125000
G01 X116.737205 Y421.108263 Z-0.125000
G01 X115.630692 Y418.895235 Z-0.125000
G01 X113.417664 Y417.788721 Z-0.125000
G01 X112.311150 Y416.682208 Z-0.125000
G01 X110.098123 Y417.788721 Z-0.125000
G01 X107.885095 Y418.895235 Z-0.125000
G01 X105.672067 Y420.001749 Z-0.125000
G01 X105.672067 Y422.214777 Z-0.125000
G01 X106.778581 Y423.321290 Z-0.125000
G01 X106.778581 Y426.640832 Z-0.125000
G01 X108.991609 Y427.747346 Z-0.125000
G01 X111.204636 Y429.960373 Z-0.125000
G01 X112.311150 Y427.747346 Z-0.125000
G01 X111.204636 Y425.534318 Z-0.125000
G01 X108.991609 Y424.427804 Z-0.125000
G01 X110.098123 Y422.214777 Z-0.125000
G01 X113.417664 Y421.108263 Z-0.125000
G01 X113.417664 Y423.321290 Z-0.125000
G01 X115.630692 Y423.321290 Z-0.125000
G01 X114.524178 Y426.640832 Z-0.125000
G01 X116.737205 Y426.640832 Z-0.125000
G01 X118.950233 Y427.747346 Z-0.125000
G01 X118.950233 Y424.427804 Z-0.125000
G01 X120.056747 Y424.427804 Z-0.125000
G01 X122.269775 Y425.534318 Z-0.125000
G01 X126.695830 Y427.747346 Z-0.125000
G01 X128.908857 Y433.279915 Z-0.125000
G01 X131.121885 Y436.599456 Z-0.125000
G01 X122.269775 Y434.386428 Z-0.125000
G01 X117.843719 Y431.066887 Z-0.125000
G01 X116.737205 Y429.960373 Z-0.125000
G01 X114.524178 Y429.960373 Z-0.125000
G01 X114.524178 Y433.279915 Z-0.125000
G01 X112.311150 Y433.279915 Z-0.125000
G01 X112.311150 Y435.492942 Z-0.125000
G01 X108.991609 Y435.492942 Z-0.125000
G01 X110.098123 Y433.279915 Z-0.125000
G01 X107.885095 Y432.173401 Z-0.125000
G01 X106.778581 Y429.960373 Z-0.125000
G01 X104.565554 Y428.853859 Z-0.125000
G01 X103.459040 Y426.640832 Z-0.125000
G01 X102.352526 Y424.427804 Z-0.125000
G01 X100.139498 Y426.640832 Z-0.125000
G01 X99.032985 Y425.534318 Z-0.125000
G01 X96.819957 Y425.534318 Z-0.125000
G01 X94.606929 Y425.534318 Z-0.125000
G01 X94.606929 Y428.853859 Z-0.125000
G01 X93.500415 Y431.066887 Z-0.125000
G01 X95.713443 Y433.279915 Z-0.125000
G01 X97.926471 Y433.279915 Z-0.125000
G01 X96.819957 Y429.960373 Z-0.125000
G01 X99.032985 Y429.960373 Z-0.125000
G01 X101.246012 Y429.960373 Z-0.125000
G01 X101.246012 Y432.173401 Z-0.125000
G01 X102.352526 Y433.279915 Z-0.125000
G01 X104.565554 Y432.173401 Z-0.125000
G01 X106.778581 Y434.386428 Z-0.125000
G01 X106.778581 Y436.599456 Z-0.125000
G01 X104.565554 Y435.492942 Z-0.125000
G01 X102.352526 Y436.599456 Z-0.125000
G01 X100.139498 Y436.599456 Z-0.125000
G01 X97.926471 Y436.599456 Z-0.125000
G01 X95.713443 Y436.599456 Z-0.125000
G01 X93.500415 Y435.492942 Z-0.125000
G01 X92.393902 Y434.386428 Z-0.125000
G01 X90.180874 Y435.492942 Z-0.125000
G01 X90.180874 Y433.279915 Z-0.125000
G01 X87.967846 Y433.279915 Z-0.125000
G01 X86.861333 Y434.386428 Z-0.125000
G01 X84.648305 Y432.173401 Z-0.125000
G01 X82.435277 Y434.386428 Z-0.125000
G01 X82.435277 Y431.066887 Z-0.125000
G01 X80.222250 Y431.066887 Z-0.125000
G01 X80.222250 Y428.853859 Z-0.125000
G01 X78.009222 Y428.853859 Z-0.125000
G01 X78.009222 Y426.640832 Z-0.125000
G01 X80.222250 Y425.534318 Z-0.125000
G01 X82.435277 Y426.640832 Z-0.125000
G01 X83.541791 Y428.853859 Z-0.125000
G01 X85.754819 Y429.960373 Z-0.125000
G01 X87.967846 Y429.960373 Z-0.125000
G01 X90.180874 Y429.960373 Z-0.125000
G01 X92.393902 Y427.747346 Z-0.125000
G01 X91.287388 Y425.534318 Z-0.125000
G01 X89.074360 Y426.640832 Z-0.125000
G01 X87.967846 Y425.534318 Z-0.125000
G01 X85.754819 Y425.534318 Z-0.125000
G01 X85.754819 Y423.321290 Z-0.125000
G01 X83.541791 Y423.321290 Z-0.125000
G01 X83.541791 Y421.108263 Z-0.125000
G01 X81.328764 Y422.214777 Z-0.125000
G01 X79.115736 Y422.214777 Z-0.125000
G01 X76.902708 Y422.214777 Z-0.125000
G01 X74.689681 Y422.214777 Z-0.125000
G01 X75.796195 Y424.427804 Z-0.125000
G01 X75.796195 Y426.640832 Z-0.125000
G01 X71.370139 Y424.427804 Z-0.125000
G01 X69.157112 Y421.108263 Z-0.125000
G01 X73.583167 Y420.001749 Z-0.125000
G01 X75.796195 Y418.895235 Z-0.125000
G01 X78.009222 Y418.895235 Z-0.125000
G01 X80.222250 Y418.895235 Z-0.125000
G01 X82.435277 Y418.895235 Z-0.125000
G01 X84.648305 Y416.682208 Z-0.125000
G01 X86.861333 Y417.788721 Z-0.125000
G01 X86.861333 Y420.001749 Z-0.125000
G01 X89.074360 Y422.214777 Z-0.125000
G01 X91.287388 Y422.214777 Z-0.125000
G01 X93.500415 Y422.214777 Z-0.125000
G01 X94.606929 Y420.001749 Z-0.125000
G01 X96.819957 Y421.108263 Z-0.125000
G01 X97.926471 Y422.214777 Z-0.125000
G01 X99.032985 Y420.001749 Z-0.125000
G01 X100.139498 Y421.108263 Z-0.125000
G01 X102.352526 Y422.214777 Z-0.125000
G01 X103.459040 Y421.108263 Z-0.125000
G01 X102.352526 Y418.895235 Z-0.125000
G01 X101.246012 Y417.788721 Z-0.125000
G01 X101.246012 Y415.575694 Z-0.125000
G01 X103.459040 Y414.469180 Z-0.125000
G01 X104.565554 Y415.575694 Z-0.125000
G01 X104.565554 Y417.788721 Z-0.125000
G01 X106.778581 Y416.682208 Z-0.125000
G01 X107.885095 Y415.575694 Z-0.125000
G01 X110.098123 Y414.469180 Z-0.125000
G01 X111.204636 Y414.469180 Z-0.125000
G01 X113.417664 Y413.362666 Z-0.125000
G01 X115.630692 Y413.362666 Z-0.125000
G01 X117.843719 Y412.256152 Z-0.125000
G01 X116.737205 Y410.043125 Z-0.125000
G01 X118.950233 Y408.936611 Z-0.125000
G01 X116.737205 Y407.830097 Z-0.125000
G01 X115.630692 Y405.617069 Z-0.125000
G01 X113.417664 Y406.723583 Z-0.125000
G01 X114.524178 Y408.936611 Z-0.125000
G01 X113.417664 Y411.149638 Z-0.125000
G01 X112.311150 Y410.043125 Z-0.125000
G01 X110.098123 Y411.149638 Z-0.125000
G01 X108.991609 Y412.256152 Z-0.125000
G01 X106.778581 Y413.362666 Z-0.125000
G01 X106.778581 Y411.149638 Z-0.125000
G01 X105.672067 Y410.043125 Z-0.125000
G01 X104.565554 Y411.149638 Z-0.125000
G01 X102.352526 Y412.256152 Z-0.125000
G01 X101.246012 Y412.256152 Z-0.125000
G01 X100.139498 Y410.043125 Z-0.125000
G01 X97.926471 Y411.149638 Z-0.125000
G01 X96.819957 Y410.043125 Z-0.125000
G01 X96.819957 Y407.830097 Z-0.125000
G01 X95.713443 Y406.723583 Z-0.125000
G01 X93.500415 Y405.617069 Z-0.125000
G01 X93.500415 Y403.404042 Z-0.125000
G01 X93.500415 Y401.191014 Z-0.125000
G01 X92.393902 Y400.084500 Z-0.125000
G01 X91.287388 Y397.871473 Z-0.125000
G01 X90.180874 Y396.764959 Z-0.125000
G01 X93.500415 Y395.658445 Z-0.125000
G01 X94.606929 Y393.445418 Z-0.125000
G01 X96.819957 Y393.445418 Z-0.125000
G01 X94.606929 Y387.912848 Z-0.125000
G01 X94.606929 Y382.380279 Z-0.125000
G01 X90.180874 Y380.167252 Z-0.125000
G01 X85.754819 Y376.847710 Z-0.125000
G01 X83.541791 Y370.208628 Z-0.125000
G01 X78.009222 Y367.995600 Z-0.125000
G01 X78.009222 Y363.569545 Z-0.125000
G01 X73.583167 Y361.356517 Z-0.125000
G01 X70.263625 Y356.930462 Z-0.125000
G01 X63.624543 Y356.930462 Z-0.125000
G01 X56.985460 Y356.930462 Z-0.125000
G01 X51.452891 Y355.823948 Z-0.125000
G01 X48.133349 Y352.504407 Z-0.125000
G01 X47.026835 Y346.971838 Z-0.125000
G01 X45.920322 Y343.652296 Z-0.125000
G01 X42.600780 Y339.226241 Z-0.125000
G01 X37.068211 Y338.119727 Z-0.125000
G01 X33.748670 Y334.800186 Z-0.125000
G01 X26.003073 Y335.906699 Z-0.125000
G01 X28.216101 Y341.439268 Z-0.125000
G01 X22.683532 Y341.439268 Z-0.125000
G01 X20.470504 Y338.119727 Z-0.125000
G01 X20.470504 Y334.800186 Z-0.125000
G01 X18.257476 Y334.800186 Z-0.125000
G01 X19.363990 Y331.480644 Z-0.125000
G01 X19.363990 Y329.267617 Z-0.125000
G01 X19.363990 Y327.054589 Z-0.125000
G01 X19.363990 Y324.841561 Z-0.125000
G01 X18.257476 Y322.628534 Z-0.125000
G01 X19.363990 Y319.308992 Z-0.125000
G01 X18.257476 Y317.095965 Z-0.125000
G01 X17.150963 Y314.882937 Z-0.125000
G01 X17.150963 Y310.456882 Z-0.125000
G01 X18.257476 Y311.563396 Z-0.125000
G01 X22.683532 Y313.776423 Z-0.125000
G01 X26.003073 Y317.095965 Z-0.125000
G01 X29.322615 Y320.415506 Z-0.125000
G01 X28.216101 Y325.948075 Z-0.125000
G01 X29.322615 Y329.267617 Z-0.125000
G01 X37.068211 Y327.054589 Z-0.125000
G01 X41.494266 Y329.267617 Z-0.125000
G01 X44.813808 Y331.480644 Z-0.125000
G01 X50.346377 Y333.693672 Z-0.125000
G01 X53.665918 Y337.013213 Z-0.125000
G01 X55.878946 Y341.439268 Z-0.125000
G01 X55.878946 Y346.971838 Z-0.125000
G01 X59.198487 Y350.291379 Z-0.125000
G01 X65.837570 Y349.184865 Z-0.125000
G01 X71.370139 Y351.397893 Z-0.125000
G01 X73.583167 Y344.758810 Z-0.125000
G00 Z5.000000

(End cutting path id: path95847)


(Start cutting path id: path95845)
(Change tool to Default tool)

G00 Z5.000000
G00 X317.016205 Y542.824782

G01 Z-0.125000 F100.0(Penetrate)
G01 X313.696664 Y545.037809 Z-0.125000 F400.000000
G01 X311.483636 Y545.037809 Z-0.125000
G01 X308.164095 Y545.037809 Z-0.125000
G01 X309.270608 Y547.250837 Z-0.125000
G01 X304.844553 Y547.250837 Z-0.125000
G01 X302.631525 Y546.144323 Z-0.125000
G01 X301.525012 Y541.718268 Z-0.125000
G01 X305.951067 Y541.718268 Z-0.125000
G01 X307.057581 Y538.398727 Z-0.125000
G01 X303.738039 Y537.292213 Z-0.125000
G01 X300.418498 Y537.292213 Z-0.125000
G01 X303.738039 Y532.866158 Z-0.125000
G01 X308.164095 Y533.972671 Z-0.125000
G01 X308.164095 Y530.653130 Z-0.125000
G01 X308.164095 Y527.333588 Z-0.125000
G01 X303.738039 Y528.440102 Z-0.125000
G01 X305.951067 Y524.014047 Z-0.125000
G01 X302.631525 Y524.014047 Z-0.125000
G01 X299.311984 Y521.801019 Z-0.125000
G01 X298.205470 Y517.374964 Z-0.125000
G01 X294.885929 Y517.374964 Z-0.125000
G01 X290.459874 Y518.481478 Z-0.125000
G01 X290.459874 Y521.801019 Z-0.125000
G01 X293.779415 Y522.907533 Z-0.125000
G01 X294.885929 Y525.120561 Z-0.125000
G01 X298.205470 Y526.227075 Z-0.125000
G01 X299.311984 Y529.546616 Z-0.125000
G01 X299.311984 Y532.866158 Z-0.125000
G01 X294.885929 Y530.653130 Z-0.125000
G01 X291.566387 Y529.546616 Z-0.125000
G01 X289.353360 Y527.333588 Z-0.125000
G01 X286.033818 Y526.227075 Z-0.125000
G01 X286.033818 Y522.907533 Z-0.125000
G01 X281.607763 Y525.120561 Z-0.125000
G01 X277.181708 Y525.120561 Z-0.125000
G01 X278.288222 Y529.546616 Z-0.125000
G01 X281.607763 Y529.546616 Z-0.125000
G01 X284.927305 Y530.653130 Z-0.125000
G01 X287.140332 Y532.866158 Z-0.125000
G01 X290.459874 Y533.972671 Z-0.125000
G01 X293.779415 Y535.079185 Z-0.125000
G01 X295.992443 Y537.292213 Z-0.125000
G01 X295.992443 Y540.611754 Z-0.125000
G01 X295.992443 Y543.931296 Z-0.125000
G01 X297.098956 Y546.144323 Z-0.125000
G01 X298.205470 Y548.357351 Z-0.125000
G01 X293.779415 Y549.463865 Z-0.125000
G01 X291.566387 Y548.357351 Z-0.125000
G01 X291.566387 Y543.931296 Z-0.125000
G01 X291.566387 Y539.505240 Z-0.125000
G01 X288.246846 Y538.398727 Z-0.125000
G01 X284.927305 Y538.398727 Z-0.125000
G01 X282.714277 Y536.185699 Z-0.125000
G01 X279.394735 Y533.972671 Z-0.125000
G01 X274.968680 Y532.866158 Z-0.125000
G01 X273.862166 Y529.546616 Z-0.125000
G01 X271.649139 Y527.333588 Z-0.125000
G01 X269.436111 Y525.120561 Z-0.125000
G01 X265.010056 Y527.333588 Z-0.125000
G01 X267.223084 Y530.653130 Z-0.125000
G01 X269.436111 Y532.866158 Z-0.125000
G01 X269.436111 Y536.185699 Z-0.125000
G01 X270.542625 Y538.398727 Z-0.125000
G01 X272.755653 Y541.718268 Z-0.125000
G01 X274.968680 Y537.292213 Z-0.125000
G01 X278.288222 Y538.398727 Z-0.125000
G01 X277.181708 Y541.718268 Z-0.125000
G01 X280.501249 Y542.824782 Z-0.125000
G01 X283.820791 Y542.824782 Z-0.125000
G01 X287.140332 Y543.931296 Z-0.125000
G01 X286.033818 Y547.250837 Z-0.125000
G01 X287.140332 Y549.463865 Z-0.125000
G01 X282.714277 Y549.463865 Z-0.125000
G01 X280.501249 Y547.250837 Z-0.125000
G01 X276.075194 Y547.250837 Z-0.125000
G01 X273.862166 Y546.144323 Z-0.125000
G01 X270.542625 Y546.144323 Z-0.125000
G01 X268.329597 Y543.931296 Z-0.125000
G01 X266.116570 Y542.824782 Z-0.125000
G01 X263.903542 Y541.718268 Z-0.125000
G01 X261.690515 Y540.611754 Z-0.125000
G01 X265.010056 Y536.185699 Z-0.125000
G01 X262.797028 Y533.972671 Z-0.125000
G01 X261.690515 Y530.653130 Z-0.125000
G01 X260.584001 Y527.333588 Z-0.125000
G01 X257.264459 Y526.227075 Z-0.125000
G01 X253.944918 Y529.546616 Z-0.125000
G01 X256.157945 Y531.759644 Z-0.125000
G01 X257.264459 Y533.972671 Z-0.125000
G01 X258.370973 Y537.292213 Z-0.125000
G01 X258.370973 Y540.611754 Z-0.125000
G01 X253.944918 Y538.398727 Z-0.125000
G01 X251.731890 Y536.185699 Z-0.125000
G01 X249.518863 Y535.079185 Z-0.125000
G01 X247.305835 Y533.972671 Z-0.125000
G01 X246.199321 Y530.653130 Z-0.125000
G01 X250.625376 Y528.440102 Z-0.125000
G01 X249.518863 Y526.227075 Z-0.125000
G01 X246.199321 Y524.014047 Z-0.125000
G01 X243.986294 Y528.440102 Z-0.125000
G01 X241.773266 Y525.120561 Z-0.125000
G01 X240.666752 Y521.801019 Z-0.125000
G01 X239.560238 Y519.587992 Z-0.125000
G01 X236.240697 Y514.055423 Z-0.125000
G01 X239.560238 Y516.268450 Z-0.125000
G01 X241.773266 Y517.374964 Z-0.125000
G01 X243.986294 Y519.587992 Z-0.125000
G01 X246.199321 Y520.694506 Z-0.125000
G01 X248.412349 Y519.587992 Z-0.125000
G01 X249.518863 Y521.801019 Z-0.125000
G01 X251.731890 Y521.801019 Z-0.125000
G01 X253.944918 Y521.801019 Z-0.125000
G01 X255.051432 Y522.907533 Z-0.125000
G01 X257.264459 Y521.801019 Z-0.125000
G01 X259.477487 Y522.907533 Z-0.125000
G01 X261.690515 Y522.907533 Z-0.125000
G01 X263.903542 Y522.907533 Z-0.125000
G01 X266.116570 Y522.907533 Z-0.125000
G01 X268.329597 Y521.801019 Z-0.125000
G01 X271.649139 Y520.694506 Z-0.125000
G01 X272.755653 Y521.801019 Z-0.125000
G01 X276.075194 Y522.907533 Z-0.125000
G01 X274.968680 Y519.587992 Z-0.125000
G01 X277.181708 Y518.481478 Z-0.125000
G01 X279.394735 Y518.481478 Z-0.125000
G01 X281.607763 Y520.694506 Z-0.125000
G01 X286.033818 Y518.481478 Z-0.125000
G01 X283.820791 Y516.268450 Z-0.125000
G01 X282.714277 Y516.268450 Z-0.125000
G01 X287.140332 Y514.055423 Z-0.125000
G01 X289.353360 Y514.055423 Z-0.125000
G01 X292.672901 Y514.055423 Z-0.125000
G01 X291.566387 Y511.842395 Z-0.125000
G01 X293.779415 Y510.735881 Z-0.125000
G01 X295.992443 Y509.629368 Z-0.125000
G01 X298.205470 Y508.522854 Z-0.125000
G01 X300.418498 Y507.416340 Z-0.125000
G01 X298.205470 Y511.842395 Z-0.125000
G01 X301.525012 Y512.948909 Z-0.125000
G01 X301.525012 Y517.374964 Z-0.125000
G01 X303.738039 Y518.481478 Z-0.125000
G01 X307.057581 Y519.587992 Z-0.125000
G01 X310.377122 Y521.801019 Z-0.125000
G01 X313.696664 Y518.481478 Z-0.125000
G01 X311.483636 Y516.268450 Z-0.125000
G01 X309.270608 Y514.055423 Z-0.125000
G01 X305.951067 Y512.948909 Z-0.125000
G01 X307.057581 Y509.629368 Z-0.125000
G01 X303.738039 Y508.522854 Z-0.125000
G01 X302.631525 Y505.203312 Z-0.125000
G01 X304.844553 Y504.096798 Z-0.125000
G01 X307.057581 Y502.990285 Z-0.125000
G01 X308.164095 Y505.203312 Z-0.125000
G01 X312.590150 Y502.990285 Z-0.125000
G01 X311.483636 Y507.416340 Z-0.125000
G01 X312.590150 Y509.629368 Z-0.125000
G01 X314.803177 Y511.842395 Z-0.125000
G01 X317.016205 Y514.055423 Z-0.125000
G01 X318.122719 Y517.374964 Z-0.125000
G01 X321.442260 Y517.374964 Z-0.125000
G01 X323.655288 Y519.587992 Z-0.125000
G01 X325.868315 Y521.801019 Z-0.125000
G01 X329.187857 Y522.907533 Z-0.125000
G01 X331.400885 Y525.120561 Z-0.125000
G01 X334.720426 Y526.227075 Z-0.125000
G01 X338.039967 Y527.333588 Z-0.125000
G01 X339.146481 Y522.907533 Z-0.125000
G01 X341.359509 Y527.333588 Z-0.125000
G01 X344.679050 Y528.440102 Z-0.125000
G01 X349.105105 Y526.227075 Z-0.125000
G01 X346.892078 Y524.014047 Z-0.125000
G01 X343.572536 Y522.907533 Z-0.125000
G01 X344.679050 Y519.587992 Z-0.125000
G01 X341.359509 Y518.481478 Z-0.125000
G01 X340.252995 Y516.268450 Z-0.125000
G01 X339.146481 Y512.948909 Z-0.125000
G01 X336.933454 Y509.629368 Z-0.125000
G01 X334.720426 Y507.416340 Z-0.125000
G01 X332.507398 Y505.203312 Z-0.125000
G01 X331.400885 Y502.990285 Z-0.125000
G01 X328.081343 Y501.883771 Z-0.125000
G01 X324.761802 Y502.990285 Z-0.125000
G01 X321.442260 Y502.990285 Z-0.125000
G01 X323.655288 Y507.416340 Z-0.125000
G01 X326.974829 Y507.416340 Z-0.125000
G01 X329.187857 Y509.629368 Z-0.125000
G01 X331.400885 Y511.842395 Z-0.125000
G01 X333.613912 Y514.055423 Z-0.125000
G01 X335.826940 Y516.268450 Z-0.125000
G01 X335.826940 Y520.694506 Z-0.125000
G01 X332.507398 Y519.587992 Z-0.125000
G01 X329.187857 Y517.374964 Z-0.125000
G01 X326.974829 Y515.161937 Z-0.125000
G01 X324.761802 Y512.948909 Z-0.125000
G01 X321.442260 Y511.842395 Z-0.125000
G01 X319.229233 Y508.522854 Z-0.125000
G01 X317.016205 Y506.309826 Z-0.125000
G01 X317.016205 Y501.883771 Z-0.125000
G01 X319.229233 Y497.457716 Z-0.125000
G01 X322.548774 Y497.457716 Z-0.125000
G01 X323.655288 Y498.564229 Z-0.125000
G01 X328.081343 Y497.457716 Z-0.125000
G01 X328.081343 Y493.031660 Z-0.125000
G01 X323.655288 Y493.031660 Z-0.125000
G01 X320.335746 Y490.818633 Z-0.125000
G01 X319.229233 Y493.031660 Z-0.125000
G01 X318.122719 Y493.031660 Z-0.125000
G01 X312.590150 Y490.818633 Z-0.125000
G01 X315.909691 Y495.244688 Z-0.125000
G01 X313.696664 Y497.457716 Z-0.125000
G01 X314.803177 Y498.564229 Z-0.125000
G01 X311.483636 Y499.670743 Z-0.125000
G01 X309.270608 Y500.777257 Z-0.125000
G01 X299.311984 Y493.031660 Z-0.125000
G01 X291.566387 Y488.605605 Z-0.125000
G01 X281.607763 Y476.433953 Z-0.125000
G01 X278.288222 Y478.646981 Z-0.125000
G01 X276.075194 Y480.860008 Z-0.125000
G01 X273.862166 Y481.966522 Z-0.125000
G01 X271.649139 Y484.179550 Z-0.125000
G01 X270.542625 Y487.499091 Z-0.125000
G01 X269.436111 Y486.392578 Z-0.125000
G01 X267.223084 Y489.712119 Z-0.125000
G01 X266.116570 Y491.925147 Z-0.125000
G01 X263.903542 Y493.031660 Z-0.125000
G01 X261.690515 Y495.244688 Z-0.125000
G01 X259.477487 Y496.351202 Z-0.125000
G01 X255.051432 Y498.564229 Z-0.125000
G01 X249.518863 Y499.670743 Z-0.125000
G01 X242.879780 Y499.670743 Z-0.125000
G01 X239.560238 Y499.670743 Z-0.125000
G01 X237.347211 Y498.564229 Z-0.125000
G01 X235.134183 Y497.457716 Z-0.125000
G01 X232.921155 Y497.457716 Z-0.125000
G01 X229.601614 Y495.244688 Z-0.125000
G01 X231.814642 Y510.735881 Z-0.125000
G01 X229.601614 Y507.416340 Z-0.125000
G01 X225.175559 Y502.990285 Z-0.125000
G01 X222.962531 Y499.670743 Z-0.125000
G01 X220.749504 Y496.351202 Z-0.125000
G01 X216.323448 Y489.712119 Z-0.125000
G01 X214.110421 Y485.286064 Z-0.125000
G01 X213.003907 Y481.966522 Z-0.125000
G01 X211.897393 Y479.753495 Z-0.125000
G01 X210.790879 Y475.327439 Z-0.125000
G01 X209.684365 Y474.220926 Z-0.125000
G01 X208.577852 Y470.901384 Z-0.125000
G01 X205.258310 Y474.220926 Z-0.125000
G01 X203.045283 Y472.007898 Z-0.125000
G01 X201.938769 Y468.688357 Z-0.125000
G01 X206.364824 Y467.581843 Z-0.125000
G01 X207.471338 Y464.262301 Z-0.125000
G01 X211.897393 Y465.368815 Z-0.125000
G01 X213.003907 Y468.688357 Z-0.125000
G01 X214.110421 Y473.114412 Z-0.125000
G01 X215.216935 Y474.220926 Z-0.125000
G01 X217.429962 Y470.901384 Z-0.125000
G01 X219.642990 Y472.007898 Z-0.125000
G01 X220.749504 Y469.794870 Z-0.125000
G01 X222.962531 Y469.794870 Z-0.125000
G01 X226.282073 Y467.581843 Z-0.125000
G01 X225.175559 Y466.475329 Z-0.125000
G01 X221.856017 Y465.368815 Z-0.125000
G01 X217.429962 Y466.475329 Z-0.125000
G01 X216.323448 Y464.262301 Z-0.125000
G01 X215.216935 Y460.942760 Z-0.125000
G01 X211.897393 Y460.942760 Z-0.125000
G01 X209.684365 Y458.729732 Z-0.125000
G01 X205.258310 Y460.942760 Z-0.125000
G01 X203.045283 Y464.262301 Z-0.125000
G01 X200.832255 Y462.049274 Z-0.125000
G01 X197.512714 Y460.942760 Z-0.125000
G01 X196.406200 Y457.623218 Z-0.125000
G01 X196.406200 Y454.303677 Z-0.125000
G01 X193.086658 Y453.197163 Z-0.125000
G01 X190.873631 Y449.877622 Z-0.125000
G01 X188.660603 Y447.664594 Z-0.125000
G01 X185.341062 Y447.664594 Z-0.125000
G01 X184.234548 Y444.345053 Z-0.125000
G01 X180.915006 Y447.664594 Z-0.125000
G01 X178.701979 Y445.451567 Z-0.125000
G01 X176.488951 Y443.238539 Z-0.125000
G01 X175.382437 Y439.918998 Z-0.125000
G01 X172.062896 Y437.705970 Z-0.125000
G01 X170.956382 Y434.386428 Z-0.125000
G01 X168.743355 Y432.173401 Z-0.125000
G01 X167.636841 Y429.960373 Z-0.125000
G01 X172.062896 Y427.747346 Z-0.125000
G01 X170.956382 Y423.321290 Z-0.125000
G01 X175.382437 Y423.321290 Z-0.125000
G01 X176.488951 Y426.640832 Z-0.125000
G01 X178.701979 Y429.960373 Z-0.125000
G01 X174.275924 Y431.066887 Z-0.125000
G01 X176.488951 Y434.386428 Z-0.125000
G01 X178.701979 Y436.599456 Z-0.125000
G01 X180.915006 Y438.812484 Z-0.125000
G01 X182.021520 Y441.025511 Z-0.125000
G01 X186.447575 Y439.918998 Z-0.125000
G01 X188.660603 Y442.132025 Z-0.125000
G01 X191.980145 Y443.238539 Z-0.125000
G01 X194.193172 Y445.451567 Z-0.125000
G01 X195.299686 Y448.771108 Z-0.125000
G01 X198.619227 Y449.877622 Z-0.125000
G01 X200.832255 Y453.197163 Z-0.125000
G01 X200.832255 Y457.623218 Z-0.125000
G01 X205.258310 Y456.516705 Z-0.125000
G01 X205.258310 Y453.197163 Z-0.125000
G01 X205.258310 Y449.877622 Z-0.125000
G01 X203.045283 Y447.664594 Z-0.125000
G01 X199.725741 Y445.451567 Z-0.125000
G01 X199.725741 Y442.132025 Z-0.125000
G01 X196.406200 Y441.025511 Z-0.125000
G01 X197.512714 Y436.599456 Z-0.125000
G01 X193.086658 Y438.812484 Z-0.125000
G01 X190.873631 Y436.599456 Z-0.125000
G01 X187.554089 Y435.492942 Z-0.125000
G01 X184.234548 Y434.386428 Z-0.125000
G01 X182.021520 Y432.173401 Z-0.125000
G01 X183.128034 Y428.853859 Z-0.125000
G01 X187.554089 Y428.853859 Z-0.125000
G01 X189.767117 Y431.066887 Z-0.125000
G01 X193.086658 Y432.173401 Z-0.125000
G01 X196.406200 Y432.173401 Z-0.125000
G01 X199.725741 Y432.173401 Z-0.125000
G01 X198.619227 Y428.853859 Z-0.125000
G01 X196.406200 Y426.640832 Z-0.125000
G01 X193.086658 Y426.640832 Z-0.125000
G01 X191.980145 Y423.321290 Z-0.125000
G01 X189.767117 Y423.321290 Z-0.125000
G01 X187.554089 Y422.214777 Z-0.125000
G01 X186.447575 Y424.427804 Z-0.125000
G01 X184.234548 Y422.214777 Z-0.125000
G01 X182.021520 Y422.214777 Z-0.125000
G01 X180.915006 Y425.534318 Z-0.125000
G01 X179.808493 Y422.214777 Z-0.125000
G01 X177.595465 Y421.108263 Z-0.125000
G01 X175.382437 Y420.001749 Z-0.125000
G01 X173.169410 Y418.895235 Z-0.125000
G01 X170.956382 Y418.895235 Z-0.125000
G01 X168.743355 Y416.682208 Z-0.125000
G01 X167.636841 Y415.575694 Z-0.125000
G01 X162.104272 Y417.788721 Z-0.125000
G01 X166.530327 Y420.001749 Z-0.125000
G01 X165.423813 Y420.001749 Z-0.125000
G01 X166.530327 Y423.321290 Z-0.125000
G01 X163.210785 Y423.321290 Z-0.125000
G01 X163.210785 Y425.534318 Z-0.125000
G01 X166.530327 Y426.640832 Z-0.125000
G01 X163.210785 Y429.960373 Z-0.125000
G01 X163.210785 Y434.386428 Z-0.125000
G01 X165.423813 Y436.599456 Z-0.125000
G01 X167.636841 Y438.812484 Z-0.125000
G01 X169.849868 Y442.132025 Z-0.125000
G01 X172.062896 Y444.345053 Z-0.125000
G01 X174.275924 Y448.771108 Z-0.125000
G01 X169.849868 Y448.771108 Z-0.125000
G01 X168.743355 Y452.090649 Z-0.125000
G01 X170.956382 Y454.303677 Z-0.125000
G01 X175.382437 Y454.303677 Z-0.125000
G01 X176.488951 Y450.984136 Z-0.125000
G01 X180.915006 Y452.090649 Z-0.125000
G01 X179.808493 Y455.410191 Z-0.125000
G01 X183.128034 Y457.623218 Z-0.125000
G01 X185.341062 Y452.090649 Z-0.125000
G01 X187.554089 Y454.303677 Z-0.125000
G01 X188.660603 Y456.516705 Z-0.125000
G01 X188.660603 Y460.942760 Z-0.125000
G01 X191.980145 Y458.729732 Z-0.125000
G01 X191.980145 Y463.155788 Z-0.125000
G01 X193.086658 Y465.368815 Z-0.125000
G01 X196.406200 Y466.475329 Z-0.125000
G01 X198.619227 Y468.688357 Z-0.125000
G01 X198.619227 Y473.114412 Z-0.125000
G01 X194.193172 Y472.007898 Z-0.125000
G01 X191.980145 Y470.901384 Z-0.125000
G01 X189.767117 Y469.794870 Z-0.125000
G01 X187.554089 Y467.581843 Z-0.125000
G01 X186.447575 Y465.368815 Z-0.125000
G01 X184.234548 Y462.049274 Z-0.125000
G01 X182.021520 Y460.942760 Z-0.125000
G01 X178.701979 Y460.942760 Z-0.125000
G01 X176.488951 Y459.836246 Z-0.125000
G01 X174.275924 Y458.729732 Z-0.125000
G01 X170.956382 Y458.729732 Z-0.125000
G01 X167.636841 Y459.836246 Z-0.125000
G01 X165.423813 Y457.623218 Z-0.125000
G01 X164.317299 Y454.303677 Z-0.125000
G01 X163.210785 Y452.090649 Z-0.125000
G01 X159.891244 Y450.984136 Z-0.125000
G01 X157.678216 Y449.877622 Z-0.125000
G01 X155.465189 Y447.664594 Z-0.125000
G01 X154.358675 Y444.345053 Z-0.125000
G01 X154.358675 Y441.025511 Z-0.125000
G01 X157.678216 Y444.345053 Z-0.125000
G01 X160.997758 Y446.558080 Z-0.125000
G01 X166.530327 Y447.664594 Z-0.125000
G01 X165.423813 Y445.451567 Z-0.125000
G01 X164.317299 Y442.132025 Z-0.125000
G01 X160.997758 Y441.025511 Z-0.125000
G01 X158.784730 Y438.812484 Z-0.125000
G01 X158.784730 Y435.492942 Z-0.125000
G00 Z5.000000

(End cutting path id: path95845)


(Start cutting path id: path95843)
(Change tool to Default tool)

G00 Z5.000000
G00 X400.004741 Y474.220926

G01 Z-0.125000 F100.0(Penetrate)
G01 X395.578685 Y474.220926 Z-0.125000 F400.000000
G01 X391.152630 Y473.114412 Z-0.125000
G01 X386.726575 Y472.007898 Z-0.125000
G01 X382.300520 Y473.114412 Z-0.125000
G01 X381.194006 Y470.901384 Z-0.125000
G01 X377.874465 Y472.007898 Z-0.125000
G01 X376.767951 Y469.794870 Z-0.125000
G01 X373.448409 Y469.794870 Z-0.125000
G01 X371.235382 Y468.688357 Z-0.125000
G01 X366.809326 Y467.581843 Z-0.125000
G01 X362.383271 Y466.475329 Z-0.125000
G01 X357.957216 Y466.475329 Z-0.125000
G01 X353.531161 Y466.475329 Z-0.125000
G01 X349.105105 Y466.475329 Z-0.125000
G01 X346.892078 Y467.581843 Z-0.125000
G01 X344.679050 Y456.516705 Z-0.125000
G01 X349.105105 Y446.558080 Z-0.125000
G01 X351.318133 Y439.918998 Z-0.125000
G01 X355.744188 Y428.853859 Z-0.125000
G01 X366.809326 Y425.534318 Z-0.125000
G01 X365.702813 Y433.279915 Z-0.125000
G01 X361.276757 Y444.345053 Z-0.125000
G01 X355.744188 Y454.303677 Z-0.125000
G01 X364.596299 Y455.410191 Z-0.125000
G01 X371.235382 Y446.558080 Z-0.125000
G01 X376.767951 Y455.410191 Z-0.125000
G01 X380.087492 Y447.664594 Z-0.125000
G01 X388.939603 Y449.877622 Z-0.125000
G01 X385.620061 Y456.516705 Z-0.125000
G01 X394.472172 Y458.729732 Z-0.125000
G01 X401.111255 Y460.942760 Z-0.125000
G01 X408.856851 Y453.197163 Z-0.125000
G01 X409.963365 Y462.049274 Z-0.125000
G01 X419.921989 Y463.155788 Z-0.125000
G01 X422.135017 Y452.090649 Z-0.125000
G01 X430.987127 Y454.303677 Z-0.125000
G01 X429.880614 Y464.262301 Z-0.125000
G01 X443.158779 Y463.155788 Z-0.125000
G01 X444.265293 Y452.090649 Z-0.125000
G01 X440.945752 Y442.132025 Z-0.125000
G01 X438.732724 Y441.025511 Z-0.125000
G01 X443.158779 Y439.918998 Z-0.125000
G01 X445.371807 Y441.025511 Z-0.125000
G01 X447.584835 Y439.918998 Z-0.125000
G01 X449.797862 Y438.812484 Z-0.125000
G01 X452.010890 Y438.812484 Z-0.125000
G01 X454.223917 Y438.812484 Z-0.125000
G01 X456.436945 Y437.705970 Z-0.125000
G01 X458.649973 Y437.705970 Z-0.125000
G01 X460.863000 Y436.599456 Z-0.125000
G01 X463.076028 Y436.599456 Z-0.125000
G01 X465.289055 Y435.492942 Z-0.125000
G01 X464.182542 Y443.238539 Z-0.125000
G01 X458.649973 Y452.090649 Z-0.125000
G01 X459.756486 Y458.729732 Z-0.125000
G01 X473.034652 Y457.623218 Z-0.125000
G01 X481.886763 Y460.942760 Z-0.125000
G01 X498.484470 Y458.729732 Z-0.125000
G01 X500.697497 Y449.877622 Z-0.125000
G01 X491.845387 Y447.664594 Z-0.125000
G01 X480.780249 Y445.451567 Z-0.125000
G01 X467.502083 Y435.492942 Z-0.125000
G01 X469.715111 Y434.386428 Z-0.125000
G01 X471.928138 Y434.386428 Z-0.125000
G01 X475.247680 Y433.279915 Z-0.125000
G01 X477.460707 Y433.279915 Z-0.125000
G01 X479.673735 Y433.279915 Z-0.125000
G01 X482.993276 Y432.173401 Z-0.125000
G01 X485.206304 Y432.173401 Z-0.125000
G01 X487.419332 Y432.173401 Z-0.125000
G01 X491.845387 Y432.173401 Z-0.125000
G01 X495.164928 Y431.066887 Z-0.125000
G01 X498.484470 Y432.173401 Z-0.125000
G01 X501.804011 Y431.066887 Z-0.125000
G01 X505.123553 Y431.066887 Z-0.125000
G01 X509.549608 Y432.173401 Z-0.125000
G01 X532.786398 Y436.599456 Z-0.125000
G01 X530.573370 Y428.853859 Z-0.125000
G01 X515.082177 Y411.149638 Z-0.125000
G01 X504.017039 Y406.723583 Z-0.125000
G01 X487.419332 Y405.617069 Z-0.125000
G01 X482.993276 Y418.895235 Z-0.125000
G01 X470.821625 Y418.895235 Z-0.125000
G01 X465.289055 Y420.001749 Z-0.125000
G01 X461.969514 Y421.108263 Z-0.125000
G01 X458.649973 Y421.108263 Z-0.125000
G01 X455.330431 Y422.214777 Z-0.125000
G01 X452.010890 Y423.321290 Z-0.125000
G01 X447.584835 Y423.321290 Z-0.125000
G01 X445.371807 Y423.321290 Z-0.125000
G01 X442.052265 Y424.427804 Z-0.125000
G01 X438.732724 Y424.427804 Z-0.125000
G01 X435.413183 Y424.427804 Z-0.125000
G01 X432.093641 Y424.427804 Z-0.125000
G01 X429.880614 Y424.427804 Z-0.125000
G01 X427.667586 Y424.427804 Z-0.125000
G01 X425.454558 Y424.427804 Z-0.125000
G01 X423.241531 Y424.427804 Z-0.125000
G01 X421.028503 Y424.427804 Z-0.125000
G01 X418.815475 Y425.534318 Z-0.125000
G01 X416.602448 Y424.427804 Z-0.125000
G01 X413.282906 Y424.427804 Z-0.125000
G01 X409.963365 Y424.427804 Z-0.125000
G01 X407.750337 Y424.427804 Z-0.125000
G01 X405.537310 Y423.321290 Z-0.125000
G01 X403.324282 Y423.321290 Z-0.125000
G01 X404.430796 Y411.149638 Z-0.125000
G01 X394.472172 Y410.043125 Z-0.125000
G01 X386.726575 Y407.830097 Z-0.125000
G01 X383.407034 Y420.001749 Z-0.125000
G01 X385.620061 Y421.108263 Z-0.125000
G01 X387.833089 Y422.214777 Z-0.125000
G01 X390.046116 Y422.214777 Z-0.125000
G01 X391.152630 Y428.853859 Z-0.125000
G01 X392.259144 Y422.214777 Z-0.125000
G01 X394.472172 Y422.214777 Z-0.125000
G01 X396.685199 Y423.321290 Z-0.125000
G01 X398.898227 Y423.321290 Z-0.125000
G01 X401.111255 Y423.321290 Z-0.125000
G01 X402.217768 Y428.853859 Z-0.125000
G01 X408.856851 Y432.173401 Z-0.125000
G01 X418.815475 Y432.173401 Z-0.125000
G01 X428.774100 Y433.279915 Z-0.125000
G01 X434.306669 Y442.132025 Z-0.125000
G01 X436.519696 Y443.238539 Z-0.125000
G01 X432.093641 Y443.238539 Z-0.125000
G01 X429.880614 Y443.238539 Z-0.125000
G01 X428.774100 Y443.238539 Z-0.125000
G01 X425.454558 Y444.345053 Z-0.125000
G01 X423.241531 Y444.345053 Z-0.125000
