%
(Header)
(Generated by gcodetools from Inkscape.)
(Using default header. To add your own header create file "header" in the output dir.)
M3
(Header end.)
G21 (All units in mm)

(Start cutting path id: path95849)
(Change tool to Default tool)

G00 Z5.000000
G00 X73.583168 Y344.758810

G01 Z-0.125000 F100.0(Penetrate)
G01 X76.902708 Y346.971836 Z-0.125000 F400.000000
G01 X79.115737 Y352.504408 Z-0.125000
G01 X81.328763 Y356.930462 Z-0.125000
G01 X87.967846 Y358.036977 Z-0.125000
G01 X86.861332 Y362.463031 Z-0.125000
G01 X93.500415 Y363.569545 Z-0.125000
G01 X89.074360 Y370.208628 Z-0.125000
G01 X94.606929 Y372.421654 Z-0.125000
G01 X99.032983 Y374.634683 Z-0.125000
G01 X103.459041 Y376.847711 Z-0.125000
G01 X106.778581 Y376.847711 Z-0.125000
G01 X108.991609 Y377.954223 Z-0.125000
G01 X111.204635 Y379.060737 Z-0.125000
G01 X113.417664 Y379.060737 Z-0.125000
G01 X112.311150 Y376.847711 Z-0.125000
G01 X112.311150 Y370.208628 Z-0.125000
G01 X107.885095 Y367.995600 Z-0.125000
G01 X102.352526 Y366.889085 Z-0.125000
G01 X99.032983 Y364.676060 Z-0.125000
G01 X100.139498 Y358.036977 Z-0.125000
G01 X96.819958 Y354.717434 Z-0.125000
G01 X91.287389 Y351.397893 Z-0.125000
G01 X86.861332 Y349.184865 Z-0.125000
G01 X84.648306 Y344.758810 Z-0.125000
G01 X84.648306 Y339.226242 Z-0.125000
G01 X78.009223 Y339.226242 Z-0.125000
G01 X81.328763 Y333.693673 Z-0.125000
G01 X75.796194 Y332.587159 Z-0.125000
G01 X73.583168 Y327.054590 Z-0.125000
G01 X71.370140 Y321.522021 Z-0.125000
G01 X74.689680 Y315.989452 Z-0.125000
G01 X72.476654 Y311.563395 Z-0.125000
G01 X78.009223 Y312.669909 Z-0.125000
G01 X78.009223 Y310.456881 Z-0.125000
G01 X81.328763 Y310.456881 Z-0.125000
G01 X83.541791 Y310.456881 Z-0.125000
G01 X85.754820 Y309.350369 Z-0.125000
G01 X86.861332 Y310.456881 Z-0.125000
G01 X86.861332 Y312.669909 Z-0.125000
G01 X84.648306 Y313.776424 Z-0.125000
G01 X89.074360 Y311.563395 Z-0.125000
G01 X91.287389 Y311.563395 Z-0.125000
G01 X90.180875 Y309.350369 Z-0.125000
G01 X89.074360 Y307.137341 Z-0.125000
G01 X87.967846 Y306.030826 Z-0.125000
G01 X85.754820 Y306.030826 Z-0.125000
G01 X83.541791 Y307.137341 Z-0.125000
G01 X81.328763 Y307.137341 Z-0.125000
G01 X79.115737 Y308.243855 Z-0.125000
G01 X76.902708 Y308.243855 Z-0.125000
G01 X78.009223 Y304.924312 Z-0.125000
G01 X75.796194 Y304.924312 Z-0.125000
G01 X74.689680 Y302.711286 Z-0.125000
G01 X75.796194 Y297.178717 Z-0.125000
G01 X79.115737 Y296.072203 Z-0.125000
G01 X81.328763 Y296.072203 Z-0.125000
G01 X84.648306 Y297.178717 Z-0.125000
G01 X86.861332 Y296.072203 Z-0.125000
G01 X84.648306 Y294.965689 Z-0.125000
G01 X85.754820 Y291.646146 Z-0.125000
G01 X87.967846 Y292.752660 Z-0.125000
G01 X90.180875 Y293.859174 Z-0.125000
G01 X92.393900 Y294.965689 Z-0.125000
G01 X91.287389 Y297.178717 Z-0.125000
G01 X89.074360 Y296.072203 Z-0.125000
G01 X89.074360 Y299.391743 Z-0.125000
G01 X86.861332 Y299.391743 Z-0.125000
G01 X84.648306 Y300.498257 Z-0.125000
G01 X82.435277 Y300.498257 Z-0.125000
G01 X81.328763 Y299.391743 Z-0.125000
G01 X79.115737 Y298.285229 Z-0.125000
G01 X78.009223 Y300.498257 Z-0.125000
G01 X79.115737 Y302.711286 Z-0.125000
G01 X81.328763 Y303.817800 Z-0.125000
G01 X83.541791 Y303.817800 Z-0.125000
G01 X85.754820 Y302.711286 Z-0.125000
G01 X87.967846 Y302.711286 Z-0.125000
G01 X90.180875 Y302.711286 Z-0.125000
G01 X91.287389 Y303.817800 Z-0.125000
G01 X93.500415 Y302.711286 Z-0.125000
G01 X93.500415 Y306.030826 Z-0.125000
G01 X92.393900 Y306.030826 Z-0.125000
G01 X93.500415 Y309.350369 Z-0.125000
G01 X94.606929 Y308.243855 Z-0.125000
G01 X96.819958 Y307.137341 Z-0.125000
G01 X95.713443 Y304.924312 Z-0.125000
G01 X96.819958 Y303.817800 Z-0.125000
G01 X99.032983 Y304.924312 Z-0.125000
G01 X100.139498 Y304.924312 Z-0.125000
G01 X101.246012 Y307.137341 Z-0.125000
G01 X102.352526 Y309.350369 Z-0.125000
G01 X100.139498 Y309.350369 Z-0.125000
G01 X99.032983 Y308.243855 Z-0.125000
G01 X96.819958 Y309.350369 Z-0.125000
G01 X95.713443 Y311.563395 Z-0.125000
G01 X93.500415 Y312.669909 Z-0.125000
G01 X94.606929 Y314.882938 Z-0.125000
G01 X95.713443 Y315.989452 Z-0.125000
G01 X97.926472 Y315.989452 Z-0.125000
G01 X97.926472 Y313.776424 Z-0.125000
G01 X97.926472 Y311.563395 Z-0.125000
G01 X100.139498 Y312.669909 Z-0.125000
G01 X102.352526 Y311.563395 Z-0.125000
G01 X104.565552 Y310.456881 Z-0.125000
G01 X104.565552 Y308.243855 Z-0.125000
G01 X106.778581 Y309.350369 Z-0.125000
G01 X107.885095 Y308.243855 Z-0.125000
G01 X110.098124 Y309.350369 Z-0.125000
G01 X110.098124 Y307.137341 Z-0.125000
G01 X112.311150 Y306.030826 Z-0.125000
G01 X113.417664 Y306.030826 Z-0.125000
G01 X114.524178 Y308.243855 Z-0.125000
G01 X116.737204 Y309.350369 Z-0.125000
G01 X116.737204 Y307.137341 Z-0.125000
G01 X118.950233 Y306.030826 Z-0.125000
G01 X121.163261 Y304.924312 Z-0.125000
G01 X123.376287 Y303.817800 Z-0.125000
G01 X122.269776 Y301.604772 Z-0.125000
G01 X121.163261 Y300.498257 Z-0.125000
G01 X118.950233 Y300.498257 Z-0.125000
G01 X120.056747 Y302.711286 Z-0.125000
G01 X117.843718 Y303.817800 Z-0.125000
G01 X116.737204 Y302.711286 Z-0.125000
G01 X115.630693 Y304.924312 Z-0.125000
G01 X114.524178 Y302.711286 Z-0.125000
G01 X112.311150 Y302.711286 Z-0.125000
G01 X110.098124 Y303.817800 Z-0.125000
G01 X108.991609 Y304.924312 Z-0.125000
G01 X106.778581 Y303.817800 Z-0.125000
G01 X106.778581 Y306.030826 Z-0.125000
G01 X104.565552 Y306.030826 Z-0.125000
G01 X103.459041 Y304.924312 Z-0.125000
G01 X103.459041 Y302.711286 Z-0.125000
G01 X101.246012 Y302.711286 Z-0.125000
G01 X99.032983 Y301.604772 Z-0.125000
G01 X101.246012 Y300.498257 Z-0.125000
G01 X100.139498 Y298.285229 Z-0.125000
G01 X100.139498 Y296.072203 Z-0.125000
G01 X97.926472 Y294.965689 Z-0.125000
G01 X100.139498 Y293.859174 Z-0.125000
G01 X102.352526 Y293.859174 Z-0.125000
G01 X101.246012 Y291.646146 Z-0.125000
G01 X103.459041 Y291.646146 Z-0.125000
G01 X104.565552 Y292.752660 Z-0.125000
G01 X105.672067 Y290.539634 Z-0.125000
G01 X107.885095 Y291.646146 Z-0.125000
G01 X110.098124 Y291.646146 Z-0.125000
G01 X111.204635 Y292.752660 Z-0.125000
G01 X108.991609 Y293.859174 Z-0.125000
G01 X110.098124 Y296.072203 Z-0.125000
G01 X108.991609 Y297.178717 Z-0.125000
G01 X106.778581 Y298.285229 Z-0.125000
G01 X106.778581 Y296.072203 Z-0.125000
G01 X105.672067 Y294.965689 Z-0.125000
G01 X103.459041 Y296.072203 Z-0.125000
G01 X102.352526 Y297.178717 Z-0.125000
G01 X103.459041 Y299.391743 Z-0.125000
G01 X104.565552 Y299.391743 Z-0.125000
G01 X105.672067 Y301.604772 Z-0.125000
G01 X107.885095 Y300.498257 Z-0.125000
G01 X108.991609 Y301.604772 Z-0.125000
G01 X111.204635 Y300.498257 Z-0.125000
G01 X110.098124 Y299.391743 Z-0.125000
G01 X112.311150 Y298.285229 Z-0.125000
G01 X114.524178 Y298.285229 Z-0.125000
G01 X114.524178 Y300.498257 Z-0.125000
G01 X116.737204 Y299.391743 Z-0.125000
G01 X118.950233 Y298.285229 Z-0.125000
G01 X117.843718 Y296.072203 Z-0.125000
G01 X116.737204 Y296.072203 Z-0.125000
G01 X114.524178 Y296.072203 Z-0.125000
G01 X112.311150 Y294.965689 Z-0.125000
G01 X114.524178 Y293.859174 Z-0.125000
G01 X113.417664 Y291.646146 Z-0.125000
G01 X112.311150 Y290.539634 Z-0.125000
G01 X110.098124 Y289.433120 Z-0.125000
G01 X107.885095 Y288.326606 Z-0.125000
G01 X110.098124 Y287.220091 Z-0.125000
G01 X112.311150 Y286.113577 Z-0.125000
G01 X114.524178 Y286.113577 Z-0.125000
G01 X115.630693 Y287.220091 Z-0.125000
G01 X117.843718 Y286.113577 Z-0.125000
G01 X116.737204 Y282.794037 Z-0.125000
G01 X114.524178 Y282.794037 Z-0.125000
G01 X112.311150 Y282.794037 Z-0.125000
G01 X110.098124 Y283.900551 Z-0.125000
G01 X107.885095 Y285.007065 Z-0.125000
G01 X108.991609 Y281.687522 Z-0.125000
G01 X106.778581 Y282.794037 Z-0.125000
G01 X104.565552 Y281.687522 Z-0.125000
G01 X102.352526 Y281.687522 Z-0.125000
G01 X100.139498 Y280.581008 Z-0.125000
G01 X99.032983 Y279.474494 Z-0.125000
G01 X96.819958 Y279.474494 Z-0.125000
G01 X96.819958 Y282.794037 Z-0.125000
G01 X99.032983 Y283.900551 Z-0.125000
G01 X100.139498 Y285.007065 Z-0.125000
G01 X102.352526 Y285.007065 Z-0.125000
G01 X104.565552 Y285.007065 Z-0.125000
G01 X105.672067 Y287.220091 Z-0.125000
G01 X103.459041 Y288.326606 Z-0.125000
G01 X101.246012 Y288.326606 Z-0.125000
G01 X99.032983 Y288.326606 Z-0.125000
G01 X99.032983 Y291.646146 Z-0.125000
G01 X96.819958 Y290.539634 Z-0.125000
G01 X95.713443 Y292.752660 Z-0.125000
G01 X93.500415 Y291.646146 Z-0.125000
G01 X92.393900 Y290.539634 Z-0.125000
G01 X90.180875 Y290.539634 Z-0.125000
G01 X90.180875 Y288.326606 Z-0.125000
G01 X87.967846 Y289.433120 Z-0.125000
G01 X86.861332 Y287.220091 Z-0.125000
G01 X85.754820 Y286.113577 Z-0.125000
G01 X86.861332 Y282.794037 Z-0.125000
G01 X89.074360 Y282.794037 Z-0.125000
G01 X89.074360 Y285.007065 Z-0.125000
G01 X92.393900 Y283.900551 Z-0.125000
G01 X91.287389 Y281.687522 Z-0.125000
G01 X90.180875 Y279.474494 Z-0.125000
G01 X92.393900 Y279.474494 Z-0.125000
G01 X94.606929 Y280.581008 Z-0.125000
G01 X94.606929 Y277.261468 Z-0.125000
G01 X96.819958 Y276.154954 Z-0.125000
G01 X99.032983 Y276.154954 Z-0.125000
G01 X99.032983 Y273.941925 Z-0.125000
G01 X101.246012 Y272.835414 Z-0.125000
G01 X101.246012 Y276.154954 Z-0.125000
G01 X102.352526 Y277.261468 Z-0.125000
G01 X104.565552 Y278.367982 Z-0.125000
G01 X106.778581 Y279.474494 Z-0.125000
G01 X107.885095 Y277.261468 Z-0.125000
G01 X105.672067 Y276.154954 Z-0.125000
G01 X104.565552 Y273.941925 Z-0.125000
G01 X103.459041 Y271.728899 Z-0.125000
G01 X105.672067 Y271.728899 Z-0.125000
G01 X107.885095 Y269.515859 Z-0.125000
G01 X107.885095 Y272.835414 Z-0.125000
G01 X108.991609 Y273.941925 Z-0.125000
G01 X111.204635 Y273.941925 Z-0.125000
G01 X113.417664 Y273.941925 Z-0.125000
G01 X115.630693 Y276.154954 Z-0.125000
G01 X112.311150 Y277.261468 Z-0.125000
G01 X110.098124 Y277.261468 Z-0.125000
G01 X111.204635 Y279.474494 Z-0.125000
G01 X113.417664 Y279.474494 Z-0.125000
G01 X115.630693 Y279.474494 Z-0.125000
G01 X117.843718 Y279.474494 Z-0.125000
G01 X118.950233 Y281.687522 Z-0.125000
G01 X120.056747 Y282.794037 Z-0.125000
G01 X122.269776 Y283.900551 Z-0.125000
G01 X120.056747 Y286.113577 Z-0.125000
G01 X122.269776 Y287.220091 Z-0.125000
G01 X123.376287 Y286.113577 Z-0.125000
G01 X124.482801 Y288.326606 Z-0.125000
G01 X124.482801 Y290.539634 Z-0.125000
G01 X125.589316 Y292.752660 Z-0.125000
G01 X127.802344 Y293.859174 Z-0.125000
G01 X127.802344 Y297.178717 Z-0.125000
G01 X125.589316 Y296.072203 Z-0.125000
G01 X123.376287 Y294.965689 Z-0.125000
G01 X122.269776 Y292.752660 Z-0.125000
G01 X121.163261 Y291.646146 Z-0.125000
G01 X120.056747 Y289.433120 Z-0.125000
G01 X117.843718 Y289.433120 Z-0.125000
G01 X115.630693 Y290.539634 Z-0.125000
G01 X116.737204 Y292.752660 Z-0.125000
G01 X118.950233 Y292.752660 Z-0.125000
G01 X120.056747 Y294.965689 Z-0.125000
G01 X121.163261 Y297.178717 Z-0.125000
G01 X123.376287 Y298.285229 Z-0.125000
G01 X124.482801 Y299.391743 Z-0.125000
G01 X125.589316 Y301.604772 Z-0.125000
G01 X127.802344 Y299.391743 Z-0.125000
G01 X127.802344 Y301.604772 Z-0.125000
G01 X128.908859 Y302.711286 Z-0.125000
G01 X135.547939 Y307.137341 Z-0.125000
G01 X134.441427 Y313.776424 Z-0.125000
G01 X136.654453 Y318.202478 Z-0.125000
G01 X141.080511 Y320.415507 Z-0.125000
G01 X144.400051 Y325.948075 Z-0.125000
G01 X146.613079 Y329.267616 Z-0.125000
G01 X149.932619 Y332.587159 Z-0.125000
G01 X154.358674 Y332.587159 Z-0.125000
G01 X156.571703 Y333.693673 Z-0.125000
G01 X155.465188 Y335.906699 Z-0.125000
G01 X152.145648 Y335.906699 Z-0.125000
G01 X148.826105 Y341.439267 Z-0.125000
G01 X142.187022 Y340.332756 Z-0.125000
G01 X139.973996 Y337.013213 Z-0.125000
G01 X137.760968 Y332.587159 Z-0.125000
G01 X136.654453 Y327.054590 Z-0.125000
G01 X131.121885 Y324.841561 Z-0.125000
G01 X126.695830 Y319.308992 Z-0.125000
G01 X125.589316 Y318.202478 Z-0.125000
G01 X123.376287 Y318.202478 Z-0.125000
G01 X121.163261 Y318.202478 Z-0.125000
G01 X118.950233 Y318.202478 Z-0.125000
G01 X117.843718 Y315.989452 Z-0.125000
G01 X120.056747 Y314.882938 Z-0.125000
G01 X122.269776 Y314.882938 Z-0.125000
G01 X124.482801 Y314.882938 Z-0.125000
G01 X126.695830 Y314.882938 Z-0.125000
G01 X127.802344 Y312.669909 Z-0.125000
G01 X127.802344 Y310.456881 Z-0.125000
G01 X127.802344 Y307.137341 Z-0.125000
G01 X126.695830 Y304.924312 Z-0.125000
G01 X123.376287 Y306.030826 Z-0.125000
G01 X124.482801 Y307.137341 Z-0.125000
G01 X125.589316 Y309.350369 Z-0.125000
G01 X124.482801 Y311.563395 Z-0.125000
G01 X122.269776 Y311.563395 Z-0.125000
G01 X122.269776 Y309.350369 Z-0.125000
G01 X121.163261 Y308.243855 Z-0.125000
G01 X118.950233 Y308.243855 Z-0.125000
G01 X118.950233 Y310.456881 Z-0.125000
G01 X120.056747 Y312.669909 Z-0.125000
G01 X117.843718 Y312.669909 Z-0.125000
G01 X116.737204 Y312.669909 Z-0.125000
G01 X114.524178 Y311.563395 Z-0.125000
G01 X112.311150 Y309.350369 Z-0.125000
G01 X112.311150 Y311.563395 Z-0.125000
G01 X113.417664 Y313.776424 Z-0.125000
G01 X112.311150 Y313.776424 Z-0.125000
G01 X110.098124 Y312.669909 Z-0.125000
G01 X108.991609 Y314.882938 Z-0.125000
G01 X107.885095 Y313.776424 Z-0.125000
G01 X107.885095 Y311.563395 Z-0.125000
G01 X105.672067 Y312.669909 Z-0.125000
G01 X103.459041 Y313.776424 Z-0.125000
G01 X101.246012 Y314.882938 Z-0.125000
G01 X100.139498 Y315.989452 Z-0.125000
G01 X100.139498 Y318.202478 Z-0.125000
G01 X97.926472 Y319.308992 Z-0.125000
G01 X95.713443 Y319.308992 Z-0.125000
G01 X93.500415 Y319.308992 Z-0.125000
G01 X91.287389 Y320.415507 Z-0.125000
G01 X90.180875 Y318.202478 Z-0.125000
G01 X92.393900 Y317.095964 Z-0.125000
G01 X91.287389 Y314.882938 Z-0.125000
G01 X89.074360 Y314.882938 Z-0.125000
G01 X86.861332 Y315.989452 Z-0.125000
G01 X87.967846 Y318.202478 Z-0.125000
G01 X86.861332 Y320.415507 Z-0.125000
G01 X84.648306 Y319.308992 Z-0.125000
G01 X83.541791 Y318.202478 Z-0.125000
G01 X82.435277 Y315.989452 Z-0.125000
G01 X81.328763 Y313.776424 Z-0.125000
G01 X79.115737 Y314.882938 Z-0.125000
G01 X79.115737 Y317.095964 Z-0.125000
G01 X80.222249 Y318.202478 Z-0.125000
G01 X80.222249 Y320.415507 Z-0.125000
G01 X80.222249 Y323.735047 Z-0.125000
G01 X82.435277 Y321.522021 Z-0.125000
G01 X83.541791 Y323.735047 Z-0.125000
G01 X84.648306 Y324.841561 Z-0.125000
G01 X83.541791 Y328.161104 Z-0.125000
G01 X86.861332 Y327.054590 Z-0.125000
G01 X87.967846 Y329.267616 Z-0.125000
G01 X90.180875 Y330.374130 Z-0.125000
G01 X92.393900 Y329.267616 Z-0.125000
G01 X90.180875 Y328.161104 Z-0.125000
G01 X89.074360 Y325.948075 Z-0.125000
G01 X86.861332 Y323.735047 Z-0.125000
G01 X89.074360 Y322.628532 Z-0.125000
G01 X91.287389 Y323.735047 Z-0.125000
G01 X93.500415 Y322.628532 Z-0.125000
G01 X95.713443 Y322.628532 Z-0.125000
G01 X97.926472 Y322.628532 Z-0.125000
G01 X100.139498 Y321.522021 Z-0.125000
G01 X102.352526 Y321.522021 Z-0.125000
G01 X104.565552 Y320.415507 Z-0.125000
G01 X106.778581 Y320.415507 Z-0.125000
G01 X104.565552 Y318.202478 Z-0.125000
G01 X102.352526 Y318.202478 Z-0.125000
G01 X103.459041 Y315.989452 Z-0.125000
G01 X105.672067 Y315.989452 Z-0.125000
G01 X106.778581 Y317.095964 Z-0.125000
G01 X108.991609 Y318.202478 Z-0.125000
G01 X110.098124 Y317.095964 Z-0.125000
G01 X112.311150 Y317.095964 Z-0.125000
G01 X111.204635 Y319.308992 Z-0.125000
G01 X113.417664 Y320.415507 Z-0.125000
G01 X114.524178 Y318.202478 Z-0.125000
G01 X115.630693 Y319.308992 Z-0.125000
G01 X117.843718 Y320.415507 Z-0.125000
G01 X120.056747 Y321.522021 Z-0.125000
G01 X122.269776 Y321.522021 Z-0.125000
G01 X124.482801 Y321.522021 Z-0.125000
G01 X125.589316 Y323.735047 Z-0.125000
G01 X123.376287 Y324.841561 Z-0.125000
G01 X123.376287 Y327.054590 Z-0.125000
G01 X121.163261 Y328.161104 Z-0.125000
G01 X121.163261 Y324.841561 Z-0.125000
G01 X118.950233 Y324.841561 Z-0.125000
G01 X116.737204 Y324.841561 Z-0.125000
G01 X115.630693 Y322.628532 Z-0.125000
G01 X113.417664 Y323.735047 Z-0.125000
G01 X111.204635 Y322.628532 Z-0.125000
G01 X110.098124 Y325.948075 Z-0.125000
G01 X107.885095 Y325.948075 Z-0.125000
G01 X107.885095 Y323.735047 Z-0.125000
G00 Z5.000000

(End cutting path id: path95849)


(Footer)
M5
G00 X0.0000 Y0.0000
M2
(Using default footer. To add your own footer create file "footer" in the output dir.)
(end)
%