%
(Header)
(Generated by gcodetools from Inkscape.)
(Using default header. To add your own header create file "header" in the output dir.)
M3
(Header end.)
G21 (All units in mm)

(Start cutting path id: path46)
(Change tool to Default tool)

G00 Z5.000000
G00 X335.586600 Y518.668131

G01 Z-0.125000 F100.0(Penetrate)
G01 X332.920196 Y520.445734 Z-0.125000 F400.000000
G01 X328.476188 Y523.112138 Z-0.125000
G01 X324.920983 Y524.000939 Z-0.125000
G01 X320.476975 Y525.778542 Z-0.125000
G01 X317.810571 Y526.667344 Z-0.125000
G01 X314.255365 Y528.444947 Z-0.125000
G01 X309.811358 Y529.333748 Z-0.125000
G01 X306.256152 Y530.222550 Z-0.125000
G01 X302.700946 Y531.111351 Z-0.125000
G01 X299.145740 Y531.111351 Z-0.125000
G01 X295.590534 Y532.000153 Z-0.125000
G01 X292.035329 Y532.000153 Z-0.125000
G01 X288.480123 Y532.888954 Z-0.125000
G01 X284.924917 Y532.888954 Z-0.125000
G01 X281.369711 Y532.888954 Z-0.125000
G00 Z5.000000

(End cutting path id: path46)


(Start cutting path id: path44)
(Change tool to Default tool)

G00 Z5.000000
G00 X357.806637 Y474.228058

G01 Z-0.125000 F100.0(Penetrate)
G01 X354.251431 Y475.116859 Z-0.125000 F400.000000
G01 X354.251431 Y476.894462 Z-0.125000
G01 X352.473828 Y480.449668 Z-0.125000
G01 X351.585026 Y484.004874 Z-0.125000
G01 X350.696225 Y487.560080 Z-0.125000
G01 X348.918622 Y491.115285 Z-0.125000
G01 X348.918622 Y496.448094 Z-0.125000
G01 X346.252218 Y499.114499 Z-0.125000
G01 X341.808210 Y500.892101 Z-0.125000
G01 X337.364203 Y501.780903 Z-0.125000
G01 X335.586600 Y505.336109 Z-0.125000
G01 X332.920196 Y508.002513 Z-0.125000
G01 X327.587387 Y508.002513 Z-0.125000
G01 X324.920983 Y512.446520 Z-0.125000
G01 X324.920983 Y517.779329 Z-0.125000
G01 X328.476188 Y518.668131 Z-0.125000
G01 X330.253791 Y514.224123 Z-0.125000
G01 X332.920196 Y512.446520 Z-0.125000
G01 X337.364203 Y511.557719 Z-0.125000
G01 X340.030607 Y508.891315 Z-0.125000
G01 X342.697012 Y507.113712 Z-0.125000
G01 X346.252218 Y506.224910 Z-0.125000
G01 X348.029821 Y504.447307 Z-0.125000
G01 X350.696225 Y502.669704 Z-0.125000
G01 X352.473828 Y500.892101 Z-0.125000
G01 X353.362629 Y498.225697 Z-0.125000
G01 X355.140232 Y499.114499 Z-0.125000
G01 X355.140232 Y496.448094 Z-0.125000
G01 X356.029034 Y495.559293 Z-0.125000
G01 X356.029034 Y493.781690 Z-0.125000
G01 X360.473041 Y495.559293 Z-0.125000
G01 X359.584240 Y499.114499 Z-0.125000
G01 X364.917048 Y496.448094 Z-0.125000
G01 X366.694651 Y494.670491 Z-0.125000
G01 X367.583453 Y492.892888 Z-0.125000
G01 X367.583453 Y491.115285 Z-0.125000
G01 X368.472254 Y490.226484 Z-0.125000
G01 X368.472254 Y487.560080 Z-0.125000
G01 X369.361056 Y485.782477 Z-0.125000
G01 X371.138659 Y490.226484 Z-0.125000
G01 X374.693864 Y488.448881 Z-0.125000
G01 X375.582666 Y484.893675 Z-0.125000
G01 X375.582666 Y480.449668 Z-0.125000
G01 X377.360269 Y477.783263 Z-0.125000
G01 X380.026673 Y477.783263 Z-0.125000
G01 X381.804276 Y476.005661 Z-0.125000
G01 X384.470681 Y476.894462 Z-0.125000
G01 X383.581879 Y478.672065 Z-0.125000
G01 X380.915475 Y481.338469 Z-0.125000
G01 X380.915475 Y485.782477 Z-0.125000
G01 X385.359482 Y484.893675 Z-0.125000
G01 X388.025886 Y482.227271 Z-0.125000
G01 X390.692291 Y484.893675 Z-0.125000
G01 X391.581092 Y482.227271 Z-0.125000
G01 X393.358695 Y484.004874 Z-0.125000
G01 X394.247497 Y481.338469 Z-0.125000
G01 X396.025100 Y477.783263 Z-0.125000
G01 X396.025100 Y479.560866 Z-0.125000
G01 X397.802702 Y484.004874 Z-0.125000
G01 X399.580305 Y480.449668 Z-0.125000
G01 X403.135511 Y480.449668 Z-0.125000
G01 X403.135511 Y485.782477 Z-0.125000
G01 X407.579519 Y483.116072 Z-0.125000
G01 X408.468320 Y479.560866 Z-0.125000
G01 X412.912327 Y481.338469 Z-0.125000
G01 X413.801129 Y476.894462 Z-0.125000
G01 X409.357121 Y475.116859 Z-0.125000
G01 X404.913114 Y474.228058 Z-0.125000
G01 X402.246710 Y475.116859 Z-0.125000
G01 X398.691504 Y476.005661 Z-0.125000
G01 X399.580305 Y474.228058 Z-0.125000
G01 X400.469107 Y471.561653 Z-0.125000
G01 X401.357908 Y469.784050 Z-0.125000
G01 X403.135511 Y468.895249 Z-0.125000
G01 X402.246710 Y466.228844 Z-0.125000
G01 X403.135511 Y465.340043 Z-0.125000
G01 X405.801916 Y466.228844 Z-0.125000
G01 X407.579519 Y469.784050 Z-0.125000
G01 X410.245923 Y469.784050 Z-0.125000
G01 X412.023526 Y467.117646 Z-0.125000
G01 X408.468320 Y465.340043 Z-0.125000
G01 X410.245923 Y462.673639 Z-0.125000
G01 X412.023526 Y460.896036 Z-0.125000
G01 X413.801129 Y459.118433 Z-0.125000
G01 X416.467533 Y460.007234 Z-0.125000
G01 X417.356335 Y463.562440 Z-0.125000
G01 X414.689930 Y465.340043 Z-0.125000
G01 X418.245136 Y467.117646 Z-0.125000
G01 X416.467533 Y469.784050 Z-0.125000
G01 X412.912327 Y470.672852 Z-0.125000
G01 X414.689930 Y472.450455 Z-0.125000
G01 X417.356335 Y474.228058 Z-0.125000
G01 X417.356335 Y476.894462 Z-0.125000
G01 X420.022739 Y476.894462 Z-0.125000
G01 X421.800342 Y477.783263 Z-0.125000
G01 X424.466746 Y478.672065 Z-0.125000
G01 X427.133151 Y476.894462 Z-0.125000
G01 X428.910754 Y475.116859 Z-0.125000
G01 X430.688357 Y472.450455 Z-0.125000
G01 X431.577158 Y469.784050 Z-0.125000
G01 X434.243562 Y468.895249 Z-0.125000
G01 X436.021165 Y472.450455 Z-0.125000
G01 X438.687570 Y470.672852 Z-0.125000
G01 X442.242776 Y469.784050 Z-0.125000
G01 X444.909180 Y468.006447 Z-0.125000
G01 X444.909180 Y464.451242 Z-0.125000
G01 X444.909180 Y460.896036 Z-0.125000
G01 X446.686783 Y460.007234 Z-0.125000
G01 X446.686783 Y458.229631 Z-0.125000
G01 X448.464386 Y461.784837 Z-0.125000
G01 X449.353187 Y464.451242 Z-0.125000
G01 X448.464386 Y466.228844 Z-0.125000
G01 X449.353187 Y469.784050 Z-0.125000
G01 X447.575584 Y471.561653 Z-0.125000
G01 X445.797981 Y473.339256 Z-0.125000
G01 X442.242776 Y473.339256 Z-0.125000
G01 X440.465173 Y476.005661 Z-0.125000
G01 X438.687570 Y476.894462 Z-0.125000
G01 X434.243562 Y475.116859 Z-0.125000
G01 X433.354761 Y477.783263 Z-0.125000
G01 X431.577158 Y479.560866 Z-0.125000
G01 X428.021952 Y480.449668 Z-0.125000
G01 X425.355548 Y483.116072 Z-0.125000
G01 X421.800342 Y483.116072 Z-0.125000
G01 X417.356335 Y482.227271 Z-0.125000
G01 X417.356335 Y486.671278 Z-0.125000
G01 X422.689143 Y488.448881 Z-0.125000
G01 X427.133151 Y488.448881 Z-0.125000
G01 X430.688357 Y486.671278 Z-0.125000
G01 X433.354761 Y484.004874 Z-0.125000
G01 X436.021165 Y483.116072 Z-0.125000
G01 X437.798768 Y480.449668 Z-0.125000
G01 X439.576371 Y481.338469 Z-0.125000
G01 X442.242776 Y482.227271 Z-0.125000
G01 X444.020378 Y479.560866 Z-0.125000
G01 X444.909180 Y476.894462 Z-0.125000
G01 X448.464386 Y476.005661 Z-0.125000
G01 X452.019592 Y474.228058 Z-0.125000
G01 X455.574797 Y476.005661 Z-0.125000
G01 X454.685996 Y473.339256 Z-0.125000
G01 X453.797195 Y471.561653 Z-0.125000
G01 X452.908393 Y469.784050 Z-0.125000
G01 X452.019592 Y468.006447 Z-0.125000
G01 X451.130790 Y465.340043 Z-0.125000
G01 X452.908393 Y461.784837 Z-0.125000
G01 X451.130790 Y456.452028 Z-0.125000
G01 X449.353187 Y451.119220 Z-0.125000
G01 X446.686783 Y452.896823 Z-0.125000
G01 X444.020378 Y452.896823 Z-0.125000
G01 X444.909180 Y455.563227 Z-0.125000
G01 X443.131577 Y456.452028 Z-0.125000
G01 X440.465173 Y458.229631 Z-0.125000
G01 X440.465173 Y461.784837 Z-0.125000
G01 X441.353974 Y465.340043 Z-0.125000
G01 X437.798768 Y463.562440 Z-0.125000
G01 X437.798768 Y467.117646 Z-0.125000
G01 X434.243562 Y465.340043 Z-0.125000
G01 X431.577158 Y464.451242 Z-0.125000
G01 X432.465959 Y460.896036 Z-0.125000
G01 X435.132364 Y460.007234 Z-0.125000
G01 X436.909967 Y458.229631 Z-0.125000
G01 X434.243562 Y454.674425 Z-0.125000
G01 X436.021165 Y452.008021 Z-0.125000
G01 X438.687570 Y454.674425 Z-0.125000
G01 X440.465173 Y452.008021 Z-0.125000
G01 X443.131577 Y450.230418 Z-0.125000
G01 X442.242776 Y447.564014 Z-0.125000
G01 X438.687570 Y447.564014 Z-0.125000
G01 X436.021165 Y448.452815 Z-0.125000
G01 X432.465959 Y449.341617 Z-0.125000
G01 X430.688357 Y452.008021 Z-0.125000
G01 X428.910754 Y455.563227 Z-0.125000
G01 X431.577158 Y456.452028 Z-0.125000
G01 X428.910754 Y459.118433 Z-0.125000
G01 X427.133151 Y461.784837 Z-0.125000
G01 X425.355548 Y462.673639 Z-0.125000
G01 X425.355548 Y466.228844 Z-0.125000
G01 X428.910754 Y466.228844 Z-0.125000
G01 X427.133151 Y469.784050 Z-0.125000
G01 X425.355548 Y471.561653 Z-0.125000
G01 X423.577945 Y474.228058 Z-0.125000
G01 X420.022739 Y472.450455 Z-0.125000
G01 X421.800342 Y469.784050 Z-0.125000
G01 X421.800342 Y466.228844 Z-0.125000
G01 X420.911540 Y462.673639 Z-0.125000
G01 X420.911540 Y460.007234 Z-0.125000
G01 X422.689143 Y458.229631 Z-0.125000
G01 X425.355548 Y456.452028 Z-0.125000
G01 X424.466746 Y452.008021 Z-0.125000
G01 X426.244349 Y451.119220 Z-0.125000
G01 X428.021952 Y448.452815 Z-0.125000
G01 X428.021952 Y444.897609 Z-0.125000
G01 X424.466746 Y445.786411 Z-0.125000
G01 X421.800342 Y447.564014 Z-0.125000
G01 X420.022739 Y450.230418 Z-0.125000
G01 X421.800342 Y453.785624 Z-0.125000
G01 X419.133938 Y454.674425 Z-0.125000
G01 X417.356335 Y456.452028 Z-0.125000
G01 X413.801129 Y454.674425 Z-0.125000
G01 X410.245923 Y454.674425 Z-0.125000
G01 X408.468320 Y457.340830 Z-0.125000
G01 X406.690717 Y460.007234 Z-0.125000
G01 X404.913114 Y461.784837 Z-0.125000
G01 X403.135511 Y462.673639 Z-0.125000
G01 X403.135511 Y459.118433 Z-0.125000
G01 X404.024313 Y457.340830 Z-0.125000
G01 X404.024313 Y455.563227 Z-0.125000
G01 X404.024313 Y453.785624 Z-0.125000
G01 X406.690717 Y452.896823 Z-0.125000
G01 X408.468320 Y450.230418 Z-0.125000
G01 X411.134724 Y451.119220 Z-0.125000
G01 X412.912327 Y448.452815 Z-0.125000
G01 X415.578732 Y451.119220 Z-0.125000
G01 X416.467533 Y447.564014 Z-0.125000
G01 X417.356335 Y444.897609 Z-0.125000
G01 X420.022739 Y444.008808 Z-0.125000
G01 X420.022739 Y440.453602 Z-0.125000
G01 X416.467533 Y440.453602 Z-0.125000
G01 X413.801129 Y439.564801 Z-0.125000
G01 X412.023526 Y441.342404 Z-0.125000
G01 X412.912327 Y444.897609 Z-0.125000
G01 X409.357121 Y445.786411 Z-0.125000
G01 X408.468320 Y442.231205 Z-0.125000
G01 X405.801916 Y444.008808 Z-0.125000
G01 X404.913114 Y446.675212 Z-0.125000
G01 X404.024313 Y449.341617 Z-0.125000
G01 X403.135511 Y451.119220 Z-0.125000
G01 X402.246710 Y447.564014 Z-0.125000
G01 X402.246710 Y444.897609 Z-0.125000
G01 X403.135511 Y443.120006 Z-0.125000
G01 X402.246710 Y440.453602 Z-0.125000
G01 X404.024313 Y438.675999 Z-0.125000
G01 X407.579519 Y438.675999 Z-0.125000
G01 X409.357121 Y436.898396 Z-0.125000
G01 X410.245923 Y433.343190 Z-0.125000
G01 X413.801129 Y432.454389 Z-0.125000
G01 X413.801129 Y436.009595 Z-0.125000
G01 X417.356335 Y436.009595 Z-0.125000
G01 X417.356335 Y432.454389 Z-0.125000
G01 X418.245136 Y430.676786 Z-0.125000
G01 X415.578732 Y429.787985 Z-0.125000
G01 X416.467533 Y425.343977 Z-0.125000
G01 X413.801129 Y428.010382 Z-0.125000
G01 X412.023526 Y427.121580 Z-0.125000
G01 X410.245923 Y428.899183 Z-0.125000
G01 X407.579519 Y430.676786 Z-0.125000
G01 X405.801916 Y427.121580 Z-0.125000
G01 X408.468320 Y425.343977 Z-0.125000
G01 X406.690717 Y423.566374 Z-0.125000
G01 X409.357121 Y420.011168 Z-0.125000
G01 X412.023526 Y420.899970 Z-0.125000
G01 X414.689930 Y418.233566 Z-0.125000
G01 X416.467533 Y414.678360 Z-0.125000
G01 X417.356335 Y416.455963 Z-0.125000
G01 X419.133938 Y419.122367 Z-0.125000
G01 X420.911540 Y420.899970 Z-0.125000
G01 X419.133938 Y423.566374 Z-0.125000
G01 X422.689143 Y423.566374 Z-0.125000
G01 X424.466746 Y425.343977 Z-0.125000
G01 X427.133151 Y427.121580 Z-0.125000
G01 X426.244349 Y429.787985 Z-0.125000
G01 X422.689143 Y429.787985 Z-0.125000
G01 X420.911540 Y432.454389 Z-0.125000
G01 X420.911540 Y435.120793 Z-0.125000
G01 X423.577945 Y434.231992 Z-0.125000
G01 X422.689143 Y438.675999 Z-0.125000
G01 X423.577945 Y442.231205 Z-0.125000
G01 X427.133151 Y441.342404 Z-0.125000
G01 X428.910754 Y438.675999 Z-0.125000
G01 X425.355548 Y436.898396 Z-0.125000
G01 X427.133151 Y436.009595 Z-0.125000
G01 X429.799555 Y435.120793 Z-0.125000
G01 X432.465959 Y432.454389 Z-0.125000
G01 X430.688357 Y428.899183 Z-0.125000
G01 X431.577158 Y428.010382 Z-0.125000
G01 X434.243562 Y429.787985 Z-0.125000
G01 X436.909967 Y430.676786 Z-0.125000
G01 X436.909967 Y432.454389 Z-0.125000
G01 X439.576371 Y432.454389 Z-0.125000
G01 X441.353974 Y434.231992 Z-0.125000
G01 X443.131577 Y435.120793 Z-0.125000
G01 X439.576371 Y437.787198 Z-0.125000
G01 X435.132364 Y437.787198 Z-0.125000
G01 X432.465959 Y439.564801 Z-0.125000
G01 X431.577158 Y442.231205 Z-0.125000
G01 X431.577158 Y445.786411 Z-0.125000
G01 X435.132364 Y444.008808 Z-0.125000
G01 X436.909967 Y442.231205 Z-0.125000
G01 X439.576371 Y444.897609 Z-0.125000
G01 X442.242776 Y443.120006 Z-0.125000
G01 X443.131577 Y439.564801 Z-0.125000
G01 X444.909180 Y437.787198 Z-0.125000
G01 X447.575584 Y439.564801 Z-0.125000
G01 X448.464386 Y441.342404 Z-0.125000
G01 X447.575584 Y445.786411 Z-0.125000
G01 X450.241989 Y444.008808 Z-0.125000
G01 X452.908393 Y446.675212 Z-0.125000
G01 X452.908393 Y448.452815 Z-0.125000
G01 X454.685996 Y452.008021 Z-0.125000
G01 X455.574797 Y454.674425 Z-0.125000
G01 X455.574797 Y457.340830 Z-0.125000
G01 X457.352400 Y460.896036 Z-0.125000
G01 X457.352400 Y463.562440 Z-0.125000
G01 X456.463599 Y468.006447 Z-0.125000
G01 X459.130003 Y466.228844 Z-0.125000
G01 X460.907606 Y467.117646 Z-0.125000
G01 X462.685209 Y469.784050 Z-0.125000
G01 X462.685209 Y471.561653 Z-0.125000
G01 X460.018805 Y474.228058 Z-0.125000
G01 X465.351614 Y474.228058 Z-0.125000
G01 X466.240415 Y476.894462 Z-0.125000
G01 X464.462812 Y480.449668 Z-0.125000
G01 X468.018018 Y479.560866 Z-0.125000
G01 X468.906819 Y482.227271 Z-0.125000
G01 X470.684422 Y484.893675 Z-0.125000
G01 X468.906819 Y487.560080 Z-0.125000
G01 X471.573224 Y487.560080 Z-0.125000
G01 X473.350827 Y491.115285 Z-0.125000
G01 X473.350827 Y493.781690 Z-0.125000
G01 X475.128430 Y496.448094 Z-0.125000
G01 X476.017231 Y500.003300 Z-0.125000
G01 X473.350827 Y501.780903 Z-0.125000
G01 X469.795621 Y501.780903 Z-0.125000
G01 X467.129216 Y501.780903 Z-0.125000
G01 X463.574011 Y500.892101 Z-0.125000
G01 X459.130003 Y500.003300 Z-0.125000
G01 X455.574797 Y499.114499 Z-0.125000
G01 X458.241202 Y495.559293 Z-0.125000
G01 X461.796408 Y495.559293 Z-0.125000
G01 X467.129216 Y495.559293 Z-0.125000
G01 X470.684422 Y495.559293 Z-0.125000
G01 X468.906819 Y492.892888 Z-0.125000
G01 X466.240415 Y492.004087 Z-0.125000
G01 X464.462812 Y491.115285 Z-0.125000
G01 X462.685209 Y492.004087 Z-0.125000
G01 X460.018805 Y490.226484 Z-0.125000
G01 X458.241202 Y489.337682 Z-0.125000
G01 X459.130003 Y486.671278 Z-0.125000
G01 X463.574011 Y484.893675 Z-0.125000
G01 X459.130003 Y484.004874 Z-0.125000
G01 X458.241202 Y481.338469 Z-0.125000
G01 X459.130003 Y477.783263 Z-0.125000
G01 X457.352400 Y478.672065 Z-0.125000
G01 X455.574797 Y479.560866 Z-0.125000
G01 X453.797195 Y482.227271 Z-0.125000
G01 X452.019592 Y478.672065 Z-0.125000
G01 X449.353187 Y480.449668 Z-0.125000
G01 X447.575584 Y482.227271 Z-0.125000
G01 X446.686783 Y484.004874 Z-0.125000
G01 X444.020378 Y484.004874 Z-0.125000
G01 X441.353974 Y485.782477 Z-0.125000
G01 X440.465173 Y490.226484 Z-0.125000
G01 X445.797981 Y491.115285 Z-0.125000
G01 X448.464386 Y489.337682 Z-0.125000
G01 X450.241989 Y485.782477 Z-0.125000
G01 X452.019592 Y485.782477 Z-0.125000
G01 X453.797195 Y486.671278 Z-0.125000
G01 X456.463599 Y487.560080 Z-0.125000
G01 X455.574797 Y489.337682 Z-0.125000
G01 X452.908393 Y491.115285 Z-0.125000
G01 X452.019592 Y494.670491 Z-0.125000
G01 X451.130790 Y498.225697 Z-0.125000
G01 X447.575584 Y497.336896 Z-0.125000
G01 X444.909180 Y496.448094 Z-0.125000
G01 X442.242776 Y496.448094 Z-0.125000
G01 X438.687570 Y495.559293 Z-0.125000
G01 X436.909967 Y489.337682 Z-0.125000
G01 X434.243562 Y492.004087 Z-0.125000
G01 X433.354761 Y494.670491 Z-0.125000
G01 X430.688357 Y494.670491 Z-0.125000
G01 X427.133151 Y493.781690 Z-0.125000
G01 X422.689143 Y492.892888 Z-0.125000
G01 X420.022739 Y492.892888 Z-0.125000
G01 X416.467533 Y492.004087 Z-0.125000
G01 X412.912327 Y492.004087 Z-0.125000
G01 X412.912327 Y486.671278 Z-0.125000
G01 X408.468320 Y487.560080 Z-0.125000
G01 X407.579519 Y491.115285 Z-0.125000
G01 X404.024313 Y491.115285 Z-0.125000
G01 X400.469107 Y490.226484 Z-0.125000
G01 X397.802702 Y490.226484 Z-0.125000
G01 X394.247497 Y490.226484 Z-0.125000
G01 X390.692291 Y490.226484 Z-0.125000
G01 X388.025886 Y491.115285 Z-0.125000
G01 X384.470681 Y492.004087 Z-0.125000
G01 X380.026673 Y490.226484 Z-0.125000
G01 X379.137872 Y493.781690 Z-0.125000
G01 X375.582666 Y494.670491 Z-0.125000
G01 X372.916262 Y496.448094 Z-0.125000
G01 X370.249857 Y499.114499 Z-0.125000
G01 X366.694651 Y500.892101 Z-0.125000
G01 X364.028247 Y502.669704 Z-0.125000
G01 X359.584240 Y504.447307 Z-0.125000
G01 X356.917835 Y505.336109 Z-0.125000
G01 X354.251431 Y507.113712 Z-0.125000
G01 X351.585026 Y508.891315 Z-0.125000
G01 X348.918622 Y511.557719 Z-0.125000
G01 X345.363416 Y513.335322 Z-0.125000
G01 X342.697012 Y515.112925 Z-0.125000
G01 X339.141806 Y516.890528 Z-0.125000
G01 X335.586600 Y518.668131 Z-0.125000
G00 Z5.000000

(End cutting path id: path44)


(Start cutting path id: path42)
(Change tool to Default tool)

G00 Z5.000000
G00 X341.808210 Y444.897609

G01 Z-0.125000 F100.0(Penetrate)
G01 X339.141806 Y447.564014 Z-0.125000 F400.000000
G01 X335.586600 Y446.675212 Z-0.125000
G01 X332.920196 Y449.341617 Z-0.125000
G01 X329.364990 Y451.119220 Z-0.125000
G01 X325.809784 Y452.896823 Z-0.125000
G01 X324.920983 Y456.452028 Z-0.125000
G01 X322.254578 Y460.007234 Z-0.125000
G01 X319.588174 Y463.562440 Z-0.125000
G01 X319.588174 Y468.006447 Z-0.125000
G01 X315.144167 Y468.895249 Z-0.125000
G01 X311.588961 Y472.450455 Z-0.125000
G01 X309.811358 Y476.005661 Z-0.125000
G01 X310.700159 Y481.338469 Z-0.125000
G01 X315.144167 Y483.116072 Z-0.125000
G01 X315.144167 Y478.672065 Z-0.125000
G01 X316.921769 Y475.116859 Z-0.125000
G01 X320.476975 Y475.116859 Z-0.125000
G01 X322.254578 Y474.228058 Z-0.125000
G01 X324.032181 Y470.672852 Z-0.125000
G01 X324.920983 Y466.228844 Z-0.125000
G01 X326.698586 Y461.784837 Z-0.125000
G01 X330.253791 Y460.007234 Z-0.125000
G01 X331.142593 Y456.452028 Z-0.125000
G01 X334.697799 Y454.674425 Z-0.125000
G01 X338.253005 Y452.008021 Z-0.125000
G01 X343.585813 Y452.008021 Z-0.125000
G01 X347.141019 Y452.008021 Z-0.125000
G01 X350.696225 Y451.119220 Z-0.125000
G01 X350.696225 Y446.675212 Z-0.125000
G01 X352.473828 Y443.120006 Z-0.125000
G01 X356.917835 Y443.120006 Z-0.125000
G01 X356.917835 Y440.453602 Z-0.125000
G01 X355.140232 Y439.564801 Z-0.125000
G01 X355.140232 Y437.787198 Z-0.125000
G01 X354.251431 Y436.009595 Z-0.125000
G01 X356.029034 Y435.120793 Z-0.125000
G01 X356.029034 Y432.454389 Z-0.125000
G01 X354.251431 Y430.676786 Z-0.125000
G01 X355.140232 Y428.899183 Z-0.125000
G01 X357.806637 Y427.121580 Z-0.125000
G01 X357.806637 Y430.676786 Z-0.125000
G01 X359.584240 Y429.787985 Z-0.125000
G01 X361.361843 Y428.899183 Z-0.125000
G01 X361.361843 Y427.121580 Z-0.125000
G01 X363.139445 Y426.232779 Z-0.125000
G01 X364.917048 Y425.343977 Z-0.125000
G01 X366.694651 Y424.455176 Z-0.125000
G01 X366.694651 Y426.232779 Z-0.125000
G01 X364.917048 Y428.010382 Z-0.125000
G01 X364.028247 Y428.899183 Z-0.125000
G01 X364.028247 Y430.676786 Z-0.125000
G01 X361.361843 Y431.565587 Z-0.125000
G01 X360.473041 Y432.454389 Z-0.125000
G01 X358.695438 Y433.343190 Z-0.125000
G01 X360.473041 Y435.120793 Z-0.125000
G01 X359.584240 Y436.009595 Z-0.125000
G01 X357.806637 Y436.898396 Z-0.125000
G01 X358.695438 Y438.675999 Z-0.125000
G01 X360.473041 Y438.675999 Z-0.125000
G01 X362.250644 Y437.787198 Z-0.125000
G01 X363.139445 Y436.009595 Z-0.125000
G01 X363.139445 Y434.231992 Z-0.125000
G01 X364.028247 Y432.454389 Z-0.125000
G01 X366.694651 Y432.454389 Z-0.125000
G01 X365.805850 Y434.231992 Z-0.125000
G01 X365.805850 Y436.009595 Z-0.125000
G01 X364.917048 Y437.787198 Z-0.125000
G01 X364.028247 Y439.564801 Z-0.125000
G01 X364.028247 Y442.231205 Z-0.125000
G01 X362.250644 Y440.453602 Z-0.125000
G01 X360.473041 Y441.342404 Z-0.125000
G01 X358.695438 Y442.231205 Z-0.125000
G01 X359.584240 Y446.675212 Z-0.125000
G01 X359.584240 Y448.452815 Z-0.125000
G01 X356.029034 Y448.452815 Z-0.125000
G01 X356.029034 Y452.896823 Z-0.125000
G01 X360.473041 Y454.674425 Z-0.125000
G01 X364.028247 Y453.785624 Z-0.125000
G01 X364.917048 Y455.563227 Z-0.125000
G01 X367.583453 Y456.452028 Z-0.125000
G01 X365.805850 Y457.340830 Z-0.125000
G01 X363.139445 Y460.007234 Z-0.125000
G01 X357.806637 Y458.229631 Z-0.125000
G01 X353.362629 Y456.452028 Z-0.125000
G01 X354.251431 Y460.896036 Z-0.125000
G01 X350.696225 Y462.673639 Z-0.125000
G01 X348.029821 Y465.340043 Z-0.125000
G01 X347.141019 Y467.117646 Z-0.125000
G01 X349.807424 Y468.895249 Z-0.125000
G01 X349.807424 Y470.672852 Z-0.125000
G01 X349.807424 Y474.228058 Z-0.125000
G01 X352.473828 Y473.339256 Z-0.125000
G01 X353.362629 Y472.450455 Z-0.125000
G01 X354.251431 Y468.006447 Z-0.125000
G01 X356.917835 Y466.228844 Z-0.125000
G01 X360.473041 Y464.451242 Z-0.125000
G01 X364.028247 Y465.340043 Z-0.125000
G01 X368.472254 Y464.451242 Z-0.125000
G01 X371.138659 Y462.673639 Z-0.125000
G01 X372.916262 Y461.784837 Z-0.125000
G01 X371.138659 Y460.896036 Z-0.125000
G01 X368.472254 Y460.007234 Z-0.125000
G01 X369.361056 Y458.229631 Z-0.125000
G01 X371.138659 Y456.452028 Z-0.125000
G01 X369.361056 Y454.674425 Z-0.125000
G01 X366.694651 Y453.785624 Z-0.125000
G01 X367.583453 Y452.008021 Z-0.125000
G01 X364.917048 Y451.119220 Z-0.125000
G01 X362.250644 Y452.008021 Z-0.125000
G01 X362.250644 Y450.230418 Z-0.125000
G01 X363.139445 Y448.452815 Z-0.125000
G01 X364.917048 Y448.452815 Z-0.125000
G01 X365.805850 Y447.564014 Z-0.125000
G01 X367.583453 Y445.786411 Z-0.125000
G01 X365.805850 Y444.897609 Z-0.125000
G01 X366.694651 Y443.120006 Z-0.125000
G01 X369.361056 Y444.008808 Z-0.125000
G01 X369.361056 Y442.231205 Z-0.125000
G01 X369.361056 Y440.453602 Z-0.125000
G01 X366.694651 Y441.342404 Z-0.125000
G01 X366.694651 Y439.564801 Z-0.125000
G01 X367.583453 Y437.787198 Z-0.125000
G01 X369.361056 Y437.787198 Z-0.125000
G01 X369.361056 Y436.009595 Z-0.125000
G01 X368.472254 Y434.231992 Z-0.125000
G01 X369.361056 Y432.454389 Z-0.125000
G01 X367.583453 Y430.676786 Z-0.125000
G01 X367.583453 Y428.899183 Z-0.125000
G01 X369.361056 Y429.787985 Z-0.125000
G01 X370.249857 Y428.010382 Z-0.125000
G01 X369.361056 Y426.232779 Z-0.125000
G01 X369.361056 Y424.455176 Z-0.125000
G01 X370.249857 Y422.677573 Z-0.125000
G01 X372.027460 Y424.455176 Z-0.125000
G01 X373.805063 Y423.566374 Z-0.125000
G01 X374.693864 Y422.677573 Z-0.125000
G01 X377.360269 Y421.788771 Z-0.125000
G01 X377.360269 Y423.566374 Z-0.125000
G01 X376.471467 Y425.343977 Z-0.125000
G01 X376.471467 Y427.121580 Z-0.125000
G01 X373.805063 Y426.232779 Z-0.125000
G01 X372.916262 Y427.121580 Z-0.125000
G01 X373.805063 Y428.899183 Z-0.125000
G01 X372.027460 Y429.787985 Z-0.125000
G01 X372.916262 Y431.565587 Z-0.125000
G01 X372.027460 Y432.454389 Z-0.125000
G01 X371.138659 Y434.231992 Z-0.125000
G01 X372.916262 Y435.120793 Z-0.125000
G01 X372.916262 Y436.898396 Z-0.125000
G01 X372.027460 Y437.787198 Z-0.125000
G01 X372.027460 Y439.564801 Z-0.125000
G01 X372.027460 Y441.342404 Z-0.125000
G01 X372.027460 Y443.120006 Z-0.125000
G01 X372.027460 Y444.897609 Z-0.125000
G01 X371.138659 Y446.675212 Z-0.125000
G01 X369.361056 Y447.564014 Z-0.125000
G01 X368.472254 Y449.341617 Z-0.125000
G01 X367.583453 Y450.230418 Z-0.125000
G01 X370.249857 Y451.119220 Z-0.125000
G01 X371.138659 Y449.341617 Z-0.125000
G01 X372.916262 Y449.341617 Z-0.125000
G01 X372.916262 Y446.675212 Z-0.125000
G01 X374.693864 Y445.786411 Z-0.125000
G01 X376.471467 Y444.897609 Z-0.125000
G01 X374.693864 Y443.120006 Z-0.125000
G01 X374.693864 Y441.342404 Z-0.125000
G01 X376.471467 Y440.453602 Z-0.125000
G01 X374.693864 Y438.675999 Z-0.125000
G01 X376.471467 Y437.787198 Z-0.125000
G01 X375.582666 Y436.009595 Z-0.125000
G01 X375.582666 Y434.231992 Z-0.125000
G01 X375.582666 Y432.454389 Z-0.125000
G01 X375.582666 Y430.676786 Z-0.125000
G01 X376.471467 Y428.899183 Z-0.125000
G01 X378.249070 Y430.676786 Z-0.125000
G01 X378.249070 Y432.454389 Z-0.125000
G01 X378.249070 Y434.231992 Z-0.125000
G01 X378.249070 Y436.009595 Z-0.125000
G01 X378.249070 Y438.675999 Z-0.125000
G01 X379.137872 Y440.453602 Z-0.125000
G01 X379.137872 Y442.231205 Z-0.125000
G01 X378.249070 Y443.120006 Z-0.125000
G01 X379.137872 Y444.897609 Z-0.125000
G01 X378.249070 Y446.675212 Z-0.125000
G01 X376.471467 Y447.564014 Z-0.125000
G01 X375.582666 Y449.341617 Z-0.125000
G01 X376.471467 Y451.119220 Z-0.125000
G01 X374.693864 Y451.119220 Z-0.125000
G01 X372.916262 Y452.008021 Z-0.125000
G01 X372.027460 Y453.785624 Z-0.125000
G01 X373.805063 Y454.674425 Z-0.125000
G01 X373.805063 Y456.452028 Z-0.125000
G01 X372.916262 Y459.118433 Z-0.125000
G01 X375.582666 Y459.118433 Z-0.125000
G01 X375.582666 Y461.784837 Z-0.125000
G01 X374.693864 Y463.562440 Z-0.125000
G01 X374.693864 Y467.117646 Z-0.125000
G01 X376.471467 Y465.340043 Z-0.125000
G01 X379.137872 Y466.228844 Z-0.125000
G01 X379.137872 Y464.451242 Z-0.125000
G01 X380.915475 Y463.562440 Z-0.125000
G01 X380.915475 Y460.896036 Z-0.125000
G01 X378.249070 Y461.784837 Z-0.125000
G01 X378.249070 Y459.118433 Z-0.125000
G01 X380.915475 Y458.229631 Z-0.125000
G01 X379.137872 Y456.452028 Z-0.125000
G01 X376.471467 Y456.452028 Z-0.125000
G01 X376.471467 Y453.785624 Z-0.125000
G01 X379.137872 Y453.785624 Z-0.125000
G01 X380.026673 Y452.008021 Z-0.125000
G01 X380.915475 Y451.119220 Z-0.125000
G01 X378.249070 Y449.341617 Z-0.125000
G01 X380.026673 Y448.452815 Z-0.125000
G01 X380.915475 Y446.675212 Z-0.125000
G01 X381.804276 Y444.897609 Z-0.125000
G01 X381.804276 Y443.120006 Z-0.125000
G01 X381.804276 Y441.342404 Z-0.125000
G01 X381.804276 Y439.564801 Z-0.125000
G01 X380.915475 Y437.787198 Z-0.125000
G01 X380.915475 Y436.009595 Z-0.125000
G01 X381.804276 Y435.120793 Z-0.125000
G01 X380.915475 Y432.454389 Z-0.125000
G01 X381.804276 Y430.676786 Z-0.125000
G01 X383.581879 Y429.787985 Z-0.125000
G01 X380.915475 Y428.899183 Z-0.125000
G01 X381.804276 Y427.121580 Z-0.125000
G01 X379.137872 Y426.232779 Z-0.125000
G01 X380.026673 Y423.566374 Z-0.125000
G01 X380.026673 Y421.788771 Z-0.125000
G01 X381.804276 Y421.788771 Z-0.125000
G01 X382.693078 Y424.455176 Z-0.125000
G01 X384.470681 Y422.677573 Z-0.125000
G01 X386.248283 Y422.677573 Z-0.125000
G01 X388.025886 Y424.455176 Z-0.125000
G01 X386.248283 Y425.343977 Z-0.125000
G01 X384.470681 Y427.121580 Z-0.125000
G01 X386.248283 Y428.010382 Z-0.125000
G01 X388.914688 Y428.010382 Z-0.125000
G01 X390.692291 Y427.121580 Z-0.125000
G01 X390.692291 Y425.343977 Z-0.125000
G01 X391.581092 Y422.677573 Z-0.125000
G01 X393.358695 Y427.121580 Z-0.125000
G01 X396.913901 Y425.343977 Z-0.125000
G01 X396.913901 Y420.899970 Z-0.125000
G01 X399.580305 Y418.233566 Z-0.125000
G01 X400.469107 Y413.789558 Z-0.125000
G01 X401.357908 Y410.234352 Z-0.125000
G01 X405.801916 Y411.123154 Z-0.125000
G01 X405.801916 Y409.345551 Z-0.125000
G01 X404.913114 Y407.567948 Z-0.125000
G01 X404.913114 Y405.790345 Z-0.125000
G01 X407.579519 Y407.567948 Z-0.125000
G01 X409.357121 Y408.456749 Z-0.125000
G01 X411.134724 Y410.234352 Z-0.125000
G01 X413.801129 Y411.123154 Z-0.125000
G01 X413.801129 Y412.900757 Z-0.125000
G01 X409.357121 Y413.789558 Z-0.125000
G01 X406.690717 Y413.789558 Z-0.125000
G01 X406.690717 Y416.455963 Z-0.125000
G01 X405.801916 Y418.233566 Z-0.125000
G01 X404.913114 Y420.011168 Z-0.125000
G01 X404.024313 Y421.788771 Z-0.125000
G01 X403.135511 Y423.566374 Z-0.125000
G01 X402.246710 Y425.343977 Z-0.125000
G01 X402.246710 Y427.121580 Z-0.125000
G01 X402.246710 Y428.899183 Z-0.125000
G01 X401.357908 Y430.676786 Z-0.125000
G01 X401.357908 Y433.343190 Z-0.125000
G01 X404.024313 Y434.231992 Z-0.125000
G01 X405.801916 Y433.343190 Z-0.125000
G01 X402.246710 Y436.009595 Z-0.125000
G01 X401.357908 Y437.787198 Z-0.125000
G01 X397.802702 Y439.564801 Z-0.125000
G01 X397.802702 Y437.787198 Z-0.125000
G01 X397.802702 Y436.009595 Z-0.125000
G01 X396.913901 Y433.343190 Z-0.125000
G01 X395.136298 Y432.454389 Z-0.125000
G01 X396.025100 Y430.676786 Z-0.125000
G01 X395.136298 Y428.899183 Z-0.125000
G01 X392.469894 Y429.787985 Z-0.125000
G01 X391.581092 Y430.676786 Z-0.125000
G01 X391.581092 Y433.343190 Z-0.125000
G01 X394.247497 Y434.231992 Z-0.125000
G01 X394.247497 Y436.009595 Z-0.125000
G01 X394.247497 Y438.675999 Z-0.125000
G01 X392.469894 Y440.453602 Z-0.125000
G01 X391.581092 Y442.231205 Z-0.125000
G01 X390.692291 Y444.008808 Z-0.125000
G01 X388.025886 Y444.008808 Z-0.125000
G01 X387.137085 Y441.342404 Z-0.125000
G01 X388.025886 Y440.453602 Z-0.125000
G01 X387.137085 Y437.787198 Z-0.125000
G01 X389.803489 Y438.675999 Z-0.125000
G01 X391.581092 Y436.898396 Z-0.125000
G01 X388.914688 Y436.009595 Z-0.125000
G01 X389.803489 Y434.231992 Z-0.125000
G01 X388.914688 Y431.565587 Z-0.125000
G01 X387.137085 Y430.676786 Z-0.125000
G01 X386.248283 Y432.454389 Z-0.125000
G01 X385.359482 Y434.231992 Z-0.125000
G01 X384.470681 Y436.009595 Z-0.125000
G01 X383.581879 Y437.787198 Z-0.125000
G01 X384.470681 Y438.675999 Z-0.125000
G01 X384.470681 Y441.342404 Z-0.125000
G01 X384.470681 Y443.120006 Z-0.125000
G01 X385.359482 Y445.786411 Z-0.125000
G01 X383.581879 Y446.675212 Z-0.125000
G01 X382.693078 Y449.341617 Z-0.125000
G01 X385.359482 Y448.452815 Z-0.125000
G01 X385.359482 Y451.119220 Z-0.125000
G01 X384.470681 Y452.896823 Z-0.125000
G01 X383.581879 Y454.674425 Z-0.125000
G01 X381.804276 Y455.563227 Z-0.125000
G01 X383.581879 Y457.340830 Z-0.125000
G01 X386.248283 Y457.340830 Z-0.125000
G01 X387.137085 Y455.563227 Z-0.125000
G01 X388.025886 Y453.785624 Z-0.125000
G01 X388.025886 Y451.119220 Z-0.125000
G01 X388.025886 Y448.452815 Z-0.125000
G01 X388.914688 Y446.675212 Z-0.125000
G01 X390.692291 Y447.564014 Z-0.125000
G01 X393.358695 Y446.675212 Z-0.125000
G01 X394.247497 Y444.897609 Z-0.125000
G01 X395.136298 Y443.120006 Z-0.125000
G01 X396.025100 Y441.342404 Z-0.125000
G01 X397.802702 Y441.342404 Z-0.125000
G01 X397.802702 Y444.008808 Z-0.125000
G01 X396.913901 Y445.786411 Z-0.125000
G01 X397.802702 Y447.564014 Z-0.125000
G01 X396.025100 Y448.452815 Z-0.125000
G01 X393.358695 Y449.341617 Z-0.125000
G01 X392.469894 Y451.119220 Z-0.125000
G01 X391.581092 Y452.008021 Z-0.125000
G01 X390.692291 Y453.785624 Z-0.125000
G01 X390.692291 Y456.452028 Z-0.125000
G01 X389.803489 Y458.229631 Z-0.125000
G01 X388.914688 Y460.007234 Z-0.125000
G01 X386.248283 Y460.007234 Z-0.125000
G01 X383.581879 Y460.007234 Z-0.125000
G01 X383.581879 Y462.673639 Z-0.125000
G01 X386.248283 Y462.673639 Z-0.125000
G01 X388.025886 Y463.562440 Z-0.125000
G01 X389.803489 Y462.673639 Z-0.125000
G01 X391.581092 Y461.784837 Z-0.125000
G01 X392.469894 Y460.007234 Z-0.125000
G01 X393.358695 Y458.229631 Z-0.125000
G01 X393.358695 Y456.452028 Z-0.125000
G01 X394.247497 Y454.674425 Z-0.125000
G01 X395.136298 Y452.896823 Z-0.125000
G01 X396.025100 Y451.119220 Z-0.125000
G01 X398.691504 Y452.008021 Z-0.125000
G01 X397.802702 Y455.563227 Z-0.125000
G01 X396.913901 Y459.118433 Z-0.125000
G01 X396.913901 Y463.562440 Z-0.125000
G01 X396.913901 Y468.006447 Z-0.125000
G01 X396.025100 Y470.672852 Z-0.125000
G01 X395.136298 Y473.339256 Z-0.125000
G01 X392.469894 Y472.450455 Z-0.125000
G01 X391.581092 Y474.228058 Z-0.125000
G01 X390.692291 Y475.116859 Z-0.125000
G01 X389.803489 Y476.894462 Z-0.125000
G01 X387.137085 Y476.005661 Z-0.125000
G01 X384.470681 Y473.339256 Z-0.125000
G01 X386.248283 Y469.784050 Z-0.125000
G01 X391.581092 Y466.228844 Z-0.125000
G01 X388.025886 Y466.228844 Z-0.125000
G01 X385.359482 Y465.340043 Z-0.125000
G01 X383.581879 Y465.340043 Z-0.125000
G01 X381.804276 Y466.228844 Z-0.125000
G01 X380.026673 Y469.784050 Z-0.125000
G01 X377.360269 Y472.450455 Z-0.125000
G01 X375.582666 Y476.005661 Z-0.125000
G01 X373.805063 Y476.894462 Z-0.125000
G01 X372.027460 Y477.783263 Z-0.125000
G01 X371.138659 Y480.449668 Z-0.125000
G01 X368.472254 Y483.116072 Z-0.125000
G01 X367.583453 Y484.004874 Z-0.125000
G01 X366.694651 Y480.449668 Z-0.125000
G01 X364.028247 Y482.227271 Z-0.125000
G01 X362.250644 Y485.782477 Z-0.125000
G01 X361.361843 Y490.226484 Z-0.125000
G01 X357.806637 Y492.004087 Z-0.125000
G01 X356.917835 Y489.337682 Z-0.125000
G01 X357.806637 Y488.448881 Z-0.125000
G01 X357.806637 Y485.782477 Z-0.125000
G01 X357.806637 Y484.004874 Z-0.125000
G01 X356.917835 Y482.227271 Z-0.125000
G01 X356.917835 Y480.449668 Z-0.125000
G01 X356.029034 Y478.672065 Z-0.125000
G01 X358.695438 Y477.783263 Z-0.125000
G01 X360.473041 Y476.005661 Z-0.125000
G01 X363.139445 Y476.894462 Z-0.125000
G01 X364.917048 Y476.005661 Z-0.125000
G01 X366.694651 Y477.783263 Z-0.125000
G01 X368.472254 Y476.894462 Z-0.125000
G01 X368.472254 Y474.228058 Z-0.125000
G01 X372.027460 Y470.672852 Z-0.125000
G01 X368.472254 Y469.784050 Z-0.125000
G01 X363.139445 Y469.784050 Z-0.125000
G01 X360.473041 Y471.561653 Z-0.125000
G01 X357.806637 Y474.228058 Z-0.125000
G00 Z5.000000

(End cutting path id: path42)


(Start cutting path id: path40)
(Change tool to Default tool)

G00 Z5.000000
G00 X483.127643 Y308.910986

G01 Z-0.125000 F100.0(Penetrate)
G01 X481.350040 Y310.688589 Z-0.125000 F400.000000
G01 X478.683635 Y312.466192 Z-0.125000
G01 X475.128430 Y314.243795 Z-0.125000
G01 X473.350827 Y310.688589 Z-0.125000
G01 X471.573224 Y311.577390 Z-0.125000
G01 X472.462025 Y314.243795 Z-0.125000
G01 X468.906819 Y316.910199 Z-0.125000
G01 X464.462812 Y322.243008 Z-0.125000
G01 X459.130003 Y327.575816 Z-0.125000
G01 X453.797195 Y331.131022 Z-0.125000
G01 X447.575584 Y334.686228 Z-0.125000
G01 X449.353187 Y325.798214 Z-0.125000
G01 X451.130790 Y324.020611 Z-0.125000
G01 X452.019592 Y322.243008 Z-0.125000
G01 X452.908393 Y320.465405 Z-0.125000
G01 X453.797195 Y319.576603 Z-0.125000
G01 X454.685996 Y317.799000 Z-0.125000
G01 X454.685996 Y316.021397 Z-0.125000
G01 X455.574797 Y314.243795 Z-0.125000
G01 X455.574797 Y311.577390 Z-0.125000
G01 X455.574797 Y308.910986 Z-0.125000
G01 X455.574797 Y305.355780 Z-0.125000
G01 X460.018805 Y301.800574 Z-0.125000
G01 X454.685996 Y301.800574 Z-0.125000
G01 X453.797195 Y299.134170 Z-0.125000
G01 X452.019592 Y296.467765 Z-0.125000
G01 X449.353187 Y293.801361 Z-0.125000
G01 X450.241989 Y292.912559 Z-0.125000
G01 X447.575584 Y291.134956 Z-0.125000
G01 X445.797981 Y290.246155 Z-0.125000
G01 X444.020378 Y288.468552 Z-0.125000
G01 X443.131577 Y285.802148 Z-0.125000
G01 X441.353974 Y286.690949 Z-0.125000
G01 X441.353974 Y284.913346 Z-0.125000
G01 X437.798768 Y283.135743 Z-0.125000
G01 X437.798768 Y281.358140 Z-0.125000
G01 X436.021165 Y279.580537 Z-0.125000
G01 X439.576371 Y270.692523 Z-0.125000
G01 X444.020378 Y268.026118 Z-0.125000
G01 X452.019592 Y270.692523 Z-0.125000
G01 X450.241989 Y280.469339 Z-0.125000
G01 X460.018805 Y289.357354 Z-0.125000
G01 X461.796408 Y282.246942 Z-0.125000
G01 X459.130003 Y270.692523 Z-0.125000
G01 X464.462812 Y265.359714 Z-0.125000
G01 X465.351614 Y264.470913 Z-0.125000
G01 X468.906819 Y262.693310 Z-0.125000
G01 X470.684422 Y260.915707 Z-0.125000
G01 X473.350827 Y259.138104 Z-0.125000
G01 X476.906033 Y257.360501 Z-0.125000
G01 X478.683635 Y254.694097 Z-0.125000
G01 X476.906033 Y250.250089 Z-0.125000
G01 X474.239628 Y252.916494 Z-0.125000
G01 X472.462025 Y255.582898 Z-0.125000
G01 X468.906819 Y255.582898 Z-0.125000
G01 X466.240415 Y256.471699 Z-0.125000
G01 X464.462812 Y258.249302 Z-0.125000
G01 X463.574011 Y260.915707 Z-0.125000
G01 X462.685209 Y261.804508 Z-0.125000
G01 X460.907606 Y259.138104 Z-0.125000
G01 X460.907606 Y257.360501 Z-0.125000
G01 X453.797195 Y259.138104 Z-0.125000
G01 X448.464386 Y259.138104 Z-0.125000
G01 X442.242776 Y258.249302 Z-0.125000
G01 X444.909180 Y247.583685 Z-0.125000
G01 X446.686783 Y242.250876 Z-0.125000
G01 X448.464386 Y241.362075 Z-0.125000
G01 X446.686783 Y240.473273 Z-0.125000
G01 X449.353187 Y236.918067 Z-0.125000
G01 X449.353187 Y233.362861 Z-0.125000
G01 X451.130790 Y230.696457 Z-0.125000
G01 X454.685996 Y230.696457 Z-0.125000
G01 X459.130003 Y232.474060 Z-0.125000
G01 X462.685209 Y231.585259 Z-0.125000
G01 X464.462812 Y229.807656 Z-0.125000
G01 X468.018018 Y230.696457 Z-0.125000
G01 X470.684422 Y227.141251 Z-0.125000
G01 X472.462025 Y224.474847 Z-0.125000
G01 X475.128430 Y221.808442 Z-0.125000
G01 X470.684422 Y220.030840 Z-0.125000
G01 X472.462025 Y217.364435 Z-0.125000
G01 X472.462025 Y213.809229 Z-0.125000
G01 X468.906819 Y212.031626 Z-0.125000
G01 X467.129216 Y213.809229 Z-0.125000
G01 X467.129216 Y217.364435 Z-0.125000
G01 X467.129216 Y220.919641 Z-0.125000
G01 X467.129216 Y224.474847 Z-0.125000
G01 X465.351614 Y226.252450 Z-0.125000
G01 X461.796408 Y224.474847 Z-0.125000
G01 X460.018805 Y227.141251 Z-0.125000
G01 X456.463599 Y228.030053 Z-0.125000
G01 X456.463599 Y224.474847 Z-0.125000
G01 X456.463599 Y220.919641 Z-0.125000
G01 X458.241202 Y220.030840 Z-0.125000
G01 X462.685209 Y220.919641 Z-0.125000
G01 X462.685209 Y217.364435 Z-0.125000
G01 X462.685209 Y213.809229 Z-0.125000
G01 X459.130003 Y214.698031 Z-0.125000
G01 X456.463599 Y215.586832 Z-0.125000
G01 X452.908393 Y215.586832 Z-0.125000
G01 X454.685996 Y211.142825 Z-0.125000
G01 X458.241202 Y210.254023 Z-0.125000
G01 X462.685209 Y210.254023 Z-0.125000
G01 X465.351614 Y207.587619 Z-0.125000
G01 X461.796408 Y205.810016 Z-0.125000
G01 X459.130003 Y206.698818 Z-0.125000
G01 X454.685996 Y206.698818 Z-0.125000
G01 X451.130790 Y207.587619 Z-0.125000
G01 X450.241989 Y210.254023 Z-0.125000
G01 X449.353187 Y213.809229 Z-0.125000
G01 X444.909180 Y212.031626 Z-0.125000
G01 X443.131577 Y213.809229 Z-0.125000
G01 X440.465173 Y215.586832 Z-0.125000
G01 X438.687570 Y217.364435 Z-0.125000
G01 X439.576371 Y220.919641 Z-0.125000
G01 X439.576371 Y224.474847 Z-0.125000
G01 X437.798768 Y227.141251 Z-0.125000
G01 X436.021165 Y228.918854 Z-0.125000
G01 X433.354761 Y229.807656 Z-0.125000
G01 X435.132364 Y233.362861 Z-0.125000
G01 X436.021165 Y232.474060 Z-0.125000
G01 X438.687570 Y232.474060 Z-0.125000
G01 X441.353974 Y230.696457 Z-0.125000
G01 X443.131577 Y228.030053 Z-0.125000
G01 X444.020378 Y224.474847 Z-0.125000
G01 X444.020378 Y220.919641 Z-0.125000
G01 X444.909180 Y218.253237 Z-0.125000
G01 X448.464386 Y217.364435 Z-0.125000
G01 X452.019592 Y219.142038 Z-0.125000
G01 X448.464386 Y221.808442 Z-0.125000
G01 X452.019592 Y222.697244 Z-0.125000
G01 X452.019592 Y226.252450 Z-0.125000
G01 X448.464386 Y226.252450 Z-0.125000
G01 X446.686783 Y228.918854 Z-0.125000
G01 X445.797981 Y233.362861 Z-0.125000
G01 X444.020378 Y236.029266 Z-0.125000
G01 X444.020378 Y238.695670 Z-0.125000
G01 X442.242776 Y238.695670 Z-0.125000
G01 X441.353974 Y236.029266 Z-0.125000
G01 X438.687570 Y235.140464 Z-0.125000
G01 X436.021165 Y236.029266 Z-0.125000
G01 X435.132364 Y236.918067 Z-0.125000
G01 X436.021165 Y239.584472 Z-0.125000
G01 X436.021165 Y241.362075 Z-0.125000
G01 X434.243562 Y242.250876 Z-0.125000
G01 X436.021165 Y244.917280 Z-0.125000
G01 X436.021165 Y247.583685 Z-0.125000
G01 X435.132364 Y249.361288 Z-0.125000
G01 X434.243562 Y251.138891 Z-0.125000
G01 X435.132364 Y253.805295 Z-0.125000
G01 X433.354761 Y254.694097 Z-0.125000
G01 X434.243562 Y257.360501 Z-0.125000
G01 X432.465959 Y258.249302 Z-0.125000
G01 X433.354761 Y260.915707 Z-0.125000
G01 X431.577158 Y261.804508 Z-0.125000
G01 X432.465959 Y264.470913 Z-0.125000
G01 X431.577158 Y266.248516 Z-0.125000
G01 X430.688357 Y268.026118 Z-0.125000
G01 X430.688357 Y269.803721 Z-0.125000
G01 X429.799555 Y271.581324 Z-0.125000
G01 X428.910754 Y273.358927 Z-0.125000
G01 X428.021952 Y274.247729 Z-0.125000
G01 X428.021952 Y276.914133 Z-0.125000
G01 X427.133151 Y277.802935 Z-0.125000
G01 X427.133151 Y280.469339 Z-0.125000
G01 X426.244349 Y281.358140 Z-0.125000
G01 X427.133151 Y284.024545 Z-0.125000
G01 X428.021952 Y286.690949 Z-0.125000
G01 X427.133151 Y288.468552 Z-0.125000
G01 X428.910754 Y291.134956 Z-0.125000
G01 X428.021952 Y292.023758 Z-0.125000
G01 X429.799555 Y294.690162 Z-0.125000
G01 X430.688357 Y296.467765 Z-0.125000
G01 X437.798768 Y293.801361 Z-0.125000
G01 X436.909967 Y304.466978 Z-0.125000
G01 X429.799555 Y309.799787 Z-0.125000
G01 X428.021952 Y318.687802 Z-0.125000
G01 X438.687570 Y317.799000 Z-0.125000
G01 X438.687570 Y328.464618 Z-0.125000
G01 X438.687570 Y338.241434 Z-0.125000
G01 X433.354761 Y341.796640 Z-0.125000
G01 X431.577158 Y343.574243 Z-0.125000
G01 X431.577158 Y347.129449 Z-0.125000
G01 X431.577158 Y350.684654 Z-0.125000
G01 X429.799555 Y352.462257 Z-0.125000
G01 X429.799555 Y356.017463 Z-0.125000
G01 X428.021952 Y357.795066 Z-0.125000
G01 X426.244349 Y360.461471 Z-0.125000
G01 X424.466746 Y362.239073 Z-0.125000
G01 X421.800342 Y364.016676 Z-0.125000
G01 X420.022739 Y364.905478 Z-0.125000
G01 X420.022739 Y368.460684 Z-0.125000
G01 X418.245136 Y370.238287 Z-0.125000
G01 X419.133938 Y373.793492 Z-0.125000
G01 X417.356335 Y375.571095 Z-0.125000
G01 X418.245136 Y379.126301 Z-0.125000
G01 X416.467533 Y381.792706 Z-0.125000
G01 X413.801129 Y384.459110 Z-0.125000
G01 X411.134724 Y386.236713 Z-0.125000
G01 X409.357121 Y388.903117 Z-0.125000
G01 X407.579519 Y389.791919 Z-0.125000
G01 X405.801916 Y391.569522 Z-0.125000
G01 X402.246710 Y392.458323 Z-0.125000
G01 X399.580305 Y393.347125 Z-0.125000
G01 X398.691504 Y396.013529 Z-0.125000
G01 X400.469107 Y397.791132 Z-0.125000
G01 X401.357908 Y400.457536 Z-0.125000
G01 X402.246710 Y403.123941 Z-0.125000
G01 X399.580305 Y404.901544 Z-0.125000
G01 X396.025100 Y407.567948 Z-0.125000
G01 X395.136298 Y411.123154 Z-0.125000
G01 X394.247497 Y414.678360 Z-0.125000
G01 X392.469894 Y418.233566 Z-0.125000
G01 X388.025886 Y418.233566 Z-0.125000
G01 X383.581879 Y416.455963 Z-0.125000
G01 X386.248283 Y412.900757 Z-0.125000
G01 X388.914688 Y412.011955 Z-0.125000
G01 X389.803489 Y408.456749 Z-0.125000
G01 X390.692291 Y404.901544 Z-0.125000
G01 X393.358695 Y402.235139 Z-0.125000
G01 X396.025100 Y399.568735 Z-0.125000
G01 X394.247497 Y394.235926 Z-0.125000
G01 X396.913901 Y393.347125 Z-0.125000
G01 X396.025100 Y391.569522 Z-0.125000
G01 X393.358695 Y389.791919 Z-0.125000
G01 X394.247497 Y388.903117 Z-0.125000
G01 X397.802702 Y388.903117 Z-0.125000
G01 X401.357908 Y388.014316 Z-0.125000
G01 X404.024313 Y385.347911 Z-0.125000
G01 X406.690717 Y383.570309 Z-0.125000
G01 X409.357121 Y381.792706 Z-0.125000
G01 X412.912327 Y380.015103 Z-0.125000
G01 X413.801129 Y376.459897 Z-0.125000
G01 X409.357121 Y376.459897 Z-0.125000
G01 X407.579519 Y378.237500 Z-0.125000
G01 X404.024313 Y377.348698 Z-0.125000
G01 X403.135511 Y380.015103 Z-0.125000
G01 X400.469107 Y383.570309 Z-0.125000
G01 X396.913901 Y384.459110 Z-0.125000
G01 X393.358695 Y384.459110 Z-0.125000
G01 X390.692291 Y388.014316 Z-0.125000
G01 X390.692291 Y386.236713 Z-0.125000
G01 X388.025886 Y385.347911 Z-0.125000
G01 X386.248283 Y386.236713 Z-0.125000
G01 X385.359482 Y383.570309 Z-0.125000
G01 X388.914688 Y381.792706 Z-0.125000
G01 X391.581092 Y380.015103 Z-0.125000
G01 X395.136298 Y380.015103 Z-0.125000
G01 X398.691504 Y380.015103 Z-0.125000
G01 X399.580305 Y376.459897 Z-0.125000
G01 X401.357908 Y372.904691 Z-0.125000
G01 X404.913114 Y372.904691 Z-0.125000
G01 X407.579519 Y371.127088 Z-0.125000
G01 X410.245923 Y369.349485 Z-0.125000
G01 X411.134724 Y372.904691 Z-0.125000
G01 X414.689930 Y371.127088 Z-0.125000
G01 X415.578732 Y365.794279 Z-0.125000
G01 X412.023526 Y366.683081 Z-0.125000
G01 X412.023526 Y363.127875 Z-0.125000
G01 X414.689930 Y361.350272 Z-0.125000
G01 X416.467533 Y359.572669 Z-0.125000
G01 X417.356335 Y356.906265 Z-0.125000
G01 X420.911540 Y358.683868 Z-0.125000
G01 X422.689143 Y356.017463 Z-0.125000
G01 X418.245136 Y353.351059 Z-0.125000
G01 X420.022739 Y351.573456 Z-0.125000
G01 X424.466746 Y353.351059 Z-0.125000
G01 X426.244349 Y350.684654 Z-0.125000
G01 X421.800342 Y348.907052 Z-0.125000
G01 X423.577945 Y346.240647 Z-0.125000
G01 X427.133151 Y346.240647 Z-0.125000
G01 X427.133151 Y342.685441 Z-0.125000
G01 X426.244349 Y339.130235 Z-0.125000
G01 X429.799555 Y339.130235 Z-0.125000
G01 X432.465959 Y339.130235 Z-0.125000
G01 X431.577158 Y337.352633 Z-0.125000
G01 X430.688357 Y333.797427 Z-0.125000
G01 X429.799555 Y334.686228 Z-0.125000
G01 X426.244349 Y334.686228 Z-0.125000
G01 X427.133151 Y331.131022 Z-0.125000
G01 X428.021952 Y330.242221 Z-0.125000
G01 X426.244349 Y327.575816 Z-0.125000
G01 X424.466746 Y327.575816 Z-0.125000
G01 X422.689143 Y330.242221 Z-0.125000
G01 X420.022739 Y329.353419 Z-0.125000
G01 X418.245136 Y332.019824 Z-0.125000
G01 X415.578732 Y332.908625 Z-0.125000
G01 X413.801129 Y335.575030 Z-0.125000
G01 X409.357121 Y338.241434 Z-0.125000
G01 X407.579519 Y340.907838 Z-0.125000
G01 X406.690717 Y343.574243 Z-0.125000
G01 X404.913114 Y346.240647 Z-0.125000
G01 X404.913114 Y349.795853 Z-0.125000
G01 X403.135511 Y353.351059 Z-0.125000
G01 X399.580305 Y355.128662 Z-0.125000
G01 X398.691504 Y358.683868 Z-0.125000
G01 X396.913901 Y359.572669 Z-0.125000
G01 X393.358695 Y357.795066 Z-0.125000
G01 X391.581092 Y360.461471 Z-0.125000
G01 X389.803489 Y362.239073 Z-0.125000
G01 X390.692291 Y366.683081 Z-0.125000
G01 X387.137085 Y366.683081 Z-0.125000
G01 X384.470681 Y367.571882 Z-0.125000
G01 X384.470681 Y369.349485 Z-0.125000
G01 X388.025886 Y371.127088 Z-0.125000
G01 X391.581092 Y371.127088 Z-0.125000
G01 X393.358695 Y367.571882 Z-0.125000
G01 X395.136298 Y364.905478 Z-0.125000
G01 X396.913901 Y363.127875 Z-0.125000
G01 X400.469107 Y364.016676 Z-0.125000
G01 X403.135511 Y362.239073 Z-0.125000
G01 X403.135511 Y358.683868 Z-0.125000
G01 X405.801916 Y356.906265 Z-0.125000
G01 X407.579519 Y354.239860 Z-0.125000
G01 X409.357121 Y351.573456 Z-0.125000
G01 X409.357121 Y348.018250 Z-0.125000
G01 X411.134724 Y344.463044 Z-0.125000
G01 X412.912327 Y341.796640 Z-0.125000
G01 X414.689930 Y340.907838 Z-0.125000
G01 X417.356335 Y339.130235 Z-0.125000
G01 X419.133938 Y336.463831 Z-0.125000
G01 X422.689143 Y334.686228 Z-0.125000
G01 X422.689143 Y339.130235 Z-0.125000
G01 X421.800342 Y341.796640 Z-0.125000
G01 X419.133938 Y343.574243 Z-0.125000
G01 X417.356335 Y346.240647 Z-0.125000
G01 X415.578732 Y348.018250 Z-0.125000
G01 X413.801129 Y349.795853 Z-0.125000
G01 X413.801129 Y353.351059 Z-0.125000
G01 X412.023526 Y356.017463 Z-0.125000
G01 X410.245923 Y358.683868 Z-0.125000
G01 X407.579519 Y361.350272 Z-0.125000
G01 X407.579519 Y364.905478 Z-0.125000
G01 X404.913114 Y366.683081 Z-0.125000
G01 X402.246710 Y368.460684 Z-0.125000
G01 X398.691504 Y368.460684 Z-0.125000
G01 X396.913901 Y371.127088 Z-0.125000
G01 X396.025100 Y373.793492 Z-0.125000
G01 X394.247497 Y375.571095 Z-0.125000
G01 X390.692291 Y375.571095 Z-0.125000
G01 X388.025886 Y377.348698 Z-0.125000
G01 X385.359482 Y380.015103 Z-0.125000
G01 X382.693078 Y380.903904 Z-0.125000
G01 X382.693078 Y382.681507 Z-0.125000
G01 X380.915475 Y387.125514 Z-0.125000
G01 X379.137872 Y390.680720 Z-0.125000
G01 X376.471467 Y393.347125 Z-0.125000
G01 X373.805063 Y396.013529 Z-0.125000
G01 X372.916262 Y400.457536 Z-0.125000
G01 X370.249857 Y403.123941 Z-0.125000
G01 X365.805850 Y404.012742 Z-0.125000
G01 X364.917048 Y407.567948 Z-0.125000
G01 X360.473041 Y407.567948 Z-0.125000
G01 X356.029034 Y406.679147 Z-0.125000
G01 X352.473828 Y409.345551 Z-0.125000
G01 X349.807424 Y412.011955 Z-0.125000
G01 X347.141019 Y415.567161 Z-0.125000
G01 X343.585813 Y417.344764 Z-0.125000
G01 X344.474615 Y420.011168 Z-0.125000
G01 X347.141019 Y420.011168 Z-0.125000
G01 X352.473828 Y417.344764 Z-0.125000
G01 X355.140232 Y414.678360 Z-0.125000
G01 X358.695438 Y412.900757 Z-0.125000
G01 X361.361843 Y413.789558 Z-0.125000
G01 X364.917048 Y412.900757 Z-0.125000
G01 X369.361056 Y412.900757 Z-0.125000
G01 X371.138659 Y409.345551 Z-0.125000
G01 X373.805063 Y408.456749 Z-0.125000
G01 X376.471467 Y405.790345 Z-0.125000
G01 X378.249070 Y403.123941 Z-0.125000
G01 X379.137872 Y399.568735 Z-0.125000
G01 X381.804276 Y396.902330 Z-0.125000
G01 X384.470681 Y395.124728 Z-0.125000
G01 X385.359482 Y391.569522 Z-0.125000
G01 X388.914688 Y391.569522 Z-0.125000
G01 X390.692291 Y396.902330 Z-0.125000
G01 X388.025886 Y399.568735 Z-0.125000
G01 X384.470681 Y402.235139 Z-0.125000
G01 X383.581879 Y405.790345 Z-0.125000
G01 X381.804276 Y409.345551 Z-0.125000
G01 X379.137872 Y412.011955 Z-0.125000
G01 X377.360269 Y414.678360 Z-0.125000
G01 X373.805063 Y415.567161 Z-0.125000
G01 X369.361056 Y417.344764 Z-0.125000
G01 X364.917048 Y418.233566 Z-0.125000
G01 X359.584240 Y418.233566 Z-0.125000
G01 X356.917835 Y420.899970 Z-0.125000
G01 X352.473828 Y422.677573 Z-0.125000
G01 X349.807424 Y421.788771 Z-0.125000
G01 X349.807424 Y424.455176 Z-0.125000
G01 X348.029821 Y427.121580 Z-0.125000
G01 X348.918622 Y429.787985 Z-0.125000
G01 X351.585026 Y428.899183 Z-0.125000
G01 X351.585026 Y430.676786 Z-0.125000
G01 X351.585026 Y432.454389 Z-0.125000
G01 X353.362629 Y433.343190 Z-0.125000
G01 X349.807424 Y435.120793 Z-0.125000
G01 X348.918622 Y438.675999 Z-0.125000
G01 X346.252218 Y442.231205 Z-0.125000
G01 X345.363416 Y446.675212 Z-0.125000
G01 X341.808210 Y444.897609 Z-0.125000
G00 Z5.000000

(End cutting path id: path40)


(Start cutting path id: path38)
(Change tool to Default tool)

G00 Z5.000000
G00 X314.255365 Y147.149120

G01 Z-0.125000 F100.0(Penetrate)
G01 X314.255365 Y148.926723 Z-0.125000 F400.000000
G01 X315.144167 Y151.593127 Z-0.125000
G01 X314.255365 Y153.370730 Z-0.125000
G01 X314.255365 Y156.037134 Z-0.125000
G01 X314.255365 Y158.703539 Z-0.125000
G01 X313.366564 Y161.369943 Z-0.125000
G01 X313.366564 Y164.925149 Z-0.125000
G01 X313.366564 Y168.480355 Z-0.125000
G01 X316.032968 Y167.591553 Z-0.125000
G01 X316.921769 Y165.813950 Z-0.125000
G01 X317.810571 Y164.925149 Z-0.125000
G01 X316.921769 Y162.258745 Z-0.125000
G01 X317.810571 Y161.369943 Z-0.125000
G01 X317.810571 Y158.703539 Z-0.125000
G01 X317.810571 Y156.925936 Z-0.125000
G01 X317.810571 Y154.259531 Z-0.125000
G01 X317.810571 Y151.593127 Z-0.125000
G01 X317.810571 Y148.926723 Z-0.125000
G01 X320.476975 Y148.926723 Z-0.125000
G01 X317.810571 Y146.260318 Z-0.125000
G01 X317.810571 Y143.593914 Z-0.125000
G01 X317.810571 Y140.927509 Z-0.125000
G01 X322.254578 Y142.705112 Z-0.125000
G01 X323.143380 Y137.372304 Z-0.125000
G01 X327.587387 Y138.261105 Z-0.125000
G01 X330.253791 Y133.817098 Z-0.125000
G01 X332.920196 Y130.261892 Z-0.125000
G01 X337.364203 Y130.261892 Z-0.125000
G01 X339.141806 Y124.929083 Z-0.125000
G01 X345.363416 Y122.262679 Z-0.125000
G01 X348.029821 Y117.818671 Z-0.125000
G01 X352.473828 Y118.707473 Z-0.125000
G01 X352.473828 Y110.708260 Z-0.125000
G01 X345.363416 Y108.041855 Z-0.125000
G01 X340.030607 Y113.374664 Z-0.125000
G01 X337.364203 Y116.929870 Z-0.125000
G01 X331.142593 Y120.485076 Z-0.125000
G01 X324.920983 Y123.151480 Z-0.125000
G01 X323.143380 Y128.484289 Z-0.125000
G01 X317.810571 Y128.484289 Z-0.125000
G01 X317.810571 Y125.817885 Z-0.125000
G01 X317.810571 Y123.151480 Z-0.125000
G01 X318.699372 Y120.485076 Z-0.125000
G01 X318.699372 Y116.929870 Z-0.125000
G01 X324.920983 Y116.041069 Z-0.125000
G01 X330.253791 Y113.374664 Z-0.125000
G01 X332.031394 Y106.264252 Z-0.125000
G01 X338.253005 Y105.375451 Z-0.125000
G01 X340.919409 Y99.153841 Z-0.125000
G01 X348.029821 Y101.820245 Z-0.125000
G01 X353.362629 Y103.597848 Z-0.125000
G01 X360.473041 Y101.820245 Z-0.125000
G01 X361.361843 Y100.931444 Z-0.125000
G01 X361.361843 Y98.265039 Z-0.125000
G01 X361.361843 Y95.598635 Z-0.125000
G01 X360.473041 Y92.932231 Z-0.125000
G01 X360.473041 Y91.154628 Z-0.125000
G01 X361.361843 Y89.377025 Z-0.125000
G01 X360.473041 Y86.710620 Z-0.125000
G01 X360.473041 Y84.933017 Z-0.125000
G01 X359.584240 Y82.266613 Z-0.125000
G01 X360.473041 Y80.489010 Z-0.125000
G01 X359.584240 Y77.822606 Z-0.125000
G01 X359.584240 Y76.045003 Z-0.125000
G01 X365.805850 Y74.267400 Z-0.125000
G01 X372.027460 Y69.823392 Z-0.125000
G01 X379.137872 Y69.823392 Z-0.125000
G01 X380.026673 Y60.935378 Z-0.125000
G01 X381.804276 Y52.047363 Z-0.125000
G01 X382.693078 Y43.159349 Z-0.125000
G01 X385.359482 Y36.937738 Z-0.125000
G01 X372.916262 Y35.160135 Z-0.125000
G01 X374.693864 Y26.272121 Z-0.125000
G01 X374.693864 Y21.828114 Z-0.125000
G01 X375.582666 Y20.939312 Z-0.125000
G01 X378.249070 Y23.605716 Z-0.125000
G01 X379.137872 Y22.716915 Z-0.125000
G01 X381.804276 Y25.383319 Z-0.125000
G01 X385.359482 Y26.272121 Z-0.125000
G01 X384.470681 Y27.160922 Z-0.125000
G01 X388.025886 Y28.938525 Z-0.125000
G01 X388.914688 Y28.049724 Z-0.125000
G01 X391.581092 Y30.716128 Z-0.125000
G01 X393.358695 Y30.716128 Z-0.125000
G01 X396.025100 Y32.493731 Z-0.125000
G01 X398.691504 Y32.493731 Z-0.125000
G01 X399.580305 Y34.271334 Z-0.125000
G01 X402.246710 Y34.271334 Z-0.125000
G01 X403.135511 Y36.048937 Z-0.125000
G01 X405.801916 Y36.048937 Z-0.125000
G01 X406.690717 Y37.826540 Z-0.125000
G01 X410.245923 Y39.604143 Z-0.125000
G01 X412.023526 Y40.492944 Z-0.125000
G01 X413.801129 Y42.270547 Z-0.125000
G01 X415.578732 Y44.936952 Z-0.125000
G01 X417.356335 Y48.492157 Z-0.125000
G01 X418.245136 Y52.047363 Z-0.125000
G01 X419.133938 Y55.602569 Z-0.125000
G01 X419.133938 Y59.157775 Z-0.125000
G01 X419.133938 Y62.712981 Z-0.125000
G01 X421.800342 Y66.268187 Z-0.125000
G01 X421.800342 Y68.934591 Z-0.125000
G01 X423.577945 Y71.600995 Z-0.125000
G01 X424.466746 Y74.267400 Z-0.125000
G01 X427.133151 Y76.933804 Z-0.125000
G01 X427.133151 Y79.600209 Z-0.125000
G01 X429.799555 Y82.266613 Z-0.125000
G01 X429.799555 Y84.933017 Z-0.125000
G01 X430.688357 Y87.599422 Z-0.125000
G01 X432.465959 Y91.154628 Z-0.125000
G01 X432.465959 Y94.709833 Z-0.125000
G01 X433.354761 Y98.265039 Z-0.125000
G01 X434.243562 Y101.820245 Z-0.125000
G01 X434.243562 Y105.375451 Z-0.125000
G01 X435.132364 Y108.930657 Z-0.125000
G01 X435.132364 Y112.485863 Z-0.125000
G01 X435.132364 Y116.041069 Z-0.125000
G01 X435.132364 Y119.596274 Z-0.125000
G01 X435.132364 Y123.151480 Z-0.125000
G01 X435.132364 Y126.706686 Z-0.125000
G01 X435.132364 Y130.261892 Z-0.125000
G01 X435.132364 Y133.817098 Z-0.125000
G01 X435.132364 Y137.372304 Z-0.125000
G01 X434.243562 Y140.927509 Z-0.125000
G01 X434.243562 Y144.482715 Z-0.125000
G01 X434.243562 Y148.037921 Z-0.125000
G01 X433.354761 Y151.593127 Z-0.125000
G01 X433.354761 Y156.925936 Z-0.125000
G01 X433.354761 Y160.481142 Z-0.125000
G01 X432.465959 Y164.036347 Z-0.125000
G01 X432.465959 Y167.591553 Z-0.125000
G01 X431.577158 Y171.146759 Z-0.125000
G01 X430.688357 Y174.701965 Z-0.125000
G01 X430.688357 Y180.034774 Z-0.125000
G01 X428.910754 Y182.701178 Z-0.125000
G01 X429.799555 Y187.145185 Z-0.125000
G01 X428.021952 Y190.700391 Z-0.125000
G01 X427.133151 Y194.255597 Z-0.125000
G01 X420.911540 Y191.589193 Z-0.125000
G01 X417.356335 Y194.255597 Z-0.125000
G01 X416.467533 Y199.588406 Z-0.125000
G01 X426.244349 Y199.588406 Z-0.125000
G01 X425.355548 Y203.143612 Z-0.125000
G01 X424.466746 Y206.698818 Z-0.125000
G01 X424.466746 Y210.254023 Z-0.125000
G01 X424.466746 Y213.809229 Z-0.125000
G01 X427.133151 Y216.475634 Z-0.125000
G01 X425.355548 Y217.364435 Z-0.125000
G01 X427.133151 Y218.253237 Z-0.125000
G01 X427.133151 Y220.030840 Z-0.125000
G01 X428.910754 Y221.808442 Z-0.125000
G01 X428.021952 Y223.586045 Z-0.125000
G01 X424.466746 Y224.474847 Z-0.125000
G01 X429.799555 Y225.363648 Z-0.125000
G01 X431.577158 Y228.030053 Z-0.125000
G01 X432.465959 Y227.141251 Z-0.125000
G01 X433.354761 Y223.586045 Z-0.125000
G01 X435.132364 Y221.808442 Z-0.125000
G01 X435.132364 Y218.253237 Z-0.125000
G01 X430.688357 Y218.253237 Z-0.125000
G01 X428.910754 Y214.698031 Z-0.125000
G01 X431.577158 Y214.698031 Z-0.125000
G01 X435.132364 Y213.809229 Z-0.125000
G01 X430.688357 Y212.031626 Z-0.125000
G01 X431.577158 Y211.142825 Z-0.125000
G01 X433.354761 Y210.254023 Z-0.125000
G01 X435.132364 Y209.365222 Z-0.125000
G01 X436.909967 Y207.587619 Z-0.125000
G01 X438.687570 Y211.142825 Z-0.125000
G01 X439.576371 Y208.476421 Z-0.125000
G01 X441.353974 Y207.587619 Z-0.125000
G01 X443.131577 Y206.698818 Z-0.125000
G01 X444.909180 Y208.476421 Z-0.125000
G01 X445.797981 Y206.698818 Z-0.125000
G01 X447.575584 Y205.810016 Z-0.125000
G01 X449.353187 Y204.032413 Z-0.125000
G01 X451.130790 Y202.254810 Z-0.125000
G01 X453.797195 Y201.366009 Z-0.125000
G01 X453.797195 Y203.143612 Z-0.125000
G01 X456.463599 Y202.254810 Z-0.125000
G01 X458.241202 Y202.254810 Z-0.125000
G01 X460.907606 Y202.254810 Z-0.125000
G01 X463.574011 Y203.143612 Z-0.125000
G01 X466.240415 Y204.032413 Z-0.125000
G01 X468.906819 Y204.921215 Z-0.125000
G01 X470.684422 Y204.921215 Z-0.125000
G01 X469.795621 Y208.476421 Z-0.125000
G01 X473.350827 Y209.365222 Z-0.125000
G01 X474.239628 Y206.698818 Z-0.125000
G01 X476.017231 Y207.587619 Z-0.125000
G01 X477.794834 Y209.365222 Z-0.125000
G01 X480.461238 Y211.142825 Z-0.125000
G01 X477.794834 Y212.031626 Z-0.125000
G01 X476.017231 Y214.698031 Z-0.125000
G01 X476.906033 Y219.142038 Z-0.125000
G01 X479.572437 Y220.030840 Z-0.125000
G01 X481.350040 Y217.364435 Z-0.125000
G01 X482.238841 Y213.809229 Z-0.125000
G01 X483.127643 Y216.475634 Z-0.125000
G01 X485.794047 Y219.142038 Z-0.125000
G01 X484.905246 Y220.919641 Z-0.125000
G01 X483.127643 Y223.586045 Z-0.125000
G01 X479.572437 Y224.474847 Z-0.125000
G01 X476.906033 Y226.252450 Z-0.125000
G01 X475.128430 Y228.918854 Z-0.125000
G01 X472.462025 Y231.585259 Z-0.125000
G01 X476.017231 Y233.362861 Z-0.125000
G01 X475.128430 Y236.918067 Z-0.125000
G01 X471.573224 Y235.140464 Z-0.125000
G01 X468.018018 Y235.140464 Z-0.125000
G01 X464.462812 Y236.029266 Z-0.125000
G01 X461.796408 Y236.918067 Z-0.125000
G01 X457.352400 Y236.029266 Z-0.125000
G01 X454.685996 Y235.140464 Z-0.125000
G01 X453.797195 Y238.695670 Z-0.125000
G01 X452.019592 Y241.362075 Z-0.125000
G01 X450.241989 Y244.028479 Z-0.125000
G01 X451.130790 Y245.806082 Z-0.125000
G01 X452.908393 Y247.583685 Z-0.125000
G01 X453.797195 Y245.806082 Z-0.125000
G01 X456.463599 Y243.139678 Z-0.125000
G01 X458.241202 Y240.473273 Z-0.125000
G01 X461.796408 Y242.250876 Z-0.125000
G01 X463.574011 Y241.362075 Z-0.125000
G01 X467.129216 Y240.473273 Z-0.125000
G01 X469.795621 Y239.584472 Z-0.125000
G01 X473.350827 Y239.584472 Z-0.125000
G01 X473.350827 Y244.028479 Z-0.125000
G01 X469.795621 Y244.917280 Z-0.125000
G01 X468.018018 Y245.806082 Z-0.125000
G01 X464.462812 Y246.694883 Z-0.125000
G01 X460.907606 Y245.806082 Z-0.125000
G01 X458.241202 Y247.583685 Z-0.125000
G01 X455.574797 Y249.361288 Z-0.125000
G01 X455.574797 Y251.138891 Z-0.125000
G01 X458.241202 Y252.916494 Z-0.125000
G01 X458.241202 Y254.694097 Z-0.125000
G01 X460.018805 Y253.805295 Z-0.125000
G01 X461.796408 Y251.138891 Z-0.125000
G01 X464.462812 Y252.027692 Z-0.125000
G01 X468.018018 Y251.138891 Z-0.125000
G01 X469.795621 Y250.250089 Z-0.125000
G01 X473.350827 Y248.472486 Z-0.125000
G01 X476.906033 Y246.694883 Z-0.125000
G01 X476.906033 Y243.139678 Z-0.125000
G01 X478.683635 Y239.584472 Z-0.125000
G01 X479.572437 Y236.029266 Z-0.125000
G01 X479.572437 Y232.474060 Z-0.125000
G01 X480.461238 Y228.918854 Z-0.125000
G01 X484.016444 Y228.030053 Z-0.125000
G01 X487.571650 Y226.252450 Z-0.125000
G01 X486.682849 Y223.586045 Z-0.125000
G01 X492.015657 Y225.363648 Z-0.125000
G01 X491.126856 Y226.252450 Z-0.125000
G01 X490.238054 Y228.030053 Z-0.125000
G01 X488.460452 Y228.918854 Z-0.125000
G01 X490.238054 Y230.696457 Z-0.125000
G01 X491.126856 Y233.362861 Z-0.125000
G01 X487.571650 Y232.474060 Z-0.125000
G01 X484.016444 Y232.474060 Z-0.125000
G01 X484.016444 Y236.029266 Z-0.125000
G01 X483.127643 Y239.584472 Z-0.125000
G01 X482.238841 Y243.139678 Z-0.125000
G01 X481.350040 Y245.806082 Z-0.125000
G01 X481.350040 Y249.361288 Z-0.125000
G01 X481.350040 Y252.916494 Z-0.125000
G01 X485.794047 Y252.916494 Z-0.125000
G01 X487.571650 Y252.027692 Z-0.125000
G01 X489.349253 Y249.361288 Z-0.125000
G01 X485.794047 Y247.583685 Z-0.125000
G01 X486.682849 Y244.028479 Z-0.125000
G01 X490.238054 Y245.806082 Z-0.125000
G01 X491.126856 Y242.250876 Z-0.125000
G01 X487.571650 Y240.473273 Z-0.125000
G01 X488.460452 Y236.918067 Z-0.125000
G01 X492.015657 Y236.918067 Z-0.125000
G01 X492.015657 Y235.140464 Z-0.125000
G01 X493.793260 Y234.251663 Z-0.125000
G01 X494.682062 Y232.474060 Z-0.125000
G01 X495.570863 Y230.696457 Z-0.125000
G01 X495.570863 Y228.030053 Z-0.125000
G01 X494.682062 Y225.363648 Z-0.125000
G01 X497.348466 Y224.474847 Z-0.125000
G01 X498.237268 Y226.252450 Z-0.125000
G01 X500.903672 Y227.141251 Z-0.125000
G01 X498.237268 Y228.030053 Z-0.125000
G01 X499.126069 Y231.585259 Z-0.125000
G01 X498.237268 Y235.140464 Z-0.125000
G01 X496.459665 Y237.806869 Z-0.125000
G01 X493.793260 Y239.584472 Z-0.125000
G01 X493.793260 Y241.362075 Z-0.125000
G01 X495.570863 Y244.028479 Z-0.125000
G01 X494.682062 Y245.806082 Z-0.125000
G01 X493.793260 Y249.361288 Z-0.125000
G01 X496.459665 Y249.361288 Z-0.125000
G01 X498.237268 Y252.916494 Z-0.125000
G01 X497.348466 Y254.694097 Z-0.125000
G01 X492.904459 Y252.916494 Z-0.125000
G01 X491.126856 Y255.582898 Z-0.125000
G01 X488.460452 Y258.249302 Z-0.125000
G01 X484.905246 Y256.471699 Z-0.125000
G01 X482.238841 Y258.249302 Z-0.125000
G01 X480.461238 Y260.915707 Z-0.125000
G01 X477.794834 Y262.693310 Z-0.125000
G01 X475.128430 Y263.582111 Z-0.125000
G01 X473.350827 Y266.248516 Z-0.125000
G01 X470.684422 Y267.137317 Z-0.125000
G01 X467.129216 Y267.137317 Z-0.125000
G01 X467.129216 Y268.914920 Z-0.125000
G01 X468.018018 Y271.581324 Z-0.125000
G01 X469.795621 Y271.581324 Z-0.125000
G01 X469.795621 Y274.247729 Z-0.125000
G01 X470.684422 Y277.802935 Z-0.125000
G01 X471.573224 Y276.025332 Z-0.125000
G01 X474.239628 Y274.247729 Z-0.125000
G01 X474.239628 Y270.692523 Z-0.125000
G01 X477.794834 Y270.692523 Z-0.125000
G01 X478.683635 Y268.026118 Z-0.125000
G01 X481.350040 Y266.248516 Z-0.125000
G01 X484.016444 Y264.470913 Z-0.125000
G01 X485.794047 Y261.804508 Z-0.125000
G01 X488.460452 Y262.693310 Z-0.125000
G01 X492.015657 Y261.804508 Z-0.125000
G01 X493.793260 Y260.026905 Z-0.125000
G01 X495.570863 Y257.360501 Z-0.125000
G01 X499.126069 Y258.249302 Z-0.125000
G01 X499.126069 Y260.915707 Z-0.125000
G01 X499.126069 Y263.582111 Z-0.125000
G01 X500.014871 Y267.137317 Z-0.125000
G01 X499.126069 Y268.914920 Z-0.125000
G01 X500.014871 Y272.470126 Z-0.125000
G01 X500.014871 Y276.025332 Z-0.125000
G01 X498.237268 Y277.802935 Z-0.125000
G01 X495.570863 Y273.358927 Z-0.125000
G01 X493.793260 Y276.914133 Z-0.125000
G01 X490.238054 Y276.914133 Z-0.125000
G01 X489.349253 Y279.580537 Z-0.125000
G01 X486.682849 Y281.358140 Z-0.125000
G01 X484.905246 Y283.135743 Z-0.125000
G01 X484.905246 Y286.690949 Z-0.125000
G01 X481.350040 Y286.690949 Z-0.125000
G01 X480.461238 Y282.246942 Z-0.125000
G01 X482.238841 Y278.691736 Z-0.125000
G01 X484.905246 Y276.914133 Z-0.125000
G01 X486.682849 Y273.358927 Z-0.125000
G01 X490.238054 Y272.470126 Z-0.125000
G01 X492.015657 Y270.692523 Z-0.125000
G01 X495.570863 Y269.803721 Z-0.125000
G01 X495.570863 Y265.359714 Z-0.125000
G01 X492.015657 Y266.248516 Z-0.125000
G01 X488.460452 Y267.137317 Z-0.125000
G01 X485.794047 Y268.914920 Z-0.125000
G01 X483.127643 Y270.692523 Z-0.125000
G01 X481.350040 Y273.358927 Z-0.125000
G01 X478.683635 Y275.136530 Z-0.125000
G01 X477.794834 Y278.691736 Z-0.125000
G01 X474.239628 Y278.691736 Z-0.125000
G01 X472.462025 Y280.469339 Z-0.125000
G01 X473.350827 Y282.246942 Z-0.125000
G01 X476.906033 Y283.135743 Z-0.125000
G01 X475.128430 Y284.913346 Z-0.125000
G01 X475.128430 Y286.690949 Z-0.125000
G01 X475.128430 Y290.246155 Z-0.125000
G01 X476.906033 Y289.357354 Z-0.125000
G01 X479.572437 Y289.357354 Z-0.125000
G01 X484.016444 Y291.134956 Z-0.125000
G01 X481.350040 Y293.801361 Z-0.125000
G01 X476.906033 Y292.912559 Z-0.125000
G01 X476.017231 Y294.690162 Z-0.125000
G01 X479.572437 Y296.467765 Z-0.125000
G01 X476.906033 Y297.356567 Z-0.125000
G01 X475.128430 Y299.134170 Z-0.125000
G01 X476.906033 Y300.022971 Z-0.125000
G01 X476.017231 Y302.689375 Z-0.125000
G01 X475.128430 Y304.466978 Z-0.125000
G01 X474.239628 Y306.244581 Z-0.125000
G01 X473.350827 Y308.910986 Z-0.125000
G01 X476.017231 Y308.910986 Z-0.125000
G01 X478.683635 Y306.244581 Z-0.125000
G01 X480.461238 Y303.578177 Z-0.125000
G01 X482.238841 Y300.911773 Z-0.125000
G01 X484.905246 Y300.022971 Z-0.125000
G01 X484.905246 Y296.467765 Z-0.125000
G01 X487.571650 Y294.690162 Z-0.125000
G01 X487.571650 Y291.134956 Z-0.125000
G01 X489.349253 Y288.468552 Z-0.125000
G01 X490.238054 Y285.802148 Z-0.125000
G01 X492.015657 Y283.135743 Z-0.125000
G01 X494.682062 Y281.358140 Z-0.125000
G01 X498.237268 Y281.358140 Z-0.125000
G01 X498.237268 Y284.913346 Z-0.125000
G01 X495.570863 Y286.690949 Z-0.125000
G01 X494.682062 Y289.357354 Z-0.125000
G01 X493.793260 Y292.023758 Z-0.125000
G01 X492.015657 Y293.801361 Z-0.125000
G01 X492.015657 Y297.356567 Z-0.125000
G01 X489.349253 Y299.134170 Z-0.125000
G01 X489.349253 Y302.689375 Z-0.125000
G01 X486.682849 Y304.466978 Z-0.125000
G01 X484.905246 Y306.244581 Z-0.125000
G01 X483.127643 Y308.910986 Z-0.125000
G00 Z5.000000

(End cutting path id: path38)


(Start cutting path id: path36)
(Change tool to Default tool)

G00 Z5.000000
G00 X173.824734 Y6.718489

G01 Z-0.125000 F100.0(Penetrate)
G01 X176.491138 Y6.718489 Z-0.125000 F400.000000
G01 X178.268741 Y5.829687 Z-0.125000
G01 X180.046344 Y4.940886 Z-0.125000
G01 X181.823947 Y4.940886 Z-0.125000
G01 X184.490352 Y4.940886 Z-0.125000
G01 X186.267955 Y4.052084 Z-0.125000
G01 X188.045557 Y3.163283 Z-0.125000
G01 X189.823160 Y3.163283 Z-0.125000
G01 X192.489565 Y3.163283 Z-0.125000
G01 X194.267168 Y2.274481 Z-0.125000
G01 X196.933572 Y2.274481 Z-0.125000
G01 X200.488778 Y0.496878 Z-0.125000
G01 X202.266381 Y1.385680 Z-0.125000
G01 X199.599976 Y2.274481 Z-0.125000
G01 X196.933572 Y6.718489 Z-0.125000
G01 X192.489565 Y11.162496 Z-0.125000
G01 X188.934359 Y18.272908 Z-0.125000
G01 X180.935146 Y15.606503 Z-0.125000
G01 X175.602337 Y19.161709 Z-0.125000
G01 X164.936719 Y18.272908 Z-0.125000
G01 X164.936719 Y28.938525 Z-0.125000
G01 X161.381514 Y36.937738 Z-0.125000
G01 X155.159903 Y36.937738 Z-0.125000
G01 X162.270315 Y50.269760 Z-0.125000
G01 X154.271102 Y49.380959 Z-0.125000
G01 X149.827095 Y54.713768 Z-0.125000
G01 X161.381514 Y62.712981 Z-0.125000
G01 X161.381514 Y71.600995 Z-0.125000
G01 X156.048705 Y70.712194 Z-0.125000
G01 X152.493499 Y73.378598 Z-0.125000
G01 X149.827095 Y78.711407 Z-0.125000
G01 X148.938293 Y91.154628 Z-0.125000
G01 X154.271102 Y92.932231 Z-0.125000
G01 X157.826308 Y92.043429 Z-0.125000
G01 X159.603911 Y84.044216 Z-0.125000
G01 X164.047918 Y81.377811 Z-0.125000
G01 X170.269528 Y73.378598 Z-0.125000
G01 X171.158330 Y69.823392 Z-0.125000
G01 X172.047131 Y68.934591 Z-0.125000
G01 X172.047131 Y66.268187 Z-0.125000
G01 X172.935933 Y64.490584 Z-0.125000
G01 X173.824734 Y61.824179 Z-0.125000
G01 X173.824734 Y59.157775 Z-0.125000
G01 X174.713536 Y58.268973 Z-0.125000
G01 X174.713536 Y55.602569 Z-0.125000
G01 X175.602337 Y54.713768 Z-0.125000
G01 X176.491138 Y52.047363 Z-0.125000
G01 X176.491138 Y49.380959 Z-0.125000
G01 X177.379940 Y47.603356 Z-0.125000
G01 X178.268741 Y44.936952 Z-0.125000
G01 X178.268741 Y42.270547 Z-0.125000
G01 X178.268741 Y37.826540 Z-0.125000
G01 X178.268741 Y34.271334 Z-0.125000
G01 X176.491138 Y28.938525 Z-0.125000
G01 X188.934359 Y28.938525 Z-0.125000
G01 X185.379153 Y35.160135 Z-0.125000
G01 X182.712749 Y42.270547 Z-0.125000
G01 X183.601550 Y55.602569 Z-0.125000
G01 X183.601550 Y64.490584 Z-0.125000
G01 X177.379940 Y68.934591 Z-0.125000
G01 X172.047131 Y72.489797 Z-0.125000
G01 X172.047131 Y76.045003 Z-0.125000
G01 X172.047131 Y78.711407 Z-0.125000
G01 X172.935933 Y81.377811 Z-0.125000
G01 X172.047131 Y82.266613 Z-0.125000
G01 X173.824734 Y84.933017 Z-0.125000
G01 X173.824734 Y86.710620 Z-0.125000
G01 X175.602337 Y88.488223 Z-0.125000
G01 X179.157543 Y83.155414 Z-0.125000
G01 X182.712749 Y81.377811 Z-0.125000
G01 X185.379153 Y74.267400 Z-0.125000
G01 X193.378366 Y76.933804 Z-0.125000
G01 X194.267168 Y76.045003 Z-0.125000
G01 X194.267168 Y73.378598 Z-0.125000
G01 X194.267168 Y70.712194 Z-0.125000
G01 X194.267168 Y68.934591 Z-0.125000
G01 X194.267168 Y67.156988 Z-0.125000
G01 X194.267168 Y64.490584 Z-0.125000
G01 X195.155969 Y63.601782 Z-0.125000
G01 X195.155969 Y60.935378 Z-0.125000
G01 X196.044771 Y60.046576 Z-0.125000
G01 X196.044771 Y57.380172 Z-0.125000
G01 X196.933572 Y56.491371 Z-0.125000
G01 X202.266381 Y57.380172 Z-0.125000
G01 X196.933572 Y53.824966 Z-0.125000
G01 X197.822374 Y52.047363 Z-0.125000
G01 X198.711175 Y50.269760 Z-0.125000
G01 X199.599976 Y48.492157 Z-0.125000
G01 X200.488778 Y46.714554 Z-0.125000
G01 X201.377579 Y44.936952 Z-0.125000
G01 X202.266381 Y43.159349 Z-0.125000
G01 X203.155182 Y41.381746 Z-0.125000
G01 X204.043984 Y39.604143 Z-0.125000
G01 X204.932785 Y38.715341 Z-0.125000
G01 X205.821587 Y36.937738 Z-0.125000
G01 X206.710388 Y35.160135 Z-0.125000
G01 X207.599190 Y33.382533 Z-0.125000
G01 X209.376793 Y31.604930 Z-0.125000
G01 X211.154395 Y29.827327 Z-0.125000
G01 X211.154395 Y28.049724 Z-0.125000
G01 X212.043197 Y26.272121 Z-0.125000
G01 X215.598403 Y26.272121 Z-0.125000
G01 X220.042410 Y24.494518 Z-0.125000
G01 X212.931998 Y22.716915 Z-0.125000
G01 X214.709601 Y20.050511 Z-0.125000
G01 X215.598403 Y16.495305 Z-0.125000
G01 X215.598403 Y12.940099 Z-0.125000
G01 X214.709601 Y8.496092 Z-0.125000
G01 X204.932785 Y1.385680 Z-0.125000
G01 X206.710388 Y0.496878 Z-0.125000
G01 X209.376793 Y0.496878 Z-0.125000
G01 X212.043197 Y0.496878 Z-0.125000
G01 X214.709601 Y0.496878 Z-0.125000
G01 X217.376006 Y0.496878 Z-0.125000
G01 X220.042410 Y1.385680 Z-0.125000
G01 X219.153609 Y4.940886 Z-0.125000
G01 X222.708814 Y2.274481 Z-0.125000
G01 X225.375219 Y2.274481 Z-0.125000
G01 X227.152822 Y3.163283 Z-0.125000
G01 X229.819226 Y4.052084 Z-0.125000
G01 X231.596829 Y4.052084 Z-0.125000
G01 X234.263233 Y4.940886 Z-0.125000
G01 X236.040836 Y4.940886 Z-0.125000
G01 X239.596042 Y5.829687 Z-0.125000
G01 X243.151248 Y6.718489 Z-0.125000
G01 X244.928851 Y8.496092 Z-0.125000
G01 X241.373645 Y7.607290 Z-0.125000
G01 X237.818439 Y6.718489 Z-0.125000
G01 X230.708028 Y12.051297 Z-0.125000
G01 X228.041623 Y18.272908 Z-0.125000
G01 X228.041623 Y28.049724 Z-0.125000
G01 X237.818439 Y26.272121 Z-0.125000
G01 X241.373645 Y19.161709 Z-0.125000
G01 X248.484057 Y20.939312 Z-0.125000
G01 X253.816866 Y14.717702 Z-0.125000
G01 X247.595255 Y9.384893 Z-0.125000
G01 X250.261660 Y9.384893 Z-0.125000
G01 X252.928064 Y9.384893 Z-0.125000
G01 X254.705667 Y10.273695 Z-0.125000
G01 X256.483270 Y10.273695 Z-0.125000
G01 X259.149674 Y12.051297 Z-0.125000
G01 X260.927277 Y11.162496 Z-0.125000
G01 X263.593682 Y11.162496 Z-0.125000
G01 X266.260086 Y11.162496 Z-0.125000
G01 X267.148888 Y10.273695 Z-0.125000
G01 X269.815292 Y11.162496 Z-0.125000
G01 X272.481696 Y11.162496 Z-0.125000
G01 X273.370498 Y10.273695 Z-0.125000
G01 X276.036902 Y11.162496 Z-0.125000
G01 X276.925704 Y9.384893 Z-0.125000
G01 X278.703307 Y10.273695 Z-0.125000
G01 X281.369711 Y10.273695 Z-0.125000
G01 X284.036115 Y10.273695 Z-0.125000
G01 X285.813718 Y9.384893 Z-0.125000
G01 X286.702520 Y8.496092 Z-0.125000
G01 X289.368924 Y9.384893 Z-0.125000
G01 X290.257726 Y7.607290 Z-0.125000
G01 X292.035329 Y8.496092 Z-0.125000
G01 X294.701733 Y8.496092 Z-0.125000
G01 X296.479336 Y7.607290 Z-0.125000
G01 X297.368137 Y6.718489 Z-0.125000
G01 X300.034542 Y6.718489 Z-0.125000
G01 X302.700946 Y6.718489 Z-0.125000
G01 X304.478549 Y5.829687 Z-0.125000
G01 X306.256152 Y6.718489 Z-0.125000
G01 X307.144953 Y4.940886 Z-0.125000
G01 X309.811358 Y6.718489 Z-0.125000
G01 X310.700159 Y4.940886 Z-0.125000
G01 X313.366564 Y4.940886 Z-0.125000
G01 X316.032968 Y4.940886 Z-0.125000
G01 X318.699372 Y4.940886 Z-0.125000
G01 X320.476975 Y4.052084 Z-0.125000
G01 X323.143380 Y4.052084 Z-0.125000
G01 X325.809784 Y4.052084 Z-0.125000
G01 X328.476188 Y4.052084 Z-0.125000
G01 X330.253791 Y4.940886 Z-0.125000
G01 X332.920196 Y5.829687 Z-0.125000
G01 X335.586600 Y5.829687 Z-0.125000
G01 X338.253005 Y5.829687 Z-0.125000
G01 X339.141806 Y7.607290 Z-0.125000
G01 X341.808210 Y7.607290 Z-0.125000
G01 X344.474615 Y7.607290 Z-0.125000
G01 X345.363416 Y9.384893 Z-0.125000
G01 X348.029821 Y9.384893 Z-0.125000
G01 X349.807424 Y10.273695 Z-0.125000
G01 X339.141806 Y15.606503 Z-0.125000
G01 X329.364990 Y8.496092 Z-0.125000
G01 X325.809784 Y12.051297 Z-0.125000
G01 X320.476975 Y16.495305 Z-0.125000
G01 X317.810571 Y25.383319 Z-0.125000
G01 X312.477762 Y26.272121 Z-0.125000
G01 X312.477762 Y24.494518 Z-0.125000
G01 X311.588961 Y21.828114 Z-0.125000
G01 X311.588961 Y19.161709 Z-0.125000
G01 X311.588961 Y16.495305 Z-0.125000
G01 X308.922556 Y13.828900 Z-0.125000
G01 X310.700159 Y12.051297 Z-0.125000
G01 X309.811358 Y9.384893 Z-0.125000
G01 X307.144953 Y10.273695 Z-0.125000
G01 X306.256152 Y12.940099 Z-0.125000
G01 X306.256152 Y16.495305 Z-0.125000
G01 X308.033755 Y17.384106 Z-0.125000
G01 X308.033755 Y20.050511 Z-0.125000
G01 X306.256152 Y21.828114 Z-0.125000
G01 X308.922556 Y23.605716 Z-0.125000
G01 X306.256152 Y25.383319 Z-0.125000
G01 X308.033755 Y26.272121 Z-0.125000
G01 X308.033755 Y28.938525 Z-0.125000
G01 X307.144953 Y30.716128 Z-0.125000
G01 X307.144953 Y33.382533 Z-0.125000
G01 X307.144953 Y36.048937 Z-0.125000
G01 X307.144953 Y37.826540 Z-0.125000
G01 X308.033755 Y40.492944 Z-0.125000
G01 X310.700159 Y38.715341 Z-0.125000
G01 X309.811358 Y35.160135 Z-0.125000
G01 X310.700159 Y32.493731 Z-0.125000
G01 X311.588961 Y28.938525 Z-0.125000
G01 X313.366564 Y29.827327 Z-0.125000
G01 X313.366564 Y32.493731 Z-0.125000
G01 X313.366564 Y35.160135 Z-0.125000
G01 X313.366564 Y36.937738 Z-0.125000
G01 X314.255365 Y39.604143 Z-0.125000
G01 X314.255365 Y41.381746 Z-0.125000
G01 X314.255365 Y44.048150 Z-0.125000
G01 X311.588961 Y42.270547 Z-0.125000
G01 X309.811358 Y44.048150 Z-0.125000
G01 X308.033755 Y43.159349 Z-0.125000
G01 X307.144953 Y44.936952 Z-0.125000
G01 X308.033755 Y47.603356 Z-0.125000
G01 X308.033755 Y49.380959 Z-0.125000
G01 X308.922556 Y52.047363 Z-0.125000
G01 X308.033755 Y53.824966 Z-0.125000
G01 X309.811358 Y55.602569 Z-0.125000
G01 X308.033755 Y57.380172 Z-0.125000
G01 X309.811358 Y58.268973 Z-0.125000
G01 X309.811358 Y60.935378 Z-0.125000
G01 X308.922556 Y62.712981 Z-0.125000
G01 X308.922556 Y65.379385 Z-0.125000
G01 X311.588961 Y64.490584 Z-0.125000
G01 X310.700159 Y67.156988 Z-0.125000
G01 X309.811358 Y68.934591 Z-0.125000
G01 X310.700159 Y71.600995 Z-0.125000
G01 X312.477762 Y70.712194 Z-0.125000
G01 X311.588961 Y73.378598 Z-0.125000
G01 X311.588961 Y75.156201 Z-0.125000
G01 X311.588961 Y76.933804 Z-0.125000
G01 X312.477762 Y79.600209 Z-0.125000
G01 X311.588961 Y81.377811 Z-0.125000
G01 X311.588961 Y83.155414 Z-0.125000
G01 X315.144167 Y83.155414 Z-0.125000
G01 X314.255365 Y84.933017 Z-0.125000
G01 X312.477762 Y85.821819 Z-0.125000
G01 X312.477762 Y88.488223 Z-0.125000
G01 X315.144167 Y88.488223 Z-0.125000
G01 X314.255365 Y90.265826 Z-0.125000
G01 X312.477762 Y92.043429 Z-0.125000
G01 X315.144167 Y93.821032 Z-0.125000
G01 X313.366564 Y94.709833 Z-0.125000
G01 X314.255365 Y97.376238 Z-0.125000
G01 X313.366564 Y98.265039 Z-0.125000
G01 X314.255365 Y100.931444 Z-0.125000
G01 X313.366564 Y101.820245 Z-0.125000
G01 X313.366564 Y104.486650 Z-0.125000
G01 X316.032968 Y104.486650 Z-0.125000
G01 X317.810571 Y102.709047 Z-0.125000
G01 X317.810571 Y100.042642 Z-0.125000
G01 X318.699372 Y98.265039 Z-0.125000
G01 X317.810571 Y95.598635 Z-0.125000
G01 X317.810571 Y92.932231 Z-0.125000
G01 X323.143380 Y91.154628 Z-0.125000
G01 X317.810571 Y90.265826 Z-0.125000
G01 X317.810571 Y87.599422 Z-0.125000
G01 X317.810571 Y84.933017 Z-0.125000
G01 X317.810571 Y82.266613 Z-0.125000
G01 X317.810571 Y79.600209 Z-0.125000
G01 X315.144167 Y79.600209 Z-0.125000
G01 X316.032968 Y76.933804 Z-0.125000
G01 X316.921769 Y76.045003 Z-0.125000
G01 X316.032968 Y73.378598 Z-0.125000
G01 X316.921769 Y72.489797 Z-0.125000
G01 X316.921769 Y68.934591 Z-0.125000
G01 X315.144167 Y69.823392 Z-0.125000
G01 X314.255365 Y67.156988 Z-0.125000
G01 X316.032968 Y66.268187 Z-0.125000
G01 X316.032968 Y64.490584 Z-0.125000
G01 X316.032968 Y62.712981 Z-0.125000
G01 X312.477762 Y61.824179 Z-0.125000
G01 X313.366564 Y59.157775 Z-0.125000
G01 X316.032968 Y60.046576 Z-0.125000
G01 X315.144167 Y57.380172 Z-0.125000
G01 X316.032968 Y56.491371 Z-0.125000
G01 X315.144167 Y53.824966 Z-0.125000
G01 X315.144167 Y52.047363 Z-0.125000
G01 X312.477762 Y54.713768 Z-0.125000
G01 X311.588961 Y51.158562 Z-0.125000
G01 X311.588961 Y48.492157 Z-0.125000
G01 X312.477762 Y46.714554 Z-0.125000
G01 X315.144167 Y46.714554 Z-0.125000
G01 X315.144167 Y49.380959 Z-0.125000
G01 X321.365777 Y49.380959 Z-0.125000
G01 X324.920983 Y42.270547 Z-0.125000
G01 X327.587387 Y35.160135 Z-0.125000
G01 X331.142593 Y31.604930 Z-0.125000
G01 X334.697799 Y25.383319 Z-0.125000
G01 X341.808210 Y28.938525 Z-0.125000
G01 X341.808210 Y39.604143 Z-0.125000
G01 X337.364203 Y46.714554 Z-0.125000
G01 X335.586600 Y54.713768 Z-0.125000
G01 X332.031394 Y59.157775 Z-0.125000
G01 X325.809784 Y63.601782 Z-0.125000
G01 X325.809784 Y72.489797 Z-0.125000
G01 X324.032181 Y82.266613 Z-0.125000
G01 X329.364990 Y83.155414 Z-0.125000
G01 X334.697799 Y78.711407 Z-0.125000
G01 X335.586600 Y71.600995 Z-0.125000
G01 X342.697012 Y70.712194 Z-0.125000
G01 X346.252218 Y64.490584 Z-0.125000
G01 X346.252218 Y53.824966 Z-0.125000
G01 X355.140232 Y53.824966 Z-0.125000
G01 X355.140232 Y51.158562 Z-0.125000
G01 X354.251431 Y48.492157 Z-0.125000
G01 X354.251431 Y46.714554 Z-0.125000
G01 X354.251431 Y44.048150 Z-0.125000
G01 X352.473828 Y41.381746 Z-0.125000
G01 X353.362629 Y40.492944 Z-0.125000
G01 X352.473828 Y37.826540 Z-0.125000
G01 X353.362629 Y36.048937 Z-0.125000
G01 X352.473828 Y33.382533 Z-0.125000
G01 X351.585026 Y30.716128 Z-0.125000
G01 X352.473828 Y28.938525 Z-0.125000
G01 X351.585026 Y26.272121 Z-0.125000
G01 X350.696225 Y23.605716 Z-0.125000
G01 X351.585026 Y22.716915 Z-0.125000
G01 X351.585026 Y20.050511 Z-0.125000
G01 X351.585026 Y18.272908 Z-0.125000
G01 X352.473828 Y15.606503 Z-0.125000
G01 X351.585026 Y12.940099 Z-0.125000
G01 X352.473828 Y12.051297 Z-0.125000
G01 X355.140232 Y12.940099 Z-0.125000
G01 X355.140232 Y11.162496 Z-0.125000
G01 X358.695438 Y12.940099 Z-0.125000
G01 X358.695438 Y14.717702 Z-0.125000
G01 X361.361843 Y14.717702 Z-0.125000
G01 X364.028247 Y16.495305 Z-0.125000
G01 X366.694651 Y16.495305 Z-0.125000
G01 X367.583453 Y18.272908 Z-0.125000
G01 X370.249857 Y18.272908 Z-0.125000
G01 X371.138659 Y20.050511 Z-0.125000
G01 X364.917048 Y21.828114 Z-0.125000
G01 X361.361843 Y29.827327 Z-0.125000
G01 X360.473041 Y39.604143 Z-0.125000
G01 X371.138659 Y42.270547 Z-0.125000
G01 X371.138659 Y52.047363 Z-0.125000
G01 X366.694651 Y56.491371 Z-0.125000
G01 X362.250644 Y58.268973 Z-0.125000
G01 X356.029034 Y56.491371 Z-0.125000
G01 X356.029034 Y58.268973 Z-0.125000
G01 X357.806637 Y60.935378 Z-0.125000
G01 X356.917835 Y62.712981 Z-0.125000
G01 X357.806637 Y65.379385 Z-0.125000
G01 X357.806637 Y67.156988 Z-0.125000
G01 X358.695438 Y69.823392 Z-0.125000
G01 X358.695438 Y71.600995 Z-0.125000
G01 X358.695438 Y73.378598 Z-0.125000
G01 X351.585026 Y76.933804 Z-0.125000
G01 X343.585813 Y80.489010 Z-0.125000
G01 X350.696225 Y84.044216 Z-0.125000
G01 X351.585026 Y92.932231 Z-0.125000
G01 X344.474615 Y90.265826 Z-0.125000
G01 X338.253005 Y89.377025 Z-0.125000
G01 X332.920196 Y93.821032 Z-0.125000
G01 X331.142593 Y98.265039 Z-0.125000
G01 X325.809784 Y102.709047 Z-0.125000
G01 X323.143380 Y106.264252 Z-0.125000
G01 X318.699372 Y106.264252 Z-0.125000
G01 X318.699372 Y109.819458 Z-0.125000
G01 X316.032968 Y108.041855 Z-0.125000
G01 X314.255365 Y107.153054 Z-0.125000
G01 X313.366564 Y109.819458 Z-0.125000
G01 X314.255365 Y112.485863 Z-0.125000
G01 X316.032968 Y111.597061 Z-0.125000
G01 X318.699372 Y113.374664 Z-0.125000
G01 X316.032968 Y115.152267 Z-0.125000
G01 X314.255365 Y116.041069 Z-0.125000
G01 X315.144167 Y118.707473 Z-0.125000
G01 X314.255365 Y119.596274 Z-0.125000
G01 X315.144167 Y122.262679 Z-0.125000
G01 X315.144167 Y124.929083 Z-0.125000
G01 X314.255365 Y126.706686 Z-0.125000
G01 X314.255365 Y129.373090 Z-0.125000
G01 X317.810571 Y131.150693 Z-0.125000
G01 X316.921769 Y132.928296 Z-0.125000
G01 X315.144167 Y132.039495 Z-0.125000
G01 X314.255365 Y134.705899 Z-0.125000
G01 X317.810571 Y135.594701 Z-0.125000
G01 X317.810571 Y138.261105 Z-0.125000
G01 X315.144167 Y137.372304 Z-0.125000
G01 X314.255365 Y139.149907 Z-0.125000
G01 X314.255365 Y141.816311 Z-0.125000
G01 X315.144167 Y144.482715 Z-0.125000
G01 X314.255365 Y147.149120 Z-0.125000
G00 Z5.000000

(End cutting path id: path36)


(Start cutting path id: path34)
(Change tool to Default tool)

G00 Z5.000000
G00 X116.941441 Y188.922788

G01 Z-0.125000 F100.0(Penetrate)
G01 X113.386235 Y189.811590 Z-0.125000 F400.000000
G01 X109.831029 Y188.033987 Z-0.125000
G01 X108.942227 Y190.700391 Z-0.125000
G01 X107.164624 Y193.366796 Z-0.125000
G01 X103.609419 Y193.366796 Z-0.125000
G01 X101.831816 Y195.144399 Z-0.125000
G01 X99.165411 Y196.922002 Z-0.125000
G01 X97.387808 Y197.810803 Z-0.125000
G01 X97.387808 Y200.477207 Z-0.125000
G01 X95.610205 Y203.143612 Z-0.125000
G01 X93.832603 Y205.810016 Z-0.125000
G01 X92.055000 Y209.365222 Z-0.125000
G01 X96.499007 Y210.254023 Z-0.125000
G01 X98.276610 Y207.587619 Z-0.125000
G01 X100.054213 Y204.921215 Z-0.125000
G01 X101.831816 Y202.254810 Z-0.125000
G01 X103.609419 Y199.588406 Z-0.125000
G01 X106.275823 Y197.810803 Z-0.125000
G01 X109.831029 Y197.810803 Z-0.125000
G01 X111.608632 Y195.144399 Z-0.125000
G01 X115.163838 Y194.255597 Z-0.125000
G01 X117.830242 Y193.366796 Z-0.125000
G01 X121.385448 Y193.366796 Z-0.125000
G01 X121.385448 Y196.922002 Z-0.125000
G01 X117.830242 Y198.699604 Z-0.125000
G01 X116.052639 Y199.588406 Z-0.125000
G01 X113.386235 Y200.477207 Z-0.125000
G01 X109.831029 Y202.254810 Z-0.125000
G01 X107.164624 Y203.143612 Z-0.125000
G01 X105.387022 Y205.810016 Z-0.125000
G01 X103.609419 Y208.476421 Z-0.125000
G01 X101.831816 Y211.142825 Z-0.125000
G01 X100.054213 Y213.809229 Z-0.125000
G01 X96.499007 Y214.698031 Z-0.125000
G01 X93.832603 Y213.809229 Z-0.125000
G01 X91.166198 Y216.475634 Z-0.125000
G01 X94.721404 Y218.253237 Z-0.125000
G01 X92.943801 Y221.808442 Z-0.125000
G01 X89.388595 Y222.697244 Z-0.125000
G01 X89.388595 Y219.142038 Z-0.125000
G01 X84.944588 Y220.919641 Z-0.125000
G01 X84.944588 Y217.364435 Z-0.125000
G01 X86.722191 Y214.698031 Z-0.125000
G01 X88.499794 Y212.031626 Z-0.125000
G01 X85.833389 Y209.365222 Z-0.125000
G01 X87.610992 Y208.476421 Z-0.125000
G01 X87.610992 Y206.698818 Z-0.125000
G01 X90.277397 Y205.810016 Z-0.125000
G01 X91.166198 Y204.032413 Z-0.125000
G01 X92.943801 Y202.254810 Z-0.125000
G01 X93.832603 Y200.477207 Z-0.125000
G01 X94.721404 Y198.699604 Z-0.125000
G01 X96.499007 Y194.255597 Z-0.125000
G01 X99.165411 Y194.255597 Z-0.125000
G01 X100.054213 Y191.589193 Z-0.125000
G01 X101.831816 Y189.811590 Z-0.125000
G01 X104.498220 Y188.922788 Z-0.125000
G01 X103.609419 Y186.256384 Z-0.125000
G01 X100.943014 Y187.145185 Z-0.125000
G01 X96.499007 Y187.145185 Z-0.125000
G01 X92.943801 Y188.922788 Z-0.125000
G01 X91.166198 Y192.477994 Z-0.125000
G01 X88.499794 Y195.144399 Z-0.125000
G01 X86.722191 Y197.810803 Z-0.125000
G01 X86.722191 Y202.254810 Z-0.125000
G01 X82.278184 Y202.254810 Z-0.125000
G01 X79.611779 Y204.032413 Z-0.125000
G01 X77.834176 Y203.143612 Z-0.125000
G01 X76.945375 Y200.477207 Z-0.125000
G01 X75.167772 Y200.477207 Z-0.125000
G01 X72.501367 Y204.032413 Z-0.125000
G01 X68.946162 Y204.032413 Z-0.125000
G01 X63.613353 Y205.810016 Z-0.125000
G01 X65.390956 Y207.587619 Z-0.125000
G01 X64.502154 Y209.365222 Z-0.125000
G01 X62.724551 Y211.142825 Z-0.125000
G01 X63.613353 Y216.475634 Z-0.125000
G01 X68.946162 Y214.698031 Z-0.125000
G01 X67.168559 Y212.920428 Z-0.125000
G01 X66.279757 Y211.142825 Z-0.125000
G01 X69.834963 Y209.365222 Z-0.125000
G01 X74.278970 Y209.365222 Z-0.125000
G01 X77.834176 Y206.698818 Z-0.125000
G01 X80.500581 Y206.698818 Z-0.125000
G01 X82.278184 Y207.587619 Z-0.125000
G01 X82.278184 Y210.254023 Z-0.125000
G01 X84.055786 Y211.142825 Z-0.125000
G01 X82.278184 Y212.920428 Z-0.125000
G01 X80.500581 Y212.031626 Z-0.125000
G01 X79.611779 Y213.809229 Z-0.125000
G01 X77.834176 Y214.698031 Z-0.125000
G01 X80.500581 Y217.364435 Z-0.125000
G01 X80.500581 Y220.919641 Z-0.125000
G01 X76.945375 Y221.808442 Z-0.125000
G01 X74.278970 Y225.363648 Z-0.125000
G01 X78.722978 Y226.252450 Z-0.125000
G01 X81.389382 Y225.363648 Z-0.125000
G01 X84.944588 Y224.474847 Z-0.125000
G01 X85.833389 Y228.918854 Z-0.125000
G01 X84.055786 Y230.696457 Z-0.125000
G01 X82.278184 Y232.474060 Z-0.125000
G01 X82.278184 Y236.029266 Z-0.125000
G01 X81.389382 Y239.584472 Z-0.125000
G01 X79.611779 Y240.473273 Z-0.125000
G01 X77.834176 Y244.028479 Z-0.125000
G01 X80.500581 Y244.917280 Z-0.125000
G01 X84.055786 Y244.917280 Z-0.125000
G01 X85.833389 Y242.250876 Z-0.125000
G01 X86.722191 Y239.584472 Z-0.125000
G01 X86.722191 Y236.029266 Z-0.125000
G01 X88.499794 Y234.251663 Z-0.125000
G01 X90.277397 Y231.585259 Z-0.125000
G01 X89.388595 Y228.030053 Z-0.125000
G01 X91.166198 Y227.141251 Z-0.125000
G01 X94.721404 Y226.252450 Z-0.125000
G01 X97.387808 Y224.474847 Z-0.125000
G01 X98.276610 Y221.808442 Z-0.125000
G01 X99.165411 Y218.253237 Z-0.125000
G01 X102.720617 Y218.253237 Z-0.125000
G01 X104.498220 Y215.586832 Z-0.125000
G01 X106.275823 Y212.920428 Z-0.125000
G01 X108.053426 Y210.254023 Z-0.125000
G01 X109.831029 Y207.587619 Z-0.125000
G01 X113.386235 Y209.365222 Z-0.125000
G01 X113.386235 Y205.810016 Z-0.125000
G01 X116.052639 Y204.032413 Z-0.125000
G01 X119.607845 Y204.032413 Z-0.125000
G01 X122.274249 Y201.366009 Z-0.125000
G01 X124.940654 Y198.699604 Z-0.125000
G01 X126.718257 Y196.922002 Z-0.125000
G01 X128.495860 Y194.255597 Z-0.125000
G01 X132.051065 Y194.255597 Z-0.125000
G01 X135.606271 Y194.255597 Z-0.125000
G01 X136.495073 Y191.589193 Z-0.125000
G01 X138.272676 Y188.922788 Z-0.125000
G01 X140.050279 Y188.033987 Z-0.125000
G01 X142.716683 Y187.145185 Z-0.125000
G01 X142.716683 Y184.478781 Z-0.125000
G01 X143.605484 Y181.812377 Z-0.125000
G01 X142.716683 Y179.145972 Z-0.125000
G01 X143.605484 Y177.368369 Z-0.125000
G01 X143.605484 Y174.701965 Z-0.125000
G01 X143.605484 Y172.035561 Z-0.125000
G01 X143.605484 Y169.369156 Z-0.125000
G01 X142.716683 Y166.702752 Z-0.125000
G01 X143.605484 Y164.925149 Z-0.125000
G01 X143.605484 Y162.258745 Z-0.125000
G01 X142.716683 Y159.592340 Z-0.125000
G01 X142.716683 Y157.814737 Z-0.125000
G01 X143.605484 Y156.037134 Z-0.125000
G01 X142.716683 Y152.481928 Z-0.125000
G01 X142.716683 Y149.815524 Z-0.125000
G01 X143.605484 Y148.037921 Z-0.125000
G01 X147.160690 Y148.926723 Z-0.125000
G01 X153.382300 Y148.037921 Z-0.125000
G01 X154.271102 Y155.148333 Z-0.125000
G01 X148.049492 Y156.925936 Z-0.125000
G01 X148.938293 Y164.925149 Z-0.125000
G01 X148.938293 Y173.813164 Z-0.125000
G01 X155.159903 Y174.701965 Z-0.125000
G01 X156.048705 Y168.480355 Z-0.125000
G01 X156.937506 Y163.147546 Z-0.125000
G01 X163.159117 Y160.481142 Z-0.125000
G01 X164.047918 Y158.703539 Z-0.125000
G01 X162.270315 Y156.925936 Z-0.125000
G01 X162.270315 Y154.259531 Z-0.125000
G01 X160.492712 Y153.370730 Z-0.125000
G01 X161.381514 Y150.704326 Z-0.125000
G01 X159.603911 Y148.926723 Z-0.125000
G01 X159.603911 Y147.149120 Z-0.125000
G01 X158.715109 Y144.482715 Z-0.125000
G01 X158.715109 Y142.705112 Z-0.125000
G01 X158.715109 Y140.038708 Z-0.125000
G01 X156.937506 Y137.372304 Z-0.125000
G01 X157.826308 Y135.594701 Z-0.125000
G01 X161.381514 Y134.705899 Z-0.125000
G01 X165.825521 Y132.039495 Z-0.125000
G01 X171.158330 Y130.261892 Z-0.125000
G01 X174.713536 Y126.706686 Z-0.125000
G01 X180.046344 Y125.817885 Z-0.125000
G01 X186.267955 Y127.595488 Z-0.125000
G01 X188.934359 Y122.262679 Z-0.125000
G01 X193.378366 Y132.039495 Z-0.125000
G01 X191.600763 Y137.372304 Z-0.125000
G01 X185.379153 Y135.594701 Z-0.125000
G01 X180.046344 Y134.705899 Z-0.125000
G01 X176.491138 Y140.038708 Z-0.125000
G01 X172.935933 Y140.927509 Z-0.125000
G01 X167.603124 Y141.816311 Z-0.125000
G01 X165.825521 Y148.037921 Z-0.125000
G01 X174.713536 Y149.815524 Z-0.125000
G01 X172.935933 Y155.148333 Z-0.125000
G01 X169.380727 Y158.703539 Z-0.125000
G01 X164.936719 Y162.258745 Z-0.125000
G01 X164.936719 Y164.036347 Z-0.125000
G01 X165.825521 Y166.702752 Z-0.125000
G01 X164.936719 Y167.591553 Z-0.125000
G01 X167.603124 Y170.257958 Z-0.125000
G01 X166.714322 Y172.035561 Z-0.125000
G01 X171.158330 Y170.257958 Z-0.125000
G01 X175.602337 Y167.591553 Z-0.125000
G01 X178.268741 Y163.147546 Z-0.125000
G01 X180.935146 Y158.703539 Z-0.125000
G01 X180.046344 Y151.593127 Z-0.125000
G01 X182.712749 Y147.149120 Z-0.125000
G01 X185.379153 Y142.705112 Z-0.125000
G01 X191.600763 Y143.593914 Z-0.125000
G01 X189.823160 Y149.815524 Z-0.125000
G01 X187.156756 Y154.259531 Z-0.125000
G01 X186.267955 Y161.369943 Z-0.125000
G01 X191.600763 Y163.147546 Z-0.125000
G01 X195.155969 Y160.481142 Z-0.125000
G01 X196.933572 Y158.703539 Z-0.125000
G01 X197.822374 Y156.037134 Z-0.125000
G01 X201.377579 Y156.925936 Z-0.125000
G01 X207.599190 Y155.148333 Z-0.125000
G01 X210.265594 Y151.593127 Z-0.125000
G01 X212.931998 Y148.926723 Z-0.125000
G01 X218.264807 Y148.926723 Z-0.125000
G01 X222.708814 Y148.926723 Z-0.125000
G01 X228.041623 Y148.926723 Z-0.125000
G01 X231.596829 Y146.260318 Z-0.125000
G01 X232.485631 Y140.038708 Z-0.125000
G01 X238.707241 Y142.705112 Z-0.125000
G01 X240.484844 Y137.372304 Z-0.125000
G01 X243.151248 Y134.705899 Z-0.125000
G01 X247.595255 Y132.928296 Z-0.125000
G01 X254.705667 Y133.817098 Z-0.125000
G01 X259.149674 Y132.039495 Z-0.125000
G01 X260.927277 Y126.706686 Z-0.125000
G01 X267.148888 Y131.150693 Z-0.125000
G01 X272.481696 Y132.039495 Z-0.125000
G01 X277.814505 Y133.817098 Z-0.125000
G01 X277.814505 Y124.040282 Z-0.125000
G01 X277.814505 Y115.152267 Z-0.125000
G01 X270.704093 Y114.263466 Z-0.125000
G01 X268.037689 Y119.596274 Z-0.125000
G01 X261.816079 Y118.707473 Z-0.125000
G01 X254.705667 Y117.818671 Z-0.125000
G01 X252.928064 Y124.040282 Z-0.125000
G01 X247.595255 Y125.817885 Z-0.125000
G01 X240.484844 Y124.040282 Z-0.125000
G01 X235.152035 Y126.706686 Z-0.125000
G01 X232.485631 Y132.039495 Z-0.125000
G01 X226.264020 Y133.817098 Z-0.125000
G01 X224.486417 Y140.038708 Z-0.125000
G01 X220.931212 Y140.927509 Z-0.125000
G01 X215.598403 Y140.927509 Z-0.125000
G01 X209.376793 Y140.927509 Z-0.125000
G01 X204.932785 Y143.593914 Z-0.125000
G01 X202.266381 Y148.037921 Z-0.125000
G01 X199.599976 Y150.704326 Z-0.125000
G01 X198.711175 Y151.593127 Z-0.125000
G01 X199.599976 Y146.260318 Z-0.125000
G01 X200.488778 Y143.593914 Z-0.125000
G01 X200.488778 Y140.927509 Z-0.125000
G01 X199.599976 Y137.372304 Z-0.125000
G01 X200.488778 Y135.594701 Z-0.125000
G01 X204.043984 Y133.817098 Z-0.125000
G01 X199.599976 Y132.928296 Z-0.125000
G01 X198.711175 Y130.261892 Z-0.125000
G01 X198.711175 Y127.595488 Z-0.125000
G01 X196.933572 Y124.929083 Z-0.125000
G01 X196.933572 Y123.151480 Z-0.125000
G01 X201.377579 Y121.373877 Z-0.125000
G01 X196.044771 Y121.373877 Z-0.125000
G01 X195.155969 Y118.707473 Z-0.125000
G01 X193.378366 Y117.818671 Z-0.125000
G01 X192.489565 Y115.152267 Z-0.125000
G01 X190.711962 Y113.374664 Z-0.125000
G01 X190.711962 Y111.597061 Z-0.125000
G01 X188.934359 Y110.708260 Z-0.125000
G01 X188.045557 Y108.041855 Z-0.125000
G01 X192.489565 Y105.375451 Z-0.125000
G01 X196.044771 Y102.709047 Z-0.125000
G01 X201.377579 Y100.931444 Z-0.125000
G01 X200.488778 Y97.376238 Z-0.125000
G01 X199.599976 Y98.265039 Z-0.125000
G01 X198.711175 Y94.709833 Z-0.125000
G01 X198.711175 Y92.932231 Z-0.125000
G01 X197.822374 Y90.265826 Z-0.125000
G01 X202.266381 Y88.488223 Z-0.125000
G01 X206.710388 Y84.044216 Z-0.125000
G01 X207.599190 Y76.933804 Z-0.125000
G01 X214.709601 Y75.156201 Z-0.125000
G01 X219.153609 Y74.267400 Z-0.125000
G01 X221.820013 Y66.268187 Z-0.125000
G01 X215.598403 Y62.712981 Z-0.125000
G01 X210.265594 Y62.712981 Z-0.125000
G01 X205.821587 Y67.156988 Z-0.125000
G01 X199.599976 Y69.823392 Z-0.125000
G01 X197.822374 Y76.045003 Z-0.125000
G01 X195.155969 Y79.600209 Z-0.125000
G01 X196.044771 Y82.266613 Z-0.125000
G01 X195.155969 Y84.044216 Z-0.125000
G01 X196.044771 Y86.710620 Z-0.125000
G01 X196.044771 Y88.488223 Z-0.125000
G01 X192.489565 Y89.377025 Z-0.125000
G01 X188.934359 Y93.821032 Z-0.125000
G01 X185.379153 Y96.487436 Z-0.125000
G01 X181.823947 Y99.153841 Z-0.125000
G01 X180.046344 Y98.265039 Z-0.125000
G01 X179.157543 Y95.598635 Z-0.125000
G01 X177.379940 Y94.709833 Z-0.125000
G01 X177.379940 Y92.043429 Z-0.125000
G01 X175.602337 Y91.154628 Z-0.125000
G01 X170.269528 Y92.932231 Z-0.125000
G01 X165.825521 Y95.598635 Z-0.125000
G01 X162.270315 Y102.709047 Z-0.125000
G01 X154.271102 Y101.820245 Z-0.125000
G01 X151.604698 Y109.819458 Z-0.125000
G01 X158.715109 Y113.374664 Z-0.125000
G01 X163.159117 Y110.708260 Z-0.125000
G01 X170.269528 Y107.153054 Z-0.125000
G01 X174.713536 Y108.930657 Z-0.125000
G01 X176.491138 Y103.597848 Z-0.125000
G01 X181.823947 Y100.931444 Z-0.125000
G01 X183.601550 Y102.709047 Z-0.125000
G01 X185.379153 Y104.486650 Z-0.125000
G01 X186.267955 Y107.153054 Z-0.125000
G01 X183.601550 Y108.041855 Z-0.125000
G01 X183.601550 Y114.263466 Z-0.125000
G01 X180.046344 Y117.818671 Z-0.125000
G01 X173.824734 Y116.929870 Z-0.125000
G01 X169.380727 Y116.929870 Z-0.125000
G01 X166.714322 Y121.373877 Z-0.125000
G01 X162.270315 Y123.151480 Z-0.125000
G01 X156.937506 Y120.485076 Z-0.125000
G01 X156.937506 Y124.040282 Z-0.125000
G01 X156.937506 Y127.595488 Z-0.125000
G01 X156.048705 Y129.373090 Z-0.125000
G01 X156.937506 Y132.928296 Z-0.125000
G01 X151.604698 Y135.594701 Z-0.125000
G01 X148.049492 Y139.149907 Z-0.125000
G01 X142.716683 Y144.482715 Z-0.125000
G01 X143.605484 Y141.816311 Z-0.125000
G01 X142.716683 Y139.149907 Z-0.125000
G01 X142.716683 Y136.483502 Z-0.125000
G01 X142.716683 Y133.817098 Z-0.125000
G01 X142.716683 Y131.150693 Z-0.125000
G01 X142.716683 Y128.484289 Z-0.125000
G01 X142.716683 Y125.817885 Z-0.125000
G01 X147.160690 Y124.929083 Z-0.125000
G01 X142.716683 Y123.151480 Z-0.125000
G01 X141.827881 Y120.485076 Z-0.125000
G01 X142.716683 Y117.818671 Z-0.125000
G01 X147.160690 Y115.152267 Z-0.125000
G01 X142.716683 Y115.152267 Z-0.125000
G01 X142.716683 Y112.485863 Z-0.125000
G01 X141.827881 Y109.819458 Z-0.125000
G01 X142.716683 Y107.153054 Z-0.125000
G01 X141.827881 Y104.486650 Z-0.125000
G01 X141.827881 Y101.820245 Z-0.125000
G01 X142.716683 Y100.042642 Z-0.125000
G01 X146.271889 Y99.153841 Z-0.125000
G01 X141.827881 Y97.376238 Z-0.125000
G01 X141.827881 Y93.821032 Z-0.125000
G01 X141.827881 Y91.154628 Z-0.125000
G01 X141.827881 Y88.488223 Z-0.125000
G01 X141.827881 Y85.821819 Z-0.125000
G01 X141.827881 Y83.155414 Z-0.125000
G01 X141.827881 Y80.489010 Z-0.125000
G01 X142.716683 Y77.822606 Z-0.125000
G01 X141.827881 Y75.156201 Z-0.125000
G01 X141.827881 Y72.489797 Z-0.125000
G01 X141.827881 Y69.823392 Z-0.125000
G01 X141.827881 Y67.156988 Z-0.125000
G01 X141.827881 Y64.490584 Z-0.125000
G01 X141.827881 Y61.824179 Z-0.125000
G01 X141.827881 Y60.046576 Z-0.125000
G01 X141.827881 Y57.380172 Z-0.125000
G01 X142.716683 Y54.713768 Z-0.125000
G01 X141.827881 Y52.047363 Z-0.125000
G01 X142.716683 Y49.380959 Z-0.125000
G01 X142.716683 Y46.714554 Z-0.125000
G01 X141.827881 Y44.048150 Z-0.125000
G01 X142.716683 Y42.270547 Z-0.125000
G01 X142.716683 Y39.604143 Z-0.125000
G01 X143.605484 Y36.937738 Z-0.125000
G01 X143.605484 Y34.271334 Z-0.125000
G01 X144.494286 Y31.604930 Z-0.125000
G01 X144.494286 Y28.938525 Z-0.125000
G01 X145.383087 Y27.160922 Z-0.125000
G01 X146.271889 Y24.494518 Z-0.125000
G01 X148.049492 Y22.716915 Z-0.125000
G01 X148.938293 Y20.939312 Z-0.125000
G01 X149.827095 Y19.161709 Z-0.125000
G01 X154.271102 Y22.716915 Z-0.125000
G01 X152.493499 Y17.384106 Z-0.125000
G01 X154.271102 Y15.606503 Z-0.125000
G01 X156.048705 Y15.606503 Z-0.125000
G01 X157.826308 Y13.828900 Z-0.125000
G01 X159.603911 Y12.940099 Z-0.125000
G01 X160.492712 Y11.162496 Z-0.125000
G01 X162.270315 Y11.162496 Z-0.125000
G01 X164.047918 Y10.273695 Z-0.125000
G01 X166.714322 Y10.273695 Z-0.125000
G01 X168.491925 Y8.496092 Z-0.125000
G01 X171.158330 Y8.496092 Z-0.125000
G01 X172.935933 Y7.607290 Z-0.125000
G01 X173.824734 Y6.718489 Z-0.125000
G00 Z5.000000

(End cutting path id: path34)


(Start cutting path id: path32)
(Change tool to Default tool)

G00 Z5.000000
G00 X121.385448 Y235.140464

G01 Z-0.125000 F100.0(Penetrate)
G01 X119.607845 Y237.806869 Z-0.125000 F400.000000
G01 X116.941441 Y238.695670 Z-0.125000
G01 X112.497433 Y237.806869 Z-0.125000
G01 X108.942227 Y237.806869 Z-0.125000
G01 X106.275823 Y236.918067 Z-0.125000
G01 X104.498220 Y239.584472 Z-0.125000
G01 X101.831816 Y240.473273 Z-0.125000
G01 X100.054213 Y243.139678 Z-0.125000
G01 X100.054213 Y246.694883 Z-0.125000
G01 X97.387808 Y249.361288 Z-0.125000
G01 X95.610205 Y252.027692 Z-0.125000
G01 X92.943801 Y254.694097 Z-0.125000
G01 X90.277397 Y256.471699 Z-0.125000
G01 X87.610992 Y258.249302 Z-0.125000
G01 X84.055786 Y258.249302 Z-0.125000
G01 X84.055786 Y261.804508 Z-0.125000
G01 X84.055786 Y265.359714 Z-0.125000
G01 X84.055786 Y268.914920 Z-0.125000
G01 X82.278184 Y271.581324 Z-0.125000
G01 X80.500581 Y274.247729 Z-0.125000
G01 X77.834176 Y276.025332 Z-0.125000
G01 X77.834176 Y279.580537 Z-0.125000
G01 X75.167772 Y279.580537 Z-0.125000
G01 X72.501367 Y277.802935 Z-0.125000
G01 X73.390169 Y274.247729 Z-0.125000
G01 X76.056573 Y271.581324 Z-0.125000
G01 X77.834176 Y268.914920 Z-0.125000
G01 X79.611779 Y266.248516 Z-0.125000
G01 X79.611779 Y262.693310 Z-0.125000
G01 X79.611779 Y259.138104 Z-0.125000
G01 X79.611779 Y255.582898 Z-0.125000
G01 X82.278184 Y253.805295 Z-0.125000
G01 X85.833389 Y253.805295 Z-0.125000
G01 X88.499794 Y252.027692 Z-0.125000
G01 X92.055000 Y250.250089 Z-0.125000
G01 X92.943801 Y246.694883 Z-0.125000
G01 X95.610205 Y244.917280 Z-0.125000
G01 X95.610205 Y241.362075 Z-0.125000
G01 X97.387808 Y238.695670 Z-0.125000
G01 X100.054213 Y236.029266 Z-0.125000
G01 X101.831816 Y234.251663 Z-0.125000
G01 X103.609419 Y231.585259 Z-0.125000
G01 X106.275823 Y229.807656 Z-0.125000
G01 X107.164624 Y227.141251 Z-0.125000
G01 X109.831029 Y224.474847 Z-0.125000
G01 X112.497433 Y222.697244 Z-0.125000
G01 X114.275036 Y220.919641 Z-0.125000
G01 X117.830242 Y221.808442 Z-0.125000
G01 X118.719043 Y225.363648 Z-0.125000
G01 X116.052639 Y227.141251 Z-0.125000
G01 X113.386235 Y228.918854 Z-0.125000
G01 X111.608632 Y229.807656 Z-0.125000
G01 X108.942227 Y233.362861 Z-0.125000
G01 X112.497433 Y234.251663 Z-0.125000
G01 X116.052639 Y234.251663 Z-0.125000
G01 X117.830242 Y231.585259 Z-0.125000
G01 X120.496646 Y229.807656 Z-0.125000
G01 X124.051852 Y229.807656 Z-0.125000
G01 X123.163051 Y226.252450 Z-0.125000
G01 X122.274249 Y222.697244 Z-0.125000
G01 X124.940654 Y221.808442 Z-0.125000
G01 X128.495860 Y221.808442 Z-0.125000
G01 X132.051065 Y220.919641 Z-0.125000
G01 X132.939867 Y218.253237 Z-0.125000
G01 X136.495073 Y217.364435 Z-0.125000
G01 X139.161477 Y217.364435 Z-0.125000
G01 X140.050279 Y216.475634 Z-0.125000
G01 X140.050279 Y214.698031 Z-0.125000
G01 X140.939080 Y212.920428 Z-0.125000
G01 X140.939080 Y211.142825 Z-0.125000
G01 X144.494286 Y211.142825 Z-0.125000
G01 X140.939080 Y208.476421 Z-0.125000
G01 X141.827881 Y206.698818 Z-0.125000
G01 X142.716683 Y204.921215 Z-0.125000
G01 X142.716683 Y203.143612 Z-0.125000
G01 X143.605484 Y202.254810 Z-0.125000
G01 X143.605484 Y200.477207 Z-0.125000
G01 X146.271889 Y199.588406 Z-0.125000
G01 X148.049492 Y200.477207 Z-0.125000
G01 X148.938293 Y203.143612 Z-0.125000
G01 X150.715896 Y204.032413 Z-0.125000
G01 X151.604698 Y206.698818 Z-0.125000
G01 X153.382300 Y207.587619 Z-0.125000
G01 X155.159903 Y210.254023 Z-0.125000
G01 X156.048705 Y209.365222 Z-0.125000
G01 X157.826308 Y212.920428 Z-0.125000
G01 X158.715109 Y214.698031 Z-0.125000
G01 X164.047918 Y211.142825 Z-0.125000
G01 X164.936719 Y203.143612 Z-0.125000
G01 X159.603911 Y203.143612 Z-0.125000
G01 X152.493499 Y197.810803 Z-0.125000
G01 X156.937506 Y193.366796 Z-0.125000
G01 X162.270315 Y194.255597 Z-0.125000
G01 X166.714322 Y192.477994 Z-0.125000
G01 X172.047131 Y190.700391 Z-0.125000
G01 X172.047131 Y188.922788 Z-0.125000
G01 X172.047131 Y187.145185 Z-0.125000
G01 X172.047131 Y184.478781 Z-0.125000
G01 X170.269528 Y183.589980 Z-0.125000
G01 X170.269528 Y180.923575 Z-0.125000
G01 X169.380727 Y179.145972 Z-0.125000
G01 X169.380727 Y177.368369 Z-0.125000
G01 X169.380727 Y173.813164 Z-0.125000
G01 X167.603124 Y174.701965 Z-0.125000
G01 X163.159117 Y176.479568 Z-0.125000
G01 X163.159117 Y183.589980 Z-0.125000
G01 X157.826308 Y184.478781 Z-0.125000
G01 X153.382300 Y183.589980 Z-0.125000
G01 X149.827095 Y188.033987 Z-0.125000
G01 X147.160690 Y188.922788 Z-0.125000
G01 X142.716683 Y189.811590 Z-0.125000
G01 X141.827881 Y190.700391 Z-0.125000
G01 X141.827881 Y192.477994 Z-0.125000
G01 X142.716683 Y194.255597 Z-0.125000
G01 X144.494286 Y196.922002 Z-0.125000
G01 X143.605484 Y197.810803 Z-0.125000
G01 X140.050279 Y196.033200 Z-0.125000
