%
(Header)
(Generated by gcodetools from Inkscape.)
(Using default header. To add your own header create file "header" in the output dir.)
M3
(Header end.)
G21 (All units in mm)

(Start cutting path id: path4610)
(Change tool to Default tool)

G00 Z5.000000
G00 X27.940172 Y361.915930

G01 Z-0.125000 F100.0(Penetrate)
G01 X27.940172 Y367.103804 Z-0.125000 F400.000000
G01 X27.940172 Y372.291678 Z-0.125000
G01 X27.940172 Y377.479551 Z-0.125000
G01 X28.977745 Y381.629847 Z-0.125000
G01 X28.977745 Y385.780147 Z-0.125000
G01 X32.090467 Y386.817720 Z-0.125000
G01 X30.015324 Y392.005594 Z-0.125000
G01 X32.090467 Y397.193468 Z-0.125000
G01 X34.165619 Y402.381339 Z-0.125000
G01 X36.240771 Y406.531640 Z-0.125000
G01 X43.503794 Y408.606786 Z-0.125000
G01 X45.578943 Y411.719514 Z-0.125000
G01 X47.654092 Y415.869809 Z-0.125000
G01 X51.804390 Y416.907385 Z-0.125000
G01 X52.841963 Y409.644362 Z-0.125000
G01 X51.804390 Y404.456491 Z-0.125000
G01 X46.616519 Y402.381339 Z-0.125000
G01 X45.578943 Y399.268614 Z-0.125000
G01 X46.616519 Y393.043167 Z-0.125000
G01 X42.466218 Y392.005594 Z-0.125000
G01 X40.391069 Y388.892869 Z-0.125000
G01 X42.466218 Y383.704996 Z-0.125000
G01 X40.391069 Y381.629847 Z-0.125000
G01 X40.391069 Y377.479551 Z-0.125000
G01 X38.315920 Y374.366827 Z-0.125000
G01 X37.278344 Y371.254102 Z-0.125000
G01 X36.240771 Y367.103804 Z-0.125000
G01 X38.315920 Y361.915930 Z-0.125000
G01 X35.203192 Y359.840784 Z-0.125000
G01 X36.240771 Y354.652907 Z-0.125000
G01 X36.240771 Y350.502609 Z-0.125000
G01 X35.203192 Y346.352311 Z-0.125000
G01 X40.391069 Y343.239586 Z-0.125000
G01 X42.466218 Y348.427460 Z-0.125000
G01 X41.428642 Y354.652907 Z-0.125000
G01 X44.541367 Y359.840784 Z-0.125000
G01 X42.466218 Y365.028658 Z-0.125000
G01 X44.541367 Y370.216526 Z-0.125000
G01 X46.616519 Y374.366827 Z-0.125000
G01 X47.654092 Y383.704996 Z-0.125000
G01 X48.691668 Y386.817720 Z-0.125000
G01 X51.804390 Y392.005594 Z-0.125000
G01 X52.841963 Y395.118319 Z-0.125000
G01 X53.879536 Y399.268614 Z-0.125000
G01 X56.992258 Y403.418918 Z-0.125000
G01 X58.029837 Y408.606786 Z-0.125000
G01 X59.067410 Y413.794663 Z-0.125000
G01 X61.142561 Y415.869809 Z-0.125000
G01 X61.142561 Y420.020110 Z-0.125000
G01 X63.217710 Y423.132832 Z-0.125000
G01 X50.766811 Y421.057685 Z-0.125000
G01 X52.841963 Y423.132832 Z-0.125000
G01 X54.917115 Y426.245556 Z-0.125000
G01 X56.992258 Y429.358278 Z-0.125000
G01 X59.067410 Y431.433425 Z-0.125000
G01 X61.142561 Y434.546147 Z-0.125000
G01 X65.292859 Y427.283130 Z-0.125000
G01 X67.368008 Y430.395852 Z-0.125000
G01 X69.443157 Y433.508574 Z-0.125000
G01 X71.518306 Y437.658872 Z-0.125000
G01 X74.631031 Y440.771591 Z-0.125000
G01 X63.217710 Y437.658872 Z-0.125000
G01 X65.292859 Y440.771591 Z-0.125000
G01 X67.368008 Y443.884318 Z-0.125000
G01 X71.518306 Y445.959467 Z-0.125000
G01 X74.631031 Y449.072192 Z-0.125000
G01 X77.743756 Y451.147338 Z-0.125000
G01 X79.818902 Y454.260063 Z-0.125000
G01 X81.894054 Y457.372788 Z-0.125000
G01 X64.255286 Y453.222490 Z-0.125000
G01 X69.443157 Y457.372788 Z-0.125000
G01 X72.555882 Y461.523089 Z-0.125000
G01 X76.706177 Y464.635814 Z-0.125000
G01 X80.856481 Y468.786109 Z-0.125000
G01 X83.969206 Y461.523089 Z-0.125000
G01 X87.081928 Y465.673387 Z-0.125000
G01 X88.119501 Y470.861261 Z-0.125000
G01 X92.269799 Y473.973986 Z-0.125000
G01 X95.382521 Y476.049134 Z-0.125000
G01 X98.495246 Y479.161857 Z-0.125000
G01 X114.058864 Y488.500028 Z-0.125000
G01 X120.284311 Y494.725475 Z-0.125000
G01 X170.087878 Y523.777564 Z-0.125000
G01 X182.538789 Y528.965437 Z-0.125000
G01 X194.989697 Y532.078159 Z-0.125000
G01 X203.290281 Y535.190884 Z-0.125000
G01 X213.666026 Y536.228457 Z-0.125000
G01 X218.853900 Y537.266033 Z-0.125000
G01 X220.929063 Y540.378755 Z-0.125000
G01 X223.004192 Y543.491480 Z-0.125000
G01 X225.079355 Y547.641781 Z-0.125000
G01 X229.229648 Y548.679354 Z-0.125000
G01 X234.417524 Y548.679354 Z-0.125000
G01 X239.605395 Y548.679354 Z-0.125000
G01 X244.793269 Y548.679354 Z-0.125000
G01 X249.981143 Y548.679354 Z-0.125000
G01 X249.981143 Y543.491480 Z-0.125000
G01 X255.169020 Y547.641781 Z-0.125000
G01 X259.319320 Y548.679354 Z-0.125000
G01 X265.544756 Y548.679354 Z-0.125000
G01 X265.544756 Y544.529056 Z-0.125000
G01 X262.432023 Y542.453907 Z-0.125000
G01 X259.319320 Y541.416331 Z-0.125000
G01 X255.169020 Y541.416331 Z-0.125000
G01 X252.056289 Y537.266033 Z-0.125000
G01 X254.131421 Y531.040584 Z-0.125000
G01 X257.244154 Y534.153308 Z-0.125000
G01 X260.356888 Y536.228457 Z-0.125000
G01 X263.469590 Y531.040584 Z-0.125000
G01 X260.356888 Y527.927859 Z-0.125000
G01 X258.281725 Y525.852715 Z-0.125000
G01 X253.093854 Y525.852715 Z-0.125000
G01 X251.018719 Y522.739990 Z-0.125000
G01 X248.943559 Y519.627268 Z-0.125000
G01 X251.018719 Y515.476968 Z-0.125000
G01 X248.943559 Y511.326670 Z-0.125000
G01 X244.793269 Y510.289094 Z-0.125000
G01 X242.718106 Y506.138796 Z-0.125000
G01 X248.943559 Y504.063644 Z-0.125000
G01 X252.056289 Y505.101220 Z-0.125000
G01 X254.131421 Y508.213945 Z-0.125000
G01 X257.244154 Y510.289094 Z-0.125000
G01 X259.319320 Y513.401819 Z-0.125000
G01 X256.206587 Y517.552117 Z-0.125000
G01 X258.281725 Y520.664842 Z-0.125000
G01 X263.469590 Y520.664842 Z-0.125000
G01 X264.507188 Y515.476968 Z-0.125000
G01 X265.544756 Y511.326670 Z-0.125000
G01 X263.469590 Y507.176369 Z-0.125000
G01 X260.356888 Y504.063644 Z-0.125000
G01 X268.657489 Y504.063644 Z-0.125000
G01 X270.732627 Y506.138796 Z-0.125000
G01 X272.807762 Y508.213945 Z-0.125000
G01 X269.695060 Y515.476968 Z-0.125000
G01 X269.695060 Y519.627268 Z-0.125000
G01 X266.582354 Y524.815139 Z-0.125000
G01 X270.732627 Y525.852715 Z-0.125000
G01 X268.657489 Y531.040584 Z-0.125000
G01 X272.807762 Y533.115732 Z-0.125000
G01 X266.582354 Y536.228457 Z-0.125000
G01 X269.695060 Y539.341179 Z-0.125000
G01 X271.770225 Y544.529056 Z-0.125000
G01 X273.845357 Y547.641781 Z-0.125000
G01 X274.882925 Y539.341179 Z-0.125000
G01 X279.033234 Y541.416331 Z-0.125000
G01 X281.108386 Y536.228457 Z-0.125000
G01 X286.296243 Y537.266033 Z-0.125000
G01 X291.484108 Y538.303609 Z-0.125000
G01 X298.747125 Y536.228457 Z-0.125000
G01 X306.010142 Y536.228457 Z-0.125000
G01 X314.310778 Y535.190884 Z-0.125000
G01 X321.573795 Y536.228457 Z-0.125000
G01 X331.949554 Y536.228457 Z-0.125000
G01 X342.325256 Y536.228457 Z-0.125000
G01 X353.738605 Y535.190884 Z-0.125000
G01 X363.076774 Y536.228457 Z-0.125000
G01 X387.978539 Y536.228457 Z-0.125000
G01 X401.467040 Y536.228457 Z-0.125000
G01 X410.805237 Y537.266033 Z-0.125000
G01 X421.180940 Y537.266033 Z-0.125000
G01 X432.594345 Y536.228457 Z-0.125000
G01 X440.894896 Y536.228457 Z-0.125000
G01 X449.195475 Y536.228457 Z-0.125000
G01 X457.496054 Y537.266033 Z-0.125000
G01 X464.759127 Y538.303609 Z-0.125000
G01 X473.059706 Y539.341179 Z-0.125000
G01 X482.397847 Y539.341179 Z-0.125000
G01 X486.548151 Y542.453907 Z-0.125000
G01 X490.698482 Y545.566632 Z-0.125000
G01 X493.811196 Y548.679354 Z-0.125000
G01 X498.999061 Y550.754503 Z-0.125000
G01 X503.149337 Y552.829652 Z-0.125000
G01 X504.186955 Y547.641781 Z-0.125000
G01 X500.036623 Y545.566632 Z-0.125000
G01 X496.923881 Y542.453907 Z-0.125000
G01 X492.773606 Y540.378755 Z-0.125000
G01 X490.698482 Y538.303609 Z-0.125000
G01 X489.660892 Y534.153308 Z-0.125000
G01 X491.736044 Y527.927859 Z-0.125000
G01 X495.886348 Y528.965437 Z-0.125000
G01 X495.886348 Y533.115732 Z-0.125000
G01 X498.999061 Y535.190884 Z-0.125000
G01 X502.111775 Y537.266033 Z-0.125000
G01 X504.186955 Y540.378755 Z-0.125000
G01 X507.299640 Y541.416331 Z-0.125000
G01 X511.450000 Y542.453907 Z-0.125000
G01 X516.637837 Y542.453907 Z-0.125000
G01 X515.600276 Y537.266033 Z-0.125000
G01 X512.487534 Y535.190884 Z-0.125000
G01 X508.337259 Y534.153308 Z-0.125000
G01 X506.262107 Y531.040584 Z-0.125000
G01 X503.149337 Y528.965437 Z-0.125000
G01 X502.111775 Y525.852715 Z-0.125000
G01 X498.999061 Y522.739990 Z-0.125000
G01 X493.811196 Y522.739990 Z-0.125000
G01 X495.886348 Y516.514544 Z-0.125000
G01 X500.036623 Y517.552117 Z-0.125000
G01 X505.224517 Y519.627268 Z-0.125000
G01 X508.337259 Y522.739990 Z-0.125000
G01 X511.450000 Y525.852715 Z-0.125000
G01 X513.525096 Y528.965437 Z-0.125000
G01 X517.675371 Y530.003010 Z-0.125000
G01 X520.788141 Y533.115732 Z-0.125000
G01 X525.976035 Y533.115732 Z-0.125000
G01 X531.163872 Y533.115732 Z-0.125000
G01 X529.088692 Y527.927859 Z-0.125000
G01 X523.900855 Y527.927859 Z-0.125000
G01 X524.938416 Y523.777564 Z-0.125000
G01 X519.750551 Y523.777564 Z-0.125000
G01 X516.637837 Y521.702415 Z-0.125000
G01 X514.562657 Y518.589693 Z-0.125000
G01 X511.450000 Y516.514544 Z-0.125000
G01 X508.337259 Y514.439392 Z-0.125000
G01 X504.186955 Y513.401819 Z-0.125000
G01 X498.999061 Y511.326670 Z-0.125000
G01 X500.036623 Y506.138796 Z-0.125000
G01 X504.186955 Y508.213945 Z-0.125000
G01 X509.374820 Y508.213945 Z-0.125000
G01 X509.374820 Y503.026074 Z-0.125000
G01 X506.262107 Y500.950922 Z-0.125000
G01 X502.111775 Y499.913352 Z-0.125000
G01 X504.186955 Y493.687905 Z-0.125000
G01 X508.337259 Y494.725475 Z-0.125000
G01 X512.487534 Y494.725475 Z-0.125000
G01 X511.450000 Y488.500028 Z-0.125000
G01 X506.262107 Y488.500028 Z-0.125000
G01 X508.337259 Y482.274581 Z-0.125000
G01 X512.487534 Y483.312157 Z-0.125000
G01 X516.637837 Y486.424876 Z-0.125000
G01 X517.675371 Y489.537601 Z-0.125000
G01 X519.750551 Y491.612753 Z-0.125000
G01 X524.938416 Y492.650326 Z-0.125000
G01 X525.976035 Y496.800627 Z-0.125000
G01 X529.088692 Y499.913352 Z-0.125000
G01 X529.088692 Y504.063644 Z-0.125000
G01 X532.201405 Y507.176369 Z-0.125000
G01 X532.201405 Y513.401819 Z-0.125000
G01 X528.051158 Y512.364246 Z-0.125000
G01 X524.938416 Y510.289094 Z-0.125000
G01 X521.825675 Y507.176369 Z-0.125000
G01 X522.863293 Y503.026074 Z-0.125000
G01 X519.750551 Y500.950922 Z-0.125000
G01 X518.712989 Y496.800627 Z-0.125000
G01 X513.525096 Y497.838200 Z-0.125000
G01 X514.562657 Y503.026074 Z-0.125000
G01 X514.562657 Y508.213945 Z-0.125000
G01 X515.600276 Y510.289094 Z-0.125000
G01 X518.712989 Y513.401819 Z-0.125000
G01 X521.825675 Y516.514544 Z-0.125000
G01 X524.938416 Y518.589693 Z-0.125000
G01 X530.126310 Y518.589693 Z-0.125000
G01 X531.163872 Y522.739990 Z-0.125000
G01 X534.276585 Y526.890288 Z-0.125000
G01 X537.389327 Y530.003010 Z-0.125000
G01 X535.314175 Y534.153308 Z-0.125000
G01 X537.389327 Y538.303609 Z-0.125000
G01 X532.201405 Y541.416331 Z-0.125000
G01 X528.051158 Y541.416331 Z-0.125000
G01 X527.013568 Y538.303609 Z-0.125000
G01 X521.825675 Y538.303609 Z-0.125000
G01 X521.825675 Y543.491480 Z-0.125000
G01 X523.900855 Y547.641781 Z-0.125000
G01 X518.712989 Y548.679354 Z-0.125000
G01 X514.562657 Y547.641781 Z-0.125000
G01 X509.374820 Y547.641781 Z-0.125000
G01 X508.337259 Y552.829652 Z-0.125000
G01 X513.525096 Y553.867228 Z-0.125000
G01 X518.712989 Y553.867228 Z-0.125000
G01 X523.900855 Y552.829652 Z-0.125000
G01 X528.051158 Y554.904804 Z-0.125000
G01 X529.088692 Y547.641781 Z-0.125000
G01 X532.201405 Y549.716927 Z-0.125000
G01 X534.276585 Y554.904804 Z-0.125000
G01 X540.502069 Y554.904804 Z-0.125000
G01 X553.990513 Y556.979956 Z-0.125000
G01 X564.366244 Y559.055099 Z-0.125000
G01 X578.892278 Y561.130251 Z-0.125000
G01 X586.155324 Y562.167824 Z-0.125000
G01 X593.418369 Y564.242975 Z-0.125000
G01 X601.718948 Y565.280549 Z-0.125000
G01 X611.057089 Y564.242975 Z-0.125000
G01 X617.282572 Y565.280549 Z-0.125000
G01 X623.508056 Y565.280549 Z-0.125000
G01 X629.733427 Y565.280549 Z-0.125000
G01 X636.996472 Y566.318127 Z-0.125000
G01 X644.259489 Y565.280549 Z-0.125000
G01 X650.484944 Y565.280549 Z-0.125000
G01 X656.710400 Y565.280549 Z-0.125000
G01 X662.935855 Y565.280549 Z-0.125000
G01 X669.161311 Y565.280549 Z-0.125000
G01 X675.386738 Y565.280549 Z-0.125000
G01 X681.612193 Y565.280549 Z-0.125000
G01 X687.837648 Y565.280549 Z-0.125000
G01 X694.063076 Y565.280549 Z-0.125000
G01 X700.288559 Y565.280549 Z-0.125000
G01 X706.513986 Y565.280549 Z-0.125000
G01 X714.814593 Y565.280549 Z-0.125000
G01 X723.115144 Y565.280549 Z-0.125000
G01 X727.265448 Y568.393268 Z-0.125000
G01 X731.415808 Y570.468420 Z-0.125000
G01 X736.603673 Y571.505995 Z-0.125000
G01 X741.791539 Y570.468420 Z-0.125000
G01 X745.941842 Y571.505995 Z-0.125000
G01 X743.866662 Y565.280549 Z-0.125000
G01 X749.054556 Y564.242975 Z-0.125000
G01 X751.129707 Y567.355698 Z-0.125000
G01 X752.167269 Y571.505995 Z-0.125000
G01 X757.355135 Y568.393268 Z-0.125000
G01 X760.467876 Y570.468420 Z-0.125000
G01 X765.655742 Y566.318127 Z-0.125000
G01 X767.730922 Y569.430844 Z-0.125000
G01 X776.031473 Y569.430844 Z-0.125000
G01 X773.956293 Y566.318127 Z-0.125000
G01 X771.881169 Y563.205402 Z-0.125000
G01 X768.768455 Y560.092678 Z-0.125000
G01 X765.655742 Y558.017526 Z-0.125000
G01 X767.730922 Y553.867228 Z-0.125000
G01 X764.618152 Y550.754503 Z-0.125000
G01 X764.618152 Y545.566632 Z-0.125000
G01 X769.806045 Y545.566632 Z-0.125000
G01 X771.881169 Y548.679354 Z-0.125000
G01 X773.956293 Y552.829652 Z-0.125000
G01 X774.993911 Y556.979956 Z-0.125000
G01 X778.106653 Y559.055099 Z-0.125000
G01 X780.181776 Y562.167824 Z-0.125000
G01 X782.256956 Y565.280549 Z-0.125000
G01 X785.369670 Y567.355698 Z-0.125000
G01 X791.595097 Y565.280549 Z-0.125000
G01 X790.557507 Y561.130251 Z-0.125000
G01 X786.407231 Y560.092678 Z-0.125000
G01 X784.332080 Y555.942377 Z-0.125000
G01 X781.219338 Y552.829652 Z-0.125000
G01 X779.144186 Y549.716927 Z-0.125000
G01 X777.069063 Y545.566632 Z-0.125000
G01 X777.069063 Y541.416331 Z-0.125000
G01 X772.918759 Y540.378755 Z-0.125000
G01 X768.768455 Y539.341179 Z-0.125000
G01 X771.881169 Y535.190884 Z-0.125000
G01 X769.806045 Y532.078159 Z-0.125000
G01 X768.768455 Y527.927859 Z-0.125000
G01 X765.655742 Y524.815139 Z-0.125000
G01 X760.467876 Y523.777564 Z-0.125000
G01 X755.279955 Y523.777564 Z-0.125000
G01 X752.167269 Y521.702415 Z-0.125000
G01 X748.016937 Y517.552117 Z-0.125000
G01 X753.204859 Y516.514544 Z-0.125000
G01 X758.392696 Y517.552117 Z-0.125000
G01 X762.543028 Y518.589693 Z-0.125000
G01 X767.730922 Y518.589693 Z-0.125000
G01 X770.843635 Y521.702415 Z-0.125000
G01 X774.993911 Y523.777564 Z-0.125000
G01 X774.993911 Y527.927859 Z-0.125000
G01 X778.106653 Y531.040584 Z-0.125000
G01 X778.106653 Y535.190884 Z-0.125000
G01 X783.294490 Y535.190884 Z-0.125000
G01 X783.294490 Y539.341179 Z-0.125000
G01 X783.294490 Y544.529056 Z-0.125000
G01 X786.407231 Y547.641781 Z-0.125000
G01 X788.482327 Y550.754503 Z-0.125000
G01 X790.557507 Y553.867228 Z-0.125000
G01 X793.670220 Y554.904804 Z-0.125000
G01 X796.782990 Y558.017526 Z-0.125000
G01 X796.782990 Y563.205402 Z-0.125000
G01 X799.895704 Y565.280549 Z-0.125000
G01 X807.158721 Y563.205402 Z-0.125000
G01 X805.083541 Y560.092678 Z-0.125000
G01 X801.970856 Y558.017526 Z-0.125000
G01 X799.895704 Y552.829652 Z-0.125000
G01 X805.083541 Y551.792079 Z-0.125000
G01 X808.196311 Y553.867228 Z-0.125000
G01 X811.309025 Y556.979956 Z-0.125000
G01 X813.384177 Y560.092678 Z-0.125000
G01 X815.459328 Y563.205402 Z-0.125000
G01 X821.684755 Y559.055099 Z-0.125000
G01 X818.572070 Y555.942377 Z-0.125000
G01 X819.609575 Y551.792079 Z-0.125000
G01 X814.421738 Y551.792079 Z-0.125000
G01 X815.459328 Y547.641781 Z-0.125000
G01 X811.309025 Y546.604205 Z-0.125000
G01 X806.121131 Y546.604205 Z-0.125000
G01 X808.196311 Y541.416331 Z-0.125000
G01 X808.196311 Y536.228457 Z-0.125000
G01 X806.121131 Y534.153308 Z-0.125000
G01 X807.158721 Y528.965437 Z-0.125000
G01 X804.045979 Y525.852715 Z-0.125000
G01 X805.083541 Y522.739990 Z-0.125000
G01 X803.008446 Y519.627268 Z-0.125000
G01 X797.820552 Y519.627268 Z-0.125000
G01 X798.858114 Y515.476968 Z-0.125000
G01 X800.933294 Y511.326670 Z-0.125000
G01 X803.008446 Y506.138796 Z-0.125000
G01 X807.158721 Y509.251521 Z-0.125000
G01 X806.121131 Y514.439392 Z-0.125000
G01 X811.309025 Y514.439392 Z-0.125000
G01 X810.271435 Y517.552117 Z-0.125000
G01 X811.309025 Y522.739990 Z-0.125000
G01 X812.346587 Y527.927859 Z-0.125000
G01 X814.421738 Y531.040584 Z-0.125000
G01 X813.384177 Y536.228457 Z-0.125000
G01 X813.384177 Y541.416331 Z-0.125000
G01 X818.572070 Y542.453907 Z-0.125000
G01 X821.684755 Y545.566632 Z-0.125000
G01 X825.835059 Y546.604205 Z-0.125000
G01 X825.835059 Y550.754503 Z-0.125000
G01 X826.872621 Y555.942377 Z-0.125000
G01 X831.022924 Y551.792079 Z-0.125000
G01 X832.060514 Y547.641781 Z-0.125000
G01 X832.060514 Y543.491480 Z-0.125000
G01 X828.947801 Y540.378755 Z-0.125000
G01 X825.835059 Y539.341179 Z-0.125000
G01 X822.722345 Y537.266033 Z-0.125000
G01 X818.572070 Y536.228457 Z-0.125000
G01 X819.609575 Y532.078159 Z-0.125000
G01 X825.835059 Y532.078159 Z-0.125000
G01 X831.022924 Y534.153308 Z-0.125000
G01 X832.060514 Y528.965437 Z-0.125000
G01 X829.985363 Y525.852715 Z-0.125000
G01 X837.248380 Y527.927859 Z-0.125000
G01 X837.248380 Y532.078159 Z-0.125000
G01 X835.173228 Y537.266033 Z-0.125000
G01 X838.285942 Y540.378755 Z-0.125000
G01 X841.398655 Y535.190884 Z-0.125000
G01 X843.473835 Y530.003010 Z-0.125000
G01 X843.473835 Y525.852715 Z-0.125000
G01 X843.473835 Y521.702415 Z-0.125000
G01 X837.248380 Y522.739990 Z-0.125000
G01 X836.210790 Y520.664842 Z-0.125000
G01 X832.060514 Y519.627268 Z-0.125000
G01 X828.947801 Y516.514544 Z-0.125000
G01 X829.985363 Y510.289094 Z-0.125000
G01 X834.135666 Y511.326670 Z-0.125000
G01 X836.210790 Y514.439392 Z-0.125000
G01 X841.398655 Y514.439392 Z-0.125000
G01 X844.511425 Y516.514544 Z-0.125000
G01 X849.699319 Y521.702415 Z-0.125000
G01 X849.699319 Y517.552117 Z-0.125000
G01 X850.736852 Y513.401819 Z-0.125000
G01 X847.624139 Y510.289094 Z-0.125000
G01 X853.849594 Y505.101220 Z-0.125000
G01 X850.736852 Y500.950922 Z-0.125000
G01 X847.624139 Y497.838200 Z-0.125000
G01 X847.624139 Y493.687905 Z-0.125000
G01 X844.511425 Y492.650326 Z-0.125000
G01 X844.511425 Y488.500028 Z-0.125000
G01 X845.548959 Y483.312157 Z-0.125000
G01 X842.436273 Y479.161857 Z-0.125000
G01 X838.285942 Y476.049134 Z-0.125000
G01 X838.285942 Y471.898834 Z-0.125000
G01 X835.173228 Y468.786109 Z-0.125000
G01 X829.985363 Y468.786109 Z-0.125000
G01 X829.985363 Y462.560662 Z-0.125000
G01 X823.759907 Y464.635814 Z-0.125000
G01 X821.684755 Y460.485510 Z-0.125000
G01 X819.609575 Y457.372788 Z-0.125000
G01 X813.384177 Y456.335215 Z-0.125000
G01 X810.271435 Y453.222490 Z-0.125000
G01 X812.346587 Y460.485510 Z-0.125000
G01 X815.459328 Y463.598235 Z-0.125000
G01 X817.534480 Y466.710960 Z-0.125000
G01 X819.609575 Y469.823685 Z-0.125000
G01 X824.797469 Y468.786109 Z-0.125000
G01 X822.722345 Y473.973986 Z-0.125000
G01 X827.910211 Y473.973986 Z-0.125000
G01 X832.060514 Y475.011559 Z-0.125000
G01 X832.060514 Y479.161857 Z-0.125000
G01 X836.210790 Y481.237005 Z-0.125000
G01 X838.285942 Y485.387306 Z-0.125000
G01 X839.323560 Y488.500028 Z-0.125000
G01 X838.285942 Y493.687905 Z-0.125000
G01 X833.098104 Y493.687905 Z-0.125000
G01 X831.022924 Y490.575180 Z-0.125000
G01 X832.060514 Y486.424876 Z-0.125000
G01 X828.947801 Y484.349733 Z-0.125000
G01 X825.835059 Y480.199432 Z-0.125000
G01 X821.684755 Y479.161857 Z-0.125000
G01 X817.534480 Y478.124281 Z-0.125000
G01 X815.459328 Y473.973986 Z-0.125000
G01 X811.309025 Y469.823685 Z-0.125000
G01 X809.233845 Y466.710960 Z-0.125000
G01 X806.121131 Y464.635814 Z-0.125000
G01 X807.158721 Y459.447937 Z-0.125000
G01 X804.045979 Y456.335215 Z-0.125000
G01 X799.895704 Y454.260063 Z-0.125000
G01 X793.670220 Y457.372788 Z-0.125000
G01 X796.782990 Y460.485510 Z-0.125000
G01 X800.933294 Y461.523089 Z-0.125000
G01 X796.782990 Y466.710960 Z-0.125000
G01 X799.895704 Y467.748536 Z-0.125000
G01 X803.008446 Y470.861261 Z-0.125000
G01 X806.121131 Y473.973986 Z-0.125000
G01 X810.271435 Y475.011559 Z-0.125000
G01 X811.309025 Y480.199432 Z-0.125000
G01 X813.384177 Y483.312157 Z-0.125000
G01 X816.496890 Y485.387306 Z-0.125000
G01 X821.684755 Y485.387306 Z-0.125000
G01 X822.722345 Y488.500028 Z-0.125000
G01 X824.797469 Y491.612753 Z-0.125000
G01 X825.835059 Y495.763048 Z-0.125000
G01 X827.910211 Y498.875776 Z-0.125000
G01 X833.098104 Y498.875776 Z-0.125000
G01 X838.285942 Y498.875776 Z-0.125000
G01 X841.398655 Y499.913352 Z-0.125000
G01 X844.511425 Y503.026074 Z-0.125000
G01 X846.586577 Y507.176369 Z-0.125000
G01 X841.398655 Y509.251521 Z-0.125000
G01 X838.285942 Y506.138796 Z-0.125000
G01 X834.135666 Y505.101220 Z-0.125000
G01 X829.985363 Y504.063644 Z-0.125000
G01 X823.759907 Y504.063644 Z-0.125000
G01 X820.647165 Y500.950922 Z-0.125000
G01 X819.609575 Y496.800627 Z-0.125000
G01 X817.534480 Y493.687905 Z-0.125000
G01 X815.459328 Y490.575180 Z-0.125000
G01 X810.271435 Y490.575180 Z-0.125000
G01 X808.196311 Y487.462455 Z-0.125000
G01 X806.121131 Y481.237005 Z-0.125000
G01 X803.008446 Y480.199432 Z-0.125000
G01 X799.895704 Y477.086708 Z-0.125000
G01 X796.782990 Y473.973986 Z-0.125000
G01 X791.595097 Y472.936410 Z-0.125000
G01 X790.557507 Y469.823685 Z-0.125000
G01 X791.595097 Y464.635814 Z-0.125000
G01 X788.482327 Y462.560662 Z-0.125000
G01 X784.332080 Y467.748536 Z-0.125000
G01 X785.369670 Y470.861261 Z-0.125000
G01 X782.256956 Y476.049134 Z-0.125000
G01 X786.407231 Y477.086708 Z-0.125000
G01 X791.595097 Y478.124281 Z-0.125000
G01 X793.670220 Y481.237005 Z-0.125000
G01 X796.782990 Y483.312157 Z-0.125000
G01 X798.858114 Y486.424876 Z-0.125000
G01 X803.008446 Y487.462455 Z-0.125000
G01 X801.970856 Y491.612753 Z-0.125000
G01 X805.083541 Y494.725475 Z-0.125000
G01 X810.271435 Y495.763048 Z-0.125000
G01 X813.384177 Y498.875776 Z-0.125000
G01 X815.459328 Y503.026074 Z-0.125000
G01 X818.572070 Y507.176369 Z-0.125000
G01 X823.759907 Y508.213945 Z-0.125000
G01 X823.759907 Y512.364246 Z-0.125000
G01 X821.684755 Y516.514544 Z-0.125000
G01 X822.722345 Y519.627268 Z-0.125000
G01 X825.835059 Y522.739990 Z-0.125000
G01 X823.759907 Y526.890288 Z-0.125000
G01 X819.609575 Y525.852715 Z-0.125000
G01 X816.496890 Y522.739990 Z-0.125000
G01 X816.496890 Y517.552117 Z-0.125000
G01 X817.534480 Y512.364246 Z-0.125000
G01 X812.346587 Y509.251521 Z-0.125000
G01 X809.233845 Y505.101220 Z-0.125000
G01 X807.158721 Y500.950922 Z-0.125000
G01 X803.008446 Y499.913352 Z-0.125000
G01 X798.858114 Y497.838200 Z-0.125000
G01 X796.782990 Y493.687905 Z-0.125000
G01 X793.670220 Y490.575180 Z-0.125000
G01 X790.557507 Y488.500028 Z-0.125000
G01 X788.482327 Y485.387306 Z-0.125000
G01 X786.407231 Y482.274581 Z-0.125000
G01 X781.219338 Y482.274581 Z-0.125000
G01 X777.069063 Y480.199432 Z-0.125000
G01 X777.069063 Y475.011559 Z-0.125000
G01 X774.993911 Y471.898834 Z-0.125000
G01 X769.806045 Y473.973986 Z-0.125000
G01 X769.806045 Y468.786109 Z-0.125000
G01 X774.993911 Y466.710960 Z-0.125000
G01 X776.031473 Y462.560662 Z-0.125000
G01 X771.881169 Y461.523089 Z-0.125000
G01 X767.730922 Y460.485510 Z-0.125000
G01 X764.618152 Y458.410367 Z-0.125000
G01 X762.543028 Y454.260063 Z-0.125000
G01 X761.505438 Y451.147338 Z-0.125000
G01 X759.430258 Y445.959467 Z-0.125000
G01 X755.279955 Y442.846743 Z-0.125000
G01 X753.204859 Y446.997043 Z-0.125000
G01 X755.279955 Y451.147338 Z-0.125000
G01 X750.092117 Y453.222490 Z-0.125000
G01 X754.242421 Y455.297642 Z-0.125000
G01 X756.317573 Y458.410367 Z-0.125000
G01 X758.392696 Y461.523089 Z-0.125000
G01 X761.505438 Y464.635814 Z-0.125000
G01 X766.693304 Y466.710960 Z-0.125000
G01 X761.505438 Y469.823685 Z-0.125000
G01 X763.580590 Y473.973986 Z-0.125000
G01 X762.543028 Y477.086708 Z-0.125000
G01 X765.655742 Y480.199432 Z-0.125000
G01 X766.693304 Y484.349733 Z-0.125000
G01 X773.956293 Y486.424876 Z-0.125000
G01 X778.106653 Y487.462455 Z-0.125000
G01 X782.256956 Y488.500028 Z-0.125000
G01 X785.369670 Y492.650326 Z-0.125000
G01 X788.482327 Y495.763048 Z-0.125000
G01 X791.595097 Y497.838200 Z-0.125000
G01 X791.595097 Y501.988498 Z-0.125000
G01 X795.745400 Y503.026074 Z-0.125000
G01 X797.820552 Y506.138796 Z-0.125000
G01 X795.745400 Y511.326670 Z-0.125000
G01 X793.670220 Y516.514544 Z-0.125000
G01 X789.519945 Y513.401819 Z-0.125000
G01 X791.595097 Y508.213945 Z-0.125000
G01 X786.407231 Y508.213945 Z-0.125000
G01 X785.369670 Y504.063644 Z-0.125000
G01 X783.294490 Y500.950922 Z-0.125000
G01 X781.219338 Y498.875776 Z-0.125000
G01 X780.181776 Y493.687905 Z-0.125000
G01 X774.993911 Y493.687905 Z-0.125000
G01 X770.843635 Y491.612753 Z-0.125000
G01 X766.693304 Y496.800627 Z-0.125000
G01 X768.768455 Y498.875776 Z-0.125000
G01 X773.956293 Y498.875776 Z-0.125000
G01 X776.031473 Y501.988498 Z-0.125000
G01 X778.106653 Y506.138796 Z-0.125000
G01 X780.181776 Y509.251521 Z-0.125000
G01 X779.144186 Y513.401819 Z-0.125000
G01 X784.332080 Y513.401819 Z-0.125000
G01 X786.407231 Y518.589693 Z-0.125000
G01 X788.482327 Y521.702415 Z-0.125000
G01 X792.632687 Y522.739990 Z-0.125000
G01 X791.595097 Y527.927859 Z-0.125000
G01 X796.782990 Y525.852715 Z-0.125000
G01 X797.820552 Y528.965437 Z-0.125000
G01 X800.933294 Y532.078159 Z-0.125000
G01 X794.707810 Y534.153308 Z-0.125000
G01 X795.745400 Y538.303609 Z-0.125000
G01 X800.933294 Y537.266033 Z-0.125000
G01 X803.008446 Y541.416331 Z-0.125000
G01 X797.820552 Y543.491480 Z-0.125000
G01 X800.933294 Y547.641781 Z-0.125000
G01 X795.745400 Y548.679354 Z-0.125000
G01 X792.632687 Y544.529056 Z-0.125000
G01 X789.519945 Y541.416331 Z-0.125000
G01 X788.482327 Y538.303609 Z-0.125000
G01 X789.519945 Y533.115732 Z-0.125000
G01 X785.369670 Y530.003010 Z-0.125000
G01 X784.332080 Y526.890288 Z-0.125000
G01 X781.219338 Y524.815139 Z-0.125000
G01 X781.219338 Y519.627268 Z-0.125000
G01 X777.069063 Y518.589693 Z-0.125000
G01 X772.918759 Y515.476968 Z-0.125000
G01 X772.918759 Y511.326670 Z-0.125000
G01 X771.881169 Y507.176369 Z-0.125000
G01 X768.768455 Y504.063644 Z-0.125000
G01 X762.543028 Y503.026074 Z-0.125000
G01 X762.543028 Y507.176369 Z-0.125000
G01 X765.655742 Y510.289094 Z-0.125000
G01 X766.693304 Y513.401819 Z-0.125000
G01 X759.430258 Y513.401819 Z-0.125000
G01 X756.317573 Y510.289094 Z-0.125000
G01 X750.092117 Y512.364246 Z-0.125000
G01 X748.016937 Y509.251521 Z-0.125000
G01 X744.904224 Y505.101220 Z-0.125000
G01 X746.979404 Y500.950922 Z-0.125000
G01 X753.204859 Y499.913352 Z-0.125000
G01 X750.092117 Y495.763048 Z-0.125000
G01 X745.941842 Y494.725475 Z-0.125000
G01 X741.791539 Y491.612753 Z-0.125000
G01 X738.678825 Y490.575180 Z-0.125000
G01 X734.528521 Y489.537601 Z-0.125000
G01 X732.453341 Y485.387306 Z-0.125000
G01 X729.340628 Y482.274581 Z-0.125000
G01 X727.265448 Y480.199432 Z-0.125000
G01 X729.340628 Y475.011559 Z-0.125000
G01 X725.190324 Y473.973986 Z-0.125000
G01 X724.152734 Y469.823685 Z-0.125000
G01 X722.077611 Y466.710960 Z-0.125000
G01 X721.040049 Y460.485510 Z-0.125000
G01 X722.077611 Y456.335215 Z-0.125000
G01 X716.889717 Y457.372788 Z-0.125000
G01 X718.964869 Y452.184914 Z-0.125000
G01 X713.777003 Y452.184914 Z-0.125000
G01 X712.739413 Y448.034616 Z-0.125000
G01 X710.664290 Y442.846743 Z-0.125000
G01 X712.739413 Y437.658872 Z-0.125000
G01 X708.589110 Y436.621298 Z-0.125000
G01 X707.551548 Y431.433425 Z-0.125000
G01 X709.626700 Y427.283130 Z-0.125000
G01 X712.739413 Y431.433425 Z-0.125000
G01 X717.927307 Y431.433425 Z-0.125000
G01 X717.927307 Y427.283130 Z-0.125000
G01 X715.852155 Y424.170405 Z-0.125000
G01 X712.739413 Y421.057685 Z-0.125000
G01 X707.551548 Y422.095256 Z-0.125000
G01 X703.401273 Y417.944961 Z-0.125000
G01 X702.363683 Y422.095256 Z-0.125000
G01 X704.438835 Y427.283130 Z-0.125000
G01 X699.250969 Y427.283130 Z-0.125000
G01 X698.213379 Y432.471001 Z-0.125000
G01 X702.363683 Y433.508574 Z-0.125000
G01 X702.363683 Y438.696445 Z-0.125000
G01 X705.476425 Y441.809167 Z-0.125000
G01 X706.513986 Y448.034616 Z-0.125000
G01 X707.551548 Y452.184914 Z-0.125000
G01 X710.664290 Y456.335215 Z-0.125000
G01 X711.701823 Y461.523089 Z-0.125000
G01 X714.814593 Y464.635814 Z-0.125000
G01 X716.889717 Y466.710960 Z-0.125000
G01 X714.814593 Y471.898834 Z-0.125000
G01 X717.927307 Y473.973986 Z-0.125000
G01 X717.927307 Y478.124281 Z-0.125000
G01 X722.077611 Y479.161857 Z-0.125000
G01 X718.964869 Y484.349733 Z-0.125000
G01 X723.115144 Y485.387306 Z-0.125000
G01 X726.227886 Y488.500028 Z-0.125000
G01 X728.303038 Y491.612753 Z-0.125000
G01 X731.415808 Y494.725475 Z-0.125000
G01 X735.566083 Y496.800627 Z-0.125000
G01 X739.716359 Y497.838200 Z-0.125000
G01 X741.791539 Y500.950922 Z-0.125000
G01 X739.716359 Y506.138796 Z-0.125000
G01 X735.566083 Y503.026074 Z-0.125000
G01 X733.490903 Y509.251521 Z-0.125000
G01 X729.340628 Y507.176369 Z-0.125000
G01 X729.340628 Y503.026074 Z-0.125000
G01 X728.303038 Y500.950922 Z-0.125000
G01 X723.115144 Y499.913352 Z-0.125000
G01 X724.152734 Y496.800627 Z-0.125000
G01 X721.040049 Y493.687905 Z-0.125000
G01 X718.964869 Y490.575180 Z-0.125000
G01 X713.777003 Y490.575180 Z-0.125000
G01 X712.739413 Y486.424876 Z-0.125000
G01 X712.739413 Y482.274581 Z-0.125000
G01 X711.701823 Y478.124281 Z-0.125000
G01 X708.589110 Y476.049134 Z-0.125000
G01 X709.626700 Y470.861261 Z-0.125000
G01 X708.589110 Y466.710960 Z-0.125000
G01 X706.513986 Y461.523089 Z-0.125000
G01 X704.438835 Y457.372788 Z-0.125000
G01 X701.326093 Y453.222490 Z-0.125000
G01 X699.250969 Y458.410367 Z-0.125000
G01 X695.100666 Y457.372788 Z-0.125000
G01 X693.025514 Y454.260063 Z-0.125000
G01 X688.875238 Y454.260063 Z-0.125000
G01 X684.724935 Y453.222490 Z-0.125000
G01 X684.724935 Y448.034616 Z-0.125000
G01 X680.574631 Y446.997043 Z-0.125000
G01 X678.499451 Y442.846743 Z-0.125000
G01 X673.311586 Y443.884318 Z-0.125000
G01 X673.311586 Y439.734020 Z-0.125000
G01 X672.274024 Y435.583725 Z-0.125000
G01 X667.086159 Y436.621298 Z-0.125000
G01 X661.898265 Y436.621298 Z-0.125000
G01 X657.747990 Y435.583725 Z-0.125000
G01 X659.823142 Y431.433425 Z-0.125000
G01 X655.672838 Y428.320703 Z-0.125000
G01 X653.597686 Y433.508574 Z-0.125000
G01 X648.409821 Y432.471001 Z-0.125000
G01 X646.334641 Y427.283130 Z-0.125000
G01 X651.522506 Y427.283130 Z-0.125000
G01 X651.522506 Y422.095256 Z-0.125000
G01 X646.334641 Y422.095256 Z-0.125000
G01 X644.259489 Y417.944961 Z-0.125000
G01 X644.259489 Y413.794663 Z-0.125000
G01 X642.184366 Y409.644362 Z-0.125000
G01 X639.071652 Y407.569213 Z-0.125000
G01 X635.958910 Y404.456491 Z-0.125000
G01 X631.808607 Y403.418918 Z-0.125000
G01 X627.658303 Y400.306193 Z-0.125000
G01 X623.508056 Y398.231041 Z-0.125000
G01 X623.508056 Y394.080746 Z-0.125000
G01 X621.432876 Y390.968018 Z-0.125000
G01 X617.282572 Y389.930442 Z-0.125000
G01 X613.132269 Y388.892869 Z-0.125000
G01 X610.019527 Y385.780147 Z-0.125000
G01 X606.906842 Y382.667422 Z-0.125000
G01 X602.756538 Y380.592271 Z-0.125000
G01 X597.568644 Y381.629847 Z-0.125000
G01 X600.681358 Y385.780147 Z-0.125000
G01 X602.756538 Y388.892869 Z-0.125000
G01 X605.869252 Y390.968018 Z-0.125000
G01 X607.944403 Y394.080746 Z-0.125000
G01 X612.094707 Y395.118319 Z-0.125000
G01 X616.245010 Y396.155892 Z-0.125000
G01 X617.282572 Y399.268614 Z-0.125000
G01 X615.207392 Y404.456491 Z-0.125000
G01 X620.395286 Y403.418918 Z-0.125000
G01 X623.508056 Y405.494061 Z-0.125000
G01 X626.620741 Y407.569213 Z-0.125000
G01 X630.771045 Y409.644362 Z-0.125000
G01 X634.921320 Y411.719514 Z-0.125000
G01 X638.034090 Y414.832236 Z-0.125000
G01 X638.034090 Y418.982534 Z-0.125000
G01 X641.146804 Y423.132832 Z-0.125000
G01 X635.958910 Y424.170405 Z-0.125000
G01 X631.808607 Y421.057685 Z-0.125000
G01 X630.771045 Y418.982534 Z-0.125000
G01 X628.695893 Y414.832236 Z-0.125000
G01 X624.545589 Y412.757087 Z-0.125000
G01 X622.470438 Y417.944961 Z-0.125000
G01 X625.583151 Y421.057685 Z-0.125000
G01 X627.658303 Y426.245556 Z-0.125000
G01 X630.771045 Y428.320703 Z-0.125000
G01 X633.883787 Y430.395852 Z-0.125000
G01 X639.071652 Y428.320703 Z-0.125000
G01 X640.109186 Y431.433425 Z-0.125000
G01 X642.184366 Y434.546147 Z-0.125000
G01 X643.221927 Y438.696445 Z-0.125000
G01 X648.409821 Y437.658872 Z-0.125000
G01 X651.522506 Y439.734020 Z-0.125000
G01 X656.710400 Y441.809167 Z-0.125000
G01 X661.898265 Y441.809167 Z-0.125000
G01 X666.048541 Y442.846743 Z-0.125000
G01 X667.086159 Y445.959467 Z-0.125000
G01 X665.011007 Y451.147338 Z-0.125000
G01 X669.161311 Y454.260063 Z-0.125000
G01 X673.311586 Y456.335215 Z-0.125000
G01 X671.236434 Y449.072192 Z-0.125000
G01 X675.386738 Y450.109765 Z-0.125000
G01 X678.499451 Y453.222490 Z-0.125000
G01 X678.499451 Y457.372788 Z-0.125000
G01 X682.649755 Y459.447937 Z-0.125000
G01 X682.649755 Y464.635814 Z-0.125000
G01 X687.837648 Y460.485510 Z-0.125000
G01 X690.950390 Y462.560662 Z-0.125000
G01 X690.950390 Y467.748536 Z-0.125000
G01 X685.762525 Y467.748536 Z-0.125000
G01 X687.837648 Y472.936410 Z-0.125000
G01 X691.987924 Y473.973986 Z-0.125000
G01 X689.912800 Y479.161857 Z-0.125000
G01 X689.912800 Y483.312157 Z-0.125000
G01 X689.912800 Y487.462455 Z-0.125000
G01 X691.987924 Y491.612753 Z-0.125000
G01 X696.138227 Y493.687905 Z-0.125000
G01 X700.288559 Y496.800627 Z-0.125000
G01 X702.363683 Y491.612753 Z-0.125000
G01 X699.250969 Y488.500028 Z-0.125000
G01 X696.138227 Y486.424876 Z-0.125000
G01 X696.138227 Y482.274581 Z-0.125000
G01 X696.138227 Y477.086708 Z-0.125000
G01 X698.213379 Y471.898834 Z-0.125000
G01 X696.138227 Y468.786109 Z-0.125000
G01 X696.138227 Y463.598235 Z-0.125000
G01 X701.326093 Y463.598235 Z-0.125000
G01 X703.401273 Y467.748536 Z-0.125000
G01 X703.401273 Y472.936410 Z-0.125000
G01 X701.326093 Y477.086708 Z-0.125000
G01 X702.363683 Y481.237005 Z-0.125000
G01 X704.438835 Y483.312157 Z-0.125000
G01 X706.513986 Y486.424876 Z-0.125000
G01 X707.551548 Y490.575180 Z-0.125000
G01 X708.589110 Y494.725475 Z-0.125000
G01 X713.777003 Y495.763048 Z-0.125000
G01 X715.852155 Y498.875776 Z-0.125000
G01 X716.889717 Y501.988498 Z-0.125000
G01 X721.040049 Y505.101220 Z-0.125000
G01 X723.115144 Y508.213945 Z-0.125000
G01 X721.040049 Y513.401819 Z-0.125000
G01 X726.227886 Y512.364246 Z-0.125000
G01 X729.340628 Y514.439392 Z-0.125000
G01 X733.490903 Y517.552117 Z-0.125000
G01 X735.566083 Y512.364246 Z-0.125000
G01 X740.753920 Y511.326670 Z-0.125000
G01 X742.829072 Y514.439392 Z-0.125000
G01 X741.791539 Y517.552117 Z-0.125000
G01 X736.603673 Y519.627268 Z-0.125000
G01 X738.678825 Y523.777564 Z-0.125000
G01 X743.866662 Y522.739990 Z-0.125000
G01 X746.979404 Y524.815139 Z-0.125000
G01 X749.054556 Y528.965437 Z-0.125000
G01 X753.204859 Y534.153308 Z-0.125000
G01 X754.242421 Y528.965437 Z-0.125000
G01 X759.430258 Y528.965437 Z-0.125000
G01 X760.467876 Y532.078159 Z-0.125000
G01 X764.618152 Y533.115732 Z-0.125000
G01 X763.580590 Y539.341179 Z-0.125000
G01 X759.430258 Y538.303609 Z-0.125000
G01 X755.279955 Y537.266033 Z-0.125000
G01 X756.317573 Y543.491480 Z-0.125000
G01 X760.467876 Y544.529056 Z-0.125000
G01 X758.392696 Y549.716927 Z-0.125000
G01 X758.392696 Y553.867228 Z-0.125000
G01 X761.505438 Y556.979956 Z-0.125000
G01 X762.543028 Y563.205402 Z-0.125000
G01 X757.355135 Y563.205402 Z-0.125000
G01 X755.279955 Y560.092678 Z-0.125000
G01 X753.204859 Y554.904804 Z-0.125000
G01 X753.204859 Y548.679354 Z-0.125000
G01 X750.092117 Y544.529056 Z-0.125000
G01 X749.054556 Y541.416331 Z-0.125000
G01 X745.941842 Y539.341179 Z-0.125000
G01 X748.016937 Y534.153308 Z-0.125000
G01 X743.866662 Y533.115732 Z-0.125000
G01 X741.791539 Y530.003010 Z-0.125000
G01 X737.641207 Y528.965437 Z-0.125000
G01 X733.490903 Y526.890288 Z-0.125000
G01 X730.378190 Y524.815139 Z-0.125000
G01 X728.303038 Y521.702415 Z-0.125000
G01 X725.190324 Y519.627268 Z-0.125000
G01 X721.040049 Y518.589693 Z-0.125000
G01 X715.852155 Y518.589693 Z-0.125000
G01 X715.852155 Y513.401819 Z-0.125000
G01 X715.852155 Y509.251521 Z-0.125000
G01 X712.739413 Y507.176369 Z-0.125000
G01 X710.664290 Y503.026074 Z-0.125000
G01 X707.551548 Y499.913352 Z-0.125000
G01 X703.401273 Y498.875776 Z-0.125000
G01 X701.326093 Y505.101220 Z-0.125000
G01 X705.476425 Y506.138796 Z-0.125000
G01 X706.513986 Y510.289094 Z-0.125000
G01 X709.626700 Y513.401819 Z-0.125000
G01 X710.664290 Y517.552117 Z-0.125000
G01 X708.589110 Y522.739990 Z-0.125000
G01 X710.664290 Y525.852715 Z-0.125000
G01 X710.664290 Y530.003010 Z-0.125000
G01 X712.739413 Y535.190884 Z-0.125000
G01 X715.852155 Y538.303609 Z-0.125000
G01 X722.077611 Y539.341179 Z-0.125000
G01 X722.077611 Y535.190884 Z-0.125000
G01 X718.964869 Y532.078159 Z-0.125000
G01 X715.852155 Y530.003010 Z-0.125000
G01 X716.889717 Y523.777564 Z-0.125000
G01 X721.040049 Y524.815139 Z-0.125000
G01 X724.152734 Y527.927859 Z-0.125000
G01 X727.265448 Y531.040584 Z-0.125000
G01 X730.378190 Y533.115732 Z-0.125000
G01 X734.528521 Y534.153308 Z-0.125000
G01 X737.641207 Y536.228457 Z-0.125000
G01 X740.753920 Y539.341179 Z-0.125000
G01 X741.791539 Y544.529056 Z-0.125000
G01 X743.866662 Y547.641781 Z-0.125000
G01 X746.979404 Y550.754503 Z-0.125000
G01 X748.016937 Y553.867228 Z-0.125000
G01 X750.092117 Y559.055099 Z-0.125000
G01 X744.904224 Y560.092678 Z-0.125000
G01 X741.791539 Y556.979956 Z-0.125000
G01 X740.753920 Y552.829652 Z-0.125000
G01 X737.641207 Y549.716927 Z-0.125000
G01 X735.566083 Y545.566632 Z-0.125000
G01 X734.528521 Y542.453907 Z-0.125000
G01 X731.415808 Y540.378755 Z-0.125000
G01 X727.265448 Y538.303609 Z-0.125000
G01 X725.190324 Y543.491480 Z-0.125000
G01 X728.303038 Y546.604205 Z-0.125000
G01 X731.415808 Y550.754503 Z-0.125000
G01 X733.490903 Y554.904804 Z-0.125000
G01 X735.566083 Y558.017526 Z-0.125000
G01 X738.678825 Y562.167824 Z-0.125000
G01 X736.603673 Y567.355698 Z-0.125000
G01 X733.490903 Y564.242975 Z-0.125000
G01 X729.340628 Y563.205402 Z-0.125000
G01 X728.303038 Y559.055099 Z-0.125000
G01 X726.227886 Y555.942377 Z-0.125000
G01 X725.190324 Y551.792079 Z-0.125000
G01 X722.077611 Y548.679354 Z-0.125000
G01 X718.964869 Y545.566632 Z-0.125000
G01 X715.852155 Y542.453907 Z-0.125000
G01 X710.664290 Y542.453907 Z-0.125000
G01 X707.551548 Y540.378755 Z-0.125000
G01 X702.363683 Y541.416331 Z-0.125000
G01 X702.363683 Y536.228457 Z-0.125000
G01 X707.551548 Y535.190884 Z-0.125000
G01 X704.438835 Y531.040584 Z-0.125000
G01 X702.363683 Y528.965437 Z-0.125000
G01 X702.363683 Y524.815139 Z-0.125000
G01 X704.438835 Y519.627268 Z-0.125000
G01 X703.401273 Y515.476968 Z-0.125000
G01 X700.288559 Y511.326670 Z-0.125000
G01 X698.213379 Y516.514544 Z-0.125000
G01 X698.213379 Y521.702415 Z-0.125000
G01 X693.025514 Y520.664842 Z-0.125000
G01 X690.950390 Y517.552117 Z-0.125000
G01 X685.762525 Y516.514544 Z-0.125000
G01 X684.724935 Y512.364246 Z-0.125000
G01 X680.574631 Y517.552117 Z-0.125000
G01 X677.461889 Y514.439392 Z-0.125000
G01 X680.574631 Y510.289094 Z-0.125000
G01 X678.499451 Y507.176369 Z-0.125000
G01 X674.349204 Y506.138796 Z-0.125000
G01 X673.311586 Y501.988498 Z-0.125000
G01 X674.349204 Y497.838200 Z-0.125000
G01 X669.161311 Y496.800627 Z-0.125000
G01 X668.123721 Y501.988498 Z-0.125000
G01 X668.123721 Y507.176369 Z-0.125000
G01 X667.086159 Y511.326670 Z-0.125000
G01 X672.274024 Y512.364246 Z-0.125000
G01 X667.086159 Y516.514544 Z-0.125000
G01 X671.236434 Y517.552117 Z-0.125000
G01 X674.349204 Y520.664842 Z-0.125000
G01 X679.537041 Y522.739990 Z-0.125000
G01 X684.724935 Y521.702415 Z-0.125000
G01 X686.800058 Y524.815139 Z-0.125000
G01 X691.987924 Y525.852715 Z-0.125000
G01 X695.100666 Y527.927859 Z-0.125000
G01 X696.138227 Y531.040584 Z-0.125000
G01 X697.175789 Y535.190884 Z-0.125000
G01 X697.175789 Y540.378755 Z-0.125000
G01 X690.950390 Y541.416331 Z-0.125000
G01 X690.950390 Y537.266033 Z-0.125000
G01 X689.912800 Y533.115732 Z-0.125000
G01 X686.800058 Y530.003010 Z-0.125000
G01 X681.612193 Y530.003010 Z-0.125000
G01 X678.499451 Y527.927859 Z-0.125000
G01 X674.349204 Y526.890288 Z-0.125000
G01 X670.198901 Y525.852715 Z-0.125000
G01 X667.086159 Y523.777564 Z-0.125000
G01 X663.973417 Y522.739990 Z-0.125000
G01 X660.860675 Y520.664842 Z-0.125000
G01 X661.898265 Y515.476968 Z-0.125000
G01 X656.710400 Y516.514544 Z-0.125000
G01 X654.635276 Y513.401819 Z-0.125000
G01 X656.710400 Y508.213945 Z-0.125000
G01 X661.898265 Y510.289094 Z-0.125000
G01 X661.898265 Y506.138796 Z-0.125000
G01 X657.747990 Y503.026074 Z-0.125000
G01 X662.935855 Y500.950922 Z-0.125000
G01 X662.935855 Y496.800627 Z-0.125000
G01 X659.823142 Y495.763048 Z-0.125000
G01 X657.747990 Y492.650326 Z-0.125000
G01 X656.710400 Y488.500028 Z-0.125000
G01 X657.747990 Y484.349733 Z-0.125000
G01 X662.935855 Y486.424876 Z-0.125000
G01 X665.011007 Y490.575180 Z-0.125000
G01 X669.161311 Y491.612753 Z-0.125000
G01 X674.349204 Y491.612753 Z-0.125000
G01 X678.499451 Y492.650326 Z-0.125000
G01 X680.574631 Y496.800627 Z-0.125000
G01 X680.574631 Y500.950922 Z-0.125000
G01 X684.724935 Y501.988498 Z-0.125000
G01 X685.762525 Y506.138796 Z-0.125000
G01 X689.912800 Y507.176369 Z-0.125000
G01 X690.950390 Y511.326670 Z-0.125000
G01 X695.100666 Y512.364246 Z-0.125000
G01 X696.138227 Y506.138796 Z-0.125000
G01 X696.138227 Y501.988498 Z-0.125000
G01 X691.987924 Y500.950922 Z-0.125000
G01 X690.950390 Y498.875776 Z-0.125000
G01 X686.800058 Y496.800627 Z-0.125000
G01 X685.762525 Y492.650326 Z-0.125000
G01 X683.687345 Y488.500028 Z-0.125000
G01 X683.687345 Y484.349733 Z-0.125000
G01 X684.724935 Y479.161857 Z-0.125000
G01 X682.649755 Y475.011559 Z-0.125000
G01 X680.574631 Y471.898834 Z-0.125000
G01 X677.461889 Y469.823685 Z-0.125000
G01 X677.461889 Y464.635814 Z-0.125000
G01 X674.349204 Y462.560662 Z-0.125000
G01 X670.198901 Y461.523089 Z-0.125000
G01 X666.048541 Y459.447937 Z-0.125000
G01 X662.935855 Y456.335215 Z-0.125000
G01 X658.785523 Y453.222490 Z-0.125000
G01 X660.860675 Y448.034616 Z-0.125000
G01 X656.710400 Y446.997043 Z-0.125000
G01 X651.522506 Y444.921891 Z-0.125000
G01 X646.334641 Y444.921891 Z-0.125000
G01 X642.184366 Y443.884318 Z-0.125000
G01 X638.034090 Y442.846743 Z-0.125000
G01 X636.996472 Y438.696445 Z-0.125000
G01 X634.921320 Y435.583725 Z-0.125000
G01 X629.733427 Y435.583725 Z-0.125000
G01 X625.583151 Y433.508574 Z-0.125000
G01 X622.470438 Y431.433425 Z-0.125000
G01 X621.432876 Y426.245556 Z-0.125000
G01 X617.282572 Y425.207978 Z-0.125000
G01 X615.207392 Y423.132832 Z-0.125000
G01 X617.282572 Y417.944961 Z-0.125000
G01 X619.357696 Y412.757087 Z-0.125000
G01 X617.282572 Y410.681938 Z-0.125000
G01 X613.132269 Y409.644362 Z-0.125000
G01 X612.094707 Y415.869809 Z-0.125000
G01 X607.944403 Y414.832236 Z-0.125000
G01 X606.906842 Y410.681938 Z-0.125000
G01 X603.794100 Y406.531640 Z-0.125000
G01 X608.981965 Y405.494061 Z-0.125000
G01 X610.019527 Y401.343766 Z-0.125000
G01 X605.869252 Y400.306193 Z-0.125000
G01 X601.718948 Y398.231041 Z-0.125000
G01 X599.643796 Y395.118319 Z-0.125000
G01 X596.531054 Y392.005594 Z-0.125000
G01 X594.455903 Y388.892869 Z-0.125000
G01 X592.380807 Y384.742571 Z-0.125000
G01 X593.418369 Y379.554695 Z-0.125000
G01 X589.268037 Y378.517122 Z-0.125000
G01 X586.155324 Y375.404402 Z-0.125000
G01 X582.005020 Y375.404402 Z-0.125000
G01 X576.817183 Y375.404402 Z-0.125000
G01 X573.704441 Y371.254102 Z-0.125000
G01 X571.629289 Y369.178956 Z-0.125000
G01 X568.516548 Y366.066231 Z-0.125000
G01 X564.366244 Y363.991079 Z-0.125000
G01 X563.328654 Y359.840784 Z-0.125000
G01 X564.366244 Y355.690483 Z-0.125000
G01 X560.215969 Y354.652907 Z-0.125000
G01 X560.215969 Y349.465036 Z-0.125000
G01 X565.403806 Y349.465036 Z-0.125000
G01 X569.554138 Y350.502609 Z-0.125000
G01 X572.666879 Y352.577758 Z-0.125000
G01 X576.817183 Y353.615334 Z-0.125000
G01 X569.554138 Y357.765632 Z-0.125000
G01 X571.629289 Y360.878354 Z-0.125000
G01 X574.742003 Y363.991079 Z-0.125000
G01 X579.929868 Y366.066231 Z-0.125000
G01 X579.929868 Y370.216526 Z-0.125000
G01 X586.155324 Y370.216526 Z-0.125000
G01 X590.305627 Y366.066231 Z-0.125000
G01 X593.418369 Y369.178956 Z-0.125000
G01 X592.380807 Y372.291678 Z-0.125000
G01 X596.531054 Y374.366827 Z-0.125000
G01 X600.681358 Y376.441976 Z-0.125000
G01 X599.643796 Y369.178956 Z-0.125000
G01 X603.794100 Y370.216526 Z-0.125000
G01 X607.944403 Y371.254102 Z-0.125000
G01 X606.906842 Y375.404402 Z-0.125000
G01 X611.057089 Y377.479551 Z-0.125000
G01 X613.132269 Y379.554695 Z-0.125000
G01 X616.245010 Y382.667422 Z-0.125000
G01 X619.357696 Y383.704996 Z-0.125000
G01 X623.508056 Y384.742571 Z-0.125000
G01 X627.658303 Y387.855293 Z-0.125000
G01 X630.771045 Y390.968018 Z-0.125000
G01 X629.733427 Y394.080746 Z-0.125000
G01 X632.846168 Y398.231041 Z-0.125000
G01 X638.034090 Y398.231041 Z-0.125000
G01 X635.958910 Y392.005594 Z-0.125000
G01 X640.109186 Y393.043167 Z-0.125000
G01 X645.297079 Y393.043167 Z-0.125000
G01 X648.409821 Y397.193468 Z-0.125000
G01 X643.221927 Y397.193468 Z-0.125000
G01 X642.184366 Y402.381339 Z-0.125000
G01 X646.334641 Y403.418918 Z-0.125000
G01 X648.409821 Y408.606786 Z-0.125000
G01 X651.522506 Y410.681938 Z-0.125000
G01 X650.484944 Y415.869809 Z-0.125000
G01 X654.635276 Y416.907385 Z-0.125000
G01 X656.710400 Y422.095256 Z-0.125000
G01 X660.860675 Y424.170405 Z-0.125000
G01 X663.973417 Y426.245556 Z-0.125000
G01 X666.048541 Y430.395852 Z-0.125000
G01 X670.198901 Y431.433425 Z-0.125000
G01 X672.274024 Y426.245556 Z-0.125000
G01 X670.198901 Y423.132832 Z-0.125000
G01 X667.086159 Y420.020110 Z-0.125000
G01 X663.973417 Y417.944961 Z-0.125000
G01 X659.823142 Y416.907385 Z-0.125000
G01 X656.710400 Y411.719514 Z-0.125000
G01 X656.710400 Y406.531640 Z-0.125000
G01 X652.560124 Y403.418918 Z-0.125000
G01 X651.522506 Y401.343766 Z-0.125000
G01 X653.597686 Y397.193468 Z-0.125000
G01 X655.672838 Y392.005594 Z-0.125000
G01 X651.522506 Y390.968018 Z-0.125000
G01 X647.372203 Y387.855293 Z-0.125000
G01 X643.221927 Y386.817720 Z-0.125000
G01 X638.034090 Y386.817720 Z-0.125000
G01 X633.883787 Y384.742571 Z-0.125000
G01 X629.733427 Y382.667422 Z-0.125000
G01 X627.658303 Y379.554695 Z-0.125000
G01 X623.508056 Y377.479551 Z-0.125000
G01 X619.357696 Y376.441976 Z-0.125000
G01 X615.207392 Y372.291678 Z-0.125000
G01 X614.169830 Y369.178956 Z-0.125000
G01 X610.019527 Y366.066231 Z-0.125000
G01 X610.019527 Y359.840784 Z-0.125000
G01 X607.944403 Y356.728059 Z-0.125000
G01 X601.718948 Y358.803208 Z-0.125000
G01 X601.718948 Y354.652907 Z-0.125000
G01 X599.643796 Y350.502609 Z-0.125000
G01 X598.606234 Y345.314735 Z-0.125000
G01 X596.531054 Y343.239586 Z-0.125000
G01 X591.343217 Y345.314735 Z-0.125000
G01 X591.343217 Y350.502609 Z-0.125000
G01 X594.455903 Y351.540182 Z-0.125000
G01 X596.531054 Y356.728059 Z-0.125000
G01 X591.343217 Y357.765632 Z-0.125000
G01 X587.192914 Y356.728059 Z-0.125000
G01 X583.042610 Y355.690483 Z-0.125000
G01 X586.155324 Y350.502609 Z-0.125000
G01 X585.117762 Y346.352311 Z-0.125000
G01 X587.192914 Y342.202013 Z-0.125000
G01 X586.155324 Y338.051713 Z-0.125000
G01 X585.117762 Y333.901420 Z-0.125000
G01 X585.117762 Y329.751117 Z-0.125000
G01 X584.080172 Y325.600819 Z-0.125000
G01 X585.117762 Y320.412949 Z-0.125000
G01 X590.305627 Y320.412949 Z-0.125000
G01 X590.305627 Y324.563250 Z-0.125000
G01 X591.343217 Y328.713544 Z-0.125000
G01 X591.343217 Y333.901420 Z-0.125000
G01 X593.418369 Y338.051713 Z-0.125000
G01 X597.568644 Y338.051713 Z-0.125000
G01 X602.756538 Y338.051713 Z-0.125000
G01 X605.869252 Y341.164437 Z-0.125000
G01 X604.831662 Y344.277160 Z-0.125000
G01 X604.831662 Y348.427460 Z-0.125000
G01 X607.944403 Y351.540182 Z-0.125000
G01 X611.057089 Y345.314735 Z-0.125000
G01 X614.169830 Y348.427460 Z-0.125000
G01 X613.132269 Y352.577758 Z-0.125000
G01 X616.245010 Y355.690483 Z-0.125000
G01 X620.395286 Y356.728059 Z-0.125000
G01 X624.545589 Y357.765632 Z-0.125000
G01 X629.733427 Y356.728059 Z-0.125000
G01 X629.733427 Y352.577758 Z-0.125000
G01 X626.620741 Y350.502609 Z-0.125000
G01 X621.432876 Y351.540182 Z-0.125000
G01 X620.395286 Y347.389884 Z-0.125000
G01 X618.320134 Y343.239586 Z-0.125000
G01 X616.245010 Y340.126864 Z-0.125000
G01 X612.094707 Y339.089289 Z-0.125000
G01 X608.981965 Y334.938988 Z-0.125000
G01 X604.831662 Y332.863842 Z-0.125000
G01 X600.681358 Y331.826269 Z-0.125000
G01 X596.531054 Y331.826269 Z-0.125000
G01 X598.606234 Y326.638392 Z-0.125000
G01 X596.531054 Y324.563250 Z-0.125000
G01 X597.568644 Y318.337798 Z-0.125000
G01 X593.418369 Y316.262652 Z-0.125000
G01 X591.343217 Y313.149927 Z-0.125000
G01 X589.268037 Y308.999627 Z-0.125000
G01 X586.155324 Y314.187501 Z-0.125000
G01 X584.080172 Y308.999627 Z-0.125000
G01 X584.080172 Y303.811754 Z-0.125000
G01 X586.155324 Y298.623881 Z-0.125000
G01 X585.117762 Y294.473582 Z-0.125000
G01 X584.080172 Y290.323287 Z-0.125000
G01 X591.343217 Y292.398433 Z-0.125000
G01 X590.305627 Y288.248137 Z-0.125000
G01 X589.268037 Y285.135413 Z-0.125000
G01 X585.117762 Y284.097839 Z-0.125000
G01 X585.117762 Y278.909965 Z-0.125000
G01 X586.155324 Y273.722092 Z-0.125000
G01 X591.343217 Y274.759666 Z-0.125000
G01 X590.305627 Y278.909965 Z-0.125000
G01 X595.493493 Y278.909965 Z-0.125000
G01 X596.531054 Y280.985115 Z-0.125000
G01 X596.531054 Y286.172988 Z-0.125000
G01 X602.756538 Y279.947540 Z-0.125000
G01 X602.756538 Y274.759666 Z-0.125000
G01 X598.606234 Y272.684517 Z-0.125000
G01 X593.418369 Y270.609367 Z-0.125000
G01 X589.268037 Y268.534218 Z-0.125000
G01 X584.080172 Y269.571794 Z-0.125000
G01 X585.117762 Y264.383917 Z-0.125000
G01 X590.305627 Y263.346344 Z-0.125000
G01 X586.155324 Y258.158470 Z-0.125000
G01 X584.080172 Y254.008170 Z-0.125000
G01 X582.005020 Y249.857872 Z-0.125000
G01 X583.042610 Y244.670001 Z-0.125000
G01 X588.230504 Y244.670001 Z-0.125000
G01 X588.230504 Y248.820296 Z-0.125000
G01 X590.305627 Y252.970596 Z-0.125000
G01 X591.343217 Y257.120894 Z-0.125000
G01 X595.493493 Y258.158470 Z-0.125000
G01 X595.493493 Y263.346344 Z-0.125000
G01 X598.606234 Y265.421493 Z-0.125000
G01 X601.718948 Y267.496642 Z-0.125000
G01 X605.869252 Y268.534218 Z-0.125000
G01 X607.944403 Y272.684517 Z-0.125000
G01 X614.169830 Y269.571794 Z-0.125000
G01 X611.057089 Y266.459069 Z-0.125000
G01 X612.094707 Y262.308768 Z-0.125000
G01 X617.282572 Y262.308768 Z-0.125000
G01 X623.508056 Y260.233619 Z-0.125000
G01 X620.395286 Y257.120894 Z-0.125000
G01 X616.245010 Y256.083319 Z-0.125000
G01 X613.132269 Y251.933023 Z-0.125000
G01 X614.169830 Y248.820296 Z-0.125000
G01 X611.057089 Y245.707574 Z-0.125000
G01 X612.094707 Y240.519703 Z-0.125000
G01 X617.282572 Y242.594852 Z-0.125000
G01 X620.395286 Y245.707574 Z-0.125000
G01 X620.395286 Y249.857872 Z-0.125000
G01 X623.508056 Y250.895445 Z-0.125000
G01 X626.620741 Y254.008170 Z-0.125000
G01 X631.808607 Y252.970596 Z-0.125000
G01 X630.771045 Y248.820296 Z-0.125000
G01 X628.695893 Y245.707574 Z-0.125000
G01 X626.620741 Y242.594852 Z-0.125000
G01 X623.508056 Y239.482127 Z-0.125000
G01 X619.357696 Y237.406978 Z-0.125000
G01 X614.169830 Y236.369402 Z-0.125000
G01 X608.981965 Y235.331829 Z-0.125000
G01 X606.906842 Y240.519703 Z-0.125000
G01 X601.718948 Y237.406978 Z-0.125000
G01 X600.681358 Y242.594852 Z-0.125000
G01 X600.681358 Y246.745152 Z-0.125000
G01 X605.869252 Y245.707574 Z-0.125000
G01 X605.869252 Y250.895445 Z-0.125000
G01 X606.906842 Y254.008170 Z-0.125000
G01 X611.057089 Y257.120894 Z-0.125000
G01 X606.906842 Y262.308768 Z-0.125000
G01 X603.794100 Y260.233619 Z-0.125000
G01 X600.681358 Y258.158470 Z-0.125000
G01 X600.681358 Y252.970596 Z-0.125000
G01 X596.531054 Y251.933023 Z-0.125000
G01 X594.455903 Y247.782725 Z-0.125000
G01 X594.455903 Y243.632428 Z-0.125000
G01 X595.493493 Y239.482127 Z-0.125000
G01 X597.568644 Y234.294253 Z-0.125000
G01 X592.380807 Y234.294253 Z-0.125000
G01 X590.305627 Y239.482127 Z-0.125000
G01 X586.155324 Y238.444554 Z-0.125000
G01 X587.192914 Y233.256680 Z-0.125000
G01 X585.117762 Y230.143955 Z-0.125000
G01 X592.380807 Y228.068806 Z-0.125000
G01 X596.531054 Y229.106382 Z-0.125000
G01 X602.756538 Y230.143955 Z-0.125000
G01 X605.869252 Y233.256680 Z-0.125000
G01 X611.057089 Y228.068806 Z-0.125000
G01 X614.169830 Y231.181531 Z-0.125000
G01 X619.357696 Y230.143955 Z-0.125000
G01 X622.470438 Y233.256680 Z-0.125000
G01 X627.658303 Y228.068806 Z-0.125000
G01 X632.846168 Y229.106382 Z-0.125000
G01 X627.658303 Y234.294253 Z-0.125000
G01 X629.733427 Y236.369402 Z-0.125000
G01 X632.846168 Y239.482127 Z-0.125000
G01 X638.034090 Y238.444554 Z-0.125000
G01 X635.958910 Y233.256680 Z-0.125000
G01 X640.109186 Y228.068806 Z-0.125000
G01 X641.146804 Y232.219107 Z-0.125000
G01 X643.221927 Y236.369402 Z-0.125000
G01 X647.372203 Y237.406978 Z-0.125000
G01 X647.372203 Y231.181531 Z-0.125000
G01 X652.560124 Y233.256680 Z-0.125000
G01 X651.522506 Y238.444554 Z-0.125000
G01 X656.710400 Y238.444554 Z-0.125000
G01 X660.860675 Y240.519703 Z-0.125000
G01 X663.973417 Y242.594852 Z-0.125000
G01 X663.973417 Y247.782725 Z-0.125000
G01 X658.785523 Y247.782725 Z-0.125000
G01 X655.672838 Y244.670001 Z-0.125000
G01 X651.522506 Y243.632428 Z-0.125000
G01 X652.560124 Y248.820296 Z-0.125000
G01 X655.672838 Y252.970596 Z-0.125000
G01 X659.823142 Y254.008170 Z-0.125000
G01 X660.860675 Y256.083319 Z-0.125000
G01 X662.935855 Y259.196046 Z-0.125000
G01 X665.011007 Y261.271195 Z-0.125000
G01 X669.161311 Y262.308768 Z-0.125000
G01 X672.274024 Y257.120894 Z-0.125000
G01 X669.161311 Y254.008170 Z-0.125000
G01 X667.086159 Y249.857872 Z-0.125000
G01 X673.311586 Y248.820296 Z-0.125000
G01 X675.386738 Y250.895445 Z-0.125000
G01 X676.424299 Y258.158470 Z-0.125000
G01 X677.461889 Y262.308768 Z-0.125000
G01 X671.236434 Y265.421493 Z-0.125000
G01 X675.386738 Y267.496642 Z-0.125000
G01 X675.386738 Y271.646943 Z-0.125000
G01 X677.461889 Y274.759666 Z-0.125000
G01 X680.574631 Y278.909965 Z-0.125000
G01 X675.386738 Y280.985115 Z-0.125000
G01 X671.236434 Y279.947540 Z-0.125000
G01 X669.161311 Y277.872391 Z-0.125000
G01 X669.161311 Y273.722092 Z-0.125000
G01 X667.086159 Y271.646943 Z-0.125000
G01 X665.011007 Y267.496642 Z-0.125000
G01 X659.823142 Y266.459069 Z-0.125000
G01 X657.747990 Y262.308768 Z-0.125000
G01 X654.635276 Y259.196046 Z-0.125000
G01 X650.484944 Y255.045745 Z-0.125000
G01 X646.334641 Y252.970596 Z-0.125000
G01 X644.259489 Y250.895445 Z-0.125000
G01 X642.184366 Y248.820296 Z-0.125000
G01 X646.334641 Y243.632428 Z-0.125000
G01 X642.184366 Y242.594852 Z-0.125000
G01 X635.958910 Y243.632428 Z-0.125000
G01 X636.996472 Y247.782725 Z-0.125000
G01 X636.996472 Y252.970596 Z-0.125000
G01 X640.109186 Y256.083319 Z-0.125000
G01 X643.221927 Y259.196046 Z-0.125000
G01 X647.372203 Y260.233619 Z-0.125000
G01 X648.409821 Y263.346344 Z-0.125000
G01 X651.522506 Y265.421493 Z-0.125000
G01 X653.597686 Y268.534218 Z-0.125000
G01 X656.710400 Y271.646943 Z-0.125000
G01 X658.785523 Y273.722092 Z-0.125000
G01 X660.860675 Y275.797241 Z-0.125000
G01 X662.935855 Y278.909965 Z-0.125000
G01 X665.011007 Y283.060264 Z-0.125000
G01 X668.123721 Y286.172988 Z-0.125000
G01 X672.274024 Y287.210562 Z-0.125000
G01 X673.311586 Y290.323287 Z-0.125000
G01 X678.499451 Y285.135413 Z-0.125000
G01 X680.574631 Y289.285712 Z-0.125000
G01 X676.424299 Y293.436008 Z-0.125000
G01 X678.499451 Y296.548732 Z-0.125000
G01 X680.574631 Y303.811754 Z-0.125000
G01 X676.424299 Y301.736605 Z-0.125000
G01 X672.274024 Y300.699030 Z-0.125000
G01 X670.198901 Y297.586306 Z-0.125000
G01 X665.011007 Y303.811754 Z-0.125000
G01 X668.123721 Y305.886902 Z-0.125000
G01 X671.236434 Y307.962053 Z-0.125000
G01 X675.386738 Y307.962053 Z-0.125000
G01 X678.499451 Y311.074777 Z-0.125000
G01 X681.612193 Y314.187501 Z-0.125000
G01 X678.499451 Y319.375375 Z-0.125000
G01 X674.349204 Y317.300224 Z-0.125000
G01 X672.274024 Y314.187501 Z-0.125000
G01 X667.086159 Y313.149927 Z-0.125000
G01 X662.935855 Y311.074777 Z-0.125000
G01 X659.823142 Y308.999627 Z-0.125000
G01 X654.635276 Y314.187501 Z-0.125000
G01 X659.823142 Y316.262652 Z-0.125000
G01 X660.860675 Y319.375375 Z-0.125000
G01 X666.048541 Y318.337798 Z-0.125000
G01 X667.086159 Y321.450523 Z-0.125000
G01 X672.274024 Y322.488100 Z-0.125000
G01 X675.386738 Y325.600819 Z-0.125000
G01 X676.424299 Y329.751117 Z-0.125000
G01 X670.198901 Y329.751117 Z-0.125000
G01 X670.198901 Y333.901420 Z-0.125000
G01 X672.274024 Y337.014140 Z-0.125000
G01 X668.123721 Y343.239586 Z-0.125000
G01 X665.011007 Y341.164437 Z-0.125000
G01 X662.935855 Y338.051713 Z-0.125000
G01 X663.973417 Y333.901420 Z-0.125000
G01 X661.898265 Y330.788695 Z-0.125000
G01 X667.086159 Y326.638392 Z-0.125000
G01 X661.898265 Y325.600819 Z-0.125000
G01 X657.747990 Y324.563250 Z-0.125000
G01 X652.560124 Y323.525672 Z-0.125000
G01 X653.597686 Y319.375375 Z-0.125000
G01 X649.447383 Y319.375375 Z-0.125000
G01 X639.071652 Y305.886902 Z-0.125000
G01 X633.883787 Y303.811754 Z-0.125000
G01 X631.808607 Y299.661456 Z-0.125000
G01 X629.733427 Y297.586306 Z-0.125000
G01 X629.733427 Y293.436008 Z-0.125000
G01 X631.808607 Y288.248137 Z-0.125000
G01 X635.958910 Y291.360862 Z-0.125000
G01 X638.034090 Y294.473582 Z-0.125000
G01 X640.109186 Y299.661456 Z-0.125000
G01 X644.259489 Y300.699030 Z-0.125000
G01 X643.221927 Y294.473582 Z-0.125000
G01 X643.221927 Y289.285712 Z-0.125000
G01 X640.109186 Y286.172988 Z-0.125000
G01 X636.996472 Y284.097839 Z-0.125000
G01 X633.883787 Y280.985115 Z-0.125000
G01 X627.658303 Y283.060264 Z-0.125000
G01 X628.695893 Y287.210562 Z-0.125000
G01 X622.470438 Y287.210562 Z-0.125000
G01 X622.470438 Y291.360862 Z-0.125000
G01 X622.470438 Y295.511157 Z-0.125000
G01 X623.508056 Y298.623881 Z-0.125000
G01 X625.583151 Y302.774180 Z-0.125000
G01 X628.695893 Y305.886902 Z-0.125000
G01 X630.771045 Y310.037204 Z-0.125000
G01 X630.771045 Y314.187501 Z-0.125000
G01 X629.733427 Y319.375375 Z-0.125000
G01 X631.808607 Y321.450523 Z-0.125000
G01 X630.771045 Y326.638392 Z-0.125000
G01 X643.221927 Y325.600819 Z-0.125000
G01 X647.372203 Y326.638392 Z-0.125000
G01 X651.522506 Y328.713544 Z-0.125000
G01 X655.672838 Y330.788695 Z-0.125000
G01 X655.672838 Y334.938988 Z-0.125000
G01 X653.597686 Y339.089289 Z-0.125000
G01 X656.710400 Y340.126864 Z-0.125000
G01 X657.747990 Y344.277160 Z-0.125000
G01 X660.860675 Y346.352311 Z-0.125000
G01 X660.860675 Y350.502609 Z-0.125000
G01 X654.635276 Y350.502609 Z-0.125000
G01 X652.560124 Y345.314735 Z-0.125000
G01 X646.334641 Y343.239586 Z-0.125000
G01 X647.372203 Y340.126864 Z-0.125000
G01 X649.447383 Y334.938988 Z-0.125000
G01 X646.334641 Y331.826269 Z-0.125000
G01 X640.109186 Y330.788695 Z-0.125000
G01 X640.109186 Y334.938988 Z-0.125000
G01 X643.221927 Y338.051713 Z-0.125000
G01 X640.109186 Y342.202013 Z-0.125000
G01 X635.958910 Y340.126864 Z-0.125000
G01 X631.808607 Y339.089289 Z-0.125000
G01 X631.808607 Y333.901420 Z-0.125000
G01 X627.658303 Y331.826269 Z-0.125000
G01 X623.508056 Y328.713544 Z-0.125000
G01 X619.357696 Y327.675971 Z-0.125000
G01 X615.207392 Y324.563250 Z-0.125000
G01 X611.057089 Y322.488100 Z-0.125000
G01 X615.207392 Y317.300224 Z-0.125000
G01 X610.019527 Y317.300224 Z-0.125000
G01 X607.944403 Y314.187501 Z-0.125000
G01 X607.944403 Y310.037204 Z-0.125000
G01 X604.831662 Y305.886902 Z-0.125000
G01 X601.718948 Y303.811754 Z-0.125000
G01 X598.606234 Y300.699030 Z-0.125000
G01 X594.455903 Y299.661456 Z-0.125000
G01 X591.343217 Y297.586306 Z-0.125000
G01 X589.268037 Y303.811754 Z-0.125000
G01 X594.455903 Y305.886902 Z-0.125000
G01 X596.531054 Y308.999627 Z-0.125000
G01 X599.643796 Y311.074777 Z-0.125000
G01 X602.756538 Y313.149927 Z-0.125000
G01 X601.718948 Y318.337798 Z-0.125000
G01 X604.831662 Y321.450523 Z-0.125000
G01 X604.831662 Y325.600819 Z-0.125000
G01 X608.981965 Y327.675971 Z-0.125000
G01 X613.132269 Y329.751117 Z-0.125000
G01 X614.169830 Y333.901420 Z-0.125000
G01 X619.357696 Y333.901420 Z-0.125000
G01 X622.470438 Y335.976561 Z-0.125000
G01 X624.545589 Y339.089289 Z-0.125000
G01 X625.583151 Y341.164437 Z-0.125000
G01 X625.583151 Y345.314735 Z-0.125000
G01 X630.771045 Y345.314735 Z-0.125000
G01 X634.921320 Y346.352311 Z-0.125000
G01 X635.958910 Y350.502609 Z-0.125000
G01 X634.921320 Y355.690483 Z-0.125000
G01 X636.996472 Y358.803208 Z-0.125000
G01 X643.221927 Y356.728059 Z-0.125000
G01 X641.146804 Y352.577758 Z-0.125000
G01 X641.146804 Y347.389884 Z-0.125000
G01 X646.334641 Y348.427460 Z-0.125000
G01 X648.409821 Y351.540182 Z-0.125000
G01 X648.409821 Y355.690483 Z-0.125000
G01 X653.597686 Y355.690483 Z-0.125000
G01 X651.522506 Y363.991079 Z-0.125000
G01 X652.560124 Y368.141380 Z-0.125000
G01 X656.710400 Y369.178956 Z-0.125000
G01 X660.860675 Y372.291678 Z-0.125000
G01 X661.898265 Y376.441976 Z-0.125000
G01 X660.860675 Y380.592271 Z-0.125000
G01 X655.672838 Y377.479551 Z-0.125000
G01 X653.597686 Y374.366827 Z-0.125000
G01 X648.409821 Y375.404402 Z-0.125000
G01 X646.334641 Y372.291678 Z-0.125000
G01 X646.334641 Y368.141380 Z-0.125000
G01 X640.109186 Y365.028658 Z-0.125000
G01 X641.146804 Y371.254102 Z-0.125000
G01 X636.996472 Y370.216526 Z-0.125000
G01 X632.846168 Y369.178956 Z-0.125000
G01 X628.695893 Y367.103804 Z-0.125000
G01 X621.432876 Y366.066231 Z-0.125000
G01 X620.395286 Y371.254102 Z-0.125000
G01 X625.583151 Y371.254102 Z-0.125000
G01 X629.733427 Y374.366827 Z-0.125000
G01 X633.883787 Y376.441976 Z-0.125000
G01 X635.958910 Y378.517122 Z-0.125000
G01 X640.109186 Y381.629847 Z-0.125000
G01 X642.184366 Y376.441976 Z-0.125000
G01 X645.297079 Y380.592271 Z-0.125000
G01 X649.447383 Y381.629847 Z-0.125000
G01 X653.597686 Y381.629847 Z-0.125000
G01 X653.597686 Y385.780147 Z-0.125000
G01 X658.785523 Y385.780147 Z-0.125000
G01 X661.898265 Y388.892869 Z-0.125000
G01 X665.011007 Y392.005594 Z-0.125000
G01 X666.048541 Y396.155892 Z-0.125000
G01 X666.048541 Y400.306193 Z-0.125000
G01 X659.823142 Y396.155892 Z-0.125000
G01 X659.823142 Y400.306193 Z-0.125000
G01 X661.898265 Y404.456491 Z-0.125000
G01 X666.048541 Y405.494061 Z-0.125000
G01 X661.898265 Y410.681938 Z-0.125000
G01 X666.048541 Y411.719514 Z-0.125000
G01 X670.198901 Y412.757087 Z-0.125000
G01 X672.274024 Y416.907385 Z-0.125000
G01 X676.424299 Y417.944961 Z-0.125000
G01 X677.461889 Y422.095256 Z-0.125000
G01 X676.424299 Y428.320703 Z-0.125000
G01 X677.461889 Y432.471001 Z-0.125000
G01 X681.612193 Y432.471001 Z-0.125000
G01 X679.537041 Y437.658872 Z-0.125000
G01 X684.724935 Y436.621298 Z-0.125000
G01 X684.724935 Y440.771591 Z-0.125000
G01 X687.837648 Y441.809167 Z-0.125000
G01 X691.987924 Y442.846743 Z-0.125000
G01 X689.912800 Y448.034616 Z-0.125000
G01 X694.063076 Y449.072192 Z-0.125000
G01 X699.250969 Y450.109765 Z-0.125000
G01 X701.326093 Y445.959467 Z-0.125000
G01 X697.175789 Y443.884318 Z-0.125000
G01 X697.175789 Y438.696445 Z-0.125000
G01 X693.025514 Y436.621298 Z-0.125000
G01 X690.950390 Y433.508574 Z-0.125000
G01 X687.837648 Y430.395852 Z-0.125000
G01 X683.687345 Y427.283130 Z-0.125000
G01 X681.612193 Y424.170405 Z-0.125000
G01 X683.687345 Y418.982534 Z-0.125000
G01 X681.612193 Y415.869809 Z-0.125000
G01 X681.612193 Y411.719514 Z-0.125000
G01 X676.424299 Y411.719514 Z-0.125000
G01 X676.424299 Y407.569213 Z-0.125000
G01 X671.236434 Y407.569213 Z-0.125000
G01 X672.274024 Y403.418918 Z-0.125000
G01 X672.274024 Y399.268614 Z-0.125000
G01 X672.274024 Y395.118319 Z-0.125000
G01 X671.236434 Y390.968018 Z-0.125000
G01 X673.311586 Y385.780147 Z-0.125000
G01 X668.123721 Y386.817720 Z-0.125000
G01 X665.011007 Y383.704996 Z-0.125000
G01 X667.086159 Y378.517122 Z-0.125000
G01 X671.236434 Y380.592271 Z-0.125000
G01 X669.161311 Y373.329251 Z-0.125000
G01 X667.086159 Y370.216526 Z-0.125000
G01 X667.086159 Y365.028658 Z-0.125000
G01 X661.898265 Y367.103804 Z-0.125000
G01 X658.785523 Y362.953506 Z-0.125000
G01 X663.973417 Y359.840784 Z-0.125000
G01 X668.123721 Y359.840784 Z-0.125000
G01 X672.274024 Y361.915930 Z-0.125000
G01 X673.311586 Y367.103804 Z-0.125000
G01 X674.349204 Y372.291678 Z-0.125000
G01 X675.386738 Y376.441976 Z-0.125000
G01 X676.424299 Y380.592271 Z-0.125000
G01 X681.612193 Y379.554695 Z-0.125000
G01 X684.724935 Y382.667422 Z-0.125000
G01 X683.687345 Y387.855293 Z-0.125000
G01 X678.499451 Y385.780147 Z-0.125000
G01 X677.461889 Y389.930442 Z-0.125000
G01 X678.499451 Y394.080746 Z-0.125000
G01 X678.499451 Y399.268614 Z-0.125000
G01 X679.537041 Y401.343766 Z-0.125000
G01 X682.649755 Y404.456491 Z-0.125000
G01 X685.762525 Y406.531640 Z-0.125000
G01 X687.837648 Y411.719514 Z-0.125000
G01 X689.912800 Y413.794663 Z-0.125000
G01 X688.875238 Y418.982534 Z-0.125000
G01 X689.912800 Y421.057685 Z-0.125000
G01 X689.912800 Y425.207978 Z-0.125000
G01 X694.063076 Y428.320703 Z-0.125000
G01 X696.138227 Y423.132832 Z-0.125000
G01 X698.213379 Y417.944961 Z-0.125000
G01 X696.138227 Y415.869809 Z-0.125000
G01 X696.138227 Y410.681938 Z-0.125000
G01 X695.100666 Y406.531640 Z-0.125000
G01 X690.950390 Y405.494061 Z-0.125000
G01 X688.875238 Y401.343766 Z-0.125000
G01 X685.762525 Y398.231041 Z-0.125000
G01 X684.724935 Y392.005594 Z-0.125000
G01 X687.837648 Y393.043167 Z-0.125000
G01 X691.987924 Y395.118319 Z-0.125000
G01 X695.100666 Y398.231041 Z-0.125000
G01 X697.175789 Y401.343766 Z-0.125000
G01 X701.326093 Y403.418918 Z-0.125000
G01 X705.476425 Y404.456491 Z-0.125000
G01 X707.551548 Y408.606786 Z-0.125000
G01 X701.326093 Y409.644362 Z-0.125000
G01 X704.438835 Y412.757087 Z-0.125000
G01 X709.626700 Y413.794663 Z-0.125000
G01 X710.664290 Y415.869809 Z-0.125000
G01 X715.852155 Y415.869809 Z-0.125000
G01 X718.964869 Y417.944961 Z-0.125000
G01 X722.077611 Y421.057685 Z-0.125000
G01 X724.152734 Y425.207978 Z-0.125000
G01 X727.265448 Y427.283130 Z-0.125000
G01 X722.077611 Y432.471001 Z-0.125000
G01 X726.227886 Y433.508574 Z-0.125000
G01 X730.378190 Y433.508574 Z-0.125000
G01 X732.453341 Y436.621298 Z-0.125000
G01 X735.566083 Y438.696445 Z-0.125000
G01 X735.566083 Y442.846743 Z-0.125000
G01 X738.678825 Y445.959467 Z-0.125000
G01 X736.603673 Y450.109765 Z-0.125000
G01 X732.453341 Y449.072192 Z-0.125000
G01 X729.340628 Y445.959467 Z-0.125000
G01 X728.303038 Y442.846743 Z-0.125000
G01 X726.227886 Y439.734020 Z-0.125000
G01 X721.040049 Y440.771591 Z-0.125000
G01 X717.927307 Y437.658872 Z-0.125000
G01 X715.852155 Y441.809167 Z-0.125000
G01 X718.964869 Y445.959467 Z-0.125000
G01 X723.115144 Y446.997043 Z-0.125000
G01 X725.190324 Y451.147338 Z-0.125000
G01 X728.303038 Y454.260063 Z-0.125000
G01 X732.453341 Y455.297642 Z-0.125000
G01 X733.490903 Y459.447937 Z-0.125000
G01 X726.227886 Y460.485510 Z-0.125000
G01 X728.303038 Y463.598235 Z-0.125000
G01 X730.378190 Y466.710960 Z-0.125000
G01 X731.415808 Y468.786109 Z-0.125000
G01 X736.603673 Y468.786109 Z-0.125000
G01 X737.641207 Y463.598235 Z-0.125000
G01 X738.678825 Y459.447937 Z-0.125000
G01 X743.866662 Y463.598235 Z-0.125000
G01 X741.791539 Y468.786109 Z-0.125000
G01 X746.979404 Y468.786109 Z-0.125000
G01 X745.941842 Y472.936410 Z-0.125000
G01 X748.016937 Y475.011559 Z-0.125000
G01 X751.129707 Y478.124281 Z-0.125000
G01 X749.054556 Y483.312157 Z-0.125000
G01 X744.904224 Y481.237005 Z-0.125000
G01 X741.791539 Y478.124281 Z-0.125000
G01 X739.716359 Y473.973986 Z-0.125000
G01 X734.528521 Y473.973986 Z-0.125000
G01 X735.566083 Y479.161857 Z-0.125000
G01 X737.641207 Y483.312157 Z-0.125000
G01 X741.791539 Y485.387306 Z-0.125000
G01 X746.979404 Y487.462455 Z-0.125000
G01 X750.092117 Y489.537601 Z-0.125000
G01 X754.242421 Y489.537601 Z-0.125000
G01 X756.317573 Y493.687905 Z-0.125000
G01 X760.467876 Y488.500028 Z-0.125000
G01 X760.467876 Y484.349733 Z-0.125000
G01 X756.317573 Y483.312157 Z-0.125000
G01 X755.279955 Y481.237005 Z-0.125000
G01 X757.355135 Y475.011559 Z-0.125000
G01 X754.242421 Y471.898834 Z-0.125000
G01 X755.279955 Y468.786109 Z-0.125000
G01 X753.204859 Y465.673387 Z-0.125000
G01 X750.092117 Y462.560662 Z-0.125000
G01 X749.054556 Y460.485510 Z-0.125000
G01 X744.904224 Y458.410367 Z-0.125000
G01 X743.866662 Y454.260063 Z-0.125000
G01 X738.678825 Y454.260063 Z-0.125000
G01 X742.829072 Y449.072192 Z-0.125000
G01 X748.016937 Y448.034616 Z-0.125000
G01 X750.092117 Y442.846743 Z-0.125000
G01 X744.904224 Y442.846743 Z-0.125000
G01 X741.791539 Y439.734020 Z-0.125000
G01 X741.791539 Y435.583725 Z-0.125000
G01 X743.866662 Y430.395852 Z-0.125000
G01 X748.016937 Y431.433425 Z-0.125000
G01 X748.016937 Y436.621298 Z-0.125000
G01 X752.167269 Y437.658872 Z-0.125000
G01 X757.355135 Y437.658872 Z-0.125000
G01 X761.505438 Y440.771591 Z-0.125000
G01 X764.618152 Y444.921891 Z-0.125000
G01 X767.730922 Y448.034616 Z-0.125000
G01 X772.918759 Y448.034616 Z-0.125000
G01 X768.768455 Y453.222490 Z-0.125000
G01 X773.956293 Y453.222490 Z-0.125000
G01 X772.918759 Y456.335215 Z-0.125000
G01 X778.106653 Y458.410367 Z-0.125000
G01 X780.181776 Y453.222490 Z-0.125000
G01 X778.106653 Y448.034616 Z-0.125000
G01 X784.332080 Y446.997043 Z-0.125000
G01 X780.181776 Y442.846743 Z-0.125000
G01 X774.993911 Y442.846743 Z-0.125000
G01 X770.843635 Y441.809167 Z-0.125000
G01 X768.768455 Y439.734020 Z-0.125000
G01 X765.655742 Y436.621298 Z-0.125000
G01 X762.543028 Y433.508574 Z-0.125000
G01 X757.355135 Y432.471001 Z-0.125000
G01 X753.204859 Y431.433425 Z-0.125000
G01 X752.167269 Y426.245556 Z-0.125000
G01 X746.979404 Y425.207978 Z-0.125000
G01 X744.904224 Y421.057685 Z-0.125000
G01 X742.829072 Y417.944961 Z-0.125000
G01 X742.829072 Y413.794663 Z-0.125000
G01 X739.716359 Y411.719514 Z-0.125000
G01 X735.566083 Y408.606786 Z-0.125000
G01 X740.753920 Y407.569213 Z-0.125000
G01 X738.678825 Y403.418918 Z-0.125000
G01 X734.528521 Y402.381339 Z-0.125000
G01 X731.415808 Y399.268614 Z-0.125000
G01 X726.227886 Y400.306193 Z-0.125000
G01 X723.115144 Y397.193468 Z-0.125000
G01 X730.378190 Y395.118319 Z-0.125000
G01 X728.303038 Y392.005594 Z-0.125000
G01 X723.115144 Y392.005594 Z-0.125000
G01 X718.964869 Y388.892869 Z-0.125000
G01 X714.814593 Y386.817720 Z-0.125000
G01 X710.664290 Y386.817720 Z-0.125000
G01 X706.513986 Y384.742571 Z-0.125000
G01 X707.551548 Y380.592271 Z-0.125000
G01 X703.401273 Y379.554695 Z-0.125000
G01 X705.476425 Y374.366827 Z-0.125000
G01 X703.401273 Y369.178956 Z-0.125000
G01 X700.288559 Y367.103804 Z-0.125000
G01 X696.138227 Y366.066231 Z-0.125000
G01 X695.100666 Y362.953506 Z-0.125000
G01 X689.912800 Y365.028658 Z-0.125000
G01 X689.912800 Y359.840784 Z-0.125000
G01 X691.987924 Y353.615334 Z-0.125000
G01 X695.100666 Y356.728059 Z-0.125000
G01 X699.250969 Y357.765632 Z-0.125000
G01 X702.363683 Y360.878354 Z-0.125000
G01 X706.513986 Y362.953506 Z-0.125000
G01 X710.664290 Y363.991079 Z-0.125000
G01 X715.852155 Y361.915930 Z-0.125000
G01 X720.002459 Y362.953506 Z-0.125000
G01 X724.152734 Y362.953506 Z-0.125000
G01 X725.190324 Y365.028658 Z-0.125000
G01 X728.303038 Y368.141380 Z-0.125000
G01 X732.453341 Y369.178956 Z-0.125000
G01 X733.490903 Y371.254102 Z-0.125000
G01 X735.566083 Y374.366827 Z-0.125000
G01 X739.716359 Y376.441976 Z-0.125000
G01 X743.866662 Y377.479551 Z-0.125000
G01 X741.791539 Y382.667422 Z-0.125000
G01 X736.603673 Y381.629847 Z-0.125000
G01 X732.453341 Y380.592271 Z-0.125000
G01 X729.340628 Y377.479551 Z-0.125000
G01 X725.190324 Y376.441976 Z-0.125000
G01 X724.152734 Y374.366827 Z-0.125000
G01 X722.077611 Y371.254102 Z-0.125000
G01 X718.964869 Y369.178956 Z-0.125000
G01 X713.777003 Y368.141380 Z-0.125000
G01 X708.589110 Y369.178956 Z-0.125000
G01 X710.664290 Y374.366827 Z-0.125000
G01 X714.814593 Y374.366827 Z-0.125000
G01 X717.927307 Y377.479551 Z-0.125000
G01 X712.739413 Y380.592271 Z-0.125000
G01 X717.927307 Y381.629847 Z-0.125000
G01 X722.077611 Y382.667422 Z-0.125000
G01 X726.227886 Y383.704996 Z-0.125000
G01 X725.190324 Y386.817720 Z-0.125000
G01 X731.415808 Y386.817720 Z-0.125000
G01 X736.603673 Y386.817720 Z-0.125000
G01 X735.566083 Y390.968018 Z-0.125000
G01 X737.641207 Y396.155892 Z-0.125000
G01 X740.753920 Y398.231041 Z-0.125000
G01 X744.904224 Y400.306193 Z-0.125000
G01 X746.979404 Y403.418918 Z-0.125000
G01 X746.979404 Y407.569213 Z-0.125000
G01 X749.054556 Y411.719514 Z-0.125000
G01 X751.129707 Y414.832236 Z-0.125000
G01 X750.092117 Y417.944961 Z-0.125000
G01 X753.204859 Y421.057685 Z-0.125000
G01 X758.392696 Y420.020110 Z-0.125000
G01 X757.355135 Y425.207978 Z-0.125000
G01 X760.467876 Y426.245556 Z-0.125000
G01 X763.580590 Y429.358278 Z-0.125000
G01 X768.768455 Y430.395852 Z-0.125000
G01 X771.881169 Y433.508574 Z-0.125000
G01 X776.031473 Y434.546147 Z-0.125000
G01 X779.144186 Y437.658872 Z-0.125000
G01 X785.369670 Y437.658872 Z-0.125000
G01 X783.294490 Y433.508574 Z-0.125000
G01 X778.106653 Y430.395852 Z-0.125000
G01 X774.993911 Y427.283130 Z-0.125000
G01 X770.843635 Y425.207978 Z-0.125000
G01 X766.693304 Y423.132832 Z-0.125000
G01 X764.618152 Y420.020110 Z-0.125000
G01 X762.543028 Y414.832236 Z-0.125000
G01 X757.355135 Y414.832236 Z-0.125000
G01 X755.279955 Y409.644362 Z-0.125000
G01 X753.204859 Y405.494061 Z-0.125000
G01 X753.204859 Y401.343766 Z-0.125000
G01 X751.129707 Y397.193468 Z-0.125000
G01 X749.054556 Y394.080746 Z-0.125000
G01 X744.904224 Y393.043167 Z-0.125000
G01 X740.753920 Y390.968018 Z-0.125000
G01 X742.829072 Y386.817720 Z-0.125000
G01 X748.016937 Y386.817720 Z-0.125000
G01 X751.129707 Y389.930442 Z-0.125000
G01 X756.317573 Y393.043167 Z-0.125000
G01 X758.392696 Y397.193468 Z-0.125000
G01 X759.430258 Y401.343766 Z-0.125000
G01 X760.467876 Y404.456491 Z-0.125000
G01 X760.467876 Y408.606786 Z-0.125000
G01 X764.618152 Y409.644362 Z-0.125000
G01 X767.730922 Y413.794663 Z-0.125000
G01 X770.843635 Y416.907385 Z-0.125000
G01 X772.918759 Y420.020110 Z-0.125000
G01 X778.106653 Y418.982534 Z-0.125000
G01 X779.144186 Y422.095256 Z-0.125000
G01 X781.219338 Y424.170405 Z-0.125000
G01 X784.332080 Y427.283130 Z-0.125000
G01 X785.369670 Y416.907385 Z-0.125000
G01 X785.369670 Y411.719514 Z-0.125000
G01 X780.181776 Y413.794663 Z-0.125000
G01 X776.031473 Y412.757087 Z-0.125000
G01 X773.956293 Y409.644362 Z-0.125000
G01 X770.843635 Y407.569213 Z-0.125000
G01 X769.806045 Y405.494061 Z-0.125000
G01 X766.693304 Y402.381339 Z-0.125000
G01 X767.730922 Y399.268614 Z-0.125000
G01 X764.618152 Y396.155892 Z-0.125000
G01 X762.543028 Y392.005594 Z-0.125000
G01 X759.430258 Y388.892869 Z-0.125000
G01 X757.355135 Y385.780147 Z-0.125000
G01 X753.204859 Y383.704996 Z-0.125000
G01 X753.204859 Y379.554695 Z-0.125000
G01 X748.016937 Y380.592271 Z-0.125000
G01 X750.092117 Y375.404402 Z-0.125000
G01 X752.167269 Y370.216526 Z-0.125000
G01 X757.355135 Y370.216526 Z-0.125000
G01 X756.317573 Y374.366827 Z-0.125000
G01 X759.430258 Y377.479551 Z-0.125000
G01 X760.467876 Y380.592271 Z-0.125000
G01 X764.618152 Y383.704996 Z-0.125000
G01 X766.693304 Y386.817720 Z-0.125000
G01 X768.768455 Y390.968018 Z-0.125000
G01 X771.881169 Y393.043167 Z-0.125000
G01 X773.956293 Y397.193468 Z-0.125000
G01 X776.031473 Y400.306193 Z-0.125000
G01 X778.106653 Y404.456491 Z-0.125000
G01 X781.219338 Y407.569213 Z-0.125000
G01 X786.407231 Y406.531640 Z-0.125000
G01 X785.369670 Y402.381339 Z-0.125000
G01 X783.294490 Y399.268614 Z-0.125000
G01 X782.256956 Y397.193468 Z-0.125000
G01 X780.181776 Y394.080746 Z-0.125000
G01 X777.069063 Y390.968018 Z-0.125000
G01 X777.069063 Y386.817720 Z-0.125000
G01 X772.918759 Y385.780147 Z-0.125000
G01 X772.918759 Y381.629847 Z-0.125000
G01 X770.843635 Y379.554695 Z-0.125000
G01 X766.693304 Y378.517122 Z-0.125000
G01 X767.730922 Y374.366827 Z-0.125000
G01 X764.618152 Y372.291678 Z-0.125000
G01 X763.580590 Y369.178956 Z-0.125000
G01 X762.543028 Y365.028658 Z-0.125000
G01 X757.355135 Y365.028658 Z-0.125000
G01 X756.317573 Y359.840784 Z-0.125000
G01 X755.279955 Y356.728059 Z-0.125000
G01 X753.204859 Y351.540182 Z-0.125000
G01 X751.129707 Y355.690483 Z-0.125000
G01 X746.979404 Y354.652907 Z-0.125000
G01 X743.866662 Y351.540182 Z-0.125000
G01 X741.791539 Y346.352311 Z-0.125000
G01 X739.716359 Y341.164437 Z-0.125000
G01 X734.528521 Y341.164437 Z-0.125000
G01 X730.378190 Y340.126864 Z-0.125000
G01 X727.265448 Y335.976561 Z-0.125000
G01 X725.190324 Y331.826269 Z-0.125000
G01 X726.227886 Y327.675971 Z-0.125000
G01 X723.115144 Y324.563250 Z-0.125000
G01 X721.040049 Y321.450523 Z-0.125000
G01 X716.889717 Y321.450523 Z-0.125000
G01 X711.701823 Y320.412949 Z-0.125000
G01 X709.626700 Y317.300224 Z-0.125000
G01 X708.589110 Y312.112351 Z-0.125000
G01 X704.438835 Y308.999627 Z-0.125000
G01 X704.438835 Y304.849329 Z-0.125000
G01 X703.401273 Y300.699030 Z-0.125000
G01 X703.401273 Y296.548732 Z-0.125000
G01 X702.363683 Y292.398433 Z-0.125000
G01 X704.438835 Y287.210562 Z-0.125000
G01 X703.401273 Y280.985115 Z-0.125000
G01 X707.551548 Y282.022689 Z-0.125000
G01 X709.626700 Y287.210562 Z-0.125000
G01 X708.589110 Y291.360862 Z-0.125000
G01 X709.626700 Y295.511157 Z-0.125000
G01 X709.626700 Y299.661456 Z-0.125000
G01 X711.701823 Y302.774180 Z-0.125000
G01 X710.664290 Y306.924479 Z-0.125000
G01 X713.777003 Y311.074777 Z-0.125000
G01 X715.852155 Y315.225075 Z-0.125000
G01 X720.002459 Y316.262652 Z-0.125000
G01 X727.265448 Y318.337798 Z-0.125000
G01 X729.340628 Y321.450523 Z-0.125000
G01 X732.453341 Y324.563250 Z-0.125000
G01 X736.603673 Y325.600819 Z-0.125000
G01 X737.641207 Y329.751117 Z-0.125000
G01 X731.415808 Y330.788695 Z-0.125000
G01 X733.490903 Y334.938988 Z-0.125000
G01 X738.678825 Y334.938988 Z-0.125000
G01 X742.829072 Y334.938988 Z-0.125000
G01 X744.904224 Y339.089289 Z-0.125000
G01 X746.979404 Y342.202013 Z-0.125000
G01 X746.979404 Y346.352311 Z-0.125000
G01 X750.092117 Y348.427460 Z-0.125000
G01 X754.242421 Y343.239586 Z-0.125000
G01 X757.355135 Y345.314735 Z-0.125000
G01 X759.430258 Y349.465036 Z-0.125000
G01 X761.505438 Y352.577758 Z-0.125000
G01 X762.543028 Y355.690483 Z-0.125000
G01 X762.543028 Y359.840784 Z-0.125000
G01 X767.730922 Y359.840784 Z-0.125000
G01 X768.768455 Y362.953506 Z-0.125000
G01 X770.843635 Y368.141380 Z-0.125000
G01 X773.956293 Y371.254102 Z-0.125000
G01 X776.031473 Y374.366827 Z-0.125000
G01 X780.181776 Y375.404402 Z-0.125000
G01 X779.144186 Y380.592271 Z-0.125000
G01 X783.294490 Y383.704996 Z-0.125000
G01 X783.294490 Y387.855293 Z-0.125000
G01 X786.407231 Y390.968018 Z-0.125000
G01 X790.557507 Y392.005594 Z-0.125000
G01 X790.557507 Y396.155892 Z-0.125000
G01 X791.595097 Y401.343766 Z-0.125000
G01 X796.782990 Y401.343766 Z-0.125000
G01 X795.745400 Y396.155892 Z-0.125000
G01 X796.782990 Y392.005594 Z-0.125000
G01 X798.858114 Y386.817720 Z-0.125000
G01 X803.008446 Y389.930442 Z-0.125000
G01 X806.121131 Y390.968018 Z-0.125000
G01 X807.158721 Y395.118319 Z-0.125000
G01 X801.970856 Y396.155892 Z-0.125000
G01 X801.970856 Y401.343766 Z-0.125000
G01 X807.158721 Y400.306193 Z-0.125000
G01 X808.196311 Y402.381339 Z-0.125000
G01 X811.309025 Y405.494061 Z-0.125000
G01 X816.496890 Y407.569213 Z-0.125000
G01 X819.609575 Y410.681938 Z-0.125000
G01 X823.759907 Y411.719514 Z-0.125000
G01 X825.835059 Y414.832236 Z-0.125000
G01 X829.985363 Y407.569213 Z-0.125000
G01 X832.060514 Y411.719514 Z-0.125000
G01 X829.985363 Y415.869809 Z-0.125000
G01 X832.060514 Y418.982534 Z-0.125000
G01 X835.173228 Y421.057685 Z-0.125000
G01 X837.248380 Y413.794663 Z-0.125000
G01 X840.361093 Y416.907385 Z-0.125000
G01 X840.361093 Y421.057685 Z-0.125000
G01 X844.511425 Y422.095256 Z-0.125000
G01 X850.736852 Y421.057685 Z-0.125000
G01 X850.736852 Y416.907385 Z-0.125000
G01 X846.586577 Y415.869809 Z-0.125000
G01 X844.511425 Y411.719514 Z-0.125000
G01 X840.361093 Y409.644362 Z-0.125000
G01 X838.285942 Y406.531640 Z-0.125000
G01 X835.173228 Y404.456491 Z-0.125000
G01 X832.060514 Y401.343766 Z-0.125000
G01 X831.022924 Y397.193468 Z-0.125000
G01 X827.910211 Y395.118319 Z-0.125000
G01 X826.872621 Y390.968018 Z-0.125000
G01 X822.722345 Y387.855293 Z-0.125000
G01 X817.534480 Y387.855293 Z-0.125000
G01 X817.534480 Y393.043167 Z-0.125000
G01 X821.684755 Y394.080746 Z-0.125000
G01 X822.722345 Y398.231041 Z-0.125000
G01 X825.835059 Y402.381339 Z-0.125000
G01 X824.797469 Y406.531640 Z-0.125000
G01 X820.647165 Y403.418918 Z-0.125000
G01 X816.496890 Y401.343766 Z-0.125000
G01 X814.421738 Y398.231041 Z-0.125000
G01 X812.346587 Y393.043167 Z-0.125000
G01 X812.346587 Y387.855293 Z-0.125000
G01 X812.346587 Y382.667422 Z-0.125000
G01 X807.158721 Y384.742571 Z-0.125000
G01 X804.045979 Y382.667422 Z-0.125000
G01 X801.970856 Y378.517122 Z-0.125000
G01 X799.895704 Y375.404402 Z-0.125000
G01 X800.933294 Y370.216526 Z-0.125000
G01 X796.782990 Y369.178956 Z-0.125000
G01 X793.670220 Y366.066231 Z-0.125000
G01 X789.519945 Y366.066231 Z-0.125000
G01 X790.557507 Y372.291678 Z-0.125000
G01 X793.670220 Y374.366827 Z-0.125000
G01 X794.707810 Y379.554695 Z-0.125000
G01 X796.782990 Y382.667422 Z-0.125000
G01 X792.632687 Y387.855293 Z-0.125000
G01 X789.519945 Y384.742571 Z-0.125000
G01 X789.519945 Y379.554695 Z-0.125000
G01 X785.369670 Y378.517122 Z-0.125000
G01 X785.369670 Y373.329251 Z-0.125000
G01 X784.332080 Y369.178956 Z-0.125000
G01 X780.181776 Y368.141380 Z-0.125000
G01 X777.069063 Y365.028658 Z-0.125000
G01 X773.956293 Y362.953506 Z-0.125000
G01 X773.956293 Y356.728059 Z-0.125000
G01 X779.144186 Y357.765632 Z-0.125000
G01 X782.256956 Y359.840784 Z-0.125000
G01 X784.332080 Y362.953506 Z-0.125000
G01 X789.519945 Y361.915930 Z-0.125000
G01 X791.595097 Y356.728059 Z-0.125000
G01 X787.444821 Y355.690483 Z-0.125000
G01 X784.332080 Y352.577758 Z-0.125000
G01 X780.181776 Y351.540182 Z-0.125000
G01 X779.144186 Y347.389884 Z-0.125000
G01 X777.069063 Y343.239586 Z-0.125000
G01 X777.069063 Y338.051713 Z-0.125000
G01 X776.031473 Y334.938988 Z-0.125000
G01 X772.918759 Y332.863842 Z-0.125000
G01 X771.881169 Y328.713544 Z-0.125000
G01 X766.693304 Y327.675971 Z-0.125000
G01 X767.730922 Y323.525672 Z-0.125000
G01 X769.806045 Y319.375375 Z-0.125000
G01 X767.730922 Y316.262652 Z-0.125000
G01 X766.693304 Y312.112351 Z-0.125000
G01 X768.768455 Y306.924479 Z-0.125000
G01 X765.655742 Y305.886902 Z-0.125000
G01 X762.543028 Y303.811754 Z-0.125000
G01 X757.355135 Y301.736605 Z-0.125000
G01 X754.242421 Y298.623881 Z-0.125000
G01 X749.054556 Y296.548732 Z-0.125000
G01 X743.866662 Y292.398433 Z-0.125000
G01 X741.791539 Y288.248137 Z-0.125000
G01 X742.829072 Y283.060264 Z-0.125000
G01 X740.753920 Y279.947540 Z-0.125000
G01 X735.566083 Y280.985115 Z-0.125000
G01 X736.603673 Y287.210562 Z-0.125000
G01 X735.566083 Y291.360862 Z-0.125000
G01 X736.603673 Y295.511157 Z-0.125000
G01 X739.716359 Y297.586306 Z-0.125000
G01 X743.866662 Y298.623881 Z-0.125000
G01 X746.979404 Y301.736605 Z-0.125000
G01 X751.129707 Y303.811754 Z-0.125000
G01 X756.317573 Y306.924479 Z-0.125000
G01 X758.392696 Y310.037204 Z-0.125000
G01 X760.467876 Y313.149927 Z-0.125000
G01 X761.505438 Y317.300224 Z-0.125000
G01 X762.543028 Y323.525672 Z-0.125000
G01 X759.430258 Y322.488100 Z-0.125000
G01 X755.279955 Y321.450523 Z-0.125000
G01 X755.279955 Y317.300224 Z-0.125000
G01 X753.204859 Y313.149927 Z-0.125000
G01 X750.092117 Y310.037204 Z-0.125000
G01 X746.979404 Y308.999627 Z-0.125000
G01 X743.866662 Y305.886902 Z-0.125000
G01 X739.716359 Y303.811754 Z-0.125000
G01 X734.528521 Y301.736605 Z-0.125000
G01 X730.378190 Y300.699030 Z-0.125000
G01 X730.378190 Y296.548732 Z-0.125000
G01 X729.340628 Y292.398433 Z-0.125000
G01 X731.415808 Y287.210562 Z-0.125000
G01 X728.303038 Y286.172988 Z-0.125000
G01 X728.303038 Y282.022689 Z-0.125000
G01 X733.490903 Y277.872391 Z-0.125000
G01 X730.378190 Y274.759666 Z-0.125000
G01 X727.265448 Y272.684517 Z-0.125000
G01 X722.077611 Y272.684517 Z-0.125000
G01 X720.002459 Y269.571794 Z-0.125000
G01 X722.077611 Y265.421493 Z-0.125000
G01 X727.265448 Y266.459069 Z-0.125000
G01 X731.415808 Y267.496642 Z-0.125000
G01 X735.566083 Y268.534218 Z-0.125000
G01 X735.566083 Y272.684517 Z-0.125000
G01 X739.716359 Y274.759666 Z-0.125000
G01 X744.904224 Y272.684517 Z-0.125000
G01 X745.941842 Y275.797241 Z-0.125000
G01 X749.054556 Y278.909965 Z-0.125000
G01 X748.016937 Y283.060264 Z-0.125000
G01 X748.016937 Y287.210562 Z-0.125000
G01 X749.054556 Y291.360862 Z-0.125000
G01 X754.242421 Y291.360862 Z-0.125000
G01 X756.317573 Y293.436008 Z-0.125000
G01 X760.467876 Y295.511157 Z-0.125000
G01 X763.580590 Y297.586306 Z-0.125000
G01 X766.693304 Y298.623881 Z-0.125000
G01 X770.843635 Y300.699030 Z-0.125000
G01 X774.993911 Y301.736605 Z-0.125000
G01 X773.956293 Y306.924479 Z-0.125000
G01 X772.918759 Y311.074777 Z-0.125000
G01 X774.993911 Y314.187501 Z-0.125000
G01 X776.031473 Y318.337798 Z-0.125000
G01 X773.956293 Y323.525672 Z-0.125000
G01 X778.106653 Y325.600819 Z-0.125000
G01 X779.144186 Y328.713544 Z-0.125000
G01 X783.294490 Y329.751117 Z-0.125000
G01 X783.294490 Y333.901420 Z-0.125000
G01 X782.256956 Y339.089289 Z-0.125000
G01 X784.332080 Y342.202013 Z-0.125000
G01 X785.369670 Y346.352311 Z-0.125000
G01 X790.557507 Y346.352311 Z-0.125000
G01 X789.519945 Y350.502609 Z-0.125000
G01 X794.707810 Y350.502609 Z-0.125000
G01 X799.895704 Y349.465036 Z-0.125000
G01 X803.008446 Y353.615334 Z-0.125000
G01 X797.820552 Y354.652907 Z-0.125000
G01 X795.745400 Y359.840784 Z-0.125000
G01 X800.933294 Y359.840784 Z-0.125000
G01 X799.895704 Y362.953506 Z-0.125000
G01 X804.045979 Y365.028658 Z-0.125000
G01 X807.158721 Y368.141380 Z-0.125000
G01 X806.121131 Y372.291678 Z-0.125000
G01 X808.196311 Y377.479551 Z-0.125000
G01 X812.346587 Y378.517122 Z-0.125000
G01 X811.309025 Y372.291678 Z-0.125000
G01 X816.496890 Y373.329251 Z-0.125000
G01 X818.572070 Y377.479551 Z-0.125000
G01 X817.534480 Y382.667422 Z-0.125000
G01 X822.722345 Y381.629847 Z-0.125000
G01 X826.872621 Y382.667422 Z-0.125000
G01 X828.947801 Y385.780147 Z-0.125000
G01 X834.135666 Y385.780147 Z-0.125000
G01 X833.098104 Y389.930442 Z-0.125000
G01 X836.210790 Y393.043167 Z-0.125000
G01 X838.285942 Y396.155892 Z-0.125000
G01 X839.323560 Y399.268614 Z-0.125000
G01 X843.473835 Y402.381339 Z-0.125000
G01 X846.586577 Y404.456491 Z-0.125000
G01 X850.736852 Y405.494061 Z-0.125000
G01 X849.699319 Y408.606786 Z-0.125000
G01 X852.811976 Y411.719514 Z-0.125000
G01 X856.962308 Y414.832236 Z-0.125000
G01 X856.962308 Y418.982534 Z-0.125000
G01 X861.112611 Y420.020110 Z-0.125000
G01 X862.150173 Y409.644362 Z-0.125000
G01 X859.037459 Y407.569213 Z-0.125000
G01 X856.962308 Y404.456491 Z-0.125000
G01 X856.962308 Y399.268614 Z-0.125000
G01 X862.150173 Y398.231041 Z-0.125000
G01 X857.999869 Y393.043167 Z-0.125000
G01 X860.075021 Y387.855293 Z-0.125000
G01 X857.999869 Y384.742571 Z-0.125000
G01 X859.037459 Y379.554695 Z-0.125000
G01 X854.887156 Y378.517122 Z-0.125000
G01 X852.811976 Y375.404402 Z-0.125000
G01 X848.661700 Y374.366827 Z-0.125000
G01 X845.548959 Y370.216526 Z-0.125000
G01 X841.398655 Y369.178956 Z-0.125000
G01 X838.285942 Y366.066231 Z-0.125000
G01 X833.098104 Y366.066231 Z-0.125000
G01 X831.022924 Y361.915930 Z-0.125000
G01 X826.872621 Y367.103804 Z-0.125000
G01 X828.947801 Y371.254102 Z-0.125000
G01 X834.135666 Y371.254102 Z-0.125000
G01 X837.248380 Y374.366827 Z-0.125000
G01 X842.436273 Y375.404402 Z-0.125000
G01 X842.436273 Y379.554695 Z-0.125000
G01 X846.586577 Y380.592271 Z-0.125000
G01 X848.661700 Y383.704996 Z-0.125000
G01 X849.699319 Y385.780147 Z-0.125000
G01 X851.774442 Y387.855293 Z-0.125000
G01 X852.811976 Y392.005594 Z-0.125000
G01 X850.736852 Y396.155892 Z-0.125000
G01 X851.774442 Y399.268614 Z-0.125000
G01 X844.511425 Y398.231041 Z-0.125000
G01 X846.586577 Y393.043167 Z-0.125000
G01 X843.473835 Y390.968018 Z-0.125000
G01 X841.398655 Y387.855293 Z-0.125000
G01 X839.323560 Y385.780147 Z-0.125000
G01 X837.248380 Y379.554695 Z-0.125000
G01 X833.098104 Y379.554695 Z-0.125000
G01 X829.985363 Y376.441976 Z-0.125000
G01 X824.797469 Y376.441976 Z-0.125000
G01 X822.722345 Y372.291678 Z-0.125000
G01 X820.647165 Y368.141380 Z-0.125000
G01 X815.459328 Y368.141380 Z-0.125000
G01 X813.384177 Y365.028658 Z-0.125000
G01 X811.309025 Y361.915930 Z-0.125000
G01 X808.196311 Y359.840784 Z-0.125000
G01 X807.158721 Y354.652907 Z-0.125000
G01 X812.346587 Y354.652907 Z-0.125000
G01 X815.459328 Y357.765632 Z-0.125000
G01 X819.609575 Y358.803208 Z-0.125000
G01 X820.647165 Y362.953506 Z-0.125000
G01 X825.835059 Y361.915930 Z-0.125000
G01 X825.835059 Y356.728059 Z-0.125000
G01 X822.722345 Y353.615334 Z-0.125000
G01 X818.572070 Y351.540182 Z-0.125000
G01 X815.459328 Y349.465036 Z-0.125000
G01 X811.309025 Y348.427460 Z-0.125000
G01 X806.121131 Y348.427460 Z-0.125000
G01 X807.158721 Y344.277160 Z-0.125000
G01 X807.158721 Y339.089289 Z-0.125000
G01 X808.196311 Y332.863842 Z-0.125000
G01 X812.346587 Y333.901420 Z-0.125000
G01 X812.346587 Y339.089289 Z-0.125000
G01 X813.384177 Y343.239586 Z-0.125000
G01 X818.572070 Y343.239586 Z-0.125000
G01 X821.684755 Y346.352311 Z-0.125000
G01 X825.835059 Y347.389884 Z-0.125000
G01 X828.947801 Y350.502609 Z-0.125000
G01 X832.060514 Y353.615334 Z-0.125000
G01 X831.022924 Y356.728059 Z-0.125000
G01 X836.210790 Y357.765632 Z-0.125000
G01 X837.248380 Y360.878354 Z-0.125000
G01 X842.436273 Y360.878354 Z-0.125000
G01 X845.548959 Y363.991079 Z-0.125000
G01 X849.699319 Y365.028658 Z-0.125000
G01 X851.774442 Y369.178956 Z-0.125000
G01 X859.037459 Y372.291678 Z-0.125000
G01 X856.962308 Y369.178956 Z-0.125000
G01 X855.924689 Y363.991079 Z-0.125000
G01 X855.924689 Y358.803208 Z-0.125000
G01 X850.736852 Y359.840784 Z-0.125000
G01 X848.661700 Y356.728059 Z-0.125000
G01 X843.473835 Y355.690483 Z-0.125000
G01 X844.511425 Y351.540182 Z-0.125000
G01 X844.511425 Y347.389884 Z-0.125000
G01 X840.361093 Y346.352311 Z-0.125000
G01 X838.285942 Y352.577758 Z-0.125000
G01 X835.173228 Y347.389884 Z-0.125000
G01 X832.060514 Y345.314735 Z-0.125000
G01 X828.947801 Y342.202013 Z-0.125000
G01 X824.797469 Y340.126864 Z-0.125000
G01 X822.722345 Y338.051713 Z-0.125000
G01 X818.572070 Y337.014140 Z-0.125000
G01 X817.534480 Y332.863842 Z-0.125000
G01 X814.421738 Y327.675971 Z-0.125000
G01 X809.233845 Y323.525672 Z-0.125000
G01 X808.196311 Y327.675971 Z-0.125000
G01 X801.970856 Y327.675971 Z-0.125000
G01 X803.008446 Y323.525672 Z-0.125000
G01 X803.008446 Y319.375375 Z-0.125000
G01 X803.008446 Y314.187501 Z-0.125000
G01 X808.196311 Y314.187501 Z-0.125000
G01 X809.233845 Y318.337798 Z-0.125000
G01 X814.421738 Y317.300224 Z-0.125000
G01 X815.459328 Y321.450523 Z-0.125000
G01 X818.572070 Y322.488100 Z-0.125000
G01 X819.609575 Y326.638392 Z-0.125000
G01 X823.759907 Y327.675971 Z-0.125000
G01 X823.759907 Y331.826269 Z-0.125000
G01 X828.947801 Y332.863842 Z-0.125000
G01 X831.022924 Y335.976561 Z-0.125000
G01 X834.135666 Y340.126864 Z-0.125000
G01 X839.323560 Y341.164437 Z-0.125000
G01 X844.511425 Y341.164437 Z-0.125000
G01 X848.661700 Y342.202013 Z-0.125000
G01 X850.736852 Y346.352311 Z-0.125000
G01 X850.736852 Y350.502609 Z-0.125000
G01 X854.887156 Y351.540182 Z-0.125000
G01 X855.924689 Y353.615334 Z-0.125000
G01 X857.999869 Y345.314735 Z-0.125000
G01 X856.962308 Y342.202013 Z-0.125000
G01 X854.887156 Y339.089289 Z-0.125000
G01 X854.887156 Y334.938988 Z-0.125000
G01 X849.699319 Y337.014140 Z-0.125000
G01 X846.586577 Y333.901420 Z-0.125000
G01 X841.398655 Y330.788695 Z-0.125000
G01 X841.398655 Y335.976561 Z-0.125000
G01 X836.210790 Y334.938988 Z-0.125000
G01 X835.173228 Y329.751117 Z-0.125000
G01 X829.985363 Y327.675971 Z-0.125000
G01 X828.947801 Y323.525672 Z-0.125000
G01 X824.797469 Y321.450523 Z-0.125000
G01 X824.797469 Y317.300224 Z-0.125000
G01 X820.647165 Y315.225075 Z-0.125000
G01 X822.722345 Y310.037204 Z-0.125000
G01 X826.872621 Y312.112351 Z-0.125000
G01 X831.022924 Y317.300224 Z-0.125000
G01 X832.060514 Y313.149927 Z-0.125000
G01 X832.060514 Y308.999627 Z-0.125000
G01 X828.947801 Y305.886902 Z-0.125000
G01 X824.797469 Y304.849329 Z-0.125000
G01 X823.759907 Y302.774180 Z-0.125000
G01 X819.609575 Y300.699030 Z-0.125000
G01 X813.384177 Y299.661456 Z-0.125000
G01 X813.384177 Y303.811754 Z-0.125000
G01 X818.572070 Y305.886902 Z-0.125000
G01 X816.496890 Y312.112351 Z-0.125000
G01 X813.384177 Y310.037204 Z-0.125000
G01 X808.196311 Y308.999627 Z-0.125000
G01 X806.121131 Y305.886902 Z-0.125000
G01 X807.158721 Y301.736605 Z-0.125000
G01 X801.970856 Y301.736605 Z-0.125000
G01 X797.820552 Y300.699030 Z-0.125000
G01 X799.895704 Y306.924479 Z-0.125000
G01 X800.933294 Y311.074777 Z-0.125000
G01 X795.745400 Y312.112351 Z-0.125000
G01 X794.707810 Y306.924479 Z-0.125000
G01 X791.595097 Y303.811754 Z-0.125000
G01 X786.407231 Y302.774180 Z-0.125000
G01 X788.482327 Y308.999627 Z-0.125000
G01 X789.519945 Y313.149927 Z-0.125000
G01 X787.444821 Y318.337798 Z-0.125000
G01 X792.632687 Y317.300224 Z-0.125000
G01 X796.782990 Y318.337798 Z-0.125000
G01 X795.745400 Y321.450523 Z-0.125000
G01 X795.745400 Y325.600819 Z-0.125000
G01 X795.745400 Y329.751117 Z-0.125000
G01 X795.745400 Y333.901420 Z-0.125000
G01 X800.933294 Y332.863842 Z-0.125000
G01 X801.970856 Y334.938988 Z-0.125000
G01 X801.970856 Y339.089289 Z-0.125000
G01 X801.970856 Y344.277160 Z-0.125000
G01 X796.782990 Y344.277160 Z-0.125000
G01 X795.745400 Y340.126864 Z-0.125000
G01 X790.557507 Y341.164437 Z-0.125000
G01 X789.519945 Y337.014140 Z-0.125000
G01 X788.482327 Y333.901420 Z-0.125000
G01 X789.519945 Y328.713544 Z-0.125000
G01 X789.519945 Y324.563250 Z-0.125000
G01 X785.369670 Y323.525672 Z-0.125000
G01 X781.219338 Y320.412949 Z-0.125000
G01 X783.294490 Y315.225075 Z-0.125000
G01 X781.219338 Y313.149927 Z-0.125000
G01 X783.294490 Y307.962053 Z-0.125000
G01 X780.181776 Y306.924479 Z-0.125000
G01 X780.181776 Y301.736605 Z-0.125000
G01 X781.219338 Y296.548732 Z-0.125000
G01 X777.069063 Y295.511157 Z-0.125000
G01 X772.918759 Y294.473582 Z-0.125000
G01 X770.843635 Y292.398433 Z-0.125000
G01 X766.693304 Y291.360862 Z-0.125000
G01 X762.543028 Y289.285712 Z-0.125000
G01 X758.392696 Y286.172988 Z-0.125000
G01 X754.242421 Y285.135413 Z-0.125000
G01 X755.279955 Y279.947540 Z-0.125000
G01 X760.467876 Y279.947540 Z-0.125000
G01 X763.580590 Y284.097839 Z-0.125000
G01 X768.768455 Y286.172988 Z-0.125000
G01 X769.806045 Y280.985115 Z-0.125000
G01 X765.655742 Y278.909965 Z-0.125000
G01 X764.618152 Y274.759666 Z-0.125000
G01 X761.505438 Y272.684517 Z-0.125000
G01 X758.392696 Y269.571794 Z-0.125000
G01 X755.279955 Y275.797241 Z-0.125000
G01 X752.167269 Y272.684517 Z-0.125000
G01 X752.167269 Y268.534218 Z-0.125000
G01 X746.979404 Y267.496642 Z-0.125000
G01 X741.791539 Y268.534218 Z-0.125000
G01 X742.829072 Y263.346344 Z-0.125000
G01 X742.829072 Y259.196046 Z-0.125000
G01 X741.791539 Y255.045745 Z-0.125000
G01 X736.603673 Y254.008170 Z-0.125000
G01 X735.566083 Y249.857872 Z-0.125000
G01 X731.415808 Y248.820296 Z-0.125000
G01 X731.415808 Y255.045745 Z-0.125000
G01 X736.603673 Y259.196046 Z-0.125000
G01 X736.603673 Y263.346344 Z-0.125000
G01 X731.415808 Y261.271195 Z-0.125000
G01 X727.265448 Y260.233619 Z-0.125000
G01 X724.152734 Y258.158470 Z-0.125000
G01 X726.227886 Y252.970596 Z-0.125000
G01 X721.040049 Y254.008170 Z-0.125000
G01 X716.889717 Y252.970596 Z-0.125000
G01 X712.739413 Y251.933023 Z-0.125000
G01 X711.701823 Y247.782725 Z-0.125000
G01 X711.701823 Y242.594852 Z-0.125000
G01 X709.626700 Y239.482127 Z-0.125000
G01 X706.513986 Y237.406978 Z-0.125000
G01 X701.326093 Y238.444554 Z-0.125000
G01 X703.401273 Y243.632428 Z-0.125000
G01 X707.551548 Y246.745152 Z-0.125000
G01 X706.513986 Y252.970596 Z-0.125000
G01 X706.513986 Y257.120894 Z-0.125000
G01 X709.626700 Y259.196046 Z-0.125000
G01 X714.814593 Y258.158470 Z-0.125000
G01 X718.964869 Y260.233619 Z-0.125000
G01 X716.889717 Y265.421493 Z-0.125000
G01 X712.739413 Y264.383917 Z-0.125000
G01 X707.551548 Y264.383917 Z-0.125000
G01 X702.363683 Y264.383917 Z-0.125000
G01 X700.288559 Y261.271195 Z-0.125000
G01 X699.250969 Y258.158470 Z-0.125000
G01 X700.288559 Y252.970596 Z-0.125000
G01 X701.326093 Y248.820296 Z-0.125000
G01 X696.138227 Y248.820296 Z-0.125000
G01 X698.213379 Y243.632428 Z-0.125000
G01 X691.987924 Y244.670001 Z-0.125000
G01 X690.950390 Y249.857872 Z-0.125000
G01 X694.063076 Y254.008170 Z-0.125000
G01 X694.063076 Y258.158470 Z-0.125000
G01 X693.025514 Y263.346344 Z-0.125000
G01 X695.100666 Y266.459069 Z-0.125000
G01 X696.138227 Y269.571794 Z-0.125000
G01 X701.326093 Y269.571794 Z-0.125000
G01 X706.513986 Y269.571794 Z-0.125000
G01 X710.664290 Y270.609367 Z-0.125000
G01 X714.814593 Y271.646943 Z-0.125000
G01 X715.852155 Y276.834816 Z-0.125000
G01 X720.002459 Y277.872391 Z-0.125000
G01 X724.152734 Y278.909965 Z-0.125000
G01 X722.077611 Y284.097839 Z-0.125000
G01 X721.040049 Y288.248137 Z-0.125000
G01 X722.077611 Y292.398433 Z-0.125000
G01 X723.115144 Y295.511157 Z-0.125000
G01 X724.152734 Y299.661456 Z-0.125000
G01 X724.152734 Y303.811754 Z-0.125000
G01 X729.340628 Y306.924479 Z-0.125000
G01 X733.490903 Y306.924479 Z-0.125000
G01 X737.641207 Y308.999627 Z-0.125000
G01 X740.753920 Y312.112351 Z-0.125000
G01 X742.829072 Y315.225075 Z-0.125000
G01 X746.979404 Y316.262652 Z-0.125000
G01 X749.054556 Y319.375375 Z-0.125000
G01 X748.016937 Y323.525672 Z-0.125000
G01 X751.129707 Y326.638392 Z-0.125000
G01 X754.242421 Y328.713544 Z-0.125000
G01 X754.242421 Y332.863842 Z-0.125000
G01 X760.467876 Y328.713544 Z-0.125000
G01 X760.467876 Y332.863842 Z-0.125000
G01 X765.655742 Y332.863842 Z-0.125000
G01 X767.730922 Y337.014140 Z-0.125000
G01 X769.806045 Y340.126864 Z-0.125000
G01 X771.881169 Y343.239586 Z-0.125000
G01 X772.918759 Y348.427460 Z-0.125000
G01 X773.956293 Y352.577758 Z-0.125000
G01 X768.768455 Y353.615334 Z-0.125000
G01 X767.730922 Y348.427460 Z-0.125000
G01 X764.618152 Y345.314735 Z-0.125000
G01 X762.543028 Y342.202013 Z-0.125000
G01 X761.505438 Y338.051713 Z-0.125000
G01 X756.317573 Y338.051713 Z-0.125000
G01 X752.167269 Y338.051713 Z-0.125000
G01 X749.054556 Y333.901420 Z-0.125000
G01 X744.904224 Y330.788695 Z-0.125000
G01 X742.829072 Y327.675971 Z-0.125000
G01 X742.829072 Y322.488100 Z-0.125000
G01 X738.678825 Y320.412949 Z-0.125000
G01 X735.566083 Y318.337798 Z-0.125000
G01 X734.528521 Y314.187501 Z-0.125000
G01 X730.378190 Y313.149927 Z-0.125000
G01 X726.227886 Y313.149927 Z-0.125000
G01 X723.115144 Y310.037204 Z-0.125000
G01 X720.002459 Y308.999627 Z-0.125000
G01 X716.889717 Y305.886902 Z-0.125000
G01 X717.927307 Y301.736605 Z-0.125000
G01 X716.889717 Y297.586306 Z-0.125000
G01 X715.852155 Y293.436008 Z-0.125000
G01 X714.814593 Y289.285712 Z-0.125000
G01 X716.889717 Y284.097839 Z-0.125000
G01 X712.739413 Y282.022689 Z-0.125000
G01 X710.664290 Y276.834816 Z-0.125000
G01 X705.476425 Y275.797241 Z-0.125000
G01 X701.326093 Y274.759666 Z-0.125000
G01 X696.138227 Y274.759666 Z-0.125000
G01 X698.213379 Y279.947540 Z-0.125000
G01 X697.175789 Y285.135413 Z-0.125000
G01 X698.213379 Y288.248137 Z-0.125000
G01 X696.138227 Y293.436008 Z-0.125000
G01 X697.175789 Y297.586306 Z-0.125000
G01 X697.175789 Y301.736605 Z-0.125000
G01 X697.175789 Y306.924479 Z-0.125000
G01 X698.213379 Y310.037204 Z-0.125000
G01 X701.326093 Y314.187501 Z-0.125000
G01 X703.401273 Y317.300224 Z-0.125000
G01 X703.401273 Y321.450523 Z-0.125000
G01 X704.438835 Y324.563250 Z-0.125000
G01 X709.626700 Y325.600819 Z-0.125000
G01 X712.739413 Y327.675971 Z-0.125000
G01 X716.889717 Y327.675971 Z-0.125000
G01 X720.002459 Y330.788695 Z-0.125000
G01 X718.964869 Y335.976561 Z-0.125000
G01 X721.040049 Y339.089289 Z-0.125000
G01 X725.190324 Y341.164437 Z-0.125000
G01 X726.227886 Y346.352311 Z-0.125000
G01 X731.415808 Y346.352311 Z-0.125000
G01 X736.603673 Y346.352311 Z-0.125000
G01 X737.641207 Y351.540182 Z-0.125000
G01 X737.641207 Y355.690483 Z-0.125000
G01 X740.753920 Y357.765632 Z-0.125000
G01 X744.904224 Y360.878354 Z-0.125000
G01 X749.054556 Y361.915930 Z-0.125000
G01 X752.167269 Y365.028658 Z-0.125000
G01 X745.941842 Y367.103804 Z-0.125000
G01 X746.979404 Y371.254102 Z-0.125000
G01 X741.791539 Y371.254102 Z-0.125000
G01 X740.753920 Y366.066231 Z-0.125000
G01 X738.678825 Y362.953506 Z-0.125000
G01 X733.490903 Y362.953506 Z-0.125000
G01 X731.415808 Y360.878354 Z-0.125000
G01 X731.415808 Y355.690483 Z-0.125000
G01 X730.378190 Y352.577758 Z-0.125000
G01 X726.227886 Y351.540182 Z-0.125000
G01 X725.190324 Y357.765632 Z-0.125000
G01 X721.040049 Y356.728059 Z-0.125000
G01 X721.040049 Y351.540182 Z-0.125000
G01 X721.040049 Y346.352311 Z-0.125000
G01 X716.889717 Y345.314735 Z-0.125000
G01 X714.814593 Y342.202013 Z-0.125000
G01 X712.739413 Y338.051713 Z-0.125000
G01 X713.777003 Y333.901420 Z-0.125000
G01 X708.589110 Y332.863842 Z-0.125000
G01 X707.551548 Y338.051713 Z-0.125000
G01 X708.589110 Y343.239586 Z-0.125000
G01 X709.626700 Y347.389884 Z-0.125000
G01 X711.701823 Y350.502609 Z-0.125000
G01 X715.852155 Y351.540182 Z-0.125000
G01 X715.852155 Y356.728059 Z-0.125000
G01 X710.664290 Y357.765632 Z-0.125000
G01 X707.551548 Y355.690483 Z-0.125000
G01 X704.438835 Y353.615334 Z-0.125000
G01 X704.438835 Y348.427460 Z-0.125000
G01 X699.250969 Y351.540182 Z-0.125000
G01 X697.175789 Y348.427460 Z-0.125000
G01 X691.987924 Y348.427460 Z-0.125000
G01 X690.950390 Y345.314735 Z-0.125000
G01 X689.912800 Y341.164437 Z-0.125000
G01 X684.724935 Y341.164437 Z-0.125000
G01 X684.724935 Y346.352311 Z-0.125000
G01 X684.724935 Y350.502609 Z-0.125000
G01 X684.724935 Y354.652907 Z-0.125000
G01 X685.762525 Y356.728059 Z-0.125000
G01 X683.687345 Y361.915930 Z-0.125000
G01 X684.724935 Y366.066231 Z-0.125000
G01 X687.837648 Y370.216526 Z-0.125000
G01 X691.987924 Y371.254102 Z-0.125000
G01 X696.138227 Y372.291678 Z-0.125000
G01 X699.250969 Y375.404402 Z-0.125000
G01 X698.213379 Y378.517122 Z-0.125000
G01 X696.138227 Y383.704996 Z-0.125000
G01 X700.288559 Y385.780147 Z-0.125000
G01 X702.363683 Y389.930442 Z-0.125000
G01 X706.513986 Y392.005594 Z-0.125000
G01 X710.664290 Y393.043167 Z-0.125000
G01 X714.814593 Y394.080746 Z-0.125000
G01 X716.889717 Y396.155892 Z-0.125000
G01 X716.889717 Y400.306193 Z-0.125000
G01 X720.002459 Y403.418918 Z-0.125000
G01 X723.115144 Y405.494061 Z-0.125000
G01 X728.303038 Y405.494061 Z-0.125000
G01 X730.378190 Y408.606786 Z-0.125000
G01 X731.415808 Y413.794663 Z-0.125000
G01 X734.528521 Y415.869809 Z-0.125000
G01 X736.603673 Y418.982534 Z-0.125000
G01 X737.641207 Y423.132832 Z-0.125000
G01 X740.753920 Y426.245556 Z-0.125000
G01 X738.678825 Y431.433425 Z-0.125000
