%
(Header)
(Generated by gcodetools from Inkscape.)
(Using default header. To add your own header create file "header" in the output dir.)
M3
(Header end.)
G21 (All units in mm)

(Start cutting path id: path57488)
(Change tool to Default tool)

G00 Z5.000000
G00 X147.949276 Y639.293430

G01 Z-0.125000 F100.0(Penetrate)
G01 X147.949276 Y634.505049 Z-0.125000 F400.000000
G01 X149.146371 Y628.519573 Z-0.125000
G01 X152.737656 Y629.716668 Z-0.125000
G01 X151.540561 Y623.731192 Z-0.125000
G01 X156.328942 Y622.534097 Z-0.125000
G01 X161.117323 Y620.139906 Z-0.125000
G01 X163.511514 Y615.351525 Z-0.125000
G01 X171.891180 Y617.745716 Z-0.125000
G01 X174.285371 Y610.563144 Z-0.125000
G01 X167.102799 Y608.168954 Z-0.125000
G01 X162.314418 Y606.971859 Z-0.125000
G01 X152.737656 Y616.548620 Z-0.125000
G01 X153.934752 Y611.760240 Z-0.125000
G01 X153.934752 Y608.168954 Z-0.125000
G01 X155.131847 Y603.380573 Z-0.125000
G01 X155.131847 Y597.395097 Z-0.125000
G01 X161.117323 Y596.198002 Z-0.125000
G01 X168.299894 Y598.592192 Z-0.125000
G01 X170.694085 Y592.606716 Z-0.125000
G01 X177.876656 Y596.198002 Z-0.125000
G01 X176.679561 Y604.577668 Z-0.125000
G01 X185.059228 Y604.577668 Z-0.125000
G01 X186.256323 Y596.198002 Z-0.125000
G01 X191.044704 Y592.606716 Z-0.125000
G01 X195.833085 Y589.015430 Z-0.125000
G01 X200.621466 Y585.424144 Z-0.125000
G01 X201.818561 Y578.241573 Z-0.125000
G01 X192.241799 Y577.044478 Z-0.125000
G01 X186.256323 Y581.832859 Z-0.125000
G01 X180.270847 Y586.621240 Z-0.125000
G01 X174.285371 Y585.424144 Z-0.125000
G01 X165.905704 Y581.832859 Z-0.125000
G01 X162.314418 Y586.621240 Z-0.125000
G01 X155.131847 Y587.818335 Z-0.125000
G01 X155.131847 Y580.635763 Z-0.125000
G01 X157.526037 Y574.650287 Z-0.125000
G01 X163.511514 Y573.453192 Z-0.125000
G01 X168.299894 Y574.650287 Z-0.125000
G01 X174.285371 Y575.847383 Z-0.125000
G01 X177.876656 Y574.650287 Z-0.125000
G01 X183.862133 Y572.256097 Z-0.125000
G01 X191.044704 Y568.664811 Z-0.125000
G01 X197.030180 Y568.664811 Z-0.125000
G01 X201.818561 Y566.270621 Z-0.125000
G01 X209.001132 Y567.467716 Z-0.125000
G01 X207.804037 Y573.453192 Z-0.125000
G01 X209.001132 Y581.832859 Z-0.125000
G01 X216.183704 Y578.241573 Z-0.125000
G01 X223.366275 Y579.438668 Z-0.125000
G01 X226.957561 Y575.847383 Z-0.125000
G01 X223.366275 Y572.256097 Z-0.125000
G01 X224.563370 Y568.664811 Z-0.125000
G01 X226.957561 Y569.861906 Z-0.125000
G01 X226.957561 Y566.270621 Z-0.125000
G01 X225.760466 Y562.679335 Z-0.125000
G01 X229.351751 Y562.679335 Z-0.125000
G01 X231.745942 Y560.285144 Z-0.125000
G01 X235.337228 Y560.285144 Z-0.125000
G01 X236.534323 Y557.890954 Z-0.125000
G01 X238.928513 Y555.496764 Z-0.125000
G01 X235.337228 Y554.299668 Z-0.125000
G01 X236.534323 Y551.905478 Z-0.125000
G01 X237.731418 Y549.511287 Z-0.125000
G01 X240.125608 Y550.708383 Z-0.125000
G01 X241.322704 Y548.314192 Z-0.125000
G01 X242.519799 Y545.920002 Z-0.125000
G01 X241.322704 Y542.328716 Z-0.125000
G01 X238.928513 Y543.525811 Z-0.125000
G01 X236.534323 Y545.920002 Z-0.125000
G01 X232.943037 Y548.314192 Z-0.125000
G01 X231.745942 Y550.708383 Z-0.125000
G01 X231.745942 Y554.299668 Z-0.125000
G01 X231.745942 Y556.693859 Z-0.125000
G01 X228.154656 Y557.890954 Z-0.125000
G01 X226.957561 Y559.088049 Z-0.125000
G01 X223.366275 Y559.088049 Z-0.125000
G01 X222.169180 Y561.482240 Z-0.125000
G01 X219.774990 Y563.876430 Z-0.125000
G01 X222.169180 Y565.073525 Z-0.125000
G01 X219.774990 Y567.467716 Z-0.125000
G01 X216.183704 Y571.059002 Z-0.125000
G01 X216.183704 Y565.073525 Z-0.125000
G01 X213.789513 Y562.679335 Z-0.125000
G01 X216.183704 Y560.285144 Z-0.125000
G01 X217.380799 Y556.693859 Z-0.125000
G01 X219.774990 Y555.496764 Z-0.125000
G01 X223.366275 Y555.496764 Z-0.125000
G01 X226.957561 Y554.299668 Z-0.125000
G01 X228.154656 Y551.905478 Z-0.125000
G01 X228.154656 Y548.314192 Z-0.125000
G01 X224.563370 Y548.314192 Z-0.125000
G01 X223.366275 Y550.708383 Z-0.125000
G01 X222.169180 Y551.905478 Z-0.125000
G01 X218.577894 Y551.905478 Z-0.125000
G01 X214.986609 Y551.905478 Z-0.125000
G01 X212.592418 Y555.496764 Z-0.125000
G01 X211.395323 Y559.088049 Z-0.125000
G01 X207.804037 Y559.088049 Z-0.125000
G01 X207.804037 Y554.299668 Z-0.125000
G01 X206.606942 Y550.708383 Z-0.125000
G01 X203.015656 Y549.511287 Z-0.125000
G01 X203.015656 Y545.920002 Z-0.125000
G01 X207.804037 Y545.920002 Z-0.125000
G01 X209.001132 Y538.737430 Z-0.125000
G01 X204.212751 Y539.934526 Z-0.125000
G01 X200.621466 Y542.328716 Z-0.125000
G01 X199.424371 Y538.737430 Z-0.125000
G01 X195.833085 Y542.328716 Z-0.125000
G01 X189.847609 Y539.934526 Z-0.125000
G01 X189.847609 Y548.314192 Z-0.125000
G01 X194.635990 Y548.314192 Z-0.125000
G01 X200.621466 Y556.693859 Z-0.125000
G01 X194.635990 Y557.890954 Z-0.125000
G01 X189.847609 Y559.088049 Z-0.125000
G01 X182.665037 Y555.496764 Z-0.125000
G01 X181.467942 Y561.482240 Z-0.125000
G01 X176.679561 Y563.876430 Z-0.125000
G01 X170.694085 Y563.876430 Z-0.125000
G01 X167.102799 Y566.270621 Z-0.125000
G01 X162.314418 Y566.270621 Z-0.125000
G01 X153.934752 Y567.467716 Z-0.125000
G01 X155.131847 Y561.482240 Z-0.125000
G01 X155.131847 Y554.299668 Z-0.125000
G01 X153.934752 Y548.314192 Z-0.125000
G01 X153.934752 Y541.131621 Z-0.125000
G01 X161.117323 Y543.525811 Z-0.125000
G01 X165.905704 Y541.131621 Z-0.125000
G01 X168.299894 Y538.737430 Z-0.125000
G01 X169.496990 Y533.949049 Z-0.125000
G01 X170.694085 Y530.357764 Z-0.125000
G01 X170.694085 Y525.569383 Z-0.125000
G01 X174.285371 Y524.372287 Z-0.125000
G01 X176.679561 Y520.781002 Z-0.125000
G01 X177.876656 Y517.189716 Z-0.125000
G01 X182.665037 Y515.992621 Z-0.125000
G01 X182.665037 Y511.204240 Z-0.125000
G01 X185.059228 Y507.612954 Z-0.125000
G01 X187.453418 Y502.824573 Z-0.125000
G01 X189.847609 Y496.839097 Z-0.125000
G01 X195.833085 Y492.050716 Z-0.125000
G01 X200.621466 Y489.656526 Z-0.125000
G01 X204.212751 Y489.656526 Z-0.125000
G01 X205.409847 Y487.262335 Z-0.125000
G01 X200.621466 Y483.671050 Z-0.125000
G01 X203.015656 Y481.276859 Z-0.125000
G01 X204.212751 Y477.685573 Z-0.125000
G01 X206.606942 Y475.291383 Z-0.125000
G01 X210.198228 Y476.488478 Z-0.125000
G01 X209.001132 Y472.897192 Z-0.125000
G01 X210.198228 Y469.305907 Z-0.125000
G01 X214.986609 Y468.108812 Z-0.125000
G01 X216.183704 Y474.094288 Z-0.125000
G01 X219.774990 Y470.503002 Z-0.125000
G01 X224.563370 Y471.700097 Z-0.125000
G01 X230.548847 Y471.700097 Z-0.125000
G01 X235.337228 Y466.911716 Z-0.125000
G01 X237.731418 Y462.123335 Z-0.125000
G01 X241.322704 Y458.532050 Z-0.125000
G01 X246.111085 Y458.532050 Z-0.125000
G01 X250.899466 Y459.729145 Z-0.125000
G01 X254.490751 Y457.334954 Z-0.125000
G01 X255.687847 Y452.546573 Z-0.125000
G01 X252.096561 Y448.955288 Z-0.125000
G01 X249.702370 Y452.546573 Z-0.125000
G01 X247.308180 Y453.743669 Z-0.125000
G01 X242.519799 Y451.349478 Z-0.125000
G01 X237.731418 Y451.349478 Z-0.125000
G01 X234.140132 Y454.940764 Z-0.125000
G01 X230.548847 Y459.729145 Z-0.125000
G01 X228.154656 Y463.320431 Z-0.125000
G01 X223.366275 Y463.320431 Z-0.125000
G01 X217.380799 Y462.123335 Z-0.125000
G01 X218.577894 Y456.137859 Z-0.125000
G01 X223.366275 Y454.940764 Z-0.125000
G01 X228.154656 Y453.743669 Z-0.125000
G01 X228.154656 Y448.955288 Z-0.125000
G01 X228.154656 Y445.364002 Z-0.125000
G01 X226.957561 Y440.575621 Z-0.125000
G01 X230.548847 Y435.787240 Z-0.125000
G01 X236.534323 Y430.998859 Z-0.125000
G01 X236.534323 Y426.210478 Z-0.125000
G01 X236.534323 Y420.225002 Z-0.125000
G01 X231.745942 Y420.225002 Z-0.125000
G01 X228.154656 Y422.619193 Z-0.125000
G01 X230.548847 Y428.604669 Z-0.125000
G01 X225.760466 Y428.604669 Z-0.125000
G01 X223.366275 Y433.393050 Z-0.125000
G01 X218.577894 Y433.393050 Z-0.125000
G01 X214.986609 Y434.590145 Z-0.125000
G01 X211.395323 Y434.590145 Z-0.125000
G01 X212.592418 Y438.181431 Z-0.125000
G01 X210.198228 Y440.575621 Z-0.125000
G01 X209.001132 Y442.969812 Z-0.125000
G01 X209.001132 Y446.561097 Z-0.125000
G01 X207.804037 Y448.955288 Z-0.125000
G01 X205.409847 Y451.349478 Z-0.125000
G01 X206.606942 Y454.940764 Z-0.125000
G01 X210.198228 Y452.546573 Z-0.125000
G01 X212.592418 Y450.152383 Z-0.125000
G01 X212.592418 Y446.561097 Z-0.125000
G01 X213.789513 Y442.969812 Z-0.125000
G01 X216.183704 Y446.561097 Z-0.125000
G01 X218.577894 Y444.166907 Z-0.125000
G01 X219.774990 Y439.378526 Z-0.125000
G01 X222.169180 Y445.364002 Z-0.125000
G01 X223.366275 Y448.955288 Z-0.125000
G01 X219.774990 Y450.152383 Z-0.125000
G01 X217.380799 Y451.349478 Z-0.125000
G01 X214.986609 Y453.743669 Z-0.125000
G01 X213.789513 Y457.334954 Z-0.125000
G01 X211.395323 Y456.137859 Z-0.125000
G01 X210.198228 Y458.532050 Z-0.125000
G01 X211.395323 Y462.123335 Z-0.125000
G01 X209.001132 Y463.320431 Z-0.125000
G01 X207.804037 Y465.714621 Z-0.125000
G01 X206.606942 Y469.305907 Z-0.125000
G01 X203.015656 Y470.503002 Z-0.125000
G01 X200.621466 Y472.897192 Z-0.125000
G01 X198.227275 Y477.685573 Z-0.125000
G01 X197.030180 Y472.897192 Z-0.125000
G01 X192.241799 Y474.094288 Z-0.125000
G01 X191.044704 Y478.882669 Z-0.125000
G01 X195.833085 Y481.276859 Z-0.125000
G01 X195.833085 Y484.868145 Z-0.125000
G01 X188.650513 Y487.262335 Z-0.125000
G01 X181.467942 Y487.262335 Z-0.125000
G01 X179.073752 Y493.247811 Z-0.125000
G01 X176.679561 Y496.839097 Z-0.125000
G01 X177.876656 Y501.627478 Z-0.125000
G01 X181.467942 Y500.430383 Z-0.125000
G01 X180.270847 Y505.218764 Z-0.125000
G01 X175.482466 Y504.021669 Z-0.125000
G01 X173.088275 Y506.415859 Z-0.125000
G01 X167.102799 Y510.007145 Z-0.125000
G01 X171.891180 Y510.007145 Z-0.125000
G01 X176.679561 Y508.810049 Z-0.125000
G01 X176.679561 Y512.401335 Z-0.125000
G01 X173.088275 Y514.795526 Z-0.125000
G01 X171.891180 Y518.386811 Z-0.125000
G01 X169.496990 Y520.781002 Z-0.125000
G01 X165.905704 Y525.569383 Z-0.125000
G01 X163.511514 Y531.554859 Z-0.125000
G01 X158.723133 Y530.357764 Z-0.125000
G01 X155.131847 Y535.146145 Z-0.125000
G01 X153.934752 Y529.160668 Z-0.125000
G01 X155.131847 Y521.978097 Z-0.125000
G01 X158.723133 Y518.386811 Z-0.125000
G01 X162.314418 Y514.795526 Z-0.125000
G01 X156.328942 Y513.598430 Z-0.125000
G01 X158.723133 Y508.810049 Z-0.125000
G01 X159.920228 Y505.218764 Z-0.125000
G01 X162.314418 Y500.430383 Z-0.125000
G01 X165.905704 Y496.839097 Z-0.125000
G01 X168.299894 Y493.247811 Z-0.125000
G01 X169.496990 Y488.459430 Z-0.125000
G01 X170.694085 Y484.868145 Z-0.125000
G01 X174.285371 Y483.671050 Z-0.125000
G01 X174.285371 Y478.882669 Z-0.125000
G01 X177.876656 Y478.882669 Z-0.125000
G01 X181.467942 Y476.488478 Z-0.125000
G01 X175.482466 Y472.897192 Z-0.125000
G01 X176.679561 Y469.305907 Z-0.125000
G01 X177.876656 Y466.911716 Z-0.125000
G01 X179.073752 Y463.320431 Z-0.125000
G01 X180.270847 Y458.532050 Z-0.125000
G01 X183.862133 Y460.926240 Z-0.125000
G01 X183.862133 Y469.305907 Z-0.125000
G01 X189.847609 Y466.911716 Z-0.125000
G01 X191.044704 Y459.729145 Z-0.125000
G01 X197.030180 Y460.926240 Z-0.125000
G01 X195.833085 Y465.714621 Z-0.125000
G01 X201.818561 Y465.714621 Z-0.125000
G01 X204.212751 Y463.320431 Z-0.125000
G01 X206.606942 Y459.729145 Z-0.125000
G01 X203.015656 Y457.334954 Z-0.125000
G01 X198.227275 Y456.137859 Z-0.125000
G01 X200.621466 Y451.349478 Z-0.125000
G01 X203.015656 Y445.364002 Z-0.125000
G01 X198.227275 Y444.166907 Z-0.125000
G01 X194.635990 Y447.758193 Z-0.125000
G01 X191.044704 Y452.546573 Z-0.125000
G01 X186.256323 Y454.940764 Z-0.125000
G01 X182.665037 Y454.940764 Z-0.125000
G01 X185.059228 Y448.955288 Z-0.125000
G01 X188.650513 Y445.364002 Z-0.125000
G01 X191.044704 Y441.772716 Z-0.125000
G01 X193.438894 Y439.378526 Z-0.125000
G01 X198.227275 Y438.181431 Z-0.125000
G01 X204.212751 Y440.575621 Z-0.125000
G01 X207.804037 Y436.984335 Z-0.125000
G01 X206.606942 Y432.195955 Z-0.125000
G01 X207.804037 Y428.604669 Z-0.125000
G01 X212.592418 Y428.604669 Z-0.125000
G01 X216.183704 Y427.407574 Z-0.125000
G01 X219.774990 Y426.210478 Z-0.125000
G01 X222.169180 Y422.619193 Z-0.125000
G01 X222.169180 Y419.027907 Z-0.125000
G01 X223.366275 Y415.436621 Z-0.125000
G01 X225.760466 Y414.239526 Z-0.125000
G01 X226.957561 Y410.648240 Z-0.125000
G01 X231.745942 Y413.042431 Z-0.125000
G01 X236.534323 Y413.042431 Z-0.125000
G01 X238.928513 Y410.648240 Z-0.125000
G01 X241.322704 Y409.451145 Z-0.125000
G01 X242.519799 Y405.859859 Z-0.125000
G01 X244.913989 Y404.662764 Z-0.125000
G01 X249.702370 Y405.859859 Z-0.125000
G01 X252.096561 Y404.662764 Z-0.125000
G01 X256.884942 Y402.268574 Z-0.125000
G01 X256.884942 Y405.859859 Z-0.125000
G01 X256.884942 Y409.451145 Z-0.125000
G01 X253.293656 Y410.648240 Z-0.125000
G01 X247.308180 Y409.451145 Z-0.125000
G01 X246.111085 Y413.042431 Z-0.125000
G01 X243.716894 Y416.633716 Z-0.125000
G01 X242.519799 Y421.422097 Z-0.125000
G01 X243.716894 Y427.407574 Z-0.125000
G01 X248.505275 Y423.816288 Z-0.125000
G01 X250.899466 Y420.225002 Z-0.125000
G01 X252.096561 Y415.436621 Z-0.125000
G01 X256.884942 Y415.436621 Z-0.125000
G01 X258.082037 Y421.422097 Z-0.125000
G01 X258.082037 Y425.013383 Z-0.125000
G01 X254.490751 Y427.407574 Z-0.125000
G01 X250.899466 Y429.801764 Z-0.125000
G01 X249.702370 Y435.787240 Z-0.125000
G01 X243.716894 Y433.393050 Z-0.125000
G01 X242.519799 Y438.181431 Z-0.125000
G01 X236.534323 Y438.181431 Z-0.125000
G01 X234.140132 Y444.166907 Z-0.125000
G01 X232.943037 Y447.758193 Z-0.125000
G01 X237.731418 Y445.364002 Z-0.125000
G01 X242.519799 Y445.364002 Z-0.125000
G01 X246.111085 Y445.364002 Z-0.125000
G01 X249.702370 Y442.969812 Z-0.125000
G01 X254.490751 Y445.364002 Z-0.125000
G01 X255.687847 Y441.772716 Z-0.125000
G01 X255.687847 Y436.984335 Z-0.125000
G01 X259.279132 Y433.393050 Z-0.125000
G01 X262.870418 Y429.801764 Z-0.125000
G01 X267.658799 Y428.604669 Z-0.125000
G01 X272.447180 Y427.407574 Z-0.125000
G01 X270.052989 Y433.393050 Z-0.125000
G01 X265.264608 Y436.984335 Z-0.125000
G01 X262.870418 Y440.575621 Z-0.125000
G01 X260.476227 Y442.969812 Z-0.125000
G01 X259.279132 Y447.758193 Z-0.125000
G01 X264.067513 Y447.758193 Z-0.125000
G01 X266.461704 Y445.364002 Z-0.125000
G01 X268.855894 Y442.969812 Z-0.125000
G01 X271.250085 Y440.575621 Z-0.125000
G01 X273.644275 Y445.364002 Z-0.125000
G01 X276.038466 Y442.969812 Z-0.125000
G01 X276.038466 Y439.378526 Z-0.125000
G01 X278.432656 Y438.181431 Z-0.125000
G01 X276.038466 Y432.195955 Z-0.125000
G01 X278.432656 Y428.604669 Z-0.125000
G01 X282.023942 Y426.210478 Z-0.125000
G01 X280.826846 Y421.422097 Z-0.125000
G01 X280.826846 Y417.830812 Z-0.125000
G01 X283.221037 Y415.436621 Z-0.125000
G01 X285.615227 Y413.042431 Z-0.125000
G01 X288.009418 Y410.648240 Z-0.125000
G01 X289.206513 Y408.254050 Z-0.125000
G01 X292.797799 Y409.451145 Z-0.125000
G01 X296.389084 Y409.451145 Z-0.125000
G01 X295.191989 Y405.859859 Z-0.125000
G01 X299.980370 Y405.859859 Z-0.125000
G01 X302.374561 Y403.465669 Z-0.125000
G01 X305.965846 Y407.056955 Z-0.125000
G01 X307.162942 Y404.662764 Z-0.125000
G01 X307.162942 Y401.071478 Z-0.125000
G01 X309.557132 Y398.677288 Z-0.125000
G01 X313.148418 Y399.874383 Z-0.125000
G01 X314.345513 Y396.283097 Z-0.125000
G01 X314.345513 Y392.691812 Z-0.125000
G01 X319.133894 Y391.494717 Z-0.125000
G01 X319.133894 Y396.283097 Z-0.125000
G01 X322.725180 Y396.283097 Z-0.125000
G01 X323.922275 Y392.691812 Z-0.125000
G01 X326.316465 Y390.297621 Z-0.125000
G01 X329.907751 Y389.100526 Z-0.125000
G01 X332.301941 Y386.706336 Z-0.125000
G01 X333.499037 Y384.312145 Z-0.125000
G01 X335.893227 Y383.115050 Z-0.125000
G01 X339.484513 Y383.115050 Z-0.125000
G01 X339.484513 Y379.523764 Z-0.125000
G01 X340.681608 Y377.129574 Z-0.125000
G01 X341.878703 Y374.735383 Z-0.125000
G01 X344.272894 Y375.932479 Z-0.125000
G01 X344.272894 Y372.341193 Z-0.125000
G01 X345.469989 Y369.947002 Z-0.125000
G01 X346.667084 Y367.552812 Z-0.125000
G01 X347.864180 Y366.355717 Z-0.125000
G01 X349.061275 Y363.961526 Z-0.125000
G01 X349.061275 Y360.370240 Z-0.125000
G01 X350.258370 Y357.976050 Z-0.125000
G01 X351.455465 Y355.581860 Z-0.125000
G01 X352.652560 Y353.187669 Z-0.125000
G01 X353.849656 Y350.793479 Z-0.125000
G01 X353.849656 Y347.202193 Z-0.125000
G01 X355.046751 Y344.808002 Z-0.125000
G01 X358.638037 Y344.808002 Z-0.125000
G01 X361.032227 Y342.413812 Z-0.125000
G01 X362.229322 Y340.019622 Z-0.125000
G01 X362.229322 Y336.428336 Z-0.125000
G01 X358.638037 Y337.625431 Z-0.125000
G01 X357.440941 Y340.019622 Z-0.125000
G01 X355.046751 Y341.216717 Z-0.125000
G01 X353.849656 Y337.625431 Z-0.125000
G01 X355.046751 Y335.231241 Z-0.125000
G01 X358.638037 Y334.034145 Z-0.125000
G01 X361.032227 Y332.837050 Z-0.125000
G01 X364.623513 Y332.837050 Z-0.125000
G01 X367.017703 Y335.231241 Z-0.125000
G01 X365.820608 Y338.822526 Z-0.125000
G01 X368.214798 Y340.019622 Z-0.125000
G01 X365.820608 Y342.413812 Z-0.125000
G01 X364.623513 Y344.808002 Z-0.125000
G01 X363.426418 Y347.202193 Z-0.125000
G01 X362.229322 Y349.596383 Z-0.125000
G01 X358.638037 Y348.399288 Z-0.125000
G01 X357.440941 Y350.793479 Z-0.125000
G01 X356.243846 Y354.384764 Z-0.125000
G01 X355.046751 Y357.976050 Z-0.125000
G01 X353.849656 Y360.370240 Z-0.125000
G01 X352.652560 Y362.764431 Z-0.125000
G01 X352.652560 Y366.355717 Z-0.125000
G01 X356.243846 Y365.158621 Z-0.125000
G01 X357.440941 Y361.567336 Z-0.125000
G01 X358.638037 Y357.976050 Z-0.125000
G01 X359.835132 Y355.581860 Z-0.125000
G01 X361.032227 Y353.187669 Z-0.125000
G01 X364.623513 Y353.187669 Z-0.125000
G01 X363.426418 Y356.778955 Z-0.125000
G01 X367.017703 Y356.778955 Z-0.125000
G01 X368.214798 Y354.384764 Z-0.125000
G01 X367.017703 Y350.793479 Z-0.125000
G01 X368.214798 Y348.399288 Z-0.125000
G01 X369.411894 Y346.005098 Z-0.125000
G01 X370.608989 Y343.610907 Z-0.125000
G01 X371.806084 Y341.216717 Z-0.125000
G01 X370.608989 Y337.625431 Z-0.125000
G01 X374.200275 Y337.625431 Z-0.125000
G01 X374.200275 Y334.034145 Z-0.125000
G01 X375.397370 Y330.442860 Z-0.125000
G01 X375.397370 Y326.851574 Z-0.125000
G01 X378.988656 Y328.048669 Z-0.125000
G01 X377.791560 Y324.457383 Z-0.125000
G01 X381.382846 Y325.654479 Z-0.125000
G01 X380.185751 Y322.063193 Z-0.125000
G01 X378.988656 Y318.471907 Z-0.125000
G01 X375.397370 Y318.471907 Z-0.125000
G01 X374.200275 Y320.866098 Z-0.125000
G01 X373.003179 Y323.260288 Z-0.125000
G01 X371.806084 Y326.851574 Z-0.125000
G01 X371.806084 Y330.442860 Z-0.125000
G01 X370.608989 Y334.034145 Z-0.125000
G01 X368.214798 Y331.639955 Z-0.125000
G01 X368.214798 Y328.048669 Z-0.125000
G01 X368.214798 Y324.457383 Z-0.125000
G01 X369.411894 Y322.063193 Z-0.125000
G01 X369.411894 Y318.471907 Z-0.125000
G01 X369.411894 Y314.880622 Z-0.125000
G01 X371.806084 Y316.077717 Z-0.125000
G01 X375.397370 Y314.880622 Z-0.125000
G01 X378.988656 Y314.880622 Z-0.125000
G01 X380.185751 Y313.683526 Z-0.125000
G01 X381.382846 Y311.289336 Z-0.125000
G01 X380.185751 Y307.698050 Z-0.125000
G01 X376.594465 Y308.895145 Z-0.125000
G01 X374.200275 Y311.289336 Z-0.125000
G01 X370.608989 Y311.289336 Z-0.125000
G01 X370.608989 Y307.698050 Z-0.125000
G01 X373.003179 Y306.500955 Z-0.125000
G01 X376.594465 Y305.303860 Z-0.125000
G01 X377.791560 Y302.909669 Z-0.125000
G01 X380.185751 Y301.712574 Z-0.125000
G01 X381.382846 Y299.318384 Z-0.125000
G01 X384.974132 Y298.121288 Z-0.125000
G01 X386.171227 Y295.727098 Z-0.125000
G01 X388.565417 Y293.332907 Z-0.125000
G01 X390.959608 Y290.938717 Z-0.125000
G01 X393.353798 Y292.135812 Z-0.125000
G01 X393.353798 Y288.544526 Z-0.125000
G01 X394.550894 Y287.347431 Z-0.125000
G01 X398.142179 Y284.953241 Z-0.125000
G01 X398.142179 Y281.361955 Z-0.125000
G01 X398.142179 Y277.770669 Z-0.125000
G01 X398.142179 Y274.179384 Z-0.125000
G01 X399.339275 Y271.785193 Z-0.125000
G01 X401.733465 Y270.588098 Z-0.125000
G01 X402.930560 Y266.996812 Z-0.125000
G01 X404.127656 Y264.602622 Z-0.125000
G01 X405.324751 Y263.405527 Z-0.125000
G01 X404.127656 Y259.814241 Z-0.125000
G01 X405.324751 Y257.420050 Z-0.125000
G01 X407.718941 Y256.222955 Z-0.125000
G01 X411.310227 Y256.222955 Z-0.125000
G01 X411.310227 Y252.631669 Z-0.125000
G01 X414.901513 Y251.434574 Z-0.125000
G01 X414.901513 Y255.025860 Z-0.125000
G01 X418.492798 Y255.025860 Z-0.125000
G01 X419.689894 Y252.631669 Z-0.125000
G01 X422.084084 Y253.828765 Z-0.125000
G01 X425.675370 Y252.631669 Z-0.125000
G01 X428.069560 Y251.434574 Z-0.125000
G01 X429.266655 Y249.040384 Z-0.125000
G01 X428.069560 Y245.449098 Z-0.125000
G01 X431.660846 Y245.449098 Z-0.125000
G01 X435.252132 Y245.449098 Z-0.125000
G01 X434.055036 Y249.040384 Z-0.125000
G01 X432.857941 Y252.631669 Z-0.125000
G01 X431.660846 Y255.025860 Z-0.125000
G01 X430.463751 Y258.617146 Z-0.125000
G01 X428.069560 Y257.420050 Z-0.125000
G01 X426.872465 Y261.011336 Z-0.125000
G01 X424.478274 Y257.420050 Z-0.125000
G01 X423.281179 Y261.011336 Z-0.125000
G01 X420.886989 Y259.814241 Z-0.125000
G01 X419.689894 Y262.208431 Z-0.125000
G01 X418.492798 Y264.602622 Z-0.125000
G01 X418.492798 Y268.193907 Z-0.125000
G01 X417.295703 Y269.391003 Z-0.125000
G01 X416.098608 Y271.785193 Z-0.125000
G01 X418.492798 Y275.376479 Z-0.125000
G01 X414.901513 Y275.376479 Z-0.125000
G01 X416.098608 Y278.967765 Z-0.125000
G01 X419.689894 Y280.164860 Z-0.125000
G01 X422.084084 Y277.770669 Z-0.125000
G01 X422.084084 Y274.179384 Z-0.125000
G01 X423.281179 Y272.982288 Z-0.125000
G01 X424.478274 Y270.588098 Z-0.125000
G01 X426.872465 Y268.193907 Z-0.125000
G01 X423.281179 Y265.799717 Z-0.125000
G01 X426.872465 Y264.602622 Z-0.125000
G01 X430.463751 Y263.405527 Z-0.125000
G01 X430.463751 Y266.996812 Z-0.125000
G01 X430.463751 Y270.588098 Z-0.125000
G01 X429.266655 Y272.982288 Z-0.125000
G01 X426.872465 Y275.376479 Z-0.125000
G01 X426.872465 Y278.967765 Z-0.125000
G01 X424.478274 Y281.361955 Z-0.125000
G01 X422.084084 Y283.756146 Z-0.125000
G01 X420.886989 Y286.150336 Z-0.125000
G01 X418.492798 Y288.544526 Z-0.125000
G01 X416.098608 Y286.150336 Z-0.125000
G01 X417.295703 Y282.559050 Z-0.125000
G01 X413.704417 Y282.559050 Z-0.125000
G01 X411.310227 Y283.756146 Z-0.125000
G01 X410.113132 Y286.150336 Z-0.125000
G01 X406.521846 Y287.347431 Z-0.125000
G01 X405.324751 Y283.756146 Z-0.125000
G01 X406.521846 Y281.361955 Z-0.125000
G01 X408.916036 Y280.164860 Z-0.125000
G01 X412.507322 Y278.967765 Z-0.125000
G01 X411.310227 Y275.376479 Z-0.125000
G01 X411.310227 Y271.785193 Z-0.125000
G01 X412.507322 Y269.391003 Z-0.125000
G01 X412.507322 Y265.799717 Z-0.125000
G01 X413.704417 Y263.405527 Z-0.125000
G01 X416.098608 Y258.617146 Z-0.125000
G01 X413.704417 Y259.814241 Z-0.125000
G01 X410.113132 Y259.814241 Z-0.125000
G01 X408.916036 Y262.208431 Z-0.125000
G01 X408.916036 Y265.799717 Z-0.125000
G01 X407.718941 Y269.391003 Z-0.125000
G01 X406.521846 Y271.785193 Z-0.125000
G01 X407.718941 Y275.376479 Z-0.125000
G01 X404.127656 Y274.179384 Z-0.125000
G01 X404.127656 Y277.770669 Z-0.125000
G01 X401.733465 Y276.573574 Z-0.125000
G01 X401.733465 Y280.164860 Z-0.125000
G01 X401.733465 Y283.756146 Z-0.125000
G01 X402.930560 Y287.347431 Z-0.125000
G01 X400.536370 Y288.544526 Z-0.125000
G01 X398.142179 Y290.938717 Z-0.125000
G01 X398.142179 Y294.530003 Z-0.125000
G01 X395.747989 Y295.727098 Z-0.125000
G01 X392.156703 Y295.727098 Z-0.125000
G01 X392.156703 Y299.318384 Z-0.125000
G01 X389.762513 Y298.121288 Z-0.125000
G01 X388.565417 Y300.515479 Z-0.125000
G01 X384.974132 Y301.712574 Z-0.125000
G01 X382.579941 Y305.303860 Z-0.125000
G01 X388.565417 Y304.106765 Z-0.125000
G01 X387.368322 Y306.500955 Z-0.125000
G01 X386.171227 Y307.698050 Z-0.125000
G01 X384.974132 Y310.092241 Z-0.125000
G01 X384.974132 Y313.683526 Z-0.125000
G01 X388.565417 Y312.486431 Z-0.125000
G01 X390.959608 Y310.092241 Z-0.125000
G01 X392.156703 Y306.500955 Z-0.125000
G01 X393.353798 Y304.106765 Z-0.125000
G01 X395.747989 Y301.712574 Z-0.125000
G01 X396.945084 Y299.318384 Z-0.125000
G01 X400.536370 Y298.121288 Z-0.125000
G01 X402.930560 Y296.924193 Z-0.125000
G01 X401.733465 Y293.332907 Z-0.125000
G01 X404.127656 Y292.135812 Z-0.125000
G01 X407.718941 Y290.938717 Z-0.125000
G01 X410.113132 Y289.741622 Z-0.125000
G01 X413.704417 Y288.544526 Z-0.125000
G01 X413.704417 Y292.135812 Z-0.125000
G01 X417.295703 Y292.135812 Z-0.125000
G01 X420.886989 Y292.135812 Z-0.125000
G01 X419.689894 Y295.727098 Z-0.125000
G01 X416.098608 Y295.727098 Z-0.125000
G01 X414.901513 Y298.121288 Z-0.125000
G01 X418.492798 Y299.318384 Z-0.125000
G01 X416.098608 Y301.712574 Z-0.125000
G01 X414.901513 Y304.106765 Z-0.125000
G01 X414.901513 Y307.698050 Z-0.125000
G01 X411.310227 Y307.698050 Z-0.125000
G01 X411.310227 Y304.106765 Z-0.125000
G01 X411.310227 Y300.515479 Z-0.125000
G01 X411.310227 Y298.121288 Z-0.125000
G01 X411.310227 Y294.530003 Z-0.125000
G01 X407.718941 Y294.530003 Z-0.125000
G01 X406.521846 Y296.924193 Z-0.125000
G01 X407.718941 Y300.515479 Z-0.125000
G01 X407.718941 Y304.106765 Z-0.125000
G01 X407.718941 Y307.698050 Z-0.125000
G01 X406.521846 Y310.092241 Z-0.125000
G01 X402.930560 Y311.289336 Z-0.125000
G01 X399.339275 Y311.289336 Z-0.125000
G01 X400.536370 Y307.698050 Z-0.125000
G01 X402.930560 Y306.500955 Z-0.125000
G01 X404.127656 Y304.106765 Z-0.125000
G01 X404.127656 Y300.515479 Z-0.125000
G01 X400.536370 Y301.712574 Z-0.125000
G01 X398.142179 Y304.106765 Z-0.125000
G01 X396.945084 Y307.698050 Z-0.125000
G01 X395.747989 Y310.092241 Z-0.125000
G01 X394.550894 Y312.486431 Z-0.125000
G01 X395.747989 Y316.077717 Z-0.125000
G01 X392.156703 Y314.880622 Z-0.125000
G01 X388.565417 Y316.077717 Z-0.125000
G01 X386.171227 Y317.274812 Z-0.125000
G01 X382.579941 Y318.471907 Z-0.125000
G01 X383.777037 Y322.063193 Z-0.125000
G01 X386.171227 Y320.866098 Z-0.125000
G01 X389.762513 Y320.866098 Z-0.125000
G01 X392.156703 Y318.471907 Z-0.125000
G01 X395.747989 Y319.669003 Z-0.125000
G01 X394.550894 Y322.063193 Z-0.125000
G01 X392.156703 Y324.457383 Z-0.125000
G01 X395.747989 Y325.654479 Z-0.125000
G01 X393.353798 Y328.048669 Z-0.125000
G01 X392.156703 Y329.245764 Z-0.125000
G01 X388.565417 Y329.245764 Z-0.125000
G01 X388.565417 Y325.654479 Z-0.125000
G01 X384.974132 Y325.654479 Z-0.125000
G01 X383.777037 Y329.245764 Z-0.125000
G01 X382.579941 Y332.837050 Z-0.125000
G01 X380.185751 Y331.639955 Z-0.125000
G01 X378.988656 Y334.034145 Z-0.125000
G01 X377.791560 Y336.428336 Z-0.125000
G01 X381.382846 Y337.625431 Z-0.125000
G01 X384.974132 Y336.428336 Z-0.125000
G01 X386.171227 Y332.837050 Z-0.125000
G01 X389.762513 Y332.837050 Z-0.125000
G01 X393.353798 Y332.837050 Z-0.125000
G01 X396.945084 Y332.837050 Z-0.125000
G01 X398.142179 Y330.442860 Z-0.125000
G01 X399.339275 Y328.048669 Z-0.125000
G01 X399.339275 Y324.457383 Z-0.125000
G01 X400.536370 Y322.063193 Z-0.125000
G01 X399.339275 Y318.471907 Z-0.125000
G01 X399.339275 Y314.880622 Z-0.125000
G01 X402.930560 Y314.880622 Z-0.125000
G01 X402.930560 Y318.471907 Z-0.125000
G01 X404.127656 Y322.063193 Z-0.125000
G01 X406.521846 Y320.866098 Z-0.125000
G01 X407.718941 Y318.471907 Z-0.125000
G01 X406.521846 Y314.880622 Z-0.125000
G01 X407.718941 Y313.683526 Z-0.125000
G01 X411.310227 Y312.486431 Z-0.125000
G01 X411.310227 Y316.077717 Z-0.125000
G01 X414.901513 Y314.880622 Z-0.125000
G01 X414.901513 Y311.289336 Z-0.125000
G01 X418.492798 Y311.289336 Z-0.125000
G01 X418.492798 Y307.698050 Z-0.125000
G01 X419.689894 Y305.303860 Z-0.125000
G01 X420.886989 Y304.106765 Z-0.125000
G01 X422.084084 Y301.712574 Z-0.125000
G01 X423.281179 Y299.318384 Z-0.125000
G01 X423.281179 Y295.727098 Z-0.125000
G01 X425.675370 Y294.530003 Z-0.125000
G01 X424.478274 Y290.938717 Z-0.125000
G01 X425.675370 Y287.347431 Z-0.125000
G01 X426.872465 Y284.953241 Z-0.125000
G01 X429.266655 Y282.559050 Z-0.125000
G01 X430.463751 Y278.967765 Z-0.125000
G01 X431.660846 Y276.573574 Z-0.125000
G01 X434.055036 Y274.179384 Z-0.125000
G01 X435.252132 Y271.785193 Z-0.125000
G01 X436.449227 Y269.391003 Z-0.125000
G01 X434.055036 Y265.799717 Z-0.125000
G01 X434.055036 Y262.208431 Z-0.125000
G01 X435.252132 Y259.814241 Z-0.125000
G01 X436.449227 Y256.222955 Z-0.125000
G01 X436.449227 Y252.631669 Z-0.125000
G01 X438.843417 Y250.237479 Z-0.125000
G01 X442.434703 Y249.040384 Z-0.125000
G01 X446.025989 Y247.843289 Z-0.125000
G01 X448.420179 Y246.646193 Z-0.125000
G01 X449.617274 Y244.252003 Z-0.125000
G01 X452.011465 Y241.857812 Z-0.125000
G01 X454.405655 Y239.463622 Z-0.125000
G01 X454.405655 Y235.872336 Z-0.125000
G01 X457.996941 Y234.675241 Z-0.125000
G01 X457.996941 Y231.083955 Z-0.125000
G01 X459.194036 Y229.886860 Z-0.125000
G01 X457.996941 Y226.295574 Z-0.125000
G01 X459.194036 Y225.098479 Z-0.125000
G01 X462.785322 Y223.901384 Z-0.125000
G01 X463.982417 Y220.310098 Z-0.125000
G01 X460.391131 Y220.310098 Z-0.125000
G01 X457.996941 Y219.113003 Z-0.125000
G01 X456.799846 Y221.507193 Z-0.125000
G01 X454.405655 Y223.901384 Z-0.125000
G01 X454.405655 Y227.492670 Z-0.125000
G01 X452.011465 Y226.295574 Z-0.125000
G01 X450.814370 Y228.689765 Z-0.125000
G01 X454.405655 Y232.281050 Z-0.125000
G01 X450.814370 Y233.478146 Z-0.125000
G01 X449.617274 Y237.069431 Z-0.125000
G01 X447.223084 Y239.463622 Z-0.125000
G01 X446.025989 Y241.857812 Z-0.125000
G01 X443.631798 Y244.252003 Z-0.125000
G01 X438.843417 Y245.449098 Z-0.125000
G01 X440.040513 Y244.252003 Z-0.125000
G01 X438.843417 Y240.660717 Z-0.125000
G01 X441.237608 Y239.463622 Z-0.125000
G01 X442.434703 Y237.069431 Z-0.125000
G01 X444.828893 Y234.675241 Z-0.125000
G01 X446.025989 Y232.281050 Z-0.125000
G01 X447.223084 Y229.886860 Z-0.125000
G01 X447.223084 Y226.295574 Z-0.125000
G01 X446.025989 Y222.704289 Z-0.125000
G01 X443.631798 Y223.901384 Z-0.125000
G01 X442.434703 Y226.295574 Z-0.125000
G01 X442.434703 Y229.886860 Z-0.125000
G01 X440.040513 Y232.281050 Z-0.125000
G01 X437.646322 Y233.478146 Z-0.125000
G01 X436.449227 Y235.872336 Z-0.125000
G01 X435.252132 Y238.266527 Z-0.125000
G01 X435.252132 Y241.857812 Z-0.125000
G01 X431.660846 Y241.857812 Z-0.125000
G01 X430.463751 Y238.266527 Z-0.125000
G01 X428.069560 Y241.857812 Z-0.125000
G01 X424.478274 Y240.660717 Z-0.125000
G01 X425.675370 Y238.266527 Z-0.125000
G01 X426.872465 Y235.872336 Z-0.125000
G01 X428.069560 Y233.478146 Z-0.125000
G01 X431.660846 Y234.675241 Z-0.125000
G01 X430.463751 Y231.083955 Z-0.125000
G01 X434.055036 Y231.083955 Z-0.125000
G01 X435.252132 Y227.492670 Z-0.125000
G01 X438.843417 Y227.492670 Z-0.125000
G01 X438.843417 Y223.901384 Z-0.125000
G01 X440.040513 Y221.507193 Z-0.125000
G01 X441.237608 Y219.113003 Z-0.125000
G01 X444.828893 Y219.113003 Z-0.125000
G01 X446.025989 Y215.521717 Z-0.125000
G01 X442.434703 Y215.521717 Z-0.125000
G01 X438.843417 Y215.521717 Z-0.125000
G01 X436.449227 Y217.915908 Z-0.125000
G01 X435.252132 Y220.310098 Z-0.125000
G01 X435.252132 Y223.901384 Z-0.125000
G01 X432.857941 Y225.098479 Z-0.125000
G01 X430.463751 Y227.492670 Z-0.125000
G01 X426.872465 Y228.689765 Z-0.125000
G01 X423.281179 Y228.689765 Z-0.125000
G01 X423.281179 Y232.281050 Z-0.125000
G01 X422.084084 Y234.675241 Z-0.125000
G01 X420.886989 Y237.069431 Z-0.125000
G01 X419.689894 Y238.266527 Z-0.125000
G01 X418.492798 Y240.660717 Z-0.125000
G01 X416.098608 Y243.054908 Z-0.125000
G01 X419.689894 Y244.252003 Z-0.125000
G01 X423.281179 Y243.054908 Z-0.125000
G01 X424.478274 Y246.646193 Z-0.125000
G01 X423.281179 Y249.040384 Z-0.125000
G01 X418.492798 Y249.040384 Z-0.125000
G01 X414.901513 Y247.843289 Z-0.125000
G01 X412.507322 Y243.054908 Z-0.125000
G01 X410.113132 Y245.449098 Z-0.125000
G01 X411.310227 Y249.040384 Z-0.125000
G01 X407.718941 Y249.040384 Z-0.125000
G01 X406.521846 Y252.631669 Z-0.125000
G01 X402.930560 Y253.828765 Z-0.125000
G01 X400.536370 Y256.222955 Z-0.125000
G01 X396.945084 Y255.025860 Z-0.125000
G01 X393.353798 Y256.222955 Z-0.125000
G01 X389.762513 Y257.420050 Z-0.125000
G01 X388.565417 Y259.814241 Z-0.125000
G01 X387.368322 Y263.405527 Z-0.125000
G01 X383.777037 Y263.405527 Z-0.125000
G01 X383.777037 Y266.996812 Z-0.125000
G01 X381.382846 Y269.391003 Z-0.125000
G01 X383.777037 Y272.982288 Z-0.125000
G01 X382.579941 Y275.376479 Z-0.125000
G01 X381.382846 Y278.967765 Z-0.125000
G01 X380.185751 Y281.361955 Z-0.125000
G01 X383.777037 Y282.559050 Z-0.125000
G01 X384.974132 Y278.967765 Z-0.125000
G01 X387.368322 Y276.573574 Z-0.125000
G01 X388.565417 Y274.179384 Z-0.125000
G01 X387.368322 Y270.588098 Z-0.125000
G01 X387.368322 Y266.996812 Z-0.125000
G01 X390.959608 Y266.996812 Z-0.125000
G01 X392.156703 Y264.602622 Z-0.125000
G01 X393.353798 Y262.208431 Z-0.125000
G01 X394.550894 Y261.011336 Z-0.125000
G01 X396.945084 Y258.617146 Z-0.125000
G01 X400.536370 Y261.011336 Z-0.125000
G01 X398.142179 Y263.405527 Z-0.125000
G01 X399.339275 Y266.996812 Z-0.125000
G01 X395.747989 Y266.996812 Z-0.125000
G01 X394.550894 Y270.588098 Z-0.125000
G01 X392.156703 Y271.785193 Z-0.125000
G01 X390.959608 Y275.376479 Z-0.125000
G01 X394.550894 Y275.376479 Z-0.125000
G01 X394.550894 Y278.967765 Z-0.125000
G01 X394.550894 Y282.559050 Z-0.125000
G01 X392.156703 Y283.756146 Z-0.125000
G01 X390.959608 Y280.164860 Z-0.125000
G01 X387.368322 Y280.164860 Z-0.125000
G01 X388.565417 Y283.756146 Z-0.125000
G01 X386.171227 Y286.150336 Z-0.125000
G01 X388.565417 Y287.347431 Z-0.125000
G01 X386.171227 Y289.741622 Z-0.125000
G01 X383.777037 Y292.135812 Z-0.125000
G01 X381.382846 Y294.530003 Z-0.125000
G01 X378.988656 Y293.332907 Z-0.125000
G01 X380.185751 Y289.741622 Z-0.125000
G01 X382.579941 Y287.347431 Z-0.125000
G01 X380.185751 Y284.953241 Z-0.125000
G01 X377.791560 Y283.756146 Z-0.125000
G01 X376.594465 Y286.150336 Z-0.125000
G01 X375.397370 Y288.544526 Z-0.125000
G01 X374.200275 Y290.938717 Z-0.125000
G01 X374.200275 Y294.530003 Z-0.125000
G01 X377.791560 Y295.727098 Z-0.125000
G01 X376.594465 Y298.121288 Z-0.125000
G01 X373.003179 Y298.121288 Z-0.125000
G01 X374.200275 Y301.712574 Z-0.125000
G01 X370.608989 Y301.712574 Z-0.125000
G01 X369.411894 Y302.909669 Z-0.125000
G01 X367.017703 Y305.303860 Z-0.125000
G01 X367.017703 Y308.895145 Z-0.125000
G01 X365.820608 Y311.289336 Z-0.125000
G01 X365.820608 Y314.880622 Z-0.125000
G01 X362.229322 Y314.880622 Z-0.125000
G01 X358.638037 Y316.077717 Z-0.125000
G01 X355.046751 Y314.880622 Z-0.125000
G01 X356.243846 Y312.486431 Z-0.125000
G01 X358.638037 Y311.289336 Z-0.125000
G01 X362.229322 Y311.289336 Z-0.125000
G01 X362.229322 Y307.698050 Z-0.125000
G01 X363.426418 Y305.303860 Z-0.125000
G01 X364.623513 Y301.712574 Z-0.125000
G01 X364.623513 Y298.121288 Z-0.125000
G01 X368.214798 Y298.121288 Z-0.125000
G01 X369.411894 Y295.727098 Z-0.125000
G01 X370.608989 Y293.332907 Z-0.125000
G01 X369.411894 Y289.741622 Z-0.125000
G01 X370.608989 Y287.347431 Z-0.125000
G01 X373.003179 Y284.953241 Z-0.125000
G01 X375.397370 Y280.164860 Z-0.125000
G01 X376.594465 Y277.770669 Z-0.125000
G01 X378.988656 Y275.376479 Z-0.125000
G01 X378.988656 Y271.785193 Z-0.125000
G01 X375.397370 Y272.982288 Z-0.125000
G01 X373.003179 Y274.179384 Z-0.125000
G01 X371.806084 Y277.770669 Z-0.125000
G01 X371.806084 Y281.361955 Z-0.125000
G01 X369.411894 Y282.559050 Z-0.125000
G01 X365.820608 Y282.559050 Z-0.125000
G01 X367.017703 Y286.150336 Z-0.125000
G01 X365.820608 Y288.544526 Z-0.125000
G01 X365.820608 Y292.135812 Z-0.125000
G01 X364.623513 Y294.530003 Z-0.125000
G01 X361.032227 Y294.530003 Z-0.125000
G01 X361.032227 Y298.121288 Z-0.125000
G01 X361.032227 Y301.712574 Z-0.125000
G01 X358.638037 Y300.515479 Z-0.125000
G01 X355.046751 Y301.712574 Z-0.125000
G01 X355.046751 Y305.303860 Z-0.125000
G01 X358.638037 Y304.106765 Z-0.125000
G01 X358.638037 Y307.698050 Z-0.125000
G01 X355.046751 Y308.895145 Z-0.125000
G01 X351.455465 Y311.289336 Z-0.125000
G01 X350.258370 Y312.486431 Z-0.125000
G01 X351.455465 Y316.077717 Z-0.125000
G01 X347.864180 Y316.077717 Z-0.125000
G01 X346.667084 Y318.471907 Z-0.125000
G01 X345.469989 Y322.063193 Z-0.125000
G01 X349.061275 Y320.866098 Z-0.125000
G01 X352.652560 Y319.669003 Z-0.125000
G01 X355.046751 Y318.471907 Z-0.125000
G01 X356.243846 Y322.063193 Z-0.125000
G01 X352.652560 Y323.260288 Z-0.125000
G01 X349.061275 Y324.457383 Z-0.125000
G01 X345.469989 Y325.654479 Z-0.125000
G01 X344.272894 Y328.048669 Z-0.125000
G01 X345.469989 Y331.639955 Z-0.125000
G01 X347.864180 Y330.442860 Z-0.125000
G01 X349.061275 Y328.048669 Z-0.125000
G01 X352.652560 Y326.851574 Z-0.125000
G01 X356.243846 Y326.851574 Z-0.125000
G01 X357.440941 Y325.654479 Z-0.125000
G01 X361.032227 Y325.654479 Z-0.125000
G01 X359.835132 Y322.063193 Z-0.125000
G01 X359.835132 Y319.669003 Z-0.125000
G01 X362.229322 Y318.471907 Z-0.125000
G01 X365.820608 Y318.471907 Z-0.125000
G01 X364.623513 Y322.063193 Z-0.125000
G01 X364.623513 Y325.654479 Z-0.125000
G01 X364.623513 Y329.245764 Z-0.125000
G01 X361.032227 Y329.245764 Z-0.125000
G01 X357.440941 Y330.442860 Z-0.125000
G01 X353.849656 Y330.442860 Z-0.125000
G01 X352.652560 Y331.639955 Z-0.125000
G01 X351.455465 Y334.034145 Z-0.125000
G01 X347.864180 Y335.231241 Z-0.125000
G01 X344.272894 Y334.034145 Z-0.125000
G01 X341.878703 Y335.231241 Z-0.125000
G01 X344.272894 Y337.625431 Z-0.125000
G01 X340.681608 Y338.822526 Z-0.125000
G01 X338.287418 Y341.216717 Z-0.125000
G01 X341.878703 Y342.413812 Z-0.125000
G01 X340.681608 Y344.808002 Z-0.125000
G01 X339.484513 Y348.399288 Z-0.125000
G01 X337.090322 Y350.793479 Z-0.125000
G01 X332.301941 Y351.990574 Z-0.125000
G01 X333.499037 Y348.399288 Z-0.125000
G01 X335.893227 Y344.808002 Z-0.125000
G01 X332.301941 Y344.808002 Z-0.125000
G01 X328.710656 Y344.808002 Z-0.125000
G01 X329.907751 Y348.399288 Z-0.125000
G01 X327.513561 Y350.793479 Z-0.125000
G01 X328.710656 Y354.384764 Z-0.125000
G01 X323.922275 Y353.187669 Z-0.125000
G01 X323.922275 Y356.778955 Z-0.125000
G01 X321.528084 Y360.370240 Z-0.125000
G01 X317.936799 Y360.370240 Z-0.125000
G01 X315.542608 Y362.764431 Z-0.125000
G01 X315.542608 Y366.355717 Z-0.125000
G01 X310.754227 Y363.961526 Z-0.125000
G01 X309.557132 Y367.552812 Z-0.125000
G01 X308.360037 Y371.144098 Z-0.125000
G01 X305.965846 Y373.538288 Z-0.125000
G01 X307.162942 Y377.129574 Z-0.125000
G01 X304.768751 Y378.326669 Z-0.125000
G01 X303.571656 Y380.720859 Z-0.125000
G01 X301.177465 Y383.115050 Z-0.125000
G01 X298.783275 Y381.917955 Z-0.125000
G01 X298.783275 Y385.509240 Z-0.125000
G01 X298.783275 Y389.100526 Z-0.125000
G01 X303.571656 Y389.100526 Z-0.125000
G01 X304.768751 Y385.509240 Z-0.125000
G01 X307.162942 Y383.115050 Z-0.125000
G01 X308.360037 Y380.720859 Z-0.125000
G01 X311.951323 Y380.720859 Z-0.125000
G01 X310.754227 Y377.129574 Z-0.125000
G01 X311.951323 Y375.932479 Z-0.125000
G01 X315.542608 Y375.932479 Z-0.125000
G01 X313.148418 Y372.341193 Z-0.125000
G01 X315.542608 Y369.947002 Z-0.125000
G01 X320.330989 Y368.749907 Z-0.125000
G01 X321.528084 Y365.158621 Z-0.125000
G01 X325.119370 Y368.749907 Z-0.125000
G01 X326.316465 Y365.158621 Z-0.125000
G01 X326.316465 Y361.567336 Z-0.125000
G01 X328.710656 Y359.173145 Z-0.125000
G01 X332.301941 Y356.778955 Z-0.125000
G01 X335.893227 Y355.581860 Z-0.125000
G01 X338.287418 Y354.384764 Z-0.125000
G01 X341.878703 Y353.187669 Z-0.125000
G01 X343.075799 Y350.793479 Z-0.125000
G01 X344.272894 Y348.399288 Z-0.125000
G01 X344.272894 Y346.005098 Z-0.125000
G01 X346.667084 Y344.808002 Z-0.125000
G01 X345.469989 Y341.216717 Z-0.125000
G01 X347.864180 Y340.019622 Z-0.125000
G01 X350.258370 Y337.625431 Z-0.125000
G01 X351.455465 Y341.216717 Z-0.125000
G01 X350.258370 Y343.610907 Z-0.125000
G01 X350.258370 Y347.202193 Z-0.125000
G01 X349.061275 Y349.596383 Z-0.125000
G01 X347.864180 Y351.990574 Z-0.125000
G01 X346.667084 Y354.384764 Z-0.125000
G01 X345.469989 Y356.778955 Z-0.125000
G01 X341.878703 Y356.778955 Z-0.125000
G01 X343.075799 Y360.370240 Z-0.125000
G01 X345.469989 Y361.567336 Z-0.125000
G01 X341.878703 Y362.764431 Z-0.125000
G01 X341.878703 Y366.355717 Z-0.125000
G01 X340.681608 Y368.749907 Z-0.125000
G01 X339.484513 Y371.144098 Z-0.125000
G01 X337.090322 Y373.538288 Z-0.125000
G01 X335.893227 Y375.932479 Z-0.125000
G01 X335.893227 Y379.523764 Z-0.125000
G01 X332.301941 Y379.523764 Z-0.125000
G01 X332.301941 Y375.932479 Z-0.125000
G01 X333.499037 Y372.341193 Z-0.125000
G01 X334.696132 Y369.947002 Z-0.125000
G01 X335.893227 Y367.552812 Z-0.125000
G01 X337.090322 Y365.158621 Z-0.125000
G01 X338.287418 Y362.764431 Z-0.125000
G01 X338.287418 Y359.173145 Z-0.125000
G01 X334.696132 Y360.370240 Z-0.125000
G01 X332.301941 Y362.764431 Z-0.125000
G01 X331.104846 Y365.158621 Z-0.125000
G01 X329.907751 Y368.749907 Z-0.125000
G01 X329.907751 Y372.341193 Z-0.125000
G01 X328.710656 Y375.932479 Z-0.125000
G01 X328.710656 Y379.523764 Z-0.125000
G01 X327.513561 Y381.917955 Z-0.125000
G01 X325.119370 Y384.312145 Z-0.125000
G01 X320.330989 Y385.509240 Z-0.125000
G01 X321.528084 Y381.917955 Z-0.125000
G01 X323.922275 Y379.523764 Z-0.125000
G01 X325.119370 Y375.932479 Z-0.125000
G01 X326.316465 Y372.341193 Z-0.125000
G01 X322.725180 Y372.341193 Z-0.125000
G01 X321.528084 Y375.932479 Z-0.125000
G01 X319.133894 Y374.735383 Z-0.125000
G01 X319.133894 Y378.326669 Z-0.125000
G01 X316.739703 Y379.523764 Z-0.125000
G01 X315.542608 Y381.917955 Z-0.125000
G01 X315.542608 Y385.509240 Z-0.125000
G01 X313.148418 Y386.706336 Z-0.125000
G01 X309.557132 Y387.903431 Z-0.125000
G01 X309.557132 Y393.888907 Z-0.125000
G01 X304.768751 Y395.086002 Z-0.125000
G01 X299.980370 Y393.888907 Z-0.125000
G01 X301.177465 Y398.677288 Z-0.125000
G01 X297.586180 Y399.874383 Z-0.125000
G01 X293.994894 Y401.071478 Z-0.125000
G01 X289.206513 Y403.465669 Z-0.125000
G01 X284.418132 Y403.465669 Z-0.125000
G01 X283.221037 Y407.056955 Z-0.125000
G01 X280.826846 Y408.254050 Z-0.125000
G01 X280.826846 Y411.845336 Z-0.125000
G01 X277.235561 Y410.648240 Z-0.125000
G01 X276.038466 Y413.042431 Z-0.125000
G01 X276.038466 Y416.633716 Z-0.125000
G01 X276.038466 Y420.225002 Z-0.125000
G01 X273.644275 Y422.619193 Z-0.125000
G01 X268.855894 Y422.619193 Z-0.125000
G01 X264.067513 Y423.816288 Z-0.125000
G01 X262.870418 Y419.027907 Z-0.125000
G01 X265.264608 Y416.633716 Z-0.125000
G01 X270.052989 Y416.633716 Z-0.125000
G01 X271.250085 Y413.042431 Z-0.125000
G01 X271.250085 Y409.451145 Z-0.125000
G01 X273.644275 Y407.056955 Z-0.125000
G01 X277.235561 Y404.662764 Z-0.125000
G01 X278.432656 Y401.071478 Z-0.125000
G01 X280.826846 Y398.677288 Z-0.125000
G01 X279.629751 Y393.888907 Z-0.125000
G01 X277.235561 Y396.283097 Z-0.125000
G01 X273.644275 Y397.480193 Z-0.125000
G01 X272.447180 Y401.071478 Z-0.125000
G01 X270.052989 Y403.465669 Z-0.125000
G01 X267.658799 Y405.859859 Z-0.125000
G01 X266.461704 Y409.451145 Z-0.125000
G01 X265.264608 Y411.845336 Z-0.125000
G01 X260.476227 Y411.845336 Z-0.125000
G01 X261.673323 Y407.056955 Z-0.125000
G01 X261.673323 Y403.465669 Z-0.125000
G01 X264.067513 Y401.071478 Z-0.125000
G01 X266.461704 Y398.677288 Z-0.125000
G01 X267.658799 Y395.086002 Z-0.125000
G01 X271.250085 Y392.691812 Z-0.125000
G01 X274.841370 Y391.494717 Z-0.125000
G01 X277.235561 Y389.100526 Z-0.125000
G01 X280.826846 Y389.100526 Z-0.125000
G01 X284.418132 Y390.297621 Z-0.125000
G01 X283.221037 Y386.706336 Z-0.125000
G01 X286.812323 Y386.706336 Z-0.125000
G01 X290.403608 Y386.706336 Z-0.125000
G01 X290.403608 Y390.297621 Z-0.125000
G01 X289.206513 Y392.691812 Z-0.125000
G01 X284.418132 Y393.888907 Z-0.125000
G01 X285.615227 Y398.677288 Z-0.125000
G01 X289.206513 Y397.480193 Z-0.125000
G01 X293.994894 Y395.086002 Z-0.125000
G01 X295.191989 Y391.494717 Z-0.125000
G01 X293.994894 Y386.706336 Z-0.125000
G01 X295.191989 Y383.115050 Z-0.125000
G01 X291.600704 Y383.115050 Z-0.125000
G01 X288.009418 Y383.115050 Z-0.125000
G01 X284.418132 Y383.115050 Z-0.125000
G01 X280.826846 Y383.115050 Z-0.125000
G01 X278.432656 Y381.917955 Z-0.125000
G01 X277.235561 Y385.509240 Z-0.125000
G01 X273.644275 Y385.509240 Z-0.125000
G01 X271.250085 Y387.903431 Z-0.125000
G01 X270.052989 Y384.312145 Z-0.125000
G01 X271.250085 Y381.917955 Z-0.125000
G01 X274.841370 Y381.917955 Z-0.125000
G01 X273.644275 Y378.326669 Z-0.125000
G01 X273.644275 Y374.735383 Z-0.125000
G01 X277.235561 Y375.932479 Z-0.125000
G01 X277.235561 Y371.144098 Z-0.125000
G01 X282.023942 Y371.144098 Z-0.125000
G01 X284.418132 Y367.552812 Z-0.125000
G01 X289.206513 Y368.749907 Z-0.125000
G01 X292.797799 Y366.355717 Z-0.125000
G01 X291.600704 Y362.764431 Z-0.125000
G01 X295.191989 Y361.567336 Z-0.125000
G01 X295.191989 Y357.976050 Z-0.125000
G01 X297.586180 Y355.581860 Z-0.125000
G01 X299.980370 Y353.187669 Z-0.125000
G01 X302.374561 Y350.793479 Z-0.125000
G01 X302.374561 Y346.005098 Z-0.125000
G01 X305.965846 Y348.399288 Z-0.125000
G01 X308.360037 Y347.202193 Z-0.125000
G01 X309.557132 Y344.808002 Z-0.125000
G01 X310.754227 Y341.216717 Z-0.125000
G01 X313.148418 Y336.428336 Z-0.125000
G01 X314.345513 Y331.639955 Z-0.125000
G01 X316.739703 Y326.851574 Z-0.125000
G01 X317.936799 Y324.457383 Z-0.125000
G01 X319.133894 Y322.063193 Z-0.125000
G01 X320.330989 Y319.669003 Z-0.125000
G01 X321.528084 Y317.274812 Z-0.125000
G01 X325.119370 Y316.077717 Z-0.125000
G01 X327.513561 Y318.471907 Z-0.125000
G01 X325.119370 Y320.866098 Z-0.125000
G01 X323.922275 Y323.260288 Z-0.125000
G01 X321.528084 Y325.654479 Z-0.125000
G01 X320.330989 Y329.245764 Z-0.125000
G01 X317.936799 Y331.639955 Z-0.125000
G01 X321.528084 Y332.837050 Z-0.125000
G01 X325.119370 Y331.639955 Z-0.125000
G01 X325.119370 Y328.048669 Z-0.125000
G01 X327.513561 Y326.851574 Z-0.125000
G01 X328.710656 Y325.654479 Z-0.125000
G01 X329.907751 Y323.260288 Z-0.125000
G01 X331.104846 Y320.866098 Z-0.125000
G01 X334.696132 Y318.471907 Z-0.125000
G01 X331.104846 Y317.274812 Z-0.125000
G01 X332.301941 Y314.880622 Z-0.125000
G01 X333.499037 Y312.486431 Z-0.125000
G01 X335.893227 Y313.683526 Z-0.125000
G01 X335.893227 Y310.092241 Z-0.125000
G01 X337.090322 Y308.895145 Z-0.125000
G01 X338.287418 Y306.500955 Z-0.125000
G01 X339.484513 Y304.106765 Z-0.125000
G01 X343.075799 Y301.712574 Z-0.125000
G01 X343.075799 Y298.121288 Z-0.125000
G01 X344.272894 Y295.727098 Z-0.125000
G01 X345.469989 Y293.332907 Z-0.125000
G01 X346.667084 Y290.938717 Z-0.125000
G01 X350.258370 Y289.741622 Z-0.125000
G01 X346.667084 Y288.544526 Z-0.125000
G01 X347.864180 Y286.150336 Z-0.125000
G01 X349.061275 Y283.756146 Z-0.125000
G01 X351.455465 Y284.953241 Z-0.125000
G01 X351.455465 Y281.361955 Z-0.125000
G01 X352.652560 Y280.164860 Z-0.125000
G01 X353.849656 Y277.770669 Z-0.125000
G01 X355.046751 Y275.376479 Z-0.125000
G01 X355.046751 Y271.785193 Z-0.125000
G01 X356.243846 Y269.391003 Z-0.125000
G01 X357.440941 Y266.996812 Z-0.125000
G01 X361.032227 Y268.193907 Z-0.125000
G01 X361.032227 Y271.785193 Z-0.125000
G01 X365.820608 Y270.588098 Z-0.125000
G01 X364.623513 Y271.785193 Z-0.125000
G01 X364.623513 Y275.376479 Z-0.125000
G01 X361.032227 Y275.376479 Z-0.125000
G01 X358.638037 Y274.179384 Z-0.125000
G01 X358.638037 Y277.770669 Z-0.125000
G01 X357.440941 Y280.164860 Z-0.125000
G01 X356.243846 Y283.756146 Z-0.125000
G01 X355.046751 Y286.150336 Z-0.125000
G01 X353.849656 Y288.544526 Z-0.125000
G01 X353.849656 Y292.135812 Z-0.125000
G01 X352.652560 Y294.530003 Z-0.125000
G01 X349.061275 Y294.530003 Z-0.125000
G01 X347.864180 Y298.121288 Z-0.125000
G01 X346.667084 Y300.515479 Z-0.125000
G01 X346.667084 Y304.106765 Z-0.125000
G01 X344.272894 Y305.303860 Z-0.125000
G01 X343.075799 Y307.698050 Z-0.125000
G01 X341.878703 Y310.092241 Z-0.125000
G01 X340.681608 Y312.486431 Z-0.125000
G01 X339.484513 Y314.880622 Z-0.125000
G01 X338.287418 Y317.274812 Z-0.125000
G01 X338.287418 Y320.866098 Z-0.125000
G01 X335.893227 Y322.063193 Z-0.125000
G01 X334.696132 Y324.457383 Z-0.125000
G01 X333.499037 Y326.851574 Z-0.125000
G01 X332.301941 Y329.245764 Z-0.125000
G01 X331.104846 Y332.837050 Z-0.125000
G01 X328.710656 Y331.639955 Z-0.125000
G01 X326.316465 Y335.231241 Z-0.125000
G01 X323.922275 Y336.428336 Z-0.125000
G01 X322.725180 Y338.822526 Z-0.125000
G01 X319.133894 Y336.428336 Z-0.125000
G01 X317.936799 Y340.019622 Z-0.125000
G01 X315.542608 Y342.413812 Z-0.125000
G01 X315.542608 Y347.202193 Z-0.125000
G01 X314.345513 Y349.596383 Z-0.125000
G01 X313.148418 Y351.990574 Z-0.125000
G01 X309.557132 Y353.187669 Z-0.125000
G01 X305.965846 Y353.187669 Z-0.125000
G01 X305.965846 Y356.778955 Z-0.125000
G01 X302.374561 Y357.976050 Z-0.125000
G01 X299.980370 Y360.370240 Z-0.125000
G01 X299.980370 Y363.961526 Z-0.125000
G01 X297.586180 Y366.355717 Z-0.125000
G01 X293.994894 Y369.947002 Z-0.125000
G01 X295.191989 Y373.538288 Z-0.125000
G01 X290.403608 Y373.538288 Z-0.125000
G01 X288.009418 Y372.341193 Z-0.125000
G01 X285.615227 Y374.735383 Z-0.125000
G01 X282.023942 Y375.932479 Z-0.125000
G01 X280.826846 Y379.523764 Z-0.125000
G01 X284.418132 Y379.523764 Z-0.125000
G01 X288.009418 Y379.523764 Z-0.125000
G01 X291.600704 Y379.523764 Z-0.125000
G01 X292.797799 Y378.326669 Z-0.125000
G01 X296.389084 Y378.326669 Z-0.125000
G01 X299.980370 Y378.326669 Z-0.125000
G01 X299.980370 Y374.735383 Z-0.125000
G01 X301.177465 Y372.341193 Z-0.125000
G01 X302.374561 Y369.947002 Z-0.125000
G01 X304.768751 Y367.552812 Z-0.125000
G01 X304.768751 Y363.961526 Z-0.125000
G01 X305.965846 Y360.370240 Z-0.125000
G01 X310.754227 Y359.173145 Z-0.125000
G01 X313.148418 Y356.778955 Z-0.125000
G01 X317.936799 Y355.581860 Z-0.125000
G01 X319.133894 Y351.990574 Z-0.125000
G01 X321.528084 Y349.596383 Z-0.125000
G01 X323.922275 Y347.202193 Z-0.125000
G01 X319.133894 Y344.808002 Z-0.125000
G01 X322.725180 Y343.610907 Z-0.125000
G01 X325.119370 Y342.413812 Z-0.125000
G01 X328.710656 Y341.216717 Z-0.125000
G01 X329.907751 Y338.822526 Z-0.125000
G01 X331.104846 Y336.428336 Z-0.125000
G01 X333.499037 Y341.216717 Z-0.125000
G01 X334.696132 Y337.625431 Z-0.125000
G01 X335.893227 Y334.034145 Z-0.125000
G01 X338.287418 Y335.231241 Z-0.125000
G01 X340.681608 Y330.442860 Z-0.125000
G01 X338.287418 Y331.639955 Z-0.125000
G01 X337.090322 Y328.048669 Z-0.125000
G01 X339.484513 Y326.851574 Z-0.125000
G01 X340.681608 Y325.654479 Z-0.125000
G01 X341.878703 Y323.260288 Z-0.125000
G01 X341.878703 Y319.669003 Z-0.125000
G01 X343.075799 Y317.274812 Z-0.125000
G01 X344.272894 Y313.683526 Z-0.125000
G01 X346.667084 Y312.486431 Z-0.125000
G01 X346.667084 Y308.895145 Z-0.125000
G01 X350.258370 Y307.698050 Z-0.125000
G01 X351.455465 Y306.500955 Z-0.125000
G01 X350.258370 Y302.909669 Z-0.125000
G01 X351.455465 Y300.515479 Z-0.125000
G01 X352.652560 Y298.121288 Z-0.125000
G01 X356.243846 Y296.924193 Z-0.125000
G01 X357.440941 Y294.530003 Z-0.125000
G01 X357.440941 Y290.938717 Z-0.125000
G01 X361.032227 Y290.938717 Z-0.125000
G01 X362.229322 Y288.544526 Z-0.125000
G01 X358.638037 Y287.347431 Z-0.125000
G01 X359.835132 Y283.756146 Z-0.125000
G01 X362.229322 Y284.953241 Z-0.125000
G01 X362.229322 Y281.361955 Z-0.125000
G01 X363.426418 Y278.967765 Z-0.125000
G01 X367.017703 Y278.967765 Z-0.125000
G01 X368.214798 Y276.573574 Z-0.125000
G01 X369.411894 Y274.179384 Z-0.125000
G01 X370.608989 Y270.588098 Z-0.125000
G01 X374.200275 Y269.391003 Z-0.125000
G01 X375.397370 Y266.996812 Z-0.125000
G01 X378.988656 Y265.799717 Z-0.125000
G01 X378.988656 Y262.208431 Z-0.125000
G01 X375.397370 Y263.405527 Z-0.125000
G01 X375.397370 Y259.814241 Z-0.125000
G01 X376.594465 Y257.420050 Z-0.125000
G01 X375.397370 Y253.828765 Z-0.125000
G01 X376.594465 Y251.434574 Z-0.125000
G01 X380.185751 Y250.237479 Z-0.125000
G01 X382.579941 Y247.843289 Z-0.125000
G01 X383.777037 Y245.449098 Z-0.125000
G01 X384.974132 Y244.252003 Z-0.125000
G01 X384.974132 Y240.660717 Z-0.125000
G01 X383.777037 Y237.069431 Z-0.125000
G01 X384.974132 Y234.675241 Z-0.125000
G01 X383.777037 Y231.083955 Z-0.125000
G01 X384.974132 Y228.689765 Z-0.125000
G01 X386.171227 Y226.295574 Z-0.125000
G01 X389.762513 Y227.492670 Z-0.125000
G01 X393.353798 Y226.295574 Z-0.125000
G01 X393.353798 Y229.886860 Z-0.125000
G01 X389.762513 Y231.083955 Z-0.125000
G01 X388.565417 Y233.478146 Z-0.125000
G01 X393.353798 Y234.675241 Z-0.125000
G01 X390.959608 Y237.069431 Z-0.125000
G01 X388.565417 Y238.266527 Z-0.125000
G01 X388.565417 Y241.857812 Z-0.125000
G01 X389.762513 Y245.449098 Z-0.125000
G01 X389.762513 Y249.040384 Z-0.125000
G01 X387.368322 Y250.237479 Z-0.125000
G01 X383.777037 Y251.434574 Z-0.125000
G01 X381.382846 Y253.828765 Z-0.125000
G01 X380.185751 Y256.222955 Z-0.125000
G01 X381.382846 Y259.814241 Z-0.125000
G01 X384.974132 Y259.814241 Z-0.125000
G01 X384.974132 Y256.222955 Z-0.125000
G01 X387.368322 Y253.828765 Z-0.125000
G01 X390.959608 Y253.828765 Z-0.125000
G01 X393.353798 Y251.434574 Z-0.125000
G01 X396.945084 Y250.237479 Z-0.125000
G01 X400.536370 Y250.237479 Z-0.125000
G01 X402.930560 Y249.040384 Z-0.125000
G01 X401.733465 Y245.449098 Z-0.125000
G01 X405.324751 Y245.449098 Z-0.125000
G01 X406.521846 Y241.857812 Z-0.125000
G01 X407.718941 Y238.266527 Z-0.125000
G01 X410.113132 Y239.463622 Z-0.125000
G01 X413.704417 Y239.463622 Z-0.125000
G01 X414.901513 Y237.069431 Z-0.125000
G01 X411.310227 Y235.872336 Z-0.125000
G01 X413.704417 Y233.478146 Z-0.125000
G01 X417.295703 Y233.478146 Z-0.125000
G01 X418.492798 Y229.886860 Z-0.125000
G01 X414.901513 Y229.886860 Z-0.125000
G01 X416.098608 Y226.295574 Z-0.125000
G01 X418.492798 Y225.098479 Z-0.125000
G01 X419.689894 Y222.704289 Z-0.125000
G01 X416.098608 Y221.507193 Z-0.125000
G01 X412.507322 Y221.507193 Z-0.125000
G01 X411.310227 Y223.901384 Z-0.125000
G01 X411.310227 Y227.492670 Z-0.125000
G01 X410.113132 Y229.886860 Z-0.125000
G01 X408.916036 Y232.281050 Z-0.125000
G01 X406.521846 Y234.675241 Z-0.125000
G01 X404.127656 Y231.083955 Z-0.125000
G01 X401.733465 Y233.478146 Z-0.125000
G01 X402.930560 Y237.069431 Z-0.125000
G01 X401.733465 Y238.266527 Z-0.125000
G01 X401.733465 Y241.857812 Z-0.125000
G01 X398.142179 Y241.857812 Z-0.125000
G01 X396.945084 Y245.449098 Z-0.125000
G01 X393.353798 Y246.646193 Z-0.125000
G01 X393.353798 Y243.054908 Z-0.125000
G01 X395.747989 Y240.660717 Z-0.125000
G01 X396.945084 Y237.069431 Z-0.125000
G01 X396.945084 Y233.478146 Z-0.125000
G01 X398.142179 Y231.083955 Z-0.125000
G01 X396.945084 Y227.492670 Z-0.125000
G01 X400.536370 Y227.492670 Z-0.125000
G01 X405.324751 Y227.492670 Z-0.125000
G01 X406.521846 Y225.098479 Z-0.125000
G01 X401.733465 Y223.901384 Z-0.125000
G01 X398.142179 Y223.901384 Z-0.125000
G01 X399.339275 Y220.310098 Z-0.125000
G01 X399.339275 Y216.718812 Z-0.125000
G01 X400.536370 Y215.521717 Z-0.125000
G01 X399.339275 Y211.930432 Z-0.125000
G01 X401.733465 Y210.733336 Z-0.125000
G01 X404.127656 Y208.339146 Z-0.125000
G01 X405.324751 Y204.747860 Z-0.125000
G01 X406.521846 Y202.353670 Z-0.125000
G01 X406.521846 Y198.762384 Z-0.125000
G01 X405.324751 Y195.171098 Z-0.125000
G01 X407.718941 Y193.974003 Z-0.125000
G01 X407.718941 Y190.382717 Z-0.125000
G01 X405.324751 Y191.579813 Z-0.125000
G01 X401.733465 Y191.579813 Z-0.125000
G01 X402.930560 Y187.988527 Z-0.125000
G01 X404.127656 Y184.397241 Z-0.125000
G01 X406.521846 Y186.791432 Z-0.125000
G01 X410.113132 Y186.791432 Z-0.125000
G01 X411.310227 Y190.382717 Z-0.125000
G01 X413.704417 Y191.579813 Z-0.125000
G01 X411.310227 Y193.974003 Z-0.125000
G01 X411.310227 Y197.565289 Z-0.125000
G01 X410.113132 Y199.959479 Z-0.125000
G01 X410.113132 Y202.353670 Z-0.125000
G01 X413.704417 Y201.156574 Z-0.125000
G01 X414.901513 Y197.565289 Z-0.125000
G01 X416.098608 Y195.171098 Z-0.125000
G01 X418.492798 Y192.776908 Z-0.125000
G01 X422.084084 Y192.776908 Z-0.125000
G01 X420.886989 Y196.368193 Z-0.125000
G01 X419.689894 Y197.565289 Z-0.125000
G01 X418.492798 Y199.959479 Z-0.125000
G01 X417.295703 Y202.353670 Z-0.125000
G01 X416.098608 Y204.747860 Z-0.125000
G01 X412.507322 Y205.944955 Z-0.125000
G01 X408.916036 Y205.944955 Z-0.125000
G01 X407.718941 Y208.339146 Z-0.125000
G01 X406.521846 Y211.930432 Z-0.125000
G01 X410.113132 Y210.733336 Z-0.125000
G01 X410.113132 Y214.324622 Z-0.125000
G01 X406.521846 Y215.521717 Z-0.125000
G01 X404.127656 Y214.324622 Z-0.125000
G01 X404.127656 Y217.915908 Z-0.125000
G01 X404.127656 Y221.507193 Z-0.125000
G01 X407.718941 Y220.310098 Z-0.125000
G01 X410.113132 Y217.915908 Z-0.125000
G01 X413.704417 Y217.915908 Z-0.125000
G01 X413.704417 Y214.324622 Z-0.125000
G01 X414.901513 Y213.127527 Z-0.125000
G01 X413.704417 Y209.536241 Z-0.125000
G01 X416.098608 Y208.339146 Z-0.125000
G01 X419.689894 Y207.142051 Z-0.125000
G01 X420.886989 Y204.747860 Z-0.125000
G01 X423.281179 Y205.944955 Z-0.125000
G01 X425.675370 Y203.550765 Z-0.125000
G01 X428.069560 Y201.156574 Z-0.125000
G01 X425.675370 Y199.959479 Z-0.125000
G01 X422.084084 Y201.156574 Z-0.125000
G01 X424.478274 Y196.368193 Z-0.125000
G01 X428.069560 Y197.565289 Z-0.125000
G01 X431.660846 Y197.565289 Z-0.125000
G01 X435.252132 Y197.565289 Z-0.125000
G01 X436.449227 Y201.156574 Z-0.125000
G01 X432.857941 Y201.156574 Z-0.125000
G01 X431.660846 Y203.550765 Z-0.125000
G01 X430.463751 Y205.944955 Z-0.125000
G01 X429.266655 Y207.142051 Z-0.125000
G01 X426.872465 Y208.339146 Z-0.125000
G01 X424.478274 Y209.536241 Z-0.125000
G01 X420.886989 Y210.733336 Z-0.125000
G01 X418.492798 Y211.930432 Z-0.125000
G01 X418.492798 Y215.521717 Z-0.125000
G01 X418.492798 Y219.113003 Z-0.125000
G01 X422.084084 Y217.915908 Z-0.125000
G01 X422.084084 Y214.324622 Z-0.125000
G01 X424.478274 Y215.521717 Z-0.125000
G01 X425.675370 Y213.127527 Z-0.125000
G01 X430.463751 Y210.733336 Z-0.125000
G01 X429.266655 Y213.127527 Z-0.125000
G01 X429.266655 Y216.718812 Z-0.125000
G01 X428.069560 Y219.113003 Z-0.125000
G01 X425.675370 Y220.310098 Z-0.125000
G01 X423.281179 Y221.507193 Z-0.125000
G01 X423.281179 Y225.098479 Z-0.125000
G01 X426.872465 Y225.098479 Z-0.125000
G01 X429.266655 Y222.704289 Z-0.125000
G01 X431.660846 Y220.310098 Z-0.125000
G01 X432.857941 Y216.718812 Z-0.125000
G01 X434.055036 Y214.324622 Z-0.125000
G01 X435.252132 Y213.127527 Z-0.125000
G01 X438.843417 Y211.930432 Z-0.125000
G01 X442.434703 Y211.930432 Z-0.125000
G01 X441.237608 Y208.339146 Z-0.125000
G01 X437.646322 Y208.339146 Z-0.125000
G01 X434.055036 Y209.536241 Z-0.125000
G01 X435.252132 Y207.142051 Z-0.125000
G01 X436.449227 Y204.747860 Z-0.125000
G01 X440.040513 Y204.747860 Z-0.125000
G01 X440.040513 Y201.156574 Z-0.125000
G01 X442.434703 Y199.959479 Z-0.125000
G01 X446.025989 Y198.762384 Z-0.125000
G01 X444.828893 Y203.550765 Z-0.125000
G01 X443.631798 Y204.747860 Z-0.125000
G01 X444.828893 Y208.339146 Z-0.125000
G01 X446.025989 Y211.930432 Z-0.125000
G01 X448.420179 Y210.733336 Z-0.125000
G01 X448.420179 Y207.142051 Z-0.125000
G01 X449.617274 Y205.944955 Z-0.125000
G01 X448.420179 Y202.353670 Z-0.125000
G01 X449.617274 Y199.959479 Z-0.125000
G01 X452.011465 Y198.762384 Z-0.125000
G01 X453.208560 Y196.368193 Z-0.125000
G01 X456.799846 Y196.368193 Z-0.125000
G01 X459.194036 Y193.974003 Z-0.125000
G01 X462.785322 Y195.171098 Z-0.125000
G01 X461.588227 Y197.565289 Z-0.125000
G01 X460.391131 Y199.959479 Z-0.125000
G01 X456.799846 Y199.959479 Z-0.125000
G01 X455.602751 Y202.353670 Z-0.125000
G01 X452.011465 Y202.353670 Z-0.125000
G01 X453.208560 Y205.944955 Z-0.125000
G01 X453.208560 Y209.536241 Z-0.125000
G01 X452.011465 Y211.930432 Z-0.125000
G01 X450.814370 Y214.324622 Z-0.125000
G01 X449.617274 Y216.718812 Z-0.125000
G01 X448.420179 Y219.113003 Z-0.125000
G01 X449.617274 Y222.704289 Z-0.125000
G01 X452.011465 Y220.310098 Z-0.125000
G01 X454.405655 Y217.915908 Z-0.125000
G01 X455.602751 Y215.521717 Z-0.125000
G01 X456.799846 Y213.127527 Z-0.125000
G01 X456.799846 Y209.536241 Z-0.125000
G01 X456.799846 Y205.944955 Z-0.125000
G01 X459.194036 Y203.550765 Z-0.125000
G01 X462.785322 Y203.550765 Z-0.125000
G01 X461.588227 Y207.142051 Z-0.125000
G01 X460.391131 Y209.536241 Z-0.125000
G01 X460.391131 Y213.127527 Z-0.125000
G01 X460.391131 Y216.718812 Z-0.125000
G01 X463.982417 Y216.718812 Z-0.125000
G01 X463.982417 Y214.324622 Z-0.125000
G01 X463.982417 Y210.733336 Z-0.125000
G01 X465.179512 Y208.339146 Z-0.125000
G01 X466.376608 Y205.944955 Z-0.125000
G01 X465.179512 Y202.353670 Z-0.125000
G01 X466.376608 Y201.156574 Z-0.125000
G01 X466.376608 Y197.565289 Z-0.125000
G01 X467.573703 Y193.974003 Z-0.125000
G01 X463.982417 Y192.776908 Z-0.125000
G01 X465.179512 Y190.382717 Z-0.125000
G01 X466.376608 Y186.791432 Z-0.125000
G01 X466.376608 Y184.397241 Z-0.125000
G01 X466.376608 Y180.805955 Z-0.125000
G01 X462.785322 Y180.805955 Z-0.125000
G01 X461.588227 Y183.200146 Z-0.125000
G01 X461.588227 Y185.594336 Z-0.125000
G01 X461.588227 Y189.185622 Z-0.125000
G01 X459.194036 Y187.988527 Z-0.125000
G01 X457.996941 Y190.382717 Z-0.125000
G01 X455.602751 Y191.579813 Z-0.125000
G01 X453.208560 Y192.776908 Z-0.125000
G01 X449.617274 Y193.974003 Z-0.125000
G01 X448.420179 Y195.171098 Z-0.125000
G01 X444.828893 Y195.171098 Z-0.125000
G01 X442.434703 Y196.368193 Z-0.125000
G01 X438.843417 Y197.565289 Z-0.125000
G01 X438.843417 Y193.974003 Z-0.125000
G01 X435.252132 Y193.974003 Z-0.125000
G01 X435.252132 Y191.579813 Z-0.125000
G01 X438.843417 Y190.382717 Z-0.125000
G01 X441.237608 Y191.579813 Z-0.125000
G01 X444.828893 Y191.579813 Z-0.125000
G01 X444.828893 Y187.988527 Z-0.125000
G01 X444.828893 Y185.594336 Z-0.125000
G01 X446.025989 Y184.397241 Z-0.125000
G01 X447.223084 Y182.003051 Z-0.125000
G01 X443.631798 Y180.805955 Z-0.125000
G01 X440.040513 Y180.805955 Z-0.125000
G01 X437.646322 Y183.200146 Z-0.125000
G01 X440.040513 Y184.397241 Z-0.125000
G01 X441.237608 Y187.988527 Z-0.125000
G01 X437.646322 Y186.791432 Z-0.125000
G01 X434.055036 Y186.791432 Z-0.125000
G01 X432.857941 Y187.988527 Z-0.125000
G01 X431.660846 Y190.382717 Z-0.125000
G01 X431.660846 Y193.974003 Z-0.125000
G01 X428.069560 Y193.974003 Z-0.125000
G01 X425.675370 Y192.776908 Z-0.125000
G01 X428.069560 Y190.382717 Z-0.125000
G01 X428.069560 Y186.791432 Z-0.125000
G01 X429.266655 Y184.397241 Z-0.125000
G01 X432.857941 Y183.200146 Z-0.125000
G01 X434.055036 Y180.805955 Z-0.125000
G01 X435.252132 Y178.411765 Z-0.125000
G01 X436.449227 Y176.017575 Z-0.125000
G01 X438.843417 Y177.214670 Z-0.125000
G01 X438.843417 Y173.623384 Z-0.125000
G01 X438.843417 Y170.032098 Z-0.125000
G01 X442.434703 Y168.835003 Z-0.125000
G01 X443.631798 Y172.426289 Z-0.125000
G01 X442.434703 Y173.623384 Z-0.125000
G01 X442.434703 Y177.214670 Z-0.125000
G01 X446.025989 Y178.411765 Z-0.125000
G01 X447.223084 Y176.017575 Z-0.125000
G01 X448.420179 Y173.623384 Z-0.125000
G01 X449.617274 Y171.229194 Z-0.125000
G01 X446.025989 Y168.835003 Z-0.125000
G01 X448.420179 Y167.637908 Z-0.125000
G01 X452.011465 Y167.637908 Z-0.125000
G01 X450.814370 Y164.046622 Z-0.125000
G01 X452.011465 Y161.652432 Z-0.125000
G01 X455.602751 Y160.455336 Z-0.125000
G01 X456.799846 Y158.061146 Z-0.125000
G01 X457.996941 Y155.666956 Z-0.125000
G01 X454.405655 Y154.469860 Z-0.125000
G01 X456.799846 Y152.075670 Z-0.125000
G01 X457.996941 Y149.681479 Z-0.125000
G01 X460.391131 Y148.484384 Z-0.125000
G01 X459.194036 Y144.893098 Z-0.125000
G01 X460.391131 Y141.301813 Z-0.125000
G01 X456.799846 Y141.301813 Z-0.125000
G01 X454.405655 Y142.498908 Z-0.125000
G01 X452.011465 Y144.893098 Z-0.125000
G01 X455.602751 Y146.090194 Z-0.125000
G01 X453.208560 Y148.484384 Z-0.125000
G01 X452.011465 Y150.878575 Z-0.125000
G01 X450.814370 Y154.469860 Z-0.125000
G01 X452.011465 Y158.061146 Z-0.125000
G01 X448.420179 Y158.061146 Z-0.125000
G01 X447.223084 Y160.455336 Z-0.125000
G01 X447.223084 Y164.046622 Z-0.125000
G01 X443.631798 Y165.243717 Z-0.125000
G01 X443.631798 Y161.652432 Z-0.125000
G01 X443.631798 Y158.061146 Z-0.125000
G01 X443.631798 Y154.469860 Z-0.125000
G01 X447.223084 Y154.469860 Z-0.125000
G01 X448.420179 Y150.878575 Z-0.125000
G01 X448.420179 Y147.287289 Z-0.125000
G01 X448.420179 Y144.893098 Z-0.125000
G01 X449.617274 Y141.301813 Z-0.125000
G01 X450.814370 Y138.907622 Z-0.125000
G01 X454.405655 Y137.710527 Z-0.125000
G01 X455.602751 Y134.119241 Z-0.125000
G01 X457.996941 Y130.527956 Z-0.125000
G01 X459.194036 Y134.119241 Z-0.125000
G01 X457.996941 Y137.710527 Z-0.125000
G01 X461.588227 Y137.710527 Z-0.125000
G01 X465.179512 Y138.907622 Z-0.125000
G01 X467.573703 Y137.710527 Z-0.125000
G01 X468.770798 Y141.301813 Z-0.125000
G01 X465.179512 Y142.498908 Z-0.125000
G01 X462.785322 Y144.893098 Z-0.125000
G01 X466.376608 Y146.090194 Z-0.125000
G01 X465.179512 Y148.484384 Z-0.125000
G01 X465.179512 Y150.878575 Z-0.125000
G01 X461.588227 Y152.075670 Z-0.125000
G01 X461.588227 Y155.666956 Z-0.125000
G01 X465.179512 Y154.469860 Z-0.125000
G01 X468.770798 Y153.272765 Z-0.125000
G01 X469.967893 Y150.878575 Z-0.125000
G01 X471.164989 Y148.484384 Z-0.125000
G01 X471.164989 Y144.893098 Z-0.125000
G01 X473.559179 Y142.498908 Z-0.125000
G01 X474.756274 Y146.090194 Z-0.125000
G01 X475.953370 Y149.681479 Z-0.125000
G01 X474.756274 Y152.075670 Z-0.125000
G01 X473.559179 Y154.469860 Z-0.125000
G01 X472.362084 Y156.864051 Z-0.125000
G01 X468.770798 Y156.864051 Z-0.125000
G01 X465.179512 Y158.061146 Z-0.125000
G01 X461.588227 Y159.258241 Z-0.125000
G01 X460.391131 Y161.652432 Z-0.125000
G01 X460.391131 Y164.046622 Z-0.125000
G01 X459.194036 Y166.440813 Z-0.125000
G01 X455.602751 Y164.046622 Z-0.125000
G01 X455.602751 Y167.637908 Z-0.125000
G01 X454.405655 Y171.229194 Z-0.125000
G01 X454.405655 Y174.820479 Z-0.125000
G01 X453.208560 Y176.017575 Z-0.125000
G01 X452.011465 Y178.411765 Z-0.125000
G01 X450.814370 Y180.805955 Z-0.125000
G01 X450.814370 Y184.397241 Z-0.125000
G01 X449.617274 Y186.791432 Z-0.125000
G01 X448.420179 Y190.382717 Z-0.125000
G01 X452.011465 Y189.185622 Z-0.125000
G01 X454.405655 Y186.791432 Z-0.125000
G01 X454.405655 Y183.200146 Z-0.125000
G01 X456.799846 Y184.397241 Z-0.125000
G01 X456.799846 Y180.805955 Z-0.125000
G01 X457.996941 Y179.608860 Z-0.125000
G01 X459.194036 Y177.214670 Z-0.125000
G01 X457.996941 Y173.623384 Z-0.125000
G01 X457.996941 Y170.032098 Z-0.125000
G01 X461.588227 Y170.032098 Z-0.125000
G01 X463.982417 Y167.637908 Z-0.125000
G01 X465.179512 Y164.046622 Z-0.125000
G01 X466.376608 Y161.652432 Z-0.125000
G01 X468.770798 Y160.455336 Z-0.125000
G01 X472.362084 Y160.455336 Z-0.125000
G01 X472.362084 Y164.046622 Z-0.125000
G01 X469.967893 Y165.243717 Z-0.125000
G01 X467.573703 Y167.637908 Z-0.125000
G01 X466.376608 Y171.229194 Z-0.125000
G01 X465.179512 Y173.623384 Z-0.125000
G01 X461.588227 Y173.623384 Z-0.125000
G01 X462.785322 Y177.214670 Z-0.125000
G01 X466.376608 Y177.214670 Z-0.125000
G01 X468.770798 Y174.820479 Z-0.125000
G01 X469.967893 Y171.229194 Z-0.125000
G01 X472.362084 Y170.032098 Z-0.125000
G01 X473.559179 Y167.637908 Z-0.125000
G01 X475.953370 Y164.046622 Z-0.125000
G01 X475.953370 Y160.455336 Z-0.125000
G01 X477.150465 Y156.864051 Z-0.125000
G01 X479.544655 Y154.469860 Z-0.125000
G01 X481.938846 Y155.666956 Z-0.125000
G01 X485.530131 Y154.469860 Z-0.125000
G01 X487.924322 Y153.272765 Z-0.125000
G01 X487.924322 Y149.681479 Z-0.125000
G01 X487.924322 Y146.090194 Z-0.125000
G01 X491.515608 Y144.893098 Z-0.125000
G01 X492.712703 Y142.498908 Z-0.125000
G01 X495.106893 Y140.104717 Z-0.125000
G01 X496.303988 Y143.696003 Z-0.125000
G01 X495.106893 Y146.090194 Z-0.125000
G01 X492.712703 Y148.484384 Z-0.125000
G01 X491.515608 Y153.272765 Z-0.125000
G01 X491.515608 Y156.864051 Z-0.125000
G01 X495.106893 Y155.666956 Z-0.125000
G01 X496.303988 Y152.075670 Z-0.125000
G01 X498.698179 Y149.681479 Z-0.125000
G01 X499.895274 Y147.287289 Z-0.125000
G01 X501.092369 Y144.893098 Z-0.125000
G01 X504.683655 Y144.893098 Z-0.125000
G01 X507.077846 Y142.498908 Z-0.125000
G01 X508.274941 Y140.104717 Z-0.125000
G01 X508.274941 Y136.513432 Z-0.125000
G01 X511.866227 Y135.316337 Z-0.125000
G01 X514.260417 Y136.513432 Z-0.125000
G01 X511.866227 Y138.907622 Z-0.125000
G01 X511.866227 Y142.498908 Z-0.125000
G01 X515.457512 Y142.498908 Z-0.125000
G01 X516.654607 Y140.104717 Z-0.125000
G01 X520.245893 Y141.301813 Z-0.125000
G01 X519.048798 Y137.710527 Z-0.125000
G01 X521.442988 Y136.513432 Z-0.125000
G01 X522.640084 Y134.119241 Z-0.125000
G01 X525.034274 Y131.725051 Z-0.125000
G01 X526.231369 Y129.330860 Z-0.125000
G01 X528.625560 Y126.936670 Z-0.125000
G01 X523.837179 Y125.739575 Z-0.125000
G01 X526.231369 Y123.345384 Z-0.125000
G01 X526.231369 Y119.754099 Z-0.125000
G01 X528.625560 Y117.359908 Z-0.125000
G01 X528.625560 Y113.768622 Z-0.125000
G01 X529.822655 Y112.571527 Z-0.125000
G01 X529.822655 Y108.980241 Z-0.125000
G01 X532.216845 Y107.783146 Z-0.125000
G01 X535.808131 Y110.177337 Z-0.125000
G01 X534.611036 Y112.571527 Z-0.125000
G01 X533.413941 Y114.965718 Z-0.125000
G01 X532.216845 Y118.557003 Z-0.125000
G01 X531.019750 Y120.951194 Z-0.125000
G01 X529.822655 Y123.345384 Z-0.125000
G01 X533.413941 Y124.542479 Z-0.125000
G01 X535.808131 Y122.148289 Z-0.125000
G01 X538.202322 Y119.754099 Z-0.125000
G01 X535.808131 Y118.557003 Z-0.125000
G01 X538.202322 Y116.162813 Z-0.125000
G01 X539.399417 Y113.768622 Z-0.125000
G01 X540.596512 Y111.374432 Z-0.125000
G01 X541.793607 Y108.980241 Z-0.125000
G01 X538.202322 Y107.783146 Z-0.125000
G01 X535.808131 Y106.586051 Z-0.125000
G01 X534.611036 Y102.994765 Z-0.125000
G01 X531.019750 Y104.191860 Z-0.125000
G01 X527.428465 Y104.191860 Z-0.125000
G01 X526.231369 Y106.586051 Z-0.125000
G01 X525.034274 Y108.980241 Z-0.125000
G01 X523.837179 Y111.374432 Z-0.125000
G01 X525.034274 Y114.965718 Z-0.125000
G01 X522.640084 Y116.162813 Z-0.125000
G01 X521.442988 Y118.557003 Z-0.125000
G01 X521.442988 Y122.148289 Z-0.125000
G01 X517.851703 Y122.148289 Z-0.125000
G01 X517.851703 Y118.557003 Z-0.125000
G01 X517.851703 Y114.965718 Z-0.125000
G01 X520.245893 Y112.571527 Z-0.125000
G01 X520.245893 Y108.980241 Z-0.125000
G01 X521.442988 Y105.388956 Z-0.125000
G01 X522.640084 Y102.994765 Z-0.125000
G01 X523.837179 Y100.600575 Z-0.125000
G01 X523.837179 Y97.009289 Z-0.125000
G01 X520.245893 Y98.206384 Z-0.125000
G01 X516.654607 Y98.206384 Z-0.125000
G01 X514.260417 Y97.009289 Z-0.125000
G01 X510.669131 Y98.206384 Z-0.125000
G01 X508.274941 Y100.600575 Z-0.125000
G01 X508.274941 Y104.191860 Z-0.125000
G01 X507.077846 Y106.586051 Z-0.125000
G01 X507.077846 Y110.177337 Z-0.125000
G01 X510.669131 Y110.177337 Z-0.125000
G01 X511.866227 Y105.388956 Z-0.125000
G01 X513.063322 Y102.994765 Z-0.125000
G01 X514.260417 Y100.600575 Z-0.125000
G01 X519.048798 Y101.797670 Z-0.125000
G01 X517.851703 Y104.191860 Z-0.125000
G01 X516.654607 Y106.586051 Z-0.125000
G01 X516.654607 Y110.177337 Z-0.125000
G01 X514.260417 Y108.980241 Z-0.125000
G01 X514.260417 Y112.571527 Z-0.125000
G01 X513.063322 Y114.965718 Z-0.125000
G01 X514.260417 Y118.557003 Z-0.125000
G01 X511.866227 Y120.951194 Z-0.125000
G01 X514.260417 Y122.148289 Z-0.125000
G01 X513.063322 Y125.739575 Z-0.125000
G01 X516.654607 Y125.739575 Z-0.125000
G01 X520.245893 Y125.739575 Z-0.125000
G01 X521.442988 Y129.330860 Z-0.125000
G01 X517.851703 Y129.330860 Z-0.125000
G01 X517.851703 Y132.922146 Z-0.125000
G01 X514.260417 Y132.922146 Z-0.125000
G01 X514.260417 Y129.330860 Z-0.125000
G01 X510.669131 Y128.133765 Z-0.125000
G01 X509.472036 Y130.527956 Z-0.125000
G01 X508.274941 Y132.922146 Z-0.125000
G01 X504.683655 Y134.119241 Z-0.125000
G01 X503.486560 Y135.316337 Z-0.125000
G01 X503.486560 Y138.907622 Z-0.125000
G01 X502.289465 Y141.301813 Z-0.125000
G01 X498.698179 Y141.301813 Z-0.125000
G01 X498.698179 Y137.710527 Z-0.125000
G01 X499.895274 Y135.316337 Z-0.125000
G01 X497.501084 Y131.725051 Z-0.125000
G01 X495.106893 Y134.119241 Z-0.125000
G01 X493.909798 Y136.513432 Z-0.125000
G01 X490.318512 Y135.316337 Z-0.125000
G01 X490.318512 Y138.907622 Z-0.125000
G01 X487.924322 Y140.104717 Z-0.125000
G01 X486.727227 Y142.498908 Z-0.125000
G01 X484.333036 Y144.893098 Z-0.125000
G01 X483.135941 Y147.287289 Z-0.125000
G01 X483.135941 Y150.878575 Z-0.125000
G01 X479.544655 Y150.878575 Z-0.125000
G01 X479.544655 Y147.287289 Z-0.125000
G01 X479.544655 Y143.696003 Z-0.125000
G01 X477.150465 Y142.498908 Z-0.125000
G01 X478.347560 Y138.907622 Z-0.125000
G01 X481.938846 Y141.301813 Z-0.125000
G01 X481.938846 Y137.710527 Z-0.125000
G01 X483.135941 Y136.513432 Z-0.125000
G01 X486.727227 Y136.513432 Z-0.125000
G01 X486.727227 Y132.922146 Z-0.125000
G01 X489.121417 Y131.725051 Z-0.125000
G01 X490.318512 Y129.330860 Z-0.125000
G01 X493.909798 Y129.330860 Z-0.125000
G01 X497.501084 Y128.133765 Z-0.125000
G01 X501.092369 Y126.936670 Z-0.125000
G01 X501.092369 Y130.527956 Z-0.125000
G01 X504.683655 Y129.330860 Z-0.125000
G01 X504.683655 Y125.739575 Z-0.125000
G01 X508.274941 Y124.542479 Z-0.125000
G01 X508.274941 Y120.951194 Z-0.125000
G01 X509.472036 Y117.359908 Z-0.125000
G01 X509.472036 Y113.768622 Z-0.125000
G01 X505.880750 Y114.965718 Z-0.125000
G01 X504.683655 Y117.359908 Z-0.125000
G01 X502.289465 Y119.754099 Z-0.125000
G01 X504.683655 Y122.148289 Z-0.125000
G01 X501.092369 Y123.345384 Z-0.125000
G01 X497.501084 Y124.542479 Z-0.125000
G01 X497.501084 Y120.951194 Z-0.125000
G01 X498.698179 Y118.557003 Z-0.125000
G01 X499.895274 Y116.162813 Z-0.125000
G01 X501.092369 Y113.768622 Z-0.125000
G01 X502.289465 Y111.374432 Z-0.125000
G01 X503.486560 Y110.177337 Z-0.125000
G01 X502.289465 Y106.586051 Z-0.125000
G01 X503.486560 Y104.191860 Z-0.125000
G01 X504.683655 Y100.600575 Z-0.125000
G01 X505.880750 Y97.009289 Z-0.125000
G01 X502.289465 Y97.009289 Z-0.125000
G01 X501.092369 Y99.403480 Z-0.125000
G01 X499.895274 Y101.797670 Z-0.125000
G01 X498.698179 Y104.191860 Z-0.125000
G01 X498.698179 Y107.783146 Z-0.125000
G01 X497.501084 Y112.571527 Z-0.125000
G01 X493.909798 Y112.571527 Z-0.125000
G01 X491.515608 Y113.768622 Z-0.125000
G01 X495.106893 Y116.162813 Z-0.125000
G01 X493.909798 Y118.557003 Z-0.125000
G01 X493.909798 Y122.148289 Z-0.125000
G01 X492.712703 Y123.345384 Z-0.125000
G01 X491.515608 Y125.739575 Z-0.125000
G01 X487.924322 Y122.148289 Z-0.125000
G01 X485.530131 Y123.345384 Z-0.125000
G01 X483.135941 Y125.739575 Z-0.125000
G01 X486.727227 Y126.936670 Z-0.125000
G01 X484.333036 Y129.330860 Z-0.125000
G01 X480.741750 Y129.330860 Z-0.125000
G01 X481.938846 Y132.922146 Z-0.125000
G01 X477.150465 Y131.725051 Z-0.125000
G01 X478.347560 Y135.316337 Z-0.125000
G01 X474.756274 Y136.513432 Z-0.125000
G01 X473.559179 Y138.907622 Z-0.125000
G01 X471.164989 Y137.710527 Z-0.125000
G01 X469.967893 Y134.119241 Z-0.125000
G01 X473.559179 Y132.922146 Z-0.125000
G01 X472.362084 Y129.330860 Z-0.125000
G01 X475.953370 Y128.133765 Z-0.125000
G01 X477.150465 Y125.739575 Z-0.125000
G01 X478.347560 Y124.542479 Z-0.125000
G01 X480.741750 Y122.148289 Z-0.125000
G01 X484.333036 Y119.754099 Z-0.125000
G01 X487.924322 Y118.557003 Z-0.125000
G01 X489.121417 Y117.359908 Z-0.125000
G01 X487.924322 Y113.768622 Z-0.125000
G01 X486.727227 Y110.177337 Z-0.125000
G01 X483.135941 Y111.374432 Z-0.125000
G01 X484.333036 Y114.965718 Z-0.125000
G01 X481.938846 Y116.162813 Z-0.125000
G01 X479.544655 Y118.557003 Z-0.125000
G01 X475.953370 Y118.557003 Z-0.125000
G01 X474.756274 Y120.951194 Z-0.125000
G01 X471.164989 Y120.951194 Z-0.125000
G01 X472.362084 Y124.542479 Z-0.125000
G01 X468.770798 Y124.542479 Z-0.125000
G01 X468.770798 Y128.133765 Z-0.125000
G01 X467.573703 Y130.527956 Z-0.125000
G01 X466.376608 Y134.119241 Z-0.125000
G01 X462.785322 Y134.119241 Z-0.125000
G01 X462.785322 Y130.527956 Z-0.125000
G01 X463.982417 Y128.133765 Z-0.125000
G01 X465.179512 Y124.542479 Z-0.125000
G01 X466.376608 Y120.951194 Z-0.125000
G01 X467.573703 Y118.557003 Z-0.125000
G01 X471.164989 Y117.359908 Z-0.125000
G01 X471.164989 Y113.768622 Z-0.125000
G01 X474.756274 Y114.965718 Z-0.125000
G01 X475.953370 Y112.571527 Z-0.125000
G01 X479.544655 Y112.571527 Z-0.125000
G01 X478.347560 Y108.980241 Z-0.125000
G01 X479.544655 Y106.586051 Z-0.125000
G01 X483.135941 Y107.783146 Z-0.125000
G01 X486.727227 Y106.586051 Z-0.125000
G01 X490.318512 Y106.586051 Z-0.125000
G01 X490.318512 Y110.177337 Z-0.125000
G01 X493.909798 Y108.980241 Z-0.125000
G01 X495.106893 Y106.586051 Z-0.125000
G01 X493.909798 Y102.994765 Z-0.125000
G01 X495.106893 Y100.600575 Z-0.125000
G01 X496.303988 Y98.206384 Z-0.125000
G01 X497.501084 Y95.812194 Z-0.125000
G01 X499.895274 Y93.418003 Z-0.125000
G01 X503.486560 Y93.418003 Z-0.125000
G01 X503.486560 Y89.826718 Z-0.125000
G01 X503.486560 Y87.432527 Z-0.125000
G01 X505.880750 Y86.235432 Z-0.125000
G01 X509.472036 Y85.038337 Z-0.125000
G01 X509.472036 Y88.629622 Z-0.125000
G01 X508.274941 Y91.023813 Z-0.125000
G01 X508.274941 Y94.615099 Z-0.125000
G01 X511.866227 Y93.418003 Z-0.125000
G01 X513.063322 Y91.023813 Z-0.125000
G01 X513.063322 Y87.432527 Z-0.125000
G01 X514.260417 Y85.038337 Z-0.125000
G01 X515.457512 Y82.644146 Z-0.125000
G01 X516.654607 Y80.249956 Z-0.125000
G01 X519.048798 Y81.447051 Z-0.125000
G01 X519.048798 Y77.855765 Z-0.125000
G01 X520.245893 Y75.461575 Z-0.125000
G01 X523.837179 Y75.461575 Z-0.125000
G01 X525.034274 Y73.067384 Z-0.125000
G01 X528.625560 Y74.264480 Z-0.125000
G01 X527.428465 Y77.855765 Z-0.125000
G01 X523.837179 Y79.052861 Z-0.125000
G01 X522.640084 Y80.249956 Z-0.125000
G01 X521.442988 Y83.841242 Z-0.125000
G01 X519.048798 Y86.235432 Z-0.125000
G01 X517.851703 Y88.629622 Z-0.125000
G01 X516.654607 Y91.023813 Z-0.125000
G01 X516.654607 Y94.615099 Z-0.125000
G01 X520.245893 Y94.615099 Z-0.125000
G01 X521.442988 Y92.220908 Z-0.125000
G01 X522.640084 Y89.826718 Z-0.125000
G01 X523.837179 Y87.432527 Z-0.125000
G01 X527.428465 Y86.235432 Z-0.125000
G01 X525.034274 Y83.841242 Z-0.125000
G01 X527.428465 Y81.447051 Z-0.125000
G01 X531.019750 Y80.249956 Z-0.125000
G01 X529.822655 Y83.841242 Z-0.125000
G01 X533.413941 Y82.644146 Z-0.125000
G01 X534.611036 Y79.052861 Z-0.125000
G01 X534.611036 Y75.461575 Z-0.125000
G01 X531.019750 Y76.658670 Z-0.125000
G01 X532.216845 Y73.067384 Z-0.125000
G01 X533.413941 Y70.673194 Z-0.125000
G01 X534.611036 Y68.279003 Z-0.125000
G01 X535.808131 Y65.884813 Z-0.125000
G01 X537.005226 Y62.293527 Z-0.125000
G01 X533.413941 Y62.293527 Z-0.125000
G01 X531.019750 Y61.096432 Z-0.125000
G01 X531.019750 Y64.687718 Z-0.125000
G01 X529.822655 Y67.081908 Z-0.125000
G01 X528.625560 Y69.476099 Z-0.125000
G01 X526.231369 Y70.673194 Z-0.125000
G01 X525.034274 Y67.081908 Z-0.125000
G01 X526.231369 Y64.687718 Z-0.125000
G01 X527.428465 Y62.293527 Z-0.125000
G01 X523.837179 Y61.096432 Z-0.125000
G01 X525.034274 Y58.702242 Z-0.125000
G01 X528.625560 Y57.505146 Z-0.125000
G01 X529.822655 Y55.110956 Z-0.125000
G01 X529.822655 Y51.519670 Z-0.125000
G01 X531.019750 Y49.125480 Z-0.125000
G01 X533.413941 Y47.928385 Z-0.125000
G01 X535.808131 Y45.534194 Z-0.125000
G01 X535.808131 Y41.942908 Z-0.125000
G01 X539.399417 Y41.942908 Z-0.125000
G01 X540.596512 Y39.548718 Z-0.125000
G01 X542.990703 Y38.351623 Z-0.125000
G01 X545.384893 Y37.154527 Z-0.125000
G01 X547.779084 Y35.957432 Z-0.125000
G01 X547.779084 Y32.366146 Z-0.125000
G01 X544.187798 Y33.563242 Z-0.125000
G01 X540.596512 Y33.563242 Z-0.125000
G01 X539.399417 Y35.957432 Z-0.125000
G01 X535.808131 Y38.351623 Z-0.125000
G01 X535.808131 Y34.760337 Z-0.125000
G01 X537.005226 Y32.366146 Z-0.125000
G01 X538.202322 Y29.971956 Z-0.125000
G01 X537.005226 Y26.380670 Z-0.125000
G01 X540.596512 Y26.380670 Z-0.125000
G01 X541.793607 Y29.971956 Z-0.125000
G01 X544.187798 Y28.774861 Z-0.125000
G01 X547.779084 Y28.774861 Z-0.125000
G01 X551.370369 Y31.169051 Z-0.125000
G01 X552.567464 Y27.577766 Z-0.125000
G01 X553.764560 Y23.986480 Z-0.125000
G01 X557.355845 Y23.986480 Z-0.125000
G01 X560.947131 Y22.789385 Z-0.125000
G01 X562.144226 Y20.395194 Z-0.125000
G01 X565.735512 Y19.198099 Z-0.125000
G01 X565.735512 Y22.789385 Z-0.125000
G01 X564.538417 Y25.183575 Z-0.125000
G01 X560.947131 Y26.380670 Z-0.125000
G01 X559.750036 Y28.774861 Z-0.125000
G01 X556.158750 Y28.774861 Z-0.125000
G01 X556.158750 Y32.366146 Z-0.125000
G01 X554.961655 Y34.760337 Z-0.125000
G01 X551.370369 Y35.957432 Z-0.125000
G01 X551.370369 Y39.548718 Z-0.125000
G01 X550.173274 Y41.942908 Z-0.125000
G01 X546.581988 Y40.745813 Z-0.125000
G01 X544.187798 Y43.140004 Z-0.125000
G01 X542.990703 Y45.534194 Z-0.125000
G01 X540.596512 Y46.731289 Z-0.125000
G01 X538.202322 Y49.125480 Z-0.125000
G01 X538.202322 Y52.716765 Z-0.125000
G01 X534.611036 Y52.716765 Z-0.125000
G01 X533.413941 Y55.110956 Z-0.125000
G01 X533.413941 Y58.702242 Z-0.125000
G01 X537.005226 Y57.505146 Z-0.125000
G01 X540.596512 Y61.096432 Z-0.125000
G01 X541.793607 Y57.505146 Z-0.125000
G01 X541.793607 Y55.110956 Z-0.125000
G01 X544.187798 Y52.716765 Z-0.125000
G01 X541.793607 Y50.322575 Z-0.125000
G01 X544.187798 Y49.125480 Z-0.125000
G01 X547.779084 Y49.125480 Z-0.125000
G01 X547.779084 Y46.731289 Z-0.125000
G01 X548.976179 Y44.337099 Z-0.125000
G01 X551.370369 Y47.928385 Z-0.125000
G01 X553.764560 Y45.534194 Z-0.125000
G01 X554.961655 Y43.140004 Z-0.125000
G01 X554.961655 Y39.548718 Z-0.125000
G01 X557.355845 Y38.351623 Z-0.125000
G01 X560.947131 Y38.351623 Z-0.125000
G01 X563.341322 Y35.957432 Z-0.125000
G01 X559.750036 Y34.760337 Z-0.125000
G01 X560.947131 Y32.366146 Z-0.125000
G01 X563.341322 Y31.169051 Z-0.125000
G01 X564.538417 Y28.774861 Z-0.125000
G01 X568.129703 Y28.774861 Z-0.125000
G01 X569.326798 Y26.380670 Z-0.125000
G01 X569.326798 Y22.789385 Z-0.125000
G01 X570.523893 Y21.592289 Z-0.125000
G01 X571.720988 Y19.198099 Z-0.125000
G01 X572.918083 Y15.606813 Z-0.125000
G01 X574.115179 Y13.212623 Z-0.125000
G01 X572.918083 Y9.621337 Z-0.125000
G01 X570.523893 Y10.818432 Z-0.125000
G01 X569.326798 Y13.212623 Z-0.125000
G01 X569.326798 Y16.803908 Z-0.125000
G01 X566.932607 Y15.606813 Z-0.125000
G01 X563.341322 Y16.803908 Z-0.125000
G01 X560.947131 Y15.606813 Z-0.125000
G01 X563.341322 Y13.212623 Z-0.125000
G01 X564.538417 Y10.818432 Z-0.125000
G01 X564.538417 Y8.424242 Z-0.125000
G01 X565.735512 Y7.227147 Z-0.125000
G01 X569.326798 Y7.227147 Z-0.125000
G01 X572.918083 Y6.030051 Z-0.125000
G01 X571.720988 Y2.438766 Z-0.125000
G01 X569.326798 Y1.241670 Z-0.125000
G01 X568.129703 Y3.635861 Z-0.125000
G01 X564.538417 Y3.635861 Z-0.125000
G01 X564.538417 Y0.044575 Z-0.125000
G01 X560.947131 Y1.241670 Z-0.125000
G01 X560.947131 Y4.832956 Z-0.125000
G01 X558.552941 Y6.030051 Z-0.125000
G01 X559.750036 Y9.621337 Z-0.125000
G01 X558.552941 Y12.015527 Z-0.125000
G01 X557.355845 Y15.606813 Z-0.125000
G01 X558.552941 Y19.198099 Z-0.125000
G01 X554.961655 Y18.001004 Z-0.125000
G01 X553.764560 Y20.395194 Z-0.125000
G01 X550.173274 Y21.592289 Z-0.125000
G01 X546.581988 Y20.395194 Z-0.125000
G01 X547.779084 Y23.986480 Z-0.125000
G01 X544.187798 Y25.183575 Z-0.125000
G01 X542.990703 Y21.592289 Z-0.125000
G01 X540.596512 Y22.789385 Z-0.125000
G01 X539.399417 Y19.198099 Z-0.125000
G01 X540.596512 Y16.803908 Z-0.125000
G01 X544.187798 Y16.803908 Z-0.125000
G01 X547.779084 Y15.606813 Z-0.125000
G01 X550.173274 Y16.803908 Z-0.125000
G01 X552.567464 Y14.409718 Z-0.125000
G01 X553.764560 Y12.015527 Z-0.125000
G01 X554.961655 Y9.621337 Z-0.125000
G01 X554.961655 Y6.030051 Z-0.125000
G01 X551.370369 Y7.227147 Z-0.125000
G01 X548.976179 Y9.621337 Z-0.125000
G01 X547.779084 Y12.015527 Z-0.125000
G01 X542.990703 Y12.015527 Z-0.125000
G01 X540.596512 Y13.212623 Z-0.125000
G01 X535.808131 Y14.409718 Z-0.125000
G01 X534.611036 Y15.606813 Z-0.125000
G01 X531.019750 Y15.606813 Z-0.125000
G01 X531.019750 Y12.015527 Z-0.125000
G01 X534.611036 Y10.818432 Z-0.125000
G01 X537.005226 Y9.621337 Z-0.125000
G01 X537.005226 Y6.030051 Z-0.125000
G01 X540.596512 Y4.832956 Z-0.125000
G01 X540.596512 Y8.424242 Z-0.125000
G01 X544.187798 Y7.227147 Z-0.125000
G01 X544.187798 Y3.635861 Z-0.125000
G01 X547.779084 Y4.832956 Z-0.125000
G01 X548.976179 Y2.438766 Z-0.125000
G01 X544.187798 Y0.044575 Z-0.125000
G01 X547.779084 Y-1.152520 Z-0.125000
G01 X550.173274 Y-2.349615 Z-0.125000
G01 X548.976179 Y-5.940901 Z-0.125000
G01 X550.173274 Y-8.335091 Z-0.125000
G01 X551.370369 Y-10.729282 Z-0.125000
G01 X552.567464 Y-13.123472 Z-0.125000
G01 X553.764560 Y-15.517663 Z-0.125000
G01 X552.567464 Y-19.108949 Z-0.125000
G01 X550.173274 Y-17.911853 Z-0.125000
G01 X548.976179 Y-14.320568 Z-0.125000
G01 X546.581988 Y-11.926377 Z-0.125000
G01 X545.384893 Y-8.335091 Z-0.125000
G01 X545.384893 Y-4.743806 Z-0.125000
G01 X541.793607 Y-4.743806 Z-0.125000
G01 X540.596512 Y-8.335091 Z-0.125000
G01 X541.793607 Y-11.926377 Z-0.125000
G01 X538.202322 Y-11.926377 Z-0.125000
G01 X537.005226 Y-8.335091 Z-0.125000
G01 X537.005226 Y-4.743806 Z-0.125000
G01 X534.611036 Y-2.349615 Z-0.125000
G01 X539.399417 Y-1.152520 Z-0.125000
G01 X538.202322 Y1.241670 Z-0.125000
G01 X534.611036 Y1.241670 Z-0.125000
G01 X533.413941 Y3.635861 Z-0.125000
G01 X532.216845 Y6.030051 Z-0.125000
G01 X531.019750 Y8.424242 Z-0.125000
G01 X527.428465 Y8.424242 Z-0.125000
G01 X527.428465 Y10.818432 Z-0.125000
G01 X526.231369 Y13.212623 Z-0.125000
G01 X527.428465 Y16.803908 Z-0.125000
G01 X527.428465 Y20.395194 Z-0.125000
G01 X531.019750 Y20.395194 Z-0.125000
G01 X532.216845 Y19.198099 Z-0.125000
G01 X535.808131 Y19.198099 Z-0.125000
G01 X537.005226 Y22.789385 Z-0.125000
G01 X533.413941 Y23.986480 Z-0.125000
G01 X532.216845 Y25.183575 Z-0.125000
G01 X533.413941 Y28.774861 Z-0.125000
G01 X532.216845 Y31.169051 Z-0.125000
G01 X528.625560 Y29.971956 Z-0.125000
G01 X528.625560 Y25.183575 Z-0.125000
G01 X525.034274 Y26.380670 Z-0.125000
G01 X525.034274 Y29.971956 Z-0.125000
G01 X523.837179 Y33.563242 Z-0.125000
G01 X522.640084 Y37.154527 Z-0.125000
G01 X526.231369 Y37.154527 Z-0.125000
G01 X528.625560 Y34.760337 Z-0.125000
G01 X532.216845 Y35.957432 Z-0.125000
G01 X531.019750 Y39.548718 Z-0.125000
G01 X531.019750 Y43.140004 Z-0.125000
G01 X528.625560 Y44.337099 Z-0.125000
G01 X527.428465 Y47.928385 Z-0.125000
G01 X523.837179 Y47.928385 Z-0.125000
G01 X525.034274 Y44.337099 Z-0.125000
G01 X526.231369 Y40.745813 Z-0.125000
G01 X522.640084 Y40.745813 Z-0.125000
G01 X521.442988 Y44.337099 Z-0.125000
G01 X517.851703 Y44.337099 Z-0.125000
G01 X515.457512 Y45.534194 Z-0.125000
G01 X520.245893 Y47.928385 Z-0.125000
G01 X517.851703 Y49.125480 Z-0.125000
G01 X515.457512 Y50.322575 Z-0.125000
G01 X511.866227 Y51.519670 Z-0.125000
G01 X508.274941 Y52.716765 Z-0.125000
G01 X505.880750 Y55.110956 Z-0.125000
G01 X505.880750 Y58.702242 Z-0.125000
G01 X509.472036 Y58.702242 Z-0.125000
G01 X510.669131 Y56.308051 Z-0.125000
G01 X513.063322 Y55.110956 Z-0.125000
G01 X515.457512 Y53.913861 Z-0.125000
G01 X519.048798 Y52.716765 Z-0.125000
G01 X522.640084 Y51.519670 Z-0.125000
G01 X526.231369 Y51.519670 Z-0.125000
G01 X525.034274 Y55.110956 Z-0.125000
G01 X521.442988 Y55.110956 Z-0.125000
G01 X520.245893 Y57.505146 Z-0.125000
G01 X516.654607 Y57.505146 Z-0.125000
G01 X514.260417 Y58.702242 Z-0.125000
G01 X513.063322 Y61.096432 Z-0.125000
G01 X509.472036 Y62.293527 Z-0.125000
G01 X505.880750 Y62.293527 Z-0.125000
G01 X504.683655 Y63.490623 Z-0.125000
G01 X504.683655 Y65.884813 Z-0.125000
G01 X503.486560 Y68.279003 Z-0.125000
G01 X502.289465 Y70.673194 Z-0.125000
G01 X503.486560 Y74.264480 Z-0.125000
G01 X502.289465 Y75.461575 Z-0.125000
G01 X498.698179 Y76.658670 Z-0.125000
G01 X501.092369 Y79.052861 Z-0.125000
G01 X504.683655 Y79.052861 Z-0.125000
G01 X508.274941 Y77.855765 Z-0.125000
G01 X507.077846 Y74.264480 Z-0.125000
G01 X510.669131 Y74.264480 Z-0.125000
G01 X510.669131 Y71.870289 Z-0.125000
G01 X507.077846 Y70.673194 Z-0.125000
G01 X509.472036 Y68.279003 Z-0.125000
G01 X510.669131 Y65.884813 Z-0.125000
G01 X513.063322 Y64.687718 Z-0.125000
G01 X513.063322 Y69.476099 Z-0.125000
G01 X516.654607 Y68.279003 Z-0.125000
G01 X516.654607 Y65.884813 Z-0.125000
G01 X516.654607 Y62.293527 Z-0.125000
G01 X520.245893 Y61.096432 Z-0.125000
G01 X521.442988 Y64.687718 Z-0.125000
G01 X520.245893 Y65.884813 Z-0.125000
G01 X521.442988 Y69.476099 Z-0.125000
G01 X520.245893 Y71.870289 Z-0.125000
G01 X516.654607 Y71.870289 Z-0.125000
G01 X515.457512 Y74.264480 Z-0.125000
G01 X514.260417 Y76.658670 Z-0.125000
G01 X511.866227 Y77.855765 Z-0.125000
G01 X511.866227 Y81.447051 Z-0.125000
G01 X508.274941 Y81.447051 Z-0.125000
G01 X505.880750 Y82.644146 Z-0.125000
G01 X502.289465 Y83.841242 Z-0.125000
G01 X499.895274 Y82.644146 Z-0.125000
G01 X496.303988 Y82.644146 Z-0.125000
G01 X496.303988 Y79.052861 Z-0.125000
G01 X492.712703 Y79.052861 Z-0.125000
G01 X493.909798 Y75.461575 Z-0.125000
G01 X495.106893 Y73.067384 Z-0.125000
G01 X498.698179 Y71.870289 Z-0.125000
G01 X498.698179 Y68.279003 Z-0.125000
G01 X499.895274 Y64.687718 Z-0.125000
G01 X499.895274 Y61.096432 Z-0.125000
G01 X501.092369 Y58.702242 Z-0.125000
G01 X501.092369 Y56.308051 Z-0.125000
G01 X502.289465 Y53.913861 Z-0.125000
G01 X503.486560 Y51.519670 Z-0.125000
G01 X504.683655 Y50.322575 Z-0.125000
G01 X508.274941 Y49.125480 Z-0.125000
G01 X511.866227 Y47.928385 Z-0.125000
G01 X509.472036 Y45.534194 Z-0.125000
G01 X511.866227 Y44.337099 Z-0.125000
G01 X513.063322 Y41.942908 Z-0.125000
G01 X513.063322 Y39.548718 Z-0.125000
G01 X516.654607 Y39.548718 Z-0.125000
G01 X519.048798 Y40.745813 Z-0.125000
G01 X519.048798 Y37.154527 Z-0.125000
G01 X520.245893 Y33.563242 Z-0.125000
G01 X516.654607 Y33.563242 Z-0.125000
G01 X514.260417 Y35.957432 Z-0.125000
G01 X513.063322 Y31.169051 Z-0.125000
G01 X511.866227 Y32.366146 Z-0.125000
G01 X510.669131 Y34.760337 Z-0.125000
G01 X509.472036 Y37.154527 Z-0.125000
G01 X508.274941 Y40.745813 Z-0.125000
G01 X505.880750 Y43.140004 Z-0.125000
G01 X504.683655 Y44.337099 Z-0.125000
G01 X503.486560 Y46.731289 Z-0.125000
G01 X499.895274 Y47.928385 Z-0.125000
G01 X498.698179 Y50.322575 Z-0.125000
G01 X497.501084 Y52.716765 Z-0.125000
G01 X496.303988 Y53.913861 Z-0.125000
G01 X492.712703 Y53.913861 Z-0.125000
G01 X489.121417 Y53.913861 Z-0.125000
G01 X487.924322 Y57.505146 Z-0.125000
G01 X485.530131 Y58.702242 Z-0.125000
G01 X481.938846 Y59.899337 Z-0.125000
G01 X478.347560 Y61.096432 Z-0.125000
G01 X474.756274 Y62.293527 Z-0.125000
G01 X471.164989 Y64.687718 Z-0.125000
G01 X469.967893 Y61.096432 Z-0.125000
G01 X471.164989 Y58.702242 Z-0.125000
G01 X473.559179 Y57.505146 Z-0.125000
G01 X473.559179 Y55.110956 Z-0.125000
G01 X473.559179 Y51.519670 Z-0.125000
G01 X474.756274 Y49.125480 Z-0.125000
G01 X475.953370 Y47.928385 Z-0.125000
G01 X474.756274 Y44.337099 Z-0.125000
G01 X475.953370 Y41.942908 Z-0.125000
G01 X477.150465 Y38.351623 Z-0.125000
G01 X473.559179 Y38.351623 Z-0.125000
G01 X471.164989 Y41.942908 Z-0.125000
G01 X471.164989 Y45.534194 Z-0.125000
G01 X469.967893 Y49.125480 Z-0.125000
G01 X467.573703 Y51.519670 Z-0.125000
G01 X469.967893 Y52.716765 Z-0.125000
G01 X467.573703 Y55.110956 Z-0.125000
G01 X466.376608 Y57.505146 Z-0.125000
G01 X465.179512 Y59.899337 Z-0.125000
G01 X461.588227 Y59.899337 Z-0.125000
G01 X462.785322 Y56.308051 Z-0.125000
G01 X463.982417 Y52.716765 Z-0.125000
G01 X463.982417 Y49.125480 Z-0.125000
G01 X465.179512 Y46.731289 Z-0.125000
G01 X466.376608 Y44.337099 Z-0.125000
G01 X467.573703 Y43.140004 Z-0.125000
G01 X467.573703 Y39.548718 Z-0.125000
G01 X468.770798 Y37.154527 Z-0.125000
G01 X471.164989 Y35.957432 Z-0.125000
G01 X474.756274 Y34.760337 Z-0.125000
G01 X475.953370 Y32.366146 Z-0.125000
G01 X478.347560 Y33.563242 Z-0.125000
G01 X478.347560 Y29.971956 Z-0.125000
G01 X479.544655 Y27.577766 Z-0.125000
G01 X480.741750 Y23.986480 Z-0.125000
G01 X480.741750 Y20.395194 Z-0.125000
G01 X481.938846 Y19.198099 Z-0.125000
G01 X480.741750 Y15.606813 Z-0.125000
G01 X483.135941 Y13.212623 Z-0.125000
G01 X485.530131 Y12.015527 Z-0.125000
G01 X485.530131 Y15.606813 Z-0.125000
G01 X485.530131 Y18.001004 Z-0.125000
G01 X485.530131 Y21.592289 Z-0.125000
G01 X484.333036 Y23.986480 Z-0.125000
G01 X484.333036 Y27.577766 Z-0.125000
G01 X483.135941 Y29.971956 Z-0.125000
G01 X481.938846 Y32.366146 Z-0.125000
G01 X481.938846 Y35.957432 Z-0.125000
G01 X480.741750 Y38.351623 Z-0.125000
G01 X479.544655 Y41.942908 Z-0.125000
G01 X483.135941 Y43.140004 Z-0.125000
G01 X484.333036 Y40.745813 Z-0.125000
G01 X485.530131 Y38.351623 Z-0.125000
G01 X485.530131 Y34.760337 Z-0.125000
G01 X486.727227 Y31.169051 Z-0.125000
G01 X487.924322 Y27.577766 Z-0.125000
G01 X489.121417 Y25.183575 Z-0.125000
G01 X489.121417 Y21.592289 Z-0.125000
G01 X490.318512 Y19.198099 Z-0.125000
G01 X489.121417 Y15.606813 Z-0.125000
G01 X492.712703 Y16.803908 Z-0.125000
G01 X496.303988 Y15.606813 Z-0.125000
G01 X497.501084 Y14.409718 Z-0.125000
G01 X501.092369 Y13.212623 Z-0.125000
G01 X503.486560 Y12.015527 Z-0.125000
G01 X503.486560 Y8.424242 Z-0.125000
G01 X507.077846 Y8.424242 Z-0.125000
G01 X507.077846 Y12.015527 Z-0.125000
G01 X507.077846 Y15.606813 Z-0.125000
G01 X504.683655 Y16.803908 Z-0.125000
G01 X501.092369 Y16.803908 Z-0.125000
G01 X499.895274 Y19.198099 Z-0.125000
G01 X496.303988 Y19.198099 Z-0.125000
G01 X495.106893 Y21.592289 Z-0.125000
G01 X493.909798 Y22.789385 Z-0.125000
G01 X492.712703 Y25.183575 Z-0.125000
G01 X492.712703 Y28.774861 Z-0.125000
G01 X491.515608 Y31.169051 Z-0.125000
G01 X490.318512 Y33.563242 Z-0.125000
G01 X489.121417 Y35.957432 Z-0.125000
G01 X490.318512 Y39.548718 Z-0.125000
G01 X492.712703 Y38.351623 Z-0.125000
G01 X493.909798 Y35.957432 Z-0.125000
G01 X495.106893 Y33.563242 Z-0.125000
G01 X496.303988 Y31.169051 Z-0.125000
G01 X498.698179 Y28.774861 Z-0.125000
G01 X496.303988 Y27.577766 Z-0.125000
G01 X498.698179 Y25.183575 Z-0.125000
G01 X499.895274 Y22.789385 Z-0.125000
G01 X503.486560 Y21.592289 Z-0.125000
G01 X505.880750 Y20.395194 Z-0.125000
G01 X508.274941 Y19.198099 Z-0.125000
G01 X511.866227 Y19.198099 Z-0.125000
G01 X510.669131 Y15.606813 Z-0.125000
G01 X510.669131 Y12.015527 Z-0.125000
G01 X510.669131 Y8.424242 Z-0.125000
G01 X514.260417 Y9.621337 Z-0.125000
G01 X515.457512 Y13.212623 Z-0.125000
G01 X514.260417 Y15.606813 Z-0.125000
G01 X515.457512 Y19.198099 Z-0.125000
G01 X514.260417 Y22.789385 Z-0.125000
G01 X510.669131 Y22.789385 Z-0.125000
G01 X507.077846 Y23.986480 Z-0.125000
G01 X503.486560 Y25.183575 Z-0.125000
G01 X502.289465 Y27.577766 Z-0.125000
G01 X503.486560 Y31.169051 Z-0.125000
G01 X502.289465 Y32.366146 Z-0.125000
G01 X502.289465 Y35.957432 Z-0.125000
G01 X499.895274 Y34.760337 Z-0.125000
G01 X498.698179 Y37.154527 Z-0.125000
G01 X497.501084 Y39.548718 Z-0.125000
G01 X496.303988 Y41.942908 Z-0.125000
G01 X492.712703 Y43.140004 Z-0.125000
G01 X489.121417 Y41.942908 Z-0.125000
G01 X487.924322 Y44.337099 Z-0.125000
G01 X486.727227 Y46.731289 Z-0.125000
G01 X483.135941 Y46.731289 Z-0.125000
G01 X479.544655 Y46.731289 Z-0.125000
G01 X480.741750 Y50.322575 Z-0.125000
G01 X478.347560 Y52.716765 Z-0.125000
G01 X478.347560 Y56.308051 Z-0.125000
G01 X481.938846 Y55.110956 Z-0.125000
G01 X485.530131 Y53.913861 Z-0.125000
G01 X484.333036 Y50.322575 Z-0.125000
G01 X489.121417 Y50.322575 Z-0.125000
G01 X492.712703 Y50.322575 Z-0.125000
G01 X491.515608 Y46.731289 Z-0.125000
G01 X495.106893 Y47.928385 Z-0.125000
G01 X496.303988 Y45.534194 Z-0.125000
G01 X499.895274 Y44.337099 Z-0.125000
G01 X501.092369 Y40.745813 Z-0.125000
G01 X504.683655 Y39.548718 Z-0.125000
G01 X505.880750 Y37.154527 Z-0.125000
G01 X507.077846 Y33.563242 Z-0.125000
G01 X507.077846 Y29.971956 Z-0.125000
G01 X507.077846 Y27.577766 Z-0.125000
G01 X510.669131 Y27.577766 Z-0.125000
G01 X511.866227 Y26.380670 Z-0.125000
G01 X515.457512 Y26.380670 Z-0.125000
G01 X516.654607 Y29.971956 Z-0.125000
G01 X519.048798 Y28.774861 Z-0.125000
G01 X519.048798 Y25.183575 Z-0.125000
G01 X517.851703 Y21.592289 Z-0.125000
G01 X522.640084 Y22.789385 Z-0.125000
G01 X523.837179 Y20.395194 Z-0.125000
G01 X522.640084 Y16.803908 Z-0.125000
G01 X519.048798 Y18.001004 Z-0.125000
G01 X519.048798 Y14.409718 Z-0.125000
G01 X522.640084 Y13.212623 Z-0.125000
G01 X522.640084 Y9.621337 Z-0.125000
G01 X519.048798 Y10.818432 Z-0.125000
G01 X519.048798 Y7.227147 Z-0.125000
G01 X522.640084 Y6.030051 Z-0.125000
G01 X523.837179 Y4.832956 Z-0.125000
G01 X527.428465 Y4.832956 Z-0.125000
G01 X528.625560 Y2.438766 Z-0.125000
G01 X529.822655 Y0.044575 Z-0.125000
G01 X531.019750 Y-2.349615 Z-0.125000
G01 X531.019750 Y-5.940901 Z-0.125000
G01 X533.413941 Y-7.137996 Z-0.125000
G01 X533.413941 Y-10.729282 Z-0.125000
G01 X534.611036 Y-13.123472 Z-0.125000
G01 X537.005226 Y-15.517663 Z-0.125000
G01 X537.005226 Y-19.108949 Z-0.125000
G01 X537.005226 Y-22.700234 Z-0.125000
G01 X533.413941 Y-21.503139 Z-0.125000
G01 X532.216845 Y-19.108949 Z-0.125000
G01 X532.216845 Y-16.714758 Z-0.125000
G01 X529.822655 Y-14.320568 Z-0.125000
G01 X526.231369 Y-13.123472 Z-0.125000
G01 X525.034274 Y-9.532187 Z-0.125000
G01 X528.625560 Y-9.532187 Z-0.125000
G01 X525.034274 Y-5.940901 Z-0.125000
G01 X527.428465 Y-4.743806 Z-0.125000
G01 X525.034274 Y-2.349615 Z-0.125000
G01 X525.034274 Y0.044575 Z-0.125000
G01 X522.640084 Y1.241670 Z-0.125000
G01 X519.048798 Y2.438766 Z-0.125000
G01 X516.654607 Y1.241670 Z-0.125000
G01 X515.457512 Y4.832956 Z-0.125000
G01 X513.063322 Y6.030051 Z-0.125000
G01 X511.866227 Y1.241670 Z-0.125000
G01 X508.274941 Y2.438766 Z-0.125000
G01 X508.274941 Y4.832956 Z-0.125000
G01 X504.683655 Y4.832956 Z-0.125000
G01 X501.092369 Y4.832956 Z-0.125000
G01 X499.895274 Y6.030051 Z-0.125000
G01 X499.895274 Y9.621337 Z-0.125000
G01 X497.501084 Y8.424242 Z-0.125000
G01 X496.303988 Y10.818432 Z-0.125000
G01 X492.712703 Y12.015527 Z-0.125000
G01 X490.318512 Y13.212623 Z-0.125000
G01 X489.121417 Y9.621337 Z-0.125000
G01 X491.515608 Y8.424242 Z-0.125000
G01 X492.712703 Y7.227147 Z-0.125000
G01 X495.106893 Y4.832956 Z-0.125000
G01 X496.303988 Y2.438766 Z-0.125000
G01 X499.895274 Y1.241670 Z-0.125000
G01 X503.486560 Y1.241670 Z-0.125000
G01 X503.486560 Y-1.152520 Z-0.125000
G01 X503.486560 Y-4.743806 Z-0.125000
G01 X499.895274 Y-4.743806 Z-0.125000
G01 X498.698179 Y-2.349615 Z-0.125000
G01 X496.303988 Y-1.152520 Z-0.125000
G01 X492.712703 Y0.044575 Z-0.125000
G01 X491.515608 Y2.438766 Z-0.125000
G01 X489.121417 Y1.241670 Z-0.125000
G01 X487.924322 Y3.635861 Z-0.125000
G01 X486.727227 Y6.030051 Z-0.125000
G01 X485.530131 Y8.424242 Z-0.125000
G01 X481.938846 Y9.621337 Z-0.125000
G01 X478.347560 Y9.621337 Z-0.125000
G01 X475.953370 Y10.818432 Z-0.125000
G01 X478.347560 Y13.212623 Z-0.125000
G01 X477.150465 Y16.803908 Z-0.125000
G01 X474.756274 Y14.409718 Z-0.125000
G01 X472.362084 Y12.015527 Z-0.125000
G01 X469.967893 Y13.212623 Z-0.125000
G01 X469.967893 Y15.606813 Z-0.125000
G01 X469.967893 Y19.198099 Z-0.125000
G01 X473.559179 Y18.001004 Z-0.125000
G01 X473.559179 Y21.592289 Z-0.125000
G01 X477.150465 Y20.395194 Z-0.125000
G01 X477.150465 Y23.986480 Z-0.125000
G01 X474.756274 Y25.183575 Z-0.125000
G01 X473.559179 Y27.577766 Z-0.125000
G01 X472.362084 Y29.971956 Z-0.125000
G01 X471.164989 Y32.366146 Z-0.125000
G01 X467.573703 Y33.563242 Z-0.125000
G01 X466.376608 Y29.971956 Z-0.125000
G01 X467.573703 Y28.774861 Z-0.125000
G01 X468.770798 Y26.380670 Z-0.125000
G01 X471.164989 Y23.986480 Z-0.125000
G01 X468.770798 Y22.789385 Z-0.125000
G01 X465.179512 Y23.986480 Z-0.125000
G01 X462.785322 Y26.380670 Z-0.125000
G01 X461.588227 Y28.774861 Z-0.125000
G01 X459.194036 Y29.971956 Z-0.125000
G01 X455.602751 Y29.971956 Z-0.125000
G01 X453.208560 Y31.169051 Z-0.125000
G01 X450.814370 Y32.366146 Z-0.125000
G01 X450.814370 Y35.957432 Z-0.125000
G01 X454.405655 Y35.957432 Z-0.125000
G01 X454.405655 Y39.548718 Z-0.125000
G01 X450.814370 Y39.548718 Z-0.125000
G01 X449.617274 Y41.942908 Z-0.125000
G01 X449.617274 Y44.337099 Z-0.125000
G01 X453.208560 Y43.140004 Z-0.125000
G01 X456.799846 Y43.140004 Z-0.125000
G01 X457.996941 Y39.548718 Z-0.125000
G01 X457.996941 Y37.154527 Z-0.125000
G01 X456.799846 Y33.563242 Z-0.125000
G01 X460.391131 Y33.563242 Z-0.125000
G01 X463.982417 Y32.366146 Z-0.125000
G01 X463.982417 Y35.957432 Z-0.125000
G01 X461.588227 Y37.154527 Z-0.125000
G01 X462.785322 Y40.745813 Z-0.125000
G01 X461.588227 Y43.140004 Z-0.125000
G01 X460.391131 Y45.534194 Z-0.125000
G01 X460.391131 Y49.125480 Z-0.125000
G01 X460.391131 Y52.716765 Z-0.125000
G01 X459.194036 Y56.308051 Z-0.125000
G01 X455.602751 Y57.505146 Z-0.125000
G01 X454.405655 Y62.293527 Z-0.125000
G01 X457.996941 Y61.096432 Z-0.125000
G01 X461.588227 Y63.490623 Z-0.125000
G01 X463.982417 Y64.687718 Z-0.125000
G01 X467.573703 Y63.490623 Z-0.125000
G01 X467.573703 Y67.081908 Z-0.125000
G01 X465.179512 Y68.279003 Z-0.125000
G01 X465.179512 Y70.673194 Z-0.125000
G01 X463.982417 Y73.067384 Z-0.125000
G01 X463.982417 Y76.658670 Z-0.125000
G01 X467.573703 Y75.461575 Z-0.125000
G01 X467.573703 Y79.052861 Z-0.125000
G01 X466.376608 Y81.447051 Z-0.125000
G01 X466.376608 Y85.038337 Z-0.125000
G01 X463.982417 Y87.432527 Z-0.125000
G01 X465.179512 Y91.023813 Z-0.125000
G01 X462.785322 Y93.418003 Z-0.125000
G01 X461.588227 Y97.009289 Z-0.125000
G01 X457.996941 Y98.206384 Z-0.125000
G01 X455.602751 Y100.600575 Z-0.125000
G01 X454.405655 Y102.994765 Z-0.125000
G01 X450.814370 Y102.994765 Z-0.125000
G01 X447.223084 Y102.994765 Z-0.125000
G01 X444.828893 Y100.600575 Z-0.125000
G01 X442.434703 Y99.403480 Z-0.125000
G01 X440.040513 Y101.797670 Z-0.125000
G01 X440.040513 Y105.388956 Z-0.125000
G01 X443.631798 Y104.191860 Z-0.125000
G01 X443.631798 Y107.783146 Z-0.125000
