%
(Header)
(Generated by gcodetools from Inkscape.)
(Using default header. To add your own header create file "header" in the output dir.)
M3
(Header end.)
G21 (All units in mm)

(Start cutting path id: path69)
(Change tool to Default tool)

G00 Z5.000000
G00 X34.879910 Y165.805551

G01 Z-0.125000 F100.0(Penetrate)
G01 X34.879910 Y164.676662 Z-0.125000 F400.000000
G01 X35.162132 Y163.265551 Z-0.125000
G01 X36.008799 Y163.547773 Z-0.125000
G01 X35.726576 Y162.136662 Z-0.125000
G01 X36.855465 Y161.854440 Z-0.125000
G01 X37.984354 Y161.289995 Z-0.125000
G01 X38.548799 Y160.161106 Z-0.125000
G01 X40.524354 Y160.725551 Z-0.125000
G01 X41.088799 Y159.032218 Z-0.125000
G01 X39.395465 Y158.467773 Z-0.125000
G01 X38.266576 Y158.185551 Z-0.125000
G01 X36.008799 Y160.443329 Z-0.125000
G01 X36.291021 Y159.314440 Z-0.125000
G01 X36.291021 Y158.467773 Z-0.125000
G01 X36.573243 Y157.338884 Z-0.125000
G01 X36.573243 Y155.927773 Z-0.125000
G01 X37.984354 Y155.645551 Z-0.125000
G01 X39.677687 Y156.209995 Z-0.125000
G01 X40.242132 Y154.798884 Z-0.125000
G01 X41.935465 Y155.645551 Z-0.125000
G01 X41.653243 Y157.621106 Z-0.125000
G01 X43.628799 Y157.621106 Z-0.125000
G01 X43.911021 Y155.645551 Z-0.125000
G01 X45.039910 Y154.798884 Z-0.125000
G01 X46.168799 Y153.952217 Z-0.125000
G01 X47.297687 Y153.105551 Z-0.125000
G01 X47.579910 Y151.412217 Z-0.125000
G01 X45.322132 Y151.129995 Z-0.125000
G01 X43.911021 Y152.258884 Z-0.125000
G01 X42.499910 Y153.387773 Z-0.125000
G01 X41.088799 Y153.105551 Z-0.125000
G01 X39.113243 Y152.258884 Z-0.125000
G01 X38.266576 Y153.387773 Z-0.125000
G01 X36.573243 Y153.669995 Z-0.125000
G01 X36.573243 Y151.976662 Z-0.125000
G01 X37.137687 Y150.565551 Z-0.125000
G01 X38.548799 Y150.283329 Z-0.125000
G01 X39.677687 Y150.565551 Z-0.125000
G01 X41.088799 Y150.847773 Z-0.125000
G01 X41.935465 Y150.565551 Z-0.125000
G01 X43.346576 Y150.001106 Z-0.125000
G01 X45.039910 Y149.154440 Z-0.125000
G01 X46.451021 Y149.154440 Z-0.125000
G01 X47.579910 Y148.589995 Z-0.125000
G01 X49.273243 Y148.872217 Z-0.125000
G01 X48.991021 Y150.283329 Z-0.125000
G01 X49.273243 Y152.258884 Z-0.125000
G01 X50.966576 Y151.412217 Z-0.125000
G01 X52.659910 Y151.694440 Z-0.125000
G01 X53.506576 Y150.847773 Z-0.125000
G01 X52.659910 Y150.001106 Z-0.125000
G01 X52.942132 Y149.154440 Z-0.125000
G01 X53.506576 Y149.436662 Z-0.125000
G01 X53.506576 Y148.589995 Z-0.125000
G01 X53.224354 Y147.743329 Z-0.125000
G01 X54.071021 Y147.743329 Z-0.125000
G01 X54.635465 Y147.178884 Z-0.125000
G01 X55.482132 Y147.178884 Z-0.125000
G01 X55.764354 Y146.614440 Z-0.125000
G01 X56.328799 Y146.049995 Z-0.125000
G01 X55.482132 Y145.767773 Z-0.125000
G01 X55.764354 Y145.203329 Z-0.125000
G01 X56.046576 Y144.638884 Z-0.125000
G01 X56.611021 Y144.921106 Z-0.125000
G01 X56.893243 Y144.356662 Z-0.125000
G01 X57.175465 Y143.792217 Z-0.125000
G01 X56.893243 Y142.945551 Z-0.125000
G01 X56.328799 Y143.227773 Z-0.125000
G01 X55.764354 Y143.792217 Z-0.125000
G01 X54.917688 Y144.356662 Z-0.125000
G01 X54.635465 Y144.921106 Z-0.125000
G01 X54.635465 Y145.767773 Z-0.125000
G01 X54.635465 Y146.332217 Z-0.125000
G01 X53.788799 Y146.614440 Z-0.125000
G01 X53.506576 Y146.896662 Z-0.125000
G01 X52.659910 Y146.896662 Z-0.125000
G01 X52.377687 Y147.461106 Z-0.125000
G01 X51.813243 Y148.025551 Z-0.125000
G01 X52.377687 Y148.307773 Z-0.125000
G01 X51.813243 Y148.872217 Z-0.125000
G01 X50.966576 Y149.718884 Z-0.125000
G01 X50.966576 Y148.307773 Z-0.125000
G01 X50.402132 Y147.743329 Z-0.125000
G01 X50.966576 Y147.178884 Z-0.125000
G01 X51.248799 Y146.332217 Z-0.125000
G01 X51.813243 Y146.049995 Z-0.125000
G01 X52.659910 Y146.049995 Z-0.125000
G01 X53.506576 Y145.767773 Z-0.125000
G01 X53.788799 Y145.203329 Z-0.125000
G01 X53.788799 Y144.356662 Z-0.125000
G01 X52.942132 Y144.356662 Z-0.125000
G01 X52.659910 Y144.921106 Z-0.125000
G01 X52.377687 Y145.203329 Z-0.125000
G01 X51.531021 Y145.203329 Z-0.125000
G01 X50.684354 Y145.203329 Z-0.125000
G01 X50.119910 Y146.049995 Z-0.125000
G01 X49.837687 Y146.896662 Z-0.125000
G01 X48.991021 Y146.896662 Z-0.125000
G01 X48.991021 Y145.767773 Z-0.125000
G01 X48.708799 Y144.921106 Z-0.125000
G01 X47.862132 Y144.638884 Z-0.125000
G01 X47.862132 Y143.792217 Z-0.125000
G01 X48.991021 Y143.792217 Z-0.125000
G01 X49.273243 Y142.098884 Z-0.125000
G01 X48.144354 Y142.381106 Z-0.125000
G01 X47.297687 Y142.945551 Z-0.125000
G01 X47.015465 Y142.098884 Z-0.125000
G01 X46.168799 Y142.945551 Z-0.125000
G01 X44.757687 Y142.381106 Z-0.125000
G01 X44.757687 Y144.356662 Z-0.125000
G01 X45.886576 Y144.356662 Z-0.125000
G01 X47.297687 Y146.332217 Z-0.125000
G01 X45.886576 Y146.614440 Z-0.125000
G01 X44.757687 Y146.896662 Z-0.125000
G01 X43.064354 Y146.049995 Z-0.125000
G01 X42.782132 Y147.461106 Z-0.125000
G01 X41.653243 Y148.025551 Z-0.125000
G01 X40.242132 Y148.025551 Z-0.125000
G01 X39.395465 Y148.589995 Z-0.125000
G01 X38.266576 Y148.589995 Z-0.125000
G01 X36.291021 Y148.872217 Z-0.125000
G01 X36.573243 Y147.461106 Z-0.125000
G01 X36.573243 Y145.767773 Z-0.125000
G01 X36.291021 Y144.356662 Z-0.125000
G01 X36.291021 Y142.663329 Z-0.125000
G01 X37.984354 Y143.227773 Z-0.125000
G01 X39.113243 Y142.663329 Z-0.125000
G01 X39.677687 Y142.098884 Z-0.125000
G01 X39.959910 Y140.969995 Z-0.125000
G01 X40.242132 Y140.123329 Z-0.125000
G01 X40.242132 Y138.994440 Z-0.125000
G01 X41.088799 Y138.712217 Z-0.125000
G01 X41.653243 Y137.865551 Z-0.125000
G01 X41.935465 Y137.018884 Z-0.125000
G01 X43.064354 Y136.736662 Z-0.125000
G01 X43.064354 Y135.607773 Z-0.125000
G01 X43.628799 Y134.761106 Z-0.125000
G01 X44.193243 Y133.632217 Z-0.125000
G01 X44.757687 Y132.221106 Z-0.125000
G01 X46.168799 Y131.092217 Z-0.125000
G01 X47.297687 Y130.527773 Z-0.125000
G01 X48.144354 Y130.527773 Z-0.125000
G01 X48.426576 Y129.963328 Z-0.125000
G01 X47.297687 Y129.116662 Z-0.125000
G01 X47.862132 Y128.552217 Z-0.125000
G01 X48.144354 Y127.705551 Z-0.125000
G01 X48.708799 Y127.141106 Z-0.125000
G01 X49.555465 Y127.423328 Z-0.125000
G01 X49.273243 Y126.576662 Z-0.125000
G01 X49.555465 Y125.729995 Z-0.125000
G01 X50.684354 Y125.447773 Z-0.125000
G01 X50.966576 Y126.858884 Z-0.125000
G01 X51.813243 Y126.012217 Z-0.125000
G01 X52.942132 Y126.294440 Z-0.125000
G01 X54.353243 Y126.294440 Z-0.125000
G01 X55.482132 Y125.165551 Z-0.125000
G01 X56.046576 Y124.036662 Z-0.125000
G01 X56.893243 Y123.189995 Z-0.125000
G01 X58.022132 Y123.189995 Z-0.125000
G01 X59.151021 Y123.472217 Z-0.125000
G01 X59.997688 Y122.907773 Z-0.125000
G01 X60.279910 Y121.778884 Z-0.125000
G01 X59.433243 Y120.932217 Z-0.125000
G01 X58.868799 Y121.778884 Z-0.125000
G01 X58.304354 Y122.061106 Z-0.125000
G01 X57.175465 Y121.496662 Z-0.125000
G01 X56.046576 Y121.496662 Z-0.125000
G01 X55.199910 Y122.343328 Z-0.125000
G01 X54.353243 Y123.472217 Z-0.125000
G01 X53.788799 Y124.318884 Z-0.125000
G01 X52.659910 Y124.318884 Z-0.125000
G01 X51.248799 Y124.036662 Z-0.125000
G01 X51.531021 Y122.625551 Z-0.125000
G01 X52.659910 Y122.343328 Z-0.125000
G01 X53.788799 Y122.061106 Z-0.125000
G01 X53.788799 Y120.932217 Z-0.125000
G01 X53.788799 Y120.085551 Z-0.125000
G01 X53.506576 Y118.956662 Z-0.125000
G01 X54.353243 Y117.827773 Z-0.125000
G01 X55.764354 Y116.698884 Z-0.125000
G01 X55.764354 Y115.569995 Z-0.125000
G01 X55.764354 Y114.158884 Z-0.125000
G01 X54.635465 Y114.158884 Z-0.125000
G01 X53.788799 Y114.723328 Z-0.125000
G01 X54.353243 Y116.134439 Z-0.125000
G01 X53.224354 Y116.134439 Z-0.125000
G01 X52.659910 Y117.263328 Z-0.125000
G01 X51.531021 Y117.263328 Z-0.125000
G01 X50.684354 Y117.545551 Z-0.125000
G01 X49.837687 Y117.545551 Z-0.125000
G01 X50.119910 Y118.392217 Z-0.125000
G01 X49.555465 Y118.956662 Z-0.125000
G01 X49.273243 Y119.521106 Z-0.125000
G01 X49.273243 Y120.367773 Z-0.125000
G01 X48.991021 Y120.932217 Z-0.125000
G01 X48.426576 Y121.496662 Z-0.125000
G01 X48.708799 Y122.343328 Z-0.125000
G01 X49.555465 Y121.778884 Z-0.125000
G01 X50.119910 Y121.214440 Z-0.125000
G01 X50.119910 Y120.367773 Z-0.125000
G01 X50.402132 Y119.521106 Z-0.125000
G01 X50.966576 Y120.367773 Z-0.125000
G01 X51.531021 Y119.803328 Z-0.125000
G01 X51.813243 Y118.674439 Z-0.125000
G01 X52.377687 Y120.085551 Z-0.125000
G01 X52.659910 Y120.932217 Z-0.125000
G01 X51.813243 Y121.214440 Z-0.125000
G01 X51.248799 Y121.496662 Z-0.125000
G01 X50.684354 Y122.061106 Z-0.125000
G01 X50.402132 Y122.907773 Z-0.125000
G01 X49.837687 Y122.625551 Z-0.125000
G01 X49.555465 Y123.189995 Z-0.125000
G01 X49.837687 Y124.036662 Z-0.125000
G01 X49.273243 Y124.318884 Z-0.125000
G01 X48.991021 Y124.883328 Z-0.125000
G01 X48.708799 Y125.729995 Z-0.125000
G01 X47.862132 Y126.012217 Z-0.125000
G01 X47.297687 Y126.576662 Z-0.125000
G01 X46.733243 Y127.705551 Z-0.125000
G01 X46.451021 Y126.576662 Z-0.125000
G01 X45.322132 Y126.858884 Z-0.125000
G01 X45.039910 Y127.987773 Z-0.125000
G01 X46.168799 Y128.552217 Z-0.125000
G01 X46.168799 Y129.398884 Z-0.125000
G01 X44.475465 Y129.963328 Z-0.125000
G01 X42.782132 Y129.963328 Z-0.125000
G01 X42.217687 Y131.374440 Z-0.125000
G01 X41.653243 Y132.221106 Z-0.125000
G01 X41.935465 Y133.349995 Z-0.125000
G01 X42.782132 Y133.067773 Z-0.125000
G01 X42.499910 Y134.196662 Z-0.125000
G01 X41.371021 Y133.914440 Z-0.125000
G01 X40.806576 Y134.478884 Z-0.125000
G01 X39.395465 Y135.325551 Z-0.125000
G01 X40.524354 Y135.325551 Z-0.125000
G01 X41.653243 Y135.043328 Z-0.125000
G01 X41.653243 Y135.889995 Z-0.125000
G01 X40.806576 Y136.454440 Z-0.125000
G01 X40.524354 Y137.301106 Z-0.125000
G01 X39.959910 Y137.865551 Z-0.125000
G01 X39.113243 Y138.994440 Z-0.125000
G01 X38.548799 Y140.405551 Z-0.125000
G01 X37.419910 Y140.123329 Z-0.125000
G01 X36.573243 Y141.252217 Z-0.125000
G01 X36.291021 Y139.841106 Z-0.125000
G01 X36.573243 Y138.147773 Z-0.125000
G01 X37.419910 Y137.301106 Z-0.125000
G01 X38.266576 Y136.454440 Z-0.125000
G01 X36.855465 Y136.172217 Z-0.125000
G01 X37.419910 Y135.043328 Z-0.125000
G01 X37.702132 Y134.196662 Z-0.125000
G01 X38.266576 Y133.067773 Z-0.125000
G01 X39.113243 Y132.221106 Z-0.125000
G01 X39.677687 Y131.374440 Z-0.125000
G01 X39.959910 Y130.245551 Z-0.125000
G01 X40.242132 Y129.398884 Z-0.125000
G01 X41.088799 Y129.116662 Z-0.125000
G01 X41.088799 Y127.987773 Z-0.125000
G01 X41.935465 Y127.987773 Z-0.125000
G01 X42.782132 Y127.423328 Z-0.125000
G01 X41.371021 Y126.576662 Z-0.125000
G01 X41.653243 Y125.729995 Z-0.125000
G01 X41.935465 Y125.165551 Z-0.125000
G01 X42.217687 Y124.318884 Z-0.125000
G01 X42.499910 Y123.189995 Z-0.125000
G01 X43.346576 Y123.754440 Z-0.125000
G01 X43.346576 Y125.729995 Z-0.125000
G01 X44.757687 Y125.165551 Z-0.125000
G01 X45.039910 Y123.472217 Z-0.125000
G01 X46.451021 Y123.754440 Z-0.125000
G01 X46.168799 Y124.883328 Z-0.125000
G01 X47.579910 Y124.883328 Z-0.125000
G01 X48.144354 Y124.318884 Z-0.125000
G01 X48.708799 Y123.472217 Z-0.125000
G01 X47.862132 Y122.907773 Z-0.125000
G01 X46.733243 Y122.625551 Z-0.125000
G01 X47.297687 Y121.496662 Z-0.125000
G01 X47.862132 Y120.085551 Z-0.125000
G01 X46.733243 Y119.803328 Z-0.125000
G01 X45.886576 Y120.649995 Z-0.125000
G01 X45.039910 Y121.778884 Z-0.125000
G01 X43.911021 Y122.343328 Z-0.125000
G01 X43.064354 Y122.343328 Z-0.125000
G01 X43.628799 Y120.932217 Z-0.125000
G01 X44.475465 Y120.085551 Z-0.125000
G01 X45.039910 Y119.238884 Z-0.125000
G01 X45.604354 Y118.674439 Z-0.125000
G01 X46.733243 Y118.392217 Z-0.125000
G01 X48.144354 Y118.956662 Z-0.125000
G01 X48.991021 Y118.109995 Z-0.125000
G01 X48.708799 Y116.981106 Z-0.125000
G01 X48.991021 Y116.134439 Z-0.125000
G01 X50.119910 Y116.134439 Z-0.125000
G01 X50.966576 Y115.852217 Z-0.125000
G01 X51.813243 Y115.569995 Z-0.125000
G01 X52.377687 Y114.723328 Z-0.125000
G01 X52.377687 Y113.876662 Z-0.125000
G01 X52.659910 Y113.029995 Z-0.125000
G01 X53.224354 Y112.747773 Z-0.125000
G01 X53.506576 Y111.901106 Z-0.125000
G01 X54.635465 Y112.465551 Z-0.125000
G01 X55.764354 Y112.465551 Z-0.125000
G01 X56.328799 Y111.901106 Z-0.125000
G01 X56.893243 Y111.618884 Z-0.125000
G01 X57.175465 Y110.772217 Z-0.125000
G01 X57.739910 Y110.489995 Z-0.125000
G01 X58.868799 Y110.772217 Z-0.125000
G01 X59.433243 Y110.489995 Z-0.125000
G01 X60.562132 Y109.925551 Z-0.125000
G01 X60.562132 Y110.772217 Z-0.125000
G01 X60.562132 Y111.618884 Z-0.125000
G01 X59.715465 Y111.901106 Z-0.125000
G01 X58.304354 Y111.618884 Z-0.125000
G01 X58.022132 Y112.465551 Z-0.125000
G01 X57.457688 Y113.312217 Z-0.125000
G01 X57.175465 Y114.441106 Z-0.125000
G01 X57.457688 Y115.852217 Z-0.125000
G01 X58.586576 Y115.005551 Z-0.125000
G01 X59.151021 Y114.158884 Z-0.125000
G01 X59.433243 Y113.029995 Z-0.125000
G01 X60.562132 Y113.029995 Z-0.125000
G01 X60.844354 Y114.441106 Z-0.125000
G01 X60.844354 Y115.287773 Z-0.125000
G01 X59.997688 Y115.852217 Z-0.125000
G01 X59.151021 Y116.416662 Z-0.125000
G01 X58.868799 Y117.827773 Z-0.125000
G01 X57.457688 Y117.263328 Z-0.125000
G01 X57.175465 Y118.392217 Z-0.125000
G01 X55.764354 Y118.392217 Z-0.125000
G01 X55.199910 Y119.803328 Z-0.125000
G01 X54.917688 Y120.649995 Z-0.125000
G01 X56.046576 Y120.085551 Z-0.125000
G01 X57.175465 Y120.085551 Z-0.125000
G01 X58.022132 Y120.085551 Z-0.125000
G01 X58.868799 Y119.521106 Z-0.125000
G01 X59.997688 Y120.085551 Z-0.125000
G01 X60.279910 Y119.238884 Z-0.125000
G01 X60.279910 Y118.109995 Z-0.125000
G01 X61.126576 Y117.263328 Z-0.125000
G01 X61.973243 Y116.416662 Z-0.125000
G01 X63.102132 Y116.134439 Z-0.125000
G01 X64.231021 Y115.852217 Z-0.125000
G01 X63.666576 Y117.263328 Z-0.125000
G01 X62.537688 Y118.109995 Z-0.125000
G01 X61.973243 Y118.956662 Z-0.125000
G01 X61.408799 Y119.521106 Z-0.125000
G01 X61.126576 Y120.649995 Z-0.125000
G01 X62.255465 Y120.649995 Z-0.125000
G01 X62.819910 Y120.085551 Z-0.125000
G01 X63.384354 Y119.521106 Z-0.125000
G01 X63.948799 Y118.956662 Z-0.125000
G01 X64.513243 Y120.085551 Z-0.125000
G01 X65.077688 Y119.521106 Z-0.125000
G01 X65.077688 Y118.674439 Z-0.125000
G01 X65.642132 Y118.392217 Z-0.125000
G01 X65.077688 Y116.981106 Z-0.125000
G01 X65.642132 Y116.134439 Z-0.125000
G01 X66.488799 Y115.569995 Z-0.125000
G01 X66.206576 Y114.441106 Z-0.125000
G01 X66.206576 Y113.594439 Z-0.125000
G01 X66.771021 Y113.029995 Z-0.125000
G01 X67.335465 Y112.465551 Z-0.125000
G01 X67.899910 Y111.901106 Z-0.125000
G01 X68.182132 Y111.336662 Z-0.125000
G01 X69.028799 Y111.618884 Z-0.125000
G01 X69.875465 Y111.618884 Z-0.125000
G01 X69.593243 Y110.772217 Z-0.125000
G01 X70.722132 Y110.772217 Z-0.125000
G01 X71.286576 Y110.207773 Z-0.125000
G01 X72.133243 Y111.054439 Z-0.125000
G01 X72.415465 Y110.489995 Z-0.125000
G01 X72.415465 Y109.643328 Z-0.125000
G01 X72.979910 Y109.078884 Z-0.125000
G01 X73.826577 Y109.361106 Z-0.125000
G01 X74.108799 Y108.514439 Z-0.125000
G01 X74.108799 Y107.667773 Z-0.125000
G01 X75.237688 Y107.385551 Z-0.125000
G01 X75.237688 Y108.514439 Z-0.125000
G01 X76.084354 Y108.514439 Z-0.125000
G01 X76.366577 Y107.667773 Z-0.125000
G01 X76.931021 Y107.103328 Z-0.125000
G01 X77.777688 Y106.821106 Z-0.125000
G01 X78.342132 Y106.256662 Z-0.125000
G01 X78.624354 Y105.692217 Z-0.125000
G01 X79.188799 Y105.409995 Z-0.125000
G01 X80.035465 Y105.409995 Z-0.125000
G01 X80.035465 Y104.563328 Z-0.125000
G01 X80.317688 Y103.998884 Z-0.125000
G01 X80.599910 Y103.434439 Z-0.125000
G01 X81.164354 Y103.716662 Z-0.125000
G01 X81.164354 Y102.869995 Z-0.125000
G01 X81.446577 Y102.305551 Z-0.125000
G01 X81.728799 Y101.741106 Z-0.125000
G01 X82.011021 Y101.458884 Z-0.125000
G01 X82.293243 Y100.894439 Z-0.125000
G01 X82.293243 Y100.047773 Z-0.125000
G01 X82.575465 Y99.483328 Z-0.125000
G01 X82.857688 Y98.918884 Z-0.125000
G01 X83.139910 Y98.354439 Z-0.125000
G01 X83.422132 Y97.789995 Z-0.125000
G01 X83.422132 Y96.943328 Z-0.125000
G01 X83.704354 Y96.378884 Z-0.125000
G01 X84.551021 Y96.378884 Z-0.125000
G01 X85.115465 Y95.814439 Z-0.125000
G01 X85.397688 Y95.249995 Z-0.125000
G01 X85.397688 Y94.403328 Z-0.125000
G01 X84.551021 Y94.685550 Z-0.125000
G01 X84.268799 Y95.249995 Z-0.125000
G01 X83.704354 Y95.532217 Z-0.125000
G01 X83.422132 Y94.685550 Z-0.125000
G01 X83.704354 Y94.121106 Z-0.125000
G01 X84.551021 Y93.838884 Z-0.125000
G01 X85.115465 Y93.556662 Z-0.125000
G01 X85.962132 Y93.556662 Z-0.125000
G01 X86.526577 Y94.121106 Z-0.125000
G01 X86.244354 Y94.967773 Z-0.125000
G01 X86.808799 Y95.249995 Z-0.125000
G01 X86.244354 Y95.814439 Z-0.125000
G01 X85.962132 Y96.378884 Z-0.125000
G01 X85.679910 Y96.943328 Z-0.125000
G01 X85.397688 Y97.507773 Z-0.125000
G01 X84.551021 Y97.225550 Z-0.125000
G01 X84.268799 Y97.789995 Z-0.125000
G01 X83.986577 Y98.636662 Z-0.125000
G01 X83.704354 Y99.483328 Z-0.125000
G01 X83.422132 Y100.047773 Z-0.125000
G01 X83.139910 Y100.612217 Z-0.125000
G01 X83.139910 Y101.458884 Z-0.125000
G01 X83.986577 Y101.176662 Z-0.125000
G01 X84.268799 Y100.329995 Z-0.125000
G01 X84.551021 Y99.483328 Z-0.125000
G01 X84.833243 Y98.918884 Z-0.125000
G01 X85.115465 Y98.354439 Z-0.125000
G01 X85.962132 Y98.354439 Z-0.125000
G01 X85.679910 Y99.201106 Z-0.125000
G01 X86.526577 Y99.201106 Z-0.125000
G01 X86.808799 Y98.636662 Z-0.125000
G01 X86.526577 Y97.789995 Z-0.125000
G01 X86.808799 Y97.225550 Z-0.125000
G01 X87.091021 Y96.661106 Z-0.125000
G01 X87.373243 Y96.096662 Z-0.125000
G01 X87.655465 Y95.532217 Z-0.125000
G01 X87.373243 Y94.685550 Z-0.125000
G01 X88.219910 Y94.685550 Z-0.125000
G01 X88.219910 Y93.838884 Z-0.125000
G01 X88.502132 Y92.992217 Z-0.125000
G01 X88.502132 Y92.145550 Z-0.125000
G01 X89.348799 Y92.427773 Z-0.125000
G01 X89.066577 Y91.581106 Z-0.125000
G01 X89.913243 Y91.863328 Z-0.125000
G01 X89.631021 Y91.016662 Z-0.125000
G01 X89.348799 Y90.169995 Z-0.125000
G01 X88.502132 Y90.169995 Z-0.125000
G01 X88.219910 Y90.734439 Z-0.125000
G01 X87.937688 Y91.298884 Z-0.125000
G01 X87.655465 Y92.145550 Z-0.125000
G01 X87.655465 Y92.992217 Z-0.125000
G01 X87.373243 Y93.838884 Z-0.125000
G01 X86.808799 Y93.274439 Z-0.125000
G01 X86.808799 Y92.427773 Z-0.125000
G01 X86.808799 Y91.581106 Z-0.125000
G01 X87.091021 Y91.016662 Z-0.125000
G01 X87.091021 Y90.169995 Z-0.125000
G01 X87.091021 Y89.323328 Z-0.125000
G01 X87.655465 Y89.605550 Z-0.125000
G01 X88.502132 Y89.323328 Z-0.125000
G01 X89.348799 Y89.323328 Z-0.125000
G01 X89.631021 Y89.041106 Z-0.125000
G01 X89.913243 Y88.476662 Z-0.125000
G01 X89.631021 Y87.629995 Z-0.125000
G01 X88.784354 Y87.912217 Z-0.125000
G01 X88.219910 Y88.476662 Z-0.125000
G01 X87.373243 Y88.476662 Z-0.125000
G01 X87.373243 Y87.629995 Z-0.125000
G01 X87.937688 Y87.347773 Z-0.125000
G01 X88.784354 Y87.065550 Z-0.125000
G01 X89.066577 Y86.501106 Z-0.125000
G01 X89.631021 Y86.218884 Z-0.125000
G01 X89.913243 Y85.654439 Z-0.125000
G01 X90.759910 Y85.372217 Z-0.125000
G01 X91.042132 Y84.807773 Z-0.125000
G01 X91.606577 Y84.243328 Z-0.125000
G01 X92.171021 Y83.678884 Z-0.125000
G01 X92.735466 Y83.961106 Z-0.125000
G01 X92.735466 Y83.114439 Z-0.125000
G01 X93.017688 Y82.832217 Z-0.125000
G01 X93.864354 Y82.267773 Z-0.125000
G01 X93.864354 Y81.421106 Z-0.125000
G01 X93.864354 Y80.574439 Z-0.125000
G01 X93.864354 Y79.727773 Z-0.125000
G01 X94.146577 Y79.163328 Z-0.125000
G01 X94.711021 Y78.881106 Z-0.125000
G01 X94.993243 Y78.034439 Z-0.125000
G01 X95.275466 Y77.469995 Z-0.125000
G01 X95.557688 Y77.187773 Z-0.125000
G01 X95.275466 Y76.341106 Z-0.125000
G01 X95.557688 Y75.776661 Z-0.125000
G01 X96.122132 Y75.494439 Z-0.125000
G01 X96.968799 Y75.494439 Z-0.125000
G01 X96.968799 Y74.647773 Z-0.125000
G01 X97.815466 Y74.365550 Z-0.125000
G01 X97.815466 Y75.212217 Z-0.125000
G01 X98.662132 Y75.212217 Z-0.125000
G01 X98.944354 Y74.647773 Z-0.125000
G01 X99.508799 Y74.929995 Z-0.125000
G01 X100.355466 Y74.647773 Z-0.125000
G01 X100.919910 Y74.365550 Z-0.125000
G01 X101.202132 Y73.801106 Z-0.125000
G01 X100.919910 Y72.954439 Z-0.125000
G01 X101.766577 Y72.954439 Z-0.125000
G01 X102.613243 Y72.954439 Z-0.125000
G01 X102.331021 Y73.801106 Z-0.125000
G01 X102.048799 Y74.647773 Z-0.125000
G01 X101.766577 Y75.212217 Z-0.125000
G01 X101.484354 Y76.058884 Z-0.125000
G01 X100.919910 Y75.776661 Z-0.125000
G01 X100.637688 Y76.623328 Z-0.125000
G01 X100.073243 Y75.776661 Z-0.125000
G01 X99.791021 Y76.623328 Z-0.125000
G01 X99.226577 Y76.341106 Z-0.125000
G01 X98.944354 Y76.905550 Z-0.125000
G01 X98.662132 Y77.469995 Z-0.125000
G01 X98.662132 Y78.316661 Z-0.125000
G01 X98.379910 Y78.598884 Z-0.125000
G01 X98.097688 Y79.163328 Z-0.125000
G01 X98.662132 Y80.009995 Z-0.125000
G01 X97.815466 Y80.009995 Z-0.125000
G01 X98.097688 Y80.856661 Z-0.125000
G01 X98.944354 Y81.138884 Z-0.125000
G01 X99.508799 Y80.574439 Z-0.125000
G01 X99.508799 Y79.727773 Z-0.125000
G01 X99.791021 Y79.445550 Z-0.125000
G01 X100.073243 Y78.881106 Z-0.125000
G01 X100.637688 Y78.316661 Z-0.125000
G01 X99.791021 Y77.752217 Z-0.125000
G01 X100.637688 Y77.469995 Z-0.125000
G01 X101.484354 Y77.187773 Z-0.125000
G01 X101.484354 Y78.034439 Z-0.125000
G01 X101.484354 Y78.881106 Z-0.125000
G01 X101.202132 Y79.445550 Z-0.125000
G01 X100.637688 Y80.009995 Z-0.125000
G01 X100.637688 Y80.856661 Z-0.125000
G01 X100.073243 Y81.421106 Z-0.125000
G01 X99.508799 Y81.985550 Z-0.125000
G01 X99.226577 Y82.549995 Z-0.125000
G01 X98.662132 Y83.114439 Z-0.125000
G01 X98.097688 Y82.549995 Z-0.125000
G01 X98.379910 Y81.703328 Z-0.125000
G01 X97.533243 Y81.703328 Z-0.125000
G01 X96.968799 Y81.985550 Z-0.125000
G01 X96.686577 Y82.549995 Z-0.125000
G01 X95.839910 Y82.832217 Z-0.125000
G01 X95.557688 Y81.985550 Z-0.125000
G01 X95.839910 Y81.421106 Z-0.125000
G01 X96.404354 Y81.138884 Z-0.125000
G01 X97.251021 Y80.856661 Z-0.125000
G01 X96.968799 Y80.009995 Z-0.125000
G01 X96.968799 Y79.163328 Z-0.125000
G01 X97.251021 Y78.598884 Z-0.125000
G01 X97.251021 Y77.752217 Z-0.125000
G01 X97.533243 Y77.187773 Z-0.125000
G01 X98.097688 Y76.058884 Z-0.125000
G01 X97.533243 Y76.341106 Z-0.125000
G01 X96.686577 Y76.341106 Z-0.125000
G01 X96.404354 Y76.905550 Z-0.125000
G01 X96.404354 Y77.752217 Z-0.125000
G01 X96.122132 Y78.598884 Z-0.125000
G01 X95.839910 Y79.163328 Z-0.125000
G01 X96.122132 Y80.009995 Z-0.125000
G01 X95.275466 Y79.727773 Z-0.125000
G01 X95.275466 Y80.574439 Z-0.125000
G01 X94.711021 Y80.292217 Z-0.125000
G01 X94.711021 Y81.138884 Z-0.125000
G01 X94.711021 Y81.985550 Z-0.125000
G01 X94.993243 Y82.832217 Z-0.125000
G01 X94.428799 Y83.114439 Z-0.125000
G01 X93.864354 Y83.678884 Z-0.125000
G01 X93.864354 Y84.525550 Z-0.125000
G01 X93.299910 Y84.807773 Z-0.125000
G01 X92.453243 Y84.807773 Z-0.125000
G01 X92.453243 Y85.654439 Z-0.125000
G01 X91.888799 Y85.372217 Z-0.125000
G01 X91.606577 Y85.936662 Z-0.125000
G01 X90.759910 Y86.218884 Z-0.125000
G01 X90.195465 Y87.065550 Z-0.125000
G01 X91.606577 Y86.783328 Z-0.125000
G01 X91.324354 Y87.347773 Z-0.125000
G01 X91.042132 Y87.629995 Z-0.125000
G01 X90.759910 Y88.194439 Z-0.125000
G01 X90.759910 Y89.041106 Z-0.125000
G01 X91.606577 Y88.758884 Z-0.125000
G01 X92.171021 Y88.194439 Z-0.125000
G01 X92.453243 Y87.347773 Z-0.125000
G01 X92.735466 Y86.783328 Z-0.125000
G01 X93.299910 Y86.218884 Z-0.125000
G01 X93.582132 Y85.654439 Z-0.125000
G01 X94.428799 Y85.372217 Z-0.125000
G01 X94.993243 Y85.089995 Z-0.125000
G01 X94.711021 Y84.243328 Z-0.125000
G01 X95.275466 Y83.961106 Z-0.125000
G01 X96.122132 Y83.678884 Z-0.125000
G01 X96.686577 Y83.396662 Z-0.125000
G01 X97.533243 Y83.114439 Z-0.125000
G01 X97.533243 Y83.961106 Z-0.125000
G01 X98.379910 Y83.961106 Z-0.125000
G01 X99.226577 Y83.961106 Z-0.125000
G01 X98.944354 Y84.807773 Z-0.125000
G01 X98.097688 Y84.807773 Z-0.125000
G01 X97.815466 Y85.372217 Z-0.125000
G01 X98.662132 Y85.654439 Z-0.125000
G01 X98.097688 Y86.218884 Z-0.125000
G01 X97.815466 Y86.783328 Z-0.125000
G01 X97.815466 Y87.629995 Z-0.125000
G01 X96.968799 Y87.629995 Z-0.125000
G01 X96.968799 Y86.783328 Z-0.125000
G01 X96.968799 Y85.936662 Z-0.125000
G01 X96.968799 Y85.372217 Z-0.125000
G01 X96.968799 Y84.525550 Z-0.125000
G01 X96.122132 Y84.525550 Z-0.125000
G01 X95.839910 Y85.089995 Z-0.125000
G01 X96.122132 Y85.936662 Z-0.125000
G01 X96.122132 Y86.783328 Z-0.125000
G01 X96.122132 Y87.629995 Z-0.125000
G01 X95.839910 Y88.194439 Z-0.125000
G01 X94.993243 Y88.476662 Z-0.125000
G01 X94.146577 Y88.476662 Z-0.125000
G01 X94.428799 Y87.629995 Z-0.125000
G01 X94.993243 Y87.347773 Z-0.125000
G01 X95.275466 Y86.783328 Z-0.125000
G01 X95.275466 Y85.936662 Z-0.125000
G01 X94.428799 Y86.218884 Z-0.125000
G01 X93.864354 Y86.783328 Z-0.125000
G01 X93.582132 Y87.629995 Z-0.125000
G01 X93.299910 Y88.194439 Z-0.125000
G01 X93.017688 Y88.758884 Z-0.125000
G01 X93.299910 Y89.605550 Z-0.125000
G01 X92.453243 Y89.323328 Z-0.125000
G01 X91.606577 Y89.605550 Z-0.125000
G01 X91.042132 Y89.887773 Z-0.125000
G01 X90.195465 Y90.169995 Z-0.125000
G01 X90.477688 Y91.016662 Z-0.125000
G01 X91.042132 Y90.734439 Z-0.125000
G01 X91.888799 Y90.734439 Z-0.125000
G01 X92.453243 Y90.169995 Z-0.125000
G01 X93.299910 Y90.452217 Z-0.125000
G01 X93.017688 Y91.016662 Z-0.125000
G01 X92.453243 Y91.581106 Z-0.125000
G01 X93.299910 Y91.863328 Z-0.125000
G01 X92.735466 Y92.427773 Z-0.125000
G01 X92.453243 Y92.709995 Z-0.125000
G01 X91.606577 Y92.709995 Z-0.125000
G01 X91.606577 Y91.863328 Z-0.125000
G01 X90.759910 Y91.863328 Z-0.125000
G01 X90.477688 Y92.709995 Z-0.125000
G01 X90.195465 Y93.556662 Z-0.125000
G01 X89.631021 Y93.274439 Z-0.125000
G01 X89.348799 Y93.838884 Z-0.125000
G01 X89.066577 Y94.403328 Z-0.125000
G01 X89.913243 Y94.685550 Z-0.125000
G01 X90.759910 Y94.403328 Z-0.125000
G01 X91.042132 Y93.556662 Z-0.125000
G01 X91.888799 Y93.556662 Z-0.125000
G01 X92.735466 Y93.556662 Z-0.125000
G01 X93.582132 Y93.556662 Z-0.125000
G01 X93.864354 Y92.992217 Z-0.125000
G01 X94.146577 Y92.427773 Z-0.125000
G01 X94.146577 Y91.581106 Z-0.125000
G01 X94.428799 Y91.016662 Z-0.125000
G01 X94.146577 Y90.169995 Z-0.125000
G01 X94.146577 Y89.323328 Z-0.125000
G01 X94.993243 Y89.323328 Z-0.125000
G01 X94.993243 Y90.169995 Z-0.125000
G01 X95.275466 Y91.016662 Z-0.125000
G01 X95.839910 Y90.734439 Z-0.125000
G01 X96.122132 Y90.169995 Z-0.125000
G01 X95.839910 Y89.323328 Z-0.125000
G01 X96.122132 Y89.041106 Z-0.125000
G01 X96.968799 Y88.758884 Z-0.125000
G01 X96.968799 Y89.605550 Z-0.125000
G01 X97.815466 Y89.323328 Z-0.125000
G01 X97.815466 Y88.476662 Z-0.125000
G01 X98.662132 Y88.476662 Z-0.125000
G01 X98.662132 Y87.629995 Z-0.125000
G01 X98.944354 Y87.065550 Z-0.125000
G01 X99.226577 Y86.783328 Z-0.125000
G01 X99.508799 Y86.218884 Z-0.125000
G01 X99.791021 Y85.654439 Z-0.125000
G01 X99.791021 Y84.807773 Z-0.125000
G01 X100.355466 Y84.525550 Z-0.125000
G01 X100.073243 Y83.678884 Z-0.125000
G01 X100.355466 Y82.832217 Z-0.125000
G01 X100.637688 Y82.267773 Z-0.125000
G01 X101.202132 Y81.703328 Z-0.125000
G01 X101.484354 Y80.856661 Z-0.125000
G01 X101.766577 Y80.292217 Z-0.125000
G01 X102.331021 Y79.727773 Z-0.125000
G01 X102.613243 Y79.163328 Z-0.125000
G01 X102.895466 Y78.598884 Z-0.125000
G01 X102.331021 Y77.752217 Z-0.125000
G01 X102.331021 Y76.905550 Z-0.125000
G01 X102.613243 Y76.341106 Z-0.125000
G01 X102.895466 Y75.494439 Z-0.125000
G01 X102.895466 Y74.647773 Z-0.125000
G01 X103.459910 Y74.083328 Z-0.125000
G01 X104.306577 Y73.801106 Z-0.125000
G01 X105.153243 Y73.518884 Z-0.125000
G01 X105.717688 Y73.236661 Z-0.125000
G01 X105.999910 Y72.672217 Z-0.125000
G01 X106.564354 Y72.107773 Z-0.125000
G01 X107.128799 Y71.543328 Z-0.125000
G01 X107.128799 Y70.696661 Z-0.125000
G01 X107.975466 Y70.414439 Z-0.125000
G01 X107.975466 Y69.567773 Z-0.125000
G01 X108.257688 Y69.285550 Z-0.125000
G01 X107.975466 Y68.438884 Z-0.125000
G01 X108.257688 Y68.156661 Z-0.125000
G01 X109.104354 Y67.874439 Z-0.125000
G01 X109.386577 Y67.027773 Z-0.125000
G01 X108.539910 Y67.027773 Z-0.125000
G01 X107.975466 Y66.745550 Z-0.125000
G01 X107.693243 Y67.309995 Z-0.125000
G01 X107.128799 Y67.874439 Z-0.125000
G01 X107.128799 Y68.721106 Z-0.125000
G01 X106.564354 Y68.438884 Z-0.125000
G01 X106.282132 Y69.003328 Z-0.125000
G01 X107.128799 Y69.849995 Z-0.125000
G01 X106.282132 Y70.132217 Z-0.125000
G01 X105.999910 Y70.978884 Z-0.125000
G01 X105.435466 Y71.543328 Z-0.125000
G01 X105.153243 Y72.107773 Z-0.125000
G01 X104.588799 Y72.672217 Z-0.125000
G01 X103.459910 Y72.954439 Z-0.125000
G01 X103.742132 Y72.672217 Z-0.125000
G01 X103.459910 Y71.825550 Z-0.125000
G01 X104.024354 Y71.543328 Z-0.125000
G01 X104.306577 Y70.978884 Z-0.125000
G01 X104.871021 Y70.414439 Z-0.125000
G01 X105.153243 Y69.849995 Z-0.125000
G01 X105.435466 Y69.285550 Z-0.125000
G01 X105.435466 Y68.438884 Z-0.125000
G01 X105.153243 Y67.592217 Z-0.125000
G01 X104.588799 Y67.874439 Z-0.125000
G01 X104.306577 Y68.438884 Z-0.125000
G01 X104.306577 Y69.285550 Z-0.125000
G01 X103.742132 Y69.849995 Z-0.125000
G01 X103.177688 Y70.132217 Z-0.125000
G01 X102.895466 Y70.696661 Z-0.125000
G01 X102.613243 Y71.261106 Z-0.125000
G01 X102.613243 Y72.107773 Z-0.125000
G01 X101.766577 Y72.107773 Z-0.125000
G01 X101.484354 Y71.261106 Z-0.125000
G01 X100.919910 Y72.107773 Z-0.125000
G01 X100.073243 Y71.825550 Z-0.125000
G01 X100.355466 Y71.261106 Z-0.125000
G01 X100.637688 Y70.696661 Z-0.125000
G01 X100.919910 Y70.132217 Z-0.125000
G01 X101.766577 Y70.414439 Z-0.125000
G01 X101.484354 Y69.567773 Z-0.125000
G01 X102.331021 Y69.567773 Z-0.125000
G01 X102.613243 Y68.721106 Z-0.125000
G01 X103.459910 Y68.721106 Z-0.125000
G01 X103.459910 Y67.874439 Z-0.125000
G01 X103.742132 Y67.309995 Z-0.125000
G01 X104.024354 Y66.745550 Z-0.125000
G01 X104.871021 Y66.745550 Z-0.125000
G01 X105.153243 Y65.898884 Z-0.125000
G01 X104.306577 Y65.898884 Z-0.125000
G01 X103.459910 Y65.898884 Z-0.125000
G01 X102.895466 Y66.463328 Z-0.125000
G01 X102.613243 Y67.027773 Z-0.125000
G01 X102.613243 Y67.874439 Z-0.125000
G01 X102.048799 Y68.156661 Z-0.125000
G01 X101.484354 Y68.721106 Z-0.125000
G01 X100.637688 Y69.003328 Z-0.125000
G01 X99.791021 Y69.003328 Z-0.125000
G01 X99.791021 Y69.849995 Z-0.125000
G01 X99.508799 Y70.414439 Z-0.125000
G01 X99.226577 Y70.978884 Z-0.125000
G01 X98.944354 Y71.261106 Z-0.125000
G01 X98.662132 Y71.825550 Z-0.125000
G01 X98.097688 Y72.389995 Z-0.125000
G01 X98.944354 Y72.672217 Z-0.125000
G01 X99.791021 Y72.389995 Z-0.125000
G01 X100.073243 Y73.236661 Z-0.125000
G01 X99.791021 Y73.801106 Z-0.125000
G01 X98.662132 Y73.801106 Z-0.125000
G01 X97.815466 Y73.518884 Z-0.125000
G01 X97.251021 Y72.389995 Z-0.125000
G01 X96.686577 Y72.954439 Z-0.125000
G01 X96.968799 Y73.801106 Z-0.125000
G01 X96.122132 Y73.801106 Z-0.125000
G01 X95.839910 Y74.647773 Z-0.125000
G01 X94.993243 Y74.929995 Z-0.125000
G01 X94.428799 Y75.494439 Z-0.125000
G01 X93.582132 Y75.212217 Z-0.125000
G01 X92.735466 Y75.494439 Z-0.125000
G01 X91.888799 Y75.776661 Z-0.125000
G01 X91.606577 Y76.341106 Z-0.125000
G01 X91.324354 Y77.187773 Z-0.125000
G01 X90.477688 Y77.187773 Z-0.125000
G01 X90.477688 Y78.034439 Z-0.125000
G01 X89.913243 Y78.598884 Z-0.125000
G01 X90.477688 Y79.445550 Z-0.125000
G01 X90.195465 Y80.009995 Z-0.125000
G01 X89.913243 Y80.856661 Z-0.125000
G01 X89.631021 Y81.421106 Z-0.125000
G01 X90.477688 Y81.703328 Z-0.125000
G01 X90.759910 Y80.856661 Z-0.125000
G01 X91.324354 Y80.292217 Z-0.125000
G01 X91.606577 Y79.727773 Z-0.125000
G01 X91.324354 Y78.881106 Z-0.125000
G01 X91.324354 Y78.034439 Z-0.125000
G01 X92.171021 Y78.034439 Z-0.125000
G01 X92.453243 Y77.469995 Z-0.125000
G01 X92.735466 Y76.905550 Z-0.125000
G01 X93.017688 Y76.623328 Z-0.125000
G01 X93.582132 Y76.058884 Z-0.125000
G01 X94.428799 Y76.623328 Z-0.125000
G01 X93.864354 Y77.187773 Z-0.125000
G01 X94.146577 Y78.034439 Z-0.125000
G01 X93.299910 Y78.034439 Z-0.125000
G01 X93.017688 Y78.881106 Z-0.125000
G01 X92.453243 Y79.163328 Z-0.125000
G01 X92.171021 Y80.009995 Z-0.125000
G01 X93.017688 Y80.009995 Z-0.125000
G01 X93.017688 Y80.856661 Z-0.125000
G01 X93.017688 Y81.703328 Z-0.125000
G01 X92.453243 Y81.985550 Z-0.125000
G01 X92.171021 Y81.138884 Z-0.125000
G01 X91.324354 Y81.138884 Z-0.125000
G01 X91.606577 Y81.985550 Z-0.125000
G01 X91.042132 Y82.549995 Z-0.125000
G01 X91.606577 Y82.832217 Z-0.125000
G01 X91.042132 Y83.396662 Z-0.125000
G01 X90.477688 Y83.961106 Z-0.125000
G01 X89.913243 Y84.525550 Z-0.125000
G01 X89.348799 Y84.243328 Z-0.125000
G01 X89.631021 Y83.396662 Z-0.125000
G01 X90.195465 Y82.832217 Z-0.125000
G01 X89.631021 Y82.267773 Z-0.125000
G01 X89.066577 Y81.985550 Z-0.125000
G01 X88.784354 Y82.549995 Z-0.125000
G01 X88.502132 Y83.114439 Z-0.125000
G01 X88.219910 Y83.678884 Z-0.125000
G01 X88.219910 Y84.525550 Z-0.125000
G01 X89.066577 Y84.807773 Z-0.125000
G01 X88.784354 Y85.372217 Z-0.125000
G01 X87.937688 Y85.372217 Z-0.125000
G01 X88.219910 Y86.218884 Z-0.125000
G01 X87.373243 Y86.218884 Z-0.125000
G01 X87.091021 Y86.501106 Z-0.125000
G01 X86.526577 Y87.065550 Z-0.125000
G01 X86.526577 Y87.912217 Z-0.125000
G01 X86.244354 Y88.476662 Z-0.125000
G01 X86.244354 Y89.323328 Z-0.125000
G01 X85.397688 Y89.323328 Z-0.125000
G01 X84.551021 Y89.605550 Z-0.125000
G01 X83.704354 Y89.323328 Z-0.125000
G01 X83.986577 Y88.758884 Z-0.125000
G01 X84.551021 Y88.476662 Z-0.125000
G01 X85.397688 Y88.476662 Z-0.125000
G01 X85.397688 Y87.629995 Z-0.125000
G01 X85.679910 Y87.065550 Z-0.125000
G01 X85.962132 Y86.218884 Z-0.125000
G01 X85.962132 Y85.372217 Z-0.125000
G01 X86.808799 Y85.372217 Z-0.125000
G01 X87.091021 Y84.807773 Z-0.125000
G01 X87.373243 Y84.243328 Z-0.125000
G01 X87.091021 Y83.396662 Z-0.125000
G01 X87.373243 Y82.832217 Z-0.125000
G01 X87.937688 Y82.267773 Z-0.125000
G01 X88.502132 Y81.138884 Z-0.125000
G01 X88.784354 Y80.574439 Z-0.125000
G01 X89.348799 Y80.009995 Z-0.125000
G01 X89.348799 Y79.163328 Z-0.125000
G01 X88.502132 Y79.445550 Z-0.125000
G01 X87.937688 Y79.727773 Z-0.125000
G01 X87.655465 Y80.574439 Z-0.125000
G01 X87.655465 Y81.421106 Z-0.125000
G01 X87.091021 Y81.703328 Z-0.125000
G01 X86.244354 Y81.703328 Z-0.125000
G01 X86.526577 Y82.549995 Z-0.125000
G01 X86.244354 Y83.114439 Z-0.125000
G01 X86.244354 Y83.961106 Z-0.125000
G01 X85.962132 Y84.525550 Z-0.125000
G01 X85.115465 Y84.525550 Z-0.125000
G01 X85.115465 Y85.372217 Z-0.125000
G01 X85.115465 Y86.218884 Z-0.125000
G01 X84.551021 Y85.936662 Z-0.125000
G01 X83.704354 Y86.218884 Z-0.125000
G01 X83.704354 Y87.065550 Z-0.125000
G01 X84.551021 Y86.783328 Z-0.125000
G01 X84.551021 Y87.629995 Z-0.125000
G01 X83.704354 Y87.912217 Z-0.125000
G01 X82.857688 Y88.476662 Z-0.125000
G01 X82.575465 Y88.758884 Z-0.125000
G01 X82.857688 Y89.605550 Z-0.125000
G01 X82.011021 Y89.605550 Z-0.125000
G01 X81.728799 Y90.169995 Z-0.125000
G01 X81.446577 Y91.016662 Z-0.125000
G01 X82.293243 Y90.734439 Z-0.125000
G01 X83.139910 Y90.452217 Z-0.125000
G01 X83.704354 Y90.169995 Z-0.125000
G01 X83.986577 Y91.016662 Z-0.125000
G01 X83.139910 Y91.298884 Z-0.125000
G01 X82.293243 Y91.581106 Z-0.125000
G01 X81.446577 Y91.863328 Z-0.125000
G01 X81.164354 Y92.427773 Z-0.125000
G01 X81.446577 Y93.274439 Z-0.125000
G01 X82.011021 Y92.992217 Z-0.125000
G01 X82.293243 Y92.427773 Z-0.125000
G01 X83.139910 Y92.145550 Z-0.125000
G01 X83.986577 Y92.145550 Z-0.125000
G01 X84.268799 Y91.863328 Z-0.125000
G01 X85.115465 Y91.863328 Z-0.125000
G01 X84.833243 Y91.016662 Z-0.125000
G01 X84.833243 Y90.452217 Z-0.125000
G01 X85.397688 Y90.169995 Z-0.125000
G01 X86.244354 Y90.169995 Z-0.125000
G01 X85.962132 Y91.016662 Z-0.125000
G01 X85.962132 Y91.863328 Z-0.125000
G01 X85.962132 Y92.709995 Z-0.125000
G01 X85.115465 Y92.709995 Z-0.125000
G01 X84.268799 Y92.992217 Z-0.125000
G01 X83.422132 Y92.992217 Z-0.125000
G01 X83.139910 Y93.274439 Z-0.125000
G01 X82.857688 Y93.838884 Z-0.125000
G01 X82.011021 Y94.121106 Z-0.125000
G01 X81.164354 Y93.838884 Z-0.125000
G01 X80.599910 Y94.121106 Z-0.125000
G01 X81.164354 Y94.685550 Z-0.125000
G01 X80.317688 Y94.967773 Z-0.125000
G01 X79.753243 Y95.532217 Z-0.125000
G01 X80.599910 Y95.814439 Z-0.125000
G01 X80.317688 Y96.378884 Z-0.125000
G01 X80.035465 Y97.225550 Z-0.125000
G01 X79.471021 Y97.789995 Z-0.125000
G01 X78.342132 Y98.072217 Z-0.125000
G01 X78.624354 Y97.225550 Z-0.125000
G01 X79.188799 Y96.378884 Z-0.125000
G01 X78.342132 Y96.378884 Z-0.125000
G01 X77.495465 Y96.378884 Z-0.125000
G01 X77.777688 Y97.225550 Z-0.125000
G01 X77.213243 Y97.789995 Z-0.125000
G01 X77.495465 Y98.636662 Z-0.125000
G01 X76.366577 Y98.354439 Z-0.125000
G01 X76.366577 Y99.201106 Z-0.125000
G01 X75.802132 Y100.047773 Z-0.125000
G01 X74.955465 Y100.047773 Z-0.125000
G01 X74.391021 Y100.612217 Z-0.125000
G01 X74.391021 Y101.458884 Z-0.125000
G01 X73.262132 Y100.894439 Z-0.125000
G01 X72.979910 Y101.741106 Z-0.125000
G01 X72.697688 Y102.587773 Z-0.125000
G01 X72.133243 Y103.152217 Z-0.125000
G01 X72.415465 Y103.998884 Z-0.125000
G01 X71.851021 Y104.281106 Z-0.125000
G01 X71.568799 Y104.845551 Z-0.125000
G01 X71.004354 Y105.409995 Z-0.125000
G01 X70.439910 Y105.127773 Z-0.125000
G01 X70.439910 Y105.974439 Z-0.125000
G01 X70.439910 Y106.821106 Z-0.125000
G01 X71.568799 Y106.821106 Z-0.125000
G01 X71.851021 Y105.974439 Z-0.125000
G01 X72.415465 Y105.409995 Z-0.125000
G01 X72.697688 Y104.845551 Z-0.125000
G01 X73.544354 Y104.845551 Z-0.125000
G01 X73.262132 Y103.998884 Z-0.125000
G01 X73.544354 Y103.716662 Z-0.125000
G01 X74.391021 Y103.716662 Z-0.125000
G01 X73.826577 Y102.869995 Z-0.125000
G01 X74.391021 Y102.305551 Z-0.125000
G01 X75.519910 Y102.023328 Z-0.125000
G01 X75.802132 Y101.176662 Z-0.125000
G01 X76.648799 Y102.023328 Z-0.125000
G01 X76.931021 Y101.176662 Z-0.125000
G01 X76.931021 Y100.329995 Z-0.125000
G01 X77.495465 Y99.765550 Z-0.125000
G01 X78.342132 Y99.201106 Z-0.125000
G01 X79.188799 Y98.918884 Z-0.125000
G01 X79.753243 Y98.636662 Z-0.125000
G01 X80.599910 Y98.354439 Z-0.125000
G01 X80.882132 Y97.789995 Z-0.125000
G01 X81.164354 Y97.225550 Z-0.125000
G01 X81.164354 Y96.661106 Z-0.125000
G01 X81.728799 Y96.378884 Z-0.125000
G01 X81.446577 Y95.532217 Z-0.125000
G01 X82.011021 Y95.249995 Z-0.125000
G01 X82.575465 Y94.685550 Z-0.125000
G01 X82.857688 Y95.532217 Z-0.125000
G01 X82.575465 Y96.096662 Z-0.125000
G01 X82.575465 Y96.943328 Z-0.125000
G01 X82.293243 Y97.507773 Z-0.125000
G01 X82.011021 Y98.072217 Z-0.125000
G01 X81.728799 Y98.636662 Z-0.125000
G01 X81.446577 Y99.201106 Z-0.125000
G01 X80.599910 Y99.201106 Z-0.125000
G01 X80.882132 Y100.047773 Z-0.125000
G01 X81.446577 Y100.329995 Z-0.125000
G01 X80.599910 Y100.612217 Z-0.125000
G01 X80.599910 Y101.458884 Z-0.125000
G01 X80.317688 Y102.023328 Z-0.125000
G01 X80.035465 Y102.587773 Z-0.125000
G01 X79.471021 Y103.152217 Z-0.125000
G01 X79.188799 Y103.716662 Z-0.125000
G01 X79.188799 Y104.563328 Z-0.125000
G01 X78.342132 Y104.563328 Z-0.125000
G01 X78.342132 Y103.716662 Z-0.125000
G01 X78.624354 Y102.869995 Z-0.125000
G01 X78.906577 Y102.305551 Z-0.125000
G01 X79.188799 Y101.741106 Z-0.125000
G01 X79.471021 Y101.176662 Z-0.125000
G01 X79.753243 Y100.612217 Z-0.125000
G01 X79.753243 Y99.765550 Z-0.125000
G01 X78.906577 Y100.047773 Z-0.125000
G01 X78.342132 Y100.612217 Z-0.125000
G01 X78.059910 Y101.176662 Z-0.125000
G01 X77.777688 Y102.023328 Z-0.125000
G01 X77.777688 Y102.869995 Z-0.125000
G01 X77.495465 Y103.716662 Z-0.125000
G01 X77.495465 Y104.563328 Z-0.125000
G01 X77.213243 Y105.127773 Z-0.125000
G01 X76.648799 Y105.692217 Z-0.125000
G01 X75.519910 Y105.974439 Z-0.125000
G01 X75.802132 Y105.127773 Z-0.125000
G01 X76.366577 Y104.563328 Z-0.125000
G01 X76.648799 Y103.716662 Z-0.125000
G01 X76.931021 Y102.869995 Z-0.125000
G01 X76.084354 Y102.869995 Z-0.125000
G01 X75.802132 Y103.716662 Z-0.125000
G01 X75.237688 Y103.434439 Z-0.125000
G01 X75.237688 Y104.281106 Z-0.125000
G01 X74.673243 Y104.563328 Z-0.125000
G01 X74.391021 Y105.127773 Z-0.125000
G01 X74.391021 Y105.974439 Z-0.125000
G01 X73.826577 Y106.256662 Z-0.125000
G01 X72.979910 Y106.538884 Z-0.125000
G01 X72.979910 Y107.949995 Z-0.125000
G01 X71.851021 Y108.232217 Z-0.125000
G01 X70.722132 Y107.949995 Z-0.125000
G01 X71.004354 Y109.078884 Z-0.125000
G01 X70.157688 Y109.361106 Z-0.125000
G01 X69.311021 Y109.643328 Z-0.125000
G01 X68.182132 Y110.207773 Z-0.125000
G01 X67.053243 Y110.207773 Z-0.125000
G01 X66.771021 Y111.054439 Z-0.125000
G01 X66.206576 Y111.336662 Z-0.125000
G01 X66.206576 Y112.183328 Z-0.125000
G01 X65.359910 Y111.901106 Z-0.125000
G01 X65.077688 Y112.465551 Z-0.125000
G01 X65.077688 Y113.312217 Z-0.125000
G01 X65.077688 Y114.158884 Z-0.125000
G01 X64.513243 Y114.723328 Z-0.125000
G01 X63.384354 Y114.723328 Z-0.125000
G01 X62.255465 Y115.005551 Z-0.125000
G01 X61.973243 Y113.876662 Z-0.125000
G01 X62.537688 Y113.312217 Z-0.125000
G01 X63.666576 Y113.312217 Z-0.125000
G01 X63.948799 Y112.465551 Z-0.125000
G01 X63.948799 Y111.618884 Z-0.125000
G01 X64.513243 Y111.054439 Z-0.125000
G01 X65.359910 Y110.489995 Z-0.125000
G01 X65.642132 Y109.643328 Z-0.125000
G01 X66.206576 Y109.078884 Z-0.125000
G01 X65.924354 Y107.949995 Z-0.125000
G01 X65.359910 Y108.514439 Z-0.125000
G01 X64.513243 Y108.796662 Z-0.125000
G01 X64.231021 Y109.643328 Z-0.125000
G01 X63.666576 Y110.207773 Z-0.125000
G01 X63.102132 Y110.772217 Z-0.125000
G01 X62.819910 Y111.618884 Z-0.125000
G01 X62.537688 Y112.183328 Z-0.125000
G01 X61.408799 Y112.183328 Z-0.125000
G01 X61.691021 Y111.054439 Z-0.125000
G01 X61.691021 Y110.207773 Z-0.125000
G01 X62.255465 Y109.643328 Z-0.125000
G01 X62.819910 Y109.078884 Z-0.125000
G01 X63.102132 Y108.232217 Z-0.125000
G01 X63.948799 Y107.667773 Z-0.125000
G01 X64.795465 Y107.385551 Z-0.125000
G01 X65.359910 Y106.821106 Z-0.125000
G01 X66.206576 Y106.821106 Z-0.125000
G01 X67.053243 Y107.103328 Z-0.125000
G01 X66.771021 Y106.256662 Z-0.125000
G01 X67.617688 Y106.256662 Z-0.125000
G01 X68.464354 Y106.256662 Z-0.125000
G01 X68.464354 Y107.103328 Z-0.125000
G01 X68.182132 Y107.667773 Z-0.125000
G01 X67.053243 Y107.949995 Z-0.125000
G01 X67.335465 Y109.078884 Z-0.125000
G01 X68.182132 Y108.796662 Z-0.125000
G01 X69.311021 Y108.232217 Z-0.125000
G01 X69.593243 Y107.385551 Z-0.125000
G01 X69.311021 Y106.256662 Z-0.125000
G01 X69.593243 Y105.409995 Z-0.125000
G01 X68.746576 Y105.409995 Z-0.125000
G01 X67.899910 Y105.409995 Z-0.125000
G01 X67.053243 Y105.409995 Z-0.125000
G01 X66.206576 Y105.409995 Z-0.125000
G01 X65.642132 Y105.127773 Z-0.125000
G01 X65.359910 Y105.974439 Z-0.125000
G01 X64.513243 Y105.974439 Z-0.125000
G01 X63.948799 Y106.538884 Z-0.125000
G01 X63.666576 Y105.692217 Z-0.125000
G01 X63.948799 Y105.127773 Z-0.125000
G01 X64.795465 Y105.127773 Z-0.125000
G01 X64.513243 Y104.281106 Z-0.125000
G01 X64.513243 Y103.434439 Z-0.125000
G01 X65.359910 Y103.716662 Z-0.125000
G01 X65.359910 Y102.587773 Z-0.125000
G01 X66.488799 Y102.587773 Z-0.125000
G01 X67.053243 Y101.741106 Z-0.125000
G01 X68.182132 Y102.023328 Z-0.125000
G01 X69.028799 Y101.458884 Z-0.125000
G01 X68.746576 Y100.612217 Z-0.125000
G01 X69.593243 Y100.329995 Z-0.125000
G01 X69.593243 Y99.483328 Z-0.125000
G01 X70.157688 Y98.918884 Z-0.125000
G01 X70.722132 Y98.354439 Z-0.125000
G01 X71.286576 Y97.789995 Z-0.125000
G01 X71.286576 Y96.661106 Z-0.125000
G01 X72.133243 Y97.225550 Z-0.125000
G01 X72.697688 Y96.943328 Z-0.125000
G01 X72.979910 Y96.378884 Z-0.125000
G01 X73.262132 Y95.532217 Z-0.125000
G01 X73.826577 Y94.403328 Z-0.125000
G01 X74.108799 Y93.274439 Z-0.125000
G01 X74.673243 Y92.145550 Z-0.125000
G01 X74.955465 Y91.581106 Z-0.125000
G01 X75.237688 Y91.016662 Z-0.125000
G01 X75.519910 Y90.452217 Z-0.125000
G01 X75.802132 Y89.887773 Z-0.125000
G01 X76.648799 Y89.605550 Z-0.125000
G01 X77.213243 Y90.169995 Z-0.125000
G01 X76.648799 Y90.734439 Z-0.125000
G01 X76.366577 Y91.298884 Z-0.125000
G01 X75.802132 Y91.863328 Z-0.125000
G01 X75.519910 Y92.709995 Z-0.125000
G01 X74.955465 Y93.274439 Z-0.125000
G01 X75.802132 Y93.556662 Z-0.125000
G01 X76.648799 Y93.274439 Z-0.125000
G01 X76.648799 Y92.427773 Z-0.125000
G01 X77.213243 Y92.145550 Z-0.125000
G01 X77.495465 Y91.863328 Z-0.125000
G01 X77.777688 Y91.298884 Z-0.125000
G01 X78.059910 Y90.734439 Z-0.125000
G01 X78.906577 Y90.169995 Z-0.125000
G01 X78.059910 Y89.887773 Z-0.125000
G01 X78.342132 Y89.323328 Z-0.125000
G01 X78.624354 Y88.758884 Z-0.125000
G01 X79.188799 Y89.041106 Z-0.125000
G01 X79.188799 Y88.194439 Z-0.125000
G01 X79.471021 Y87.912217 Z-0.125000
G01 X79.753243 Y87.347773 Z-0.125000
G01 X80.035465 Y86.783328 Z-0.125000
G01 X80.882132 Y86.218884 Z-0.125000
G01 X80.882132 Y85.372217 Z-0.125000
G01 X81.164354 Y84.807773 Z-0.125000
G01 X81.446577 Y84.243328 Z-0.125000
G01 X81.728799 Y83.678884 Z-0.125000
G01 X82.575465 Y83.396662 Z-0.125000
G01 X81.728799 Y83.114439 Z-0.125000
G01 X82.011021 Y82.549995 Z-0.125000
G01 X82.293243 Y81.985550 Z-0.125000
G01 X82.857688 Y82.267773 Z-0.125000
G01 X82.857688 Y81.421106 Z-0.125000
G01 X83.139910 Y81.138884 Z-0.125000
G01 X83.422132 Y80.574439 Z-0.125000
G01 X83.704354 Y80.009995 Z-0.125000
G01 X83.704354 Y79.163328 Z-0.125000
G01 X83.986577 Y78.598884 Z-0.125000
G01 X84.268799 Y78.034439 Z-0.125000
G01 X85.115465 Y78.316661 Z-0.125000
G01 X85.115465 Y79.163328 Z-0.125000
G01 X86.244354 Y78.881106 Z-0.125000
G01 X85.962132 Y79.163328 Z-0.125000
G01 X85.962132 Y80.009995 Z-0.125000
G01 X85.115465 Y80.009995 Z-0.125000
G01 X84.551021 Y79.727773 Z-0.125000
G01 X84.551021 Y80.574439 Z-0.125000
G01 X84.268799 Y81.138884 Z-0.125000
G01 X83.986577 Y81.985550 Z-0.125000
G01 X83.704354 Y82.549995 Z-0.125000
G01 X83.422132 Y83.114439 Z-0.125000
G01 X83.422132 Y83.961106 Z-0.125000
G01 X83.139910 Y84.525550 Z-0.125000
G01 X82.293243 Y84.525550 Z-0.125000
G01 X82.011021 Y85.372217 Z-0.125000
G01 X81.728799 Y85.936662 Z-0.125000
G01 X81.728799 Y86.783328 Z-0.125000
G01 X81.164354 Y87.065550 Z-0.125000
G01 X80.882132 Y87.629995 Z-0.125000
G01 X80.599910 Y88.194439 Z-0.125000
G01 X80.317688 Y88.758884 Z-0.125000
G01 X80.035465 Y89.323328 Z-0.125000
G01 X79.753243 Y89.887773 Z-0.125000
G01 X79.753243 Y90.734439 Z-0.125000
G01 X79.188799 Y91.016662 Z-0.125000
G01 X78.906577 Y91.581106 Z-0.125000
G01 X78.624354 Y92.145550 Z-0.125000
G01 X78.342132 Y92.709995 Z-0.125000
G01 X78.059910 Y93.556662 Z-0.125000
G01 X77.495465 Y93.274439 Z-0.125000
G01 X76.931021 Y94.121106 Z-0.125000
G01 X76.366577 Y94.403328 Z-0.125000
G01 X76.084354 Y94.967773 Z-0.125000
G01 X75.237688 Y94.403328 Z-0.125000
G01 X74.955465 Y95.249995 Z-0.125000
G01 X74.391021 Y95.814439 Z-0.125000
G01 X74.391021 Y96.943328 Z-0.125000
G01 X74.108799 Y97.507773 Z-0.125000
G01 X73.826577 Y98.072217 Z-0.125000
G01 X72.979910 Y98.354439 Z-0.125000
G01 X72.133243 Y98.354439 Z-0.125000
G01 X72.133243 Y99.201106 Z-0.125000
G01 X71.286576 Y99.483328 Z-0.125000
G01 X70.722132 Y100.047773 Z-0.125000
G01 X70.722132 Y100.894439 Z-0.125000
G01 X70.157688 Y101.458884 Z-0.125000
G01 X69.311021 Y102.305551 Z-0.125000
G01 X69.593243 Y103.152217 Z-0.125000
G01 X68.464354 Y103.152217 Z-0.125000
G01 X67.899910 Y102.869995 Z-0.125000
G01 X67.335465 Y103.434439 Z-0.125000
G01 X66.488799 Y103.716662 Z-0.125000
G01 X66.206576 Y104.563328 Z-0.125000
G01 X67.053243 Y104.563328 Z-0.125000
G01 X67.899910 Y104.563328 Z-0.125000
G01 X68.746576 Y104.563328 Z-0.125000
G01 X69.028799 Y104.281106 Z-0.125000
G01 X69.875465 Y104.281106 Z-0.125000
G01 X70.722132 Y104.281106 Z-0.125000
G01 X70.722132 Y103.434439 Z-0.125000
G01 X71.004354 Y102.869995 Z-0.125000
G01 X71.286576 Y102.305551 Z-0.125000
G01 X71.851021 Y101.741106 Z-0.125000
G01 X71.851021 Y100.894439 Z-0.125000
G01 X72.133243 Y100.047773 Z-0.125000
G01 X73.262132 Y99.765550 Z-0.125000
G01 X73.826577 Y99.201106 Z-0.125000
G01 X74.955465 Y98.918884 Z-0.125000
G01 X75.237688 Y98.072217 Z-0.125000
G01 X75.802132 Y97.507773 Z-0.125000
G01 X76.366577 Y96.943328 Z-0.125000
G01 X75.237688 Y96.378884 Z-0.125000
G01 X76.084354 Y96.096662 Z-0.125000
G01 X76.648799 Y95.814439 Z-0.125000
G01 X77.495465 Y95.532217 Z-0.125000
G01 X77.777688 Y94.967773 Z-0.125000
G01 X78.059910 Y94.403328 Z-0.125000
G01 X78.624354 Y95.532217 Z-0.125000
G01 X78.906577 Y94.685550 Z-0.125000
G01 X79.188799 Y93.838884 Z-0.125000
G01 X79.753243 Y94.121106 Z-0.125000
G01 X80.317688 Y92.992217 Z-0.125000
G01 X79.753243 Y93.274439 Z-0.125000
G01 X79.471021 Y92.427773 Z-0.125000
G01 X80.035465 Y92.145550 Z-0.125000
G01 X80.317688 Y91.863328 Z-0.125000
G01 X80.599910 Y91.298884 Z-0.125000
G01 X80.599910 Y90.452217 Z-0.125000
G01 X80.882132 Y89.887773 Z-0.125000
G01 X81.164354 Y89.041106 Z-0.125000
G01 X81.728799 Y88.758884 Z-0.125000
G01 X81.728799 Y87.912217 Z-0.125000
G01 X82.575465 Y87.629995 Z-0.125000
G01 X82.857688 Y87.347773 Z-0.125000
G01 X82.575465 Y86.501106 Z-0.125000
G01 X82.857688 Y85.936662 Z-0.125000
G01 X83.139910 Y85.372217 Z-0.125000
G01 X83.986577 Y85.089995 Z-0.125000
G01 X84.268799 Y84.525550 Z-0.125000
G01 X84.268799 Y83.678884 Z-0.125000
G01 X85.115465 Y83.678884 Z-0.125000
G01 X85.397688 Y83.114439 Z-0.125000
G01 X84.551021 Y82.832217 Z-0.125000
G01 X84.833243 Y81.985550 Z-0.125000
G01 X85.397688 Y82.267773 Z-0.125000
G01 X85.397688 Y81.421106 Z-0.125000
G01 X85.679910 Y80.856661 Z-0.125000
G01 X86.526577 Y80.856661 Z-0.125000
G01 X86.808799 Y80.292217 Z-0.125000
G01 X87.091021 Y79.727773 Z-0.125000
G01 X87.373243 Y78.881106 Z-0.125000
G01 X88.219910 Y78.598884 Z-0.125000
G01 X88.502132 Y78.034439 Z-0.125000
G01 X89.348799 Y77.752217 Z-0.125000
G01 X89.348799 Y76.905550 Z-0.125000
G01 X88.502132 Y77.187773 Z-0.125000
G01 X88.502132 Y76.341106 Z-0.125000
G01 X88.784354 Y75.776661 Z-0.125000
G01 X88.502132 Y74.929995 Z-0.125000
G01 X88.784354 Y74.365550 Z-0.125000
G01 X89.631021 Y74.083328 Z-0.125000
G01 X90.195465 Y73.518884 Z-0.125000
G01 X90.477688 Y72.954439 Z-0.125000
G01 X90.759910 Y72.672217 Z-0.125000
G01 X90.759910 Y71.825550 Z-0.125000
G01 X90.477688 Y70.978884 Z-0.125000
G01 X90.759910 Y70.414439 Z-0.125000
G01 X90.477688 Y69.567773 Z-0.125000
G01 X90.759910 Y69.003328 Z-0.125000
G01 X91.042132 Y68.438884 Z-0.125000
G01 X91.888799 Y68.721106 Z-0.125000
G01 X92.735466 Y68.438884 Z-0.125000
G01 X92.735466 Y69.285550 Z-0.125000
G01 X91.888799 Y69.567773 Z-0.125000
G01 X91.606577 Y70.132217 Z-0.125000
G01 X92.735466 Y70.414439 Z-0.125000
G01 X92.171021 Y70.978884 Z-0.125000
G01 X91.606577 Y71.261106 Z-0.125000
G01 X91.606577 Y72.107773 Z-0.125000
G01 X91.888799 Y72.954439 Z-0.125000
G01 X91.888799 Y73.801106 Z-0.125000
G01 X91.324354 Y74.083328 Z-0.125000
G01 X90.477688 Y74.365550 Z-0.125000
G01 X89.913243 Y74.929995 Z-0.125000
G01 X89.631021 Y75.494439 Z-0.125000
G01 X89.913243 Y76.341106 Z-0.125000
G01 X90.759910 Y76.341106 Z-0.125000
G01 X90.759910 Y75.494439 Z-0.125000
G01 X91.324354 Y74.929995 Z-0.125000
G01 X92.171021 Y74.929995 Z-0.125000
G01 X92.735466 Y74.365550 Z-0.125000
G01 X93.582132 Y74.083328 Z-0.125000
G01 X94.428799 Y74.083328 Z-0.125000
G01 X94.993243 Y73.801106 Z-0.125000
G01 X94.711021 Y72.954439 Z-0.125000
G01 X95.557688 Y72.954439 Z-0.125000
G01 X95.839910 Y72.107773 Z-0.125000
G01 X96.122132 Y71.261106 Z-0.125000
G01 X96.686577 Y71.543328 Z-0.125000
G01 X97.533243 Y71.543328 Z-0.125000
G01 X97.815466 Y70.978884 Z-0.125000
G01 X96.968799 Y70.696661 Z-0.125000
G01 X97.533243 Y70.132217 Z-0.125000
G01 X98.379910 Y70.132217 Z-0.125000
G01 X98.662132 Y69.285550 Z-0.125000
G01 X97.815466 Y69.285550 Z-0.125000
G01 X98.097688 Y68.438884 Z-0.125000
G01 X98.662132 Y68.156661 Z-0.125000
G01 X98.944354 Y67.592217 Z-0.125000
G01 X98.097688 Y67.309995 Z-0.125000
G01 X97.251021 Y67.309995 Z-0.125000
G01 X96.968799 Y67.874439 Z-0.125000
G01 X96.968799 Y68.721106 Z-0.125000
G01 X96.686577 Y69.285550 Z-0.125000
G01 X96.404354 Y69.849995 Z-0.125000
G01 X95.839910 Y70.414439 Z-0.125000
G01 X95.275466 Y69.567773 Z-0.125000
G01 X94.711021 Y70.132217 Z-0.125000
G01 X94.993243 Y70.978884 Z-0.125000
G01 X94.711021 Y71.261106 Z-0.125000
G01 X94.711021 Y72.107773 Z-0.125000
G01 X93.864354 Y72.107773 Z-0.125000
G01 X93.582132 Y72.954439 Z-0.125000
G01 X92.735466 Y73.236661 Z-0.125000
G01 X92.735466 Y72.389995 Z-0.125000
G01 X93.299910 Y71.825550 Z-0.125000
G01 X93.582132 Y70.978884 Z-0.125000
G01 X93.582132 Y70.132217 Z-0.125000
G01 X93.864354 Y69.567773 Z-0.125000
G01 X93.582132 Y68.721106 Z-0.125000
G01 X94.428799 Y68.721106 Z-0.125000
G01 X95.557688 Y68.721106 Z-0.125000
G01 X95.839910 Y68.156661 Z-0.125000
G01 X94.711021 Y67.874439 Z-0.125000
G01 X93.864354 Y67.874439 Z-0.125000
G01 X94.146577 Y67.027773 Z-0.125000
G01 X94.146577 Y66.181106 Z-0.125000
G01 X94.428799 Y65.898884 Z-0.125000
G01 X94.146577 Y65.052217 Z-0.125000
G01 X94.711021 Y64.769995 Z-0.125000
G01 X95.275466 Y64.205550 Z-0.125000
G01 X95.557688 Y63.358884 Z-0.125000
G01 X95.839910 Y62.794439 Z-0.125000
G01 X95.839910 Y61.947772 Z-0.125000
G01 X95.557688 Y61.101106 Z-0.125000
G01 X96.122132 Y60.818884 Z-0.125000
G01 X96.122132 Y59.972217 Z-0.125000
G01 X95.557688 Y60.254439 Z-0.125000
G01 X94.711021 Y60.254439 Z-0.125000
G01 X94.993243 Y59.407772 Z-0.125000
G01 X95.275466 Y58.561106 Z-0.125000
G01 X95.839910 Y59.125550 Z-0.125000
G01 X96.686577 Y59.125550 Z-0.125000
G01 X96.968799 Y59.972217 Z-0.125000
G01 X97.533243 Y60.254439 Z-0.125000
G01 X96.968799 Y60.818884 Z-0.125000
G01 X96.968799 Y61.665550 Z-0.125000
G01 X96.686577 Y62.229995 Z-0.125000
G01 X96.686577 Y62.794439 Z-0.125000
G01 X97.533243 Y62.512217 Z-0.125000
G01 X97.815466 Y61.665550 Z-0.125000
G01 X98.097688 Y61.101106 Z-0.125000
G01 X98.662132 Y60.536661 Z-0.125000
G01 X99.508799 Y60.536661 Z-0.125000
G01 X99.226577 Y61.383328 Z-0.125000
G01 X98.944354 Y61.665550 Z-0.125000
G01 X98.662132 Y62.229995 Z-0.125000
G01 X98.379910 Y62.794439 Z-0.125000
G01 X98.097688 Y63.358884 Z-0.125000
G01 X97.251021 Y63.641106 Z-0.125000
G01 X96.404354 Y63.641106 Z-0.125000
G01 X96.122132 Y64.205550 Z-0.125000
G01 X95.839910 Y65.052217 Z-0.125000
G01 X96.686577 Y64.769995 Z-0.125000
G01 X96.686577 Y65.616661 Z-0.125000
G01 X95.839910 Y65.898884 Z-0.125000
G01 X95.275466 Y65.616661 Z-0.125000
G01 X95.275466 Y66.463328 Z-0.125000
G01 X95.275466 Y67.309995 Z-0.125000
G01 X96.122132 Y67.027773 Z-0.125000
G01 X96.686577 Y66.463328 Z-0.125000
G01 X97.533243 Y66.463328 Z-0.125000
G01 X97.533243 Y65.616661 Z-0.125000
G01 X97.815466 Y65.334439 Z-0.125000
G01 X97.533243 Y64.487773 Z-0.125000
G01 X98.097688 Y64.205550 Z-0.125000
G01 X98.944354 Y63.923328 Z-0.125000
G01 X99.226577 Y63.358884 Z-0.125000
G01 X99.791021 Y63.641106 Z-0.125000
G01 X100.355466 Y63.076661 Z-0.125000
G01 X100.919910 Y62.512217 Z-0.125000
G01 X100.355466 Y62.229995 Z-0.125000
G01 X99.508799 Y62.512217 Z-0.125000
G01 X100.073243 Y61.383328 Z-0.125000
G01 X100.919910 Y61.665550 Z-0.125000
G01 X101.766577 Y61.665550 Z-0.125000
G01 X102.613243 Y61.665550 Z-0.125000
G01 X102.895466 Y62.512217 Z-0.125000
G01 X102.048799 Y62.512217 Z-0.125000
G01 X101.766577 Y63.076661 Z-0.125000
G01 X101.484354 Y63.641106 Z-0.125000
G01 X101.202132 Y63.923328 Z-0.125000
G01 X100.637688 Y64.205550 Z-0.125000
G01 X100.073243 Y64.487773 Z-0.125000
G01 X99.226577 Y64.769995 Z-0.125000
G01 X98.662132 Y65.052217 Z-0.125000
G01 X98.662132 Y65.898884 Z-0.125000
G01 X98.662132 Y66.745550 Z-0.125000
G01 X99.508799 Y66.463328 Z-0.125000
G01 X99.508799 Y65.616661 Z-0.125000
G01 X100.073243 Y65.898884 Z-0.125000
G01 X100.355466 Y65.334439 Z-0.125000
G01 X101.484354 Y64.769995 Z-0.125000
G01 X101.202132 Y65.334439 Z-0.125000
G01 X101.202132 Y66.181106 Z-0.125000
G01 X100.919910 Y66.745550 Z-0.125000
G01 X100.355466 Y67.027773 Z-0.125000
G01 X99.791021 Y67.309995 Z-0.125000
G01 X99.791021 Y68.156661 Z-0.125000
G01 X100.637688 Y68.156661 Z-0.125000
G01 X101.202132 Y67.592217 Z-0.125000
G01 X101.766577 Y67.027773 Z-0.125000
G01 X102.048799 Y66.181106 Z-0.125000
G01 X102.331021 Y65.616661 Z-0.125000
G01 X102.613243 Y65.334439 Z-0.125000
G01 X103.459910 Y65.052217 Z-0.125000
G01 X104.306577 Y65.052217 Z-0.125000
G01 X104.024354 Y64.205550 Z-0.125000
G01 X103.177688 Y64.205550 Z-0.125000
G01 X102.331021 Y64.487773 Z-0.125000
G01 X102.613243 Y63.923328 Z-0.125000
G01 X102.895466 Y63.358884 Z-0.125000
G01 X103.742132 Y63.358884 Z-0.125000
G01 X103.742132 Y62.512217 Z-0.125000
G01 X104.306577 Y62.229995 Z-0.125000
G01 X105.153243 Y61.947772 Z-0.125000
G01 X104.871021 Y63.076661 Z-0.125000
G01 X104.588799 Y63.358884 Z-0.125000
G01 X104.871021 Y64.205550 Z-0.125000
G01 X105.153243 Y65.052217 Z-0.125000
G01 X105.717688 Y64.769995 Z-0.125000
G01 X105.717688 Y63.923328 Z-0.125000
G01 X105.999910 Y63.641106 Z-0.125000
G01 X105.717688 Y62.794439 Z-0.125000
G01 X105.999910 Y62.229995 Z-0.125000
G01 X106.564354 Y61.947772 Z-0.125000
G01 X106.846577 Y61.383328 Z-0.125000
G01 X107.693243 Y61.383328 Z-0.125000
G01 X108.257688 Y60.818884 Z-0.125000
G01 X109.104354 Y61.101106 Z-0.125000
G01 X108.822132 Y61.665550 Z-0.125000
G01 X108.539910 Y62.229995 Z-0.125000
G01 X107.693243 Y62.229995 Z-0.125000
G01 X107.411021 Y62.794439 Z-0.125000
G01 X106.564354 Y62.794439 Z-0.125000
G01 X106.846577 Y63.641106 Z-0.125000
G01 X106.846577 Y64.487773 Z-0.125000
G01 X106.564354 Y65.052217 Z-0.125000
G01 X106.282132 Y65.616661 Z-0.125000
G01 X105.999910 Y66.181106 Z-0.125000
G01 X105.717688 Y66.745550 Z-0.125000
G01 X105.999910 Y67.592217 Z-0.125000
G01 X106.564354 Y67.027773 Z-0.125000
G01 X107.128799 Y66.463328 Z-0.125000
G01 X107.411021 Y65.898884 Z-0.125000
G01 X107.693243 Y65.334439 Z-0.125000
G01 X107.693243 Y64.487773 Z-0.125000
G01 X107.693243 Y63.641106 Z-0.125000
G01 X108.257688 Y63.076661 Z-0.125000
G01 X109.104354 Y63.076661 Z-0.125000
G01 X108.822132 Y63.923328 Z-0.125000
G01 X108.539910 Y64.487773 Z-0.125000
G01 X108.539910 Y65.334439 Z-0.125000
G01 X108.539910 Y66.181106 Z-0.125000
G01 X109.386577 Y66.181106 Z-0.125000
G01 X109.386577 Y65.616661 Z-0.125000
G01 X109.386577 Y64.769995 Z-0.125000
G01 X109.668799 Y64.205550 Z-0.125000
G01 X109.951021 Y63.641106 Z-0.125000
G01 X109.668799 Y62.794439 Z-0.125000
G01 X109.951021 Y62.512217 Z-0.125000
G01 X109.951021 Y61.665550 Z-0.125000
G01 X110.233243 Y60.818884 Z-0.125000
G01 X109.386577 Y60.536661 Z-0.125000
G01 X109.668799 Y59.972217 Z-0.125000
G01 X109.951021 Y59.125550 Z-0.125000
G01 X109.951021 Y58.561106 Z-0.125000
G01 X109.951021 Y57.714439 Z-0.125000
G01 X109.104354 Y57.714439 Z-0.125000
G01 X108.822132 Y58.278884 Z-0.125000
G01 X108.822132 Y58.843328 Z-0.125000
G01 X108.822132 Y59.689995 Z-0.125000
G01 X108.257688 Y59.407772 Z-0.125000
G01 X107.975466 Y59.972217 Z-0.125000
G01 X107.411021 Y60.254439 Z-0.125000
G01 X106.846577 Y60.536661 Z-0.125000
G01 X105.999910 Y60.818884 Z-0.125000
G01 X105.717688 Y61.101106 Z-0.125000
G01 X104.871021 Y61.101106 Z-0.125000
G01 X104.306577 Y61.383328 Z-0.125000
G01 X103.459910 Y61.665550 Z-0.125000
G01 X103.459910 Y60.818884 Z-0.125000
G01 X102.613243 Y60.818884 Z-0.125000
G01 X102.613243 Y60.254439 Z-0.125000
G01 X103.459910 Y59.972217 Z-0.125000
G01 X104.024354 Y60.254439 Z-0.125000
G01 X104.871021 Y60.254439 Z-0.125000
G01 X104.871021 Y59.407772 Z-0.125000
G01 X104.871021 Y58.843328 Z-0.125000
G01 X105.153243 Y58.561106 Z-0.125000
G01 X105.435466 Y57.996661 Z-0.125000
G01 X104.588799 Y57.714439 Z-0.125000
G01 X103.742132 Y57.714439 Z-0.125000
G01 X103.177688 Y58.278884 Z-0.125000
G01 X103.742132 Y58.561106 Z-0.125000
G01 X104.024354 Y59.407772 Z-0.125000
G01 X103.177688 Y59.125550 Z-0.125000
G01 X102.331021 Y59.125550 Z-0.125000
G01 X102.048799 Y59.407772 Z-0.125000
G01 X101.766577 Y59.972217 Z-0.125000
G01 X101.766577 Y60.818884 Z-0.125000
G01 X100.919910 Y60.818884 Z-0.125000
G01 X100.355466 Y60.536661 Z-0.125000
G01 X100.919910 Y59.972217 Z-0.125000
G01 X100.919910 Y59.125550 Z-0.125000
G01 X101.202132 Y58.561106 Z-0.125000
G01 X102.048799 Y58.278884 Z-0.125000
G01 X102.331021 Y57.714439 Z-0.125000
G01 X102.613243 Y57.149995 Z-0.125000
G01 X102.895466 Y56.585550 Z-0.125000
G01 X103.459910 Y56.867772 Z-0.125000
G01 X103.459910 Y56.021106 Z-0.125000
G01 X103.459910 Y55.174439 Z-0.125000
G01 X104.306577 Y54.892217 Z-0.125000
G01 X104.588799 Y55.738884 Z-0.125000
G01 X104.306577 Y56.021106 Z-0.125000
G01 X104.306577 Y56.867772 Z-0.125000
G01 X105.153243 Y57.149995 Z-0.125000
G01 X105.435466 Y56.585550 Z-0.125000
G01 X105.717688 Y56.021106 Z-0.125000
G01 X105.999910 Y55.456661 Z-0.125000
G01 X105.153243 Y54.892217 Z-0.125000
G01 X105.717688 Y54.609995 Z-0.125000
G01 X106.564354 Y54.609995 Z-0.125000
G01 X106.282132 Y53.763328 Z-0.125000
G01 X106.564354 Y53.198884 Z-0.125000
G01 X107.411021 Y52.916661 Z-0.125000
G01 X107.693243 Y52.352217 Z-0.125000
G01 X107.975466 Y51.787772 Z-0.125000
G01 X107.128799 Y51.505550 Z-0.125000
G01 X107.693243 Y50.941106 Z-0.125000
G01 X107.975466 Y50.376661 Z-0.125000
G01 X108.539910 Y50.094439 Z-0.125000
G01 X108.257688 Y49.247772 Z-0.125000
G01 X108.539910 Y48.401106 Z-0.125000
G01 X107.693243 Y48.401106 Z-0.125000
G01 X107.128799 Y48.683328 Z-0.125000
G01 X106.564354 Y49.247772 Z-0.125000
G01 X107.411021 Y49.529995 Z-0.125000
G01 X106.846577 Y50.094439 Z-0.125000
G01 X106.564354 Y50.658884 Z-0.125000
G01 X106.282132 Y51.505550 Z-0.125000
G01 X106.564354 Y52.352217 Z-0.125000
G01 X105.717688 Y52.352217 Z-0.125000
G01 X105.435466 Y52.916661 Z-0.125000
G01 X105.435466 Y53.763328 Z-0.125000
G01 X104.588799 Y54.045550 Z-0.125000
G01 X104.588799 Y53.198884 Z-0.125000
G01 X104.588799 Y52.352217 Z-0.125000
G01 X104.588799 Y51.505550 Z-0.125000
G01 X105.435466 Y51.505550 Z-0.125000
G01 X105.717688 Y50.658884 Z-0.125000
G01 X105.717688 Y49.812217 Z-0.125000
G01 X105.717688 Y49.247772 Z-0.125000
G01 X105.999910 Y48.401106 Z-0.125000
G01 X106.282132 Y47.836661 Z-0.125000
G01 X107.128799 Y47.554439 Z-0.125000
G01 X107.411021 Y46.707772 Z-0.125000
G01 X107.975466 Y45.861106 Z-0.125000
G01 X108.257688 Y46.707772 Z-0.125000
G01 X107.975466 Y47.554439 Z-0.125000
G01 X108.822132 Y47.554439 Z-0.125000
G01 X109.668799 Y47.836661 Z-0.125000
G01 X110.233243 Y47.554439 Z-0.125000
G01 X110.515466 Y48.401106 Z-0.125000
G01 X109.668799 Y48.683328 Z-0.125000
G01 X109.104354 Y49.247772 Z-0.125000
G01 X109.951021 Y49.529995 Z-0.125000
G01 X109.668799 Y50.094439 Z-0.125000
G01 X109.668799 Y50.658884 Z-0.125000
G01 X108.822132 Y50.941106 Z-0.125000
G01 X108.822132 Y51.787772 Z-0.125000
G01 X109.668799 Y51.505550 Z-0.125000
G01 X110.515466 Y51.223328 Z-0.125000
G01 X110.797688 Y50.658884 Z-0.125000
G01 X111.079910 Y50.094439 Z-0.125000
G01 X111.079910 Y49.247772 Z-0.125000
G01 X111.644355 Y48.683328 Z-0.125000
G01 X111.926577 Y49.529995 Z-0.125000
G01 X112.208799 Y50.376661 Z-0.125000
G01 X111.926577 Y50.941106 Z-0.125000
G01 X111.644355 Y51.505550 Z-0.125000
G01 X111.362132 Y52.069995 Z-0.125000
G01 X110.515466 Y52.069995 Z-0.125000
G01 X109.668799 Y52.352217 Z-0.125000
G01 X108.822132 Y52.634439 Z-0.125000
G01 X108.539910 Y53.198884 Z-0.125000
G01 X108.539910 Y53.763328 Z-0.125000
G01 X108.257688 Y54.327772 Z-0.125000
G01 X107.411021 Y53.763328 Z-0.125000
G01 X107.411021 Y54.609995 Z-0.125000
G01 X107.128799 Y55.456661 Z-0.125000
G01 X107.128799 Y56.303328 Z-0.125000
G01 X106.846577 Y56.585550 Z-0.125000
G01 X106.564354 Y57.149995 Z-0.125000
G01 X106.282132 Y57.714439 Z-0.125000
G01 X106.282132 Y58.561106 Z-0.125000
G01 X105.999910 Y59.125550 Z-0.125000
G01 X105.717688 Y59.972217 Z-0.125000
G01 X106.564354 Y59.689995 Z-0.125000
G01 X107.128799 Y59.125550 Z-0.125000
G01 X107.128799 Y58.278884 Z-0.125000
G01 X107.693243 Y58.561106 Z-0.125000
G01 X107.693243 Y57.714439 Z-0.125000
G01 X107.975466 Y57.432217 Z-0.125000
G01 X108.257688 Y56.867772 Z-0.125000
G01 X107.975466 Y56.021106 Z-0.125000
G01 X107.975466 Y55.174439 Z-0.125000
G01 X108.822132 Y55.174439 Z-0.125000
G01 X109.386577 Y54.609995 Z-0.125000
G01 X109.668799 Y53.763328 Z-0.125000
G01 X109.951021 Y53.198884 Z-0.125000
G01 X110.515466 Y52.916661 Z-0.125000
G01 X111.362132 Y52.916661 Z-0.125000
G01 X111.362132 Y53.763328 Z-0.125000
G01 X110.797688 Y54.045550 Z-0.125000
G01 X110.233243 Y54.609995 Z-0.125000
G01 X109.951021 Y55.456661 Z-0.125000
G01 X109.668799 Y56.021106 Z-0.125000
G01 X108.822132 Y56.021106 Z-0.125000
G01 X109.104354 Y56.867772 Z-0.125000
G01 X109.951021 Y56.867772 Z-0.125000
G01 X110.515466 Y56.303328 Z-0.125000
G01 X110.797688 Y55.456661 Z-0.125000
G01 X111.362132 Y55.174439 Z-0.125000
G01 X111.644355 Y54.609995 Z-0.125000
G01 X112.208799 Y53.763328 Z-0.125000
G01 X112.208799 Y52.916661 Z-0.125000
G01 X112.491021 Y52.069995 Z-0.125000
G01 X113.055466 Y51.505550 Z-0.125000
G01 X113.619910 Y51.787772 Z-0.125000
G01 X114.466577 Y51.505550 Z-0.125000
G01 X115.031021 Y51.223328 Z-0.125000
G01 X115.031021 Y50.376661 Z-0.125000
G01 X115.031021 Y49.529995 Z-0.125000
G01 X115.877688 Y49.247772 Z-0.125000
G01 X116.159910 Y48.683328 Z-0.125000
G01 X116.724355 Y48.118884 Z-0.125000
G01 X117.006577 Y48.965550 Z-0.125000
G01 X116.724355 Y49.529995 Z-0.125000
G01 X116.159910 Y50.094439 Z-0.125000
G01 X115.877688 Y51.223328 Z-0.125000
G01 X115.877688 Y52.069995 Z-0.125000
G01 X116.724355 Y51.787772 Z-0.125000
G01 X117.006577 Y50.941106 Z-0.125000
G01 X117.571021 Y50.376661 Z-0.125000
G01 X117.853243 Y49.812217 Z-0.125000
G01 X118.135466 Y49.247772 Z-0.125000
G01 X118.982132 Y49.247772 Z-0.125000
G01 X119.546577 Y48.683328 Z-0.125000
G01 X119.828799 Y48.118884 Z-0.125000
G01 X119.828799 Y47.272217 Z-0.125000
G01 X120.675466 Y46.989995 Z-0.125000
G01 X121.239910 Y47.272217 Z-0.125000
G01 X120.675466 Y47.836661 Z-0.125000
G01 X120.675466 Y48.683328 Z-0.125000
G01 X121.522132 Y48.683328 Z-0.125000
G01 X121.804355 Y48.118884 Z-0.125000
G01 X122.651021 Y48.401106 Z-0.125000
G01 X122.368799 Y47.554439 Z-0.125000
G01 X122.933243 Y47.272217 Z-0.125000
G01 X123.215466 Y46.707772 Z-0.125000
G01 X123.779910 Y46.143328 Z-0.125000
G01 X124.062132 Y45.578884 Z-0.125000
G01 X124.626577 Y45.014439 Z-0.125000
G01 X123.497688 Y44.732217 Z-0.125000
G01 X124.062132 Y44.167772 Z-0.125000
G01 X124.062132 Y43.321106 Z-0.125000
G01 X124.626577 Y42.756661 Z-0.125000
G01 X124.626577 Y41.909995 Z-0.125000
G01 X124.908799 Y41.627772 Z-0.125000
G01 X124.908799 Y40.781106 Z-0.125000
G01 X125.473243 Y40.498883 Z-0.125000
G01 X126.319910 Y41.063328 Z-0.125000
G01 X126.037688 Y41.627772 Z-0.125000
G01 X125.755466 Y42.192217 Z-0.125000
G01 X125.473243 Y43.038883 Z-0.125000
G01 X125.191021 Y43.603328 Z-0.125000
G01 X124.908799 Y44.167772 Z-0.125000
G01 X125.755466 Y44.449995 Z-0.125000
G01 X126.319910 Y43.885550 Z-0.125000
G01 X126.884355 Y43.321106 Z-0.125000
G01 X126.319910 Y43.038883 Z-0.125000
G01 X126.884355 Y42.474439 Z-0.125000
G01 X127.166577 Y41.909995 Z-0.125000
G01 X127.448799 Y41.345550 Z-0.125000
G01 X127.731021 Y40.781106 Z-0.125000
G01 X126.884355 Y40.498883 Z-0.125000
G01 X126.319910 Y40.216661 Z-0.125000
G01 X126.037688 Y39.369995 Z-0.125000
G01 X125.191021 Y39.652217 Z-0.125000
G01 X124.344355 Y39.652217 Z-0.125000
G01 X124.062132 Y40.216661 Z-0.125000
G01 X123.779910 Y40.781106 Z-0.125000
G01 X123.497688 Y41.345550 Z-0.125000
G01 X123.779910 Y42.192217 Z-0.125000
G01 X123.215466 Y42.474439 Z-0.125000
G01 X122.933243 Y43.038883 Z-0.125000
G01 X122.933243 Y43.885550 Z-0.125000
G01 X122.086577 Y43.885550 Z-0.125000
G01 X122.086577 Y43.038883 Z-0.125000
G01 X122.086577 Y42.192217 Z-0.125000
G01 X122.651021 Y41.627772 Z-0.125000
G01 X122.651021 Y40.781106 Z-0.125000
G01 X122.933243 Y39.934439 Z-0.125000
G01 X123.215466 Y39.369995 Z-0.125000
G01 X123.497688 Y38.805550 Z-0.125000
G01 X123.497688 Y37.958883 Z-0.125000
G01 X122.651021 Y38.241106 Z-0.125000
G01 X121.804355 Y38.241106 Z-0.125000
G01 X121.239910 Y37.958883 Z-0.125000
G01 X120.393243 Y38.241106 Z-0.125000
G01 X119.828799 Y38.805550 Z-0.125000
G01 X119.828799 Y39.652217 Z-0.125000
G01 X119.546577 Y40.216661 Z-0.125000
G01 X119.546577 Y41.063328 Z-0.125000
G01 X120.393243 Y41.063328 Z-0.125000
G01 X120.675466 Y39.934439 Z-0.125000
G01 X120.957688 Y39.369995 Z-0.125000
G01 X121.239910 Y38.805550 Z-0.125000
G01 X122.368799 Y39.087772 Z-0.125000
G01 X122.086577 Y39.652217 Z-0.125000
G01 X121.804355 Y40.216661 Z-0.125000
G01 X121.804355 Y41.063328 Z-0.125000
G01 X121.239910 Y40.781106 Z-0.125000
G01 X121.239910 Y41.627772 Z-0.125000
G01 X120.957688 Y42.192217 Z-0.125000
G01 X121.239910 Y43.038883 Z-0.125000
G01 X120.675466 Y43.603328 Z-0.125000
G01 X121.239910 Y43.885550 Z-0.125000
G01 X120.957688 Y44.732217 Z-0.125000
G01 X121.804355 Y44.732217 Z-0.125000
G01 X122.651021 Y44.732217 Z-0.125000
G01 X122.933243 Y45.578884 Z-0.125000
G01 X122.086577 Y45.578884 Z-0.125000
G01 X122.086577 Y46.425550 Z-0.125000
G01 X121.239910 Y46.425550 Z-0.125000
G01 X121.239910 Y45.578884 Z-0.125000
G01 X120.393243 Y45.296661 Z-0.125000
G01 X120.111021 Y45.861106 Z-0.125000
G01 X119.828799 Y46.425550 Z-0.125000
G01 X118.982132 Y46.707772 Z-0.125000
G01 X118.699910 Y46.989995 Z-0.125000
G01 X118.699910 Y47.836661 Z-0.125000
G01 X118.417688 Y48.401106 Z-0.125000
G01 X117.571021 Y48.401106 Z-0.125000
G01 X117.571021 Y47.554439 Z-0.125000
G01 X117.853243 Y46.989995 Z-0.125000
G01 X117.288799 Y46.143328 Z-0.125000
G01 X116.724355 Y46.707772 Z-0.125000
G01 X116.442132 Y47.272217 Z-0.125000
G01 X115.595466 Y46.989995 Z-0.125000
G01 X115.595466 Y47.836661 Z-0.125000
G01 X115.031021 Y48.118884 Z-0.125000
G01 X114.748799 Y48.683328 Z-0.125000
G01 X114.184355 Y49.247772 Z-0.125000
G01 X113.902132 Y49.812217 Z-0.125000
G01 X113.902132 Y50.658884 Z-0.125000
G01 X113.055466 Y50.658884 Z-0.125000
G01 X113.055466 Y49.812217 Z-0.125000
G01 X113.055466 Y48.965550 Z-0.125000
G01 X112.491021 Y48.683328 Z-0.125000
G01 X112.773243 Y47.836661 Z-0.125000
G01 X113.619910 Y48.401106 Z-0.125000
G01 X113.619910 Y47.554439 Z-0.125000
G01 X113.902132 Y47.272217 Z-0.125000
G01 X114.748799 Y47.272217 Z-0.125000
G01 X114.748799 Y46.425550 Z-0.125000
G01 X115.313243 Y46.143328 Z-0.125000
G01 X115.595466 Y45.578884 Z-0.125000
G01 X116.442132 Y45.578884 Z-0.125000
G01 X117.288799 Y45.296661 Z-0.125000
G01 X118.135466 Y45.014439 Z-0.125000
G01 X118.135466 Y45.861106 Z-0.125000
G01 X118.982132 Y45.578884 Z-0.125000
G01 X118.982132 Y44.732217 Z-0.125000
G01 X119.828799 Y44.449995 Z-0.125000
G01 X119.828799 Y43.603328 Z-0.125000
G01 X120.111021 Y42.756661 Z-0.125000
G01 X120.111021 Y41.909995 Z-0.125000
G01 X119.264355 Y42.192217 Z-0.125000
G01 X118.982132 Y42.756661 Z-0.125000
G01 X118.417688 Y43.321106 Z-0.125000
G01 X118.982132 Y43.885550 Z-0.125000
G01 X118.135466 Y44.167772 Z-0.125000
G01 X117.288799 Y44.449995 Z-0.125000
G01 X117.288799 Y43.603328 Z-0.125000
G01 X117.571021 Y43.038883 Z-0.125000
G01 X117.853243 Y42.474439 Z-0.125000
G01 X118.135466 Y41.909995 Z-0.125000
G01 X118.417688 Y41.345550 Z-0.125000
G01 X118.699910 Y41.063328 Z-0.125000
G01 X118.417688 Y40.216661 Z-0.125000
G01 X118.699910 Y39.652217 Z-0.125000
G01 X118.982132 Y38.805550 Z-0.125000
G01 X119.264355 Y37.958883 Z-0.125000
G01 X118.417688 Y37.958883 Z-0.125000
G01 X118.135466 Y38.523328 Z-0.125000
G01 X117.853243 Y39.087772 Z-0.125000
G01 X117.571021 Y39.652217 Z-0.125000
G01 X117.571021 Y40.498883 Z-0.125000
G01 X117.288799 Y41.627772 Z-0.125000
G01 X116.442132 Y41.627772 Z-0.125000
G01 X115.877688 Y41.909995 Z-0.125000
G01 X116.724355 Y42.474439 Z-0.125000
G01 X116.442132 Y43.038883 Z-0.125000
G01 X116.442132 Y43.885550 Z-0.125000
G01 X116.159910 Y44.167772 Z-0.125000
G01 X115.877688 Y44.732217 Z-0.125000
G01 X115.031021 Y43.885550 Z-0.125000
G01 X114.466577 Y44.167772 Z-0.125000
G01 X113.902132 Y44.732217 Z-0.125000
G01 X114.748799 Y45.014439 Z-0.125000
G01 X114.184355 Y45.578884 Z-0.125000
G01 X113.337688 Y45.578884 Z-0.125000
G01 X113.619910 Y46.425550 Z-0.125000
G01 X112.491021 Y46.143328 Z-0.125000
G01 X112.773243 Y46.989995 Z-0.125000
G01 X111.926577 Y47.272217 Z-0.125000
G01 X111.644355 Y47.836661 Z-0.125000
G01 X111.079910 Y47.554439 Z-0.125000
G01 X110.797688 Y46.707772 Z-0.125000
G01 X111.644355 Y46.425550 Z-0.125000
G01 X111.362132 Y45.578884 Z-0.125000
G01 X112.208799 Y45.296661 Z-0.125000
G01 X112.491021 Y44.732217 Z-0.125000
G01 X112.773243 Y44.449995 Z-0.125000
G01 X113.337688 Y43.885550 Z-0.125000
G01 X114.184355 Y43.321106 Z-0.125000
G01 X115.031021 Y43.038883 Z-0.125000
G01 X115.313243 Y42.756661 Z-0.125000
G01 X115.031021 Y41.909995 Z-0.125000
G01 X114.748799 Y41.063328 Z-0.125000
G01 X113.902132 Y41.345550 Z-0.125000
G01 X114.184355 Y42.192217 Z-0.125000
G01 X113.619910 Y42.474439 Z-0.125000
G01 X113.055466 Y43.038883 Z-0.125000
G01 X112.208799 Y43.038883 Z-0.125000
G01 X111.926577 Y43.603328 Z-0.125000
G01 X111.079910 Y43.603328 Z-0.125000
G01 X111.362132 Y44.449995 Z-0.125000
G01 X110.515466 Y44.449995 Z-0.125000
G01 X110.515466 Y45.296661 Z-0.125000
G01 X110.233243 Y45.861106 Z-0.125000
G01 X109.951021 Y46.707772 Z-0.125000
G01 X109.104354 Y46.707772 Z-0.125000
G01 X109.104354 Y45.861106 Z-0.125000
G01 X109.386577 Y45.296661 Z-0.125000
G01 X109.668799 Y44.449995 Z-0.125000
G01 X109.951021 Y43.603328 Z-0.125000
G01 X110.233243 Y43.038883 Z-0.125000
G01 X111.079910 Y42.756661 Z-0.125000
G01 X111.079910 Y41.909995 Z-0.125000
G01 X111.926577 Y42.192217 Z-0.125000
G01 X112.208799 Y41.627772 Z-0.125000
G01 X113.055466 Y41.627772 Z-0.125000
G01 X112.773243 Y40.781106 Z-0.125000
G01 X113.055466 Y40.216661 Z-0.125000
G01 X113.902132 Y40.498883 Z-0.125000
G01 X114.748799 Y40.216661 Z-0.125000
G01 X115.595466 Y40.216661 Z-0.125000
G01 X115.595466 Y41.063328 Z-0.125000
G01 X116.442132 Y40.781106 Z-0.125000
G01 X116.724355 Y40.216661 Z-0.125000
G01 X116.442132 Y39.369995 Z-0.125000
G01 X116.724355 Y38.805550 Z-0.125000
G01 X117.006577 Y38.241106 Z-0.125000
G01 X117.288799 Y37.676661 Z-0.125000
G01 X117.853243 Y37.112217 Z-0.125000
G01 X118.699910 Y37.112217 Z-0.125000
G01 X118.699910 Y36.265550 Z-0.125000
G01 X118.699910 Y35.701106 Z-0.125000
G01 X119.264355 Y35.418883 Z-0.125000
G01 X120.111021 Y35.136661 Z-0.125000
G01 X120.111021 Y35.983328 Z-0.125000
G01 X119.828799 Y36.547772 Z-0.125000
G01 X119.828799 Y37.394439 Z-0.125000
G01 X120.675466 Y37.112217 Z-0.125000
G01 X120.957688 Y36.547772 Z-0.125000
G01 X120.957688 Y35.701106 Z-0.125000
G01 X121.239910 Y35.136661 Z-0.125000
G01 X121.522132 Y34.572217 Z-0.125000
G01 X121.804355 Y34.007772 Z-0.125000
G01 X122.368799 Y34.289995 Z-0.125000
G01 X122.368799 Y33.443328 Z-0.125000
G01 X122.651021 Y32.878883 Z-0.125000
G01 X123.497688 Y32.878883 Z-0.125000
G01 X123.779910 Y32.314439 Z-0.125000
G01 X124.626577 Y32.596661 Z-0.125000
G01 X124.344355 Y33.443328 Z-0.125000
G01 X123.497688 Y33.725550 Z-0.125000
G01 X123.215466 Y34.007772 Z-0.125000
G01 X122.933243 Y34.854439 Z-0.125000
G01 X122.368799 Y35.418883 Z-0.125000
G01 X122.086577 Y35.983328 Z-0.125000
G01 X121.804355 Y36.547772 Z-0.125000
G01 X121.804355 Y37.394439 Z-0.125000
G01 X122.651021 Y37.394439 Z-0.125000
G01 X122.933243 Y36.829995 Z-0.125000
G01 X123.215466 Y36.265550 Z-0.125000
G01 X123.497688 Y35.701106 Z-0.125000
G01 X124.344355 Y35.418883 Z-0.125000
G01 X123.779910 Y34.854439 Z-0.125000
G01 X124.344355 Y34.289995 Z-0.125000
G01 X125.191021 Y34.007772 Z-0.125000
G01 X124.908799 Y34.854439 Z-0.125000
G01 X125.755466 Y34.572217 Z-0.125000
G01 X126.037688 Y33.725550 Z-0.125000
G01 X126.037688 Y32.878883 Z-0.125000
G01 X125.191021 Y33.161106 Z-0.125000
G01 X125.473243 Y32.314439 Z-0.125000
G01 X125.755466 Y31.749995 Z-0.125000
G01 X126.037688 Y31.185550 Z-0.125000
G01 X126.319910 Y30.621106 Z-0.125000
G01 X126.602132 Y29.774439 Z-0.125000
G01 X125.755466 Y29.774439 Z-0.125000
G01 X125.191021 Y29.492217 Z-0.125000
G01 X125.191021 Y30.338883 Z-0.125000
G01 X124.908799 Y30.903328 Z-0.125000
G01 X124.626577 Y31.467772 Z-0.125000
G01 X124.062132 Y31.749995 Z-0.125000
G01 X123.779910 Y30.903328 Z-0.125000
G01 X124.062132 Y30.338883 Z-0.125000
G01 X124.344355 Y29.774439 Z-0.125000
G01 X123.497688 Y29.492217 Z-0.125000
G01 X123.779910 Y28.927772 Z-0.125000
G01 X124.626577 Y28.645550 Z-0.125000
G01 X124.908799 Y28.081106 Z-0.125000
G01 X124.908799 Y27.234439 Z-0.125000
G01 X125.191021 Y26.669995 Z-0.125000
G01 X125.755466 Y26.387772 Z-0.125000
G01 X126.319910 Y25.823328 Z-0.125000
G01 X126.319910 Y24.976661 Z-0.125000
G01 X127.166577 Y24.976661 Z-0.125000
G01 X127.448799 Y24.412217 Z-0.125000
G01 X128.013243 Y24.129994 Z-0.125000
G01 X128.577688 Y23.847772 Z-0.125000
G01 X129.142132 Y23.565550 Z-0.125000
G01 X129.142132 Y22.718883 Z-0.125000
G01 X128.295466 Y23.001106 Z-0.125000
G01 X127.448799 Y23.001106 Z-0.125000
G01 X127.166577 Y23.565550 Z-0.125000
G01 X126.319910 Y24.129994 Z-0.125000
G01 X126.319910 Y23.283328 Z-0.125000
G01 X126.602132 Y22.718883 Z-0.125000
G01 X126.884355 Y22.154439 Z-0.125000
G01 X126.602132 Y21.307772 Z-0.125000
G01 X127.448799 Y21.307772 Z-0.125000
G01 X127.731021 Y22.154439 Z-0.125000
G01 X128.295466 Y21.872217 Z-0.125000
G01 X129.142132 Y21.872217 Z-0.125000
G01 X129.988799 Y22.436661 Z-0.125000
G01 X130.271021 Y21.589994 Z-0.125000
G01 X130.553244 Y20.743328 Z-0.125000
G01 X131.399910 Y20.743328 Z-0.125000
G01 X132.246577 Y20.461106 Z-0.125000
G01 X132.528799 Y19.896661 Z-0.125000
G01 X133.375466 Y19.614439 Z-0.125000
G01 X133.375466 Y20.461106 Z-0.125000
G01 X133.093244 Y21.025550 Z-0.125000
G01 X132.246577 Y21.307772 Z-0.125000
G01 X131.964355 Y21.872217 Z-0.125000
G01 X131.117688 Y21.872217 Z-0.125000
G01 X131.117688 Y22.718883 Z-0.125000
G01 X130.835466 Y23.283328 Z-0.125000
G01 X129.988799 Y23.565550 Z-0.125000
G01 X129.988799 Y24.412217 Z-0.125000
G01 X129.706577 Y24.976661 Z-0.125000
G01 X128.859910 Y24.694439 Z-0.125000
G01 X128.295466 Y25.258883 Z-0.125000
G01 X128.013243 Y25.823328 Z-0.125000
G01 X127.448799 Y26.105550 Z-0.125000
G01 X126.884355 Y26.669995 Z-0.125000
G01 X126.884355 Y27.516661 Z-0.125000
G01 X126.037688 Y27.516661 Z-0.125000
G01 X125.755466 Y28.081106 Z-0.125000
G01 X125.755466 Y28.927772 Z-0.125000
G01 X126.602132 Y28.645550 Z-0.125000
G01 X127.448799 Y29.492217 Z-0.125000
G01 X127.731021 Y28.645550 Z-0.125000
G01 X127.731021 Y28.081106 Z-0.125000
G01 X128.295466 Y27.516661 Z-0.125000
G01 X127.731021 Y26.952217 Z-0.125000
G01 X128.295466 Y26.669995 Z-0.125000
G01 X129.142132 Y26.669995 Z-0.125000
G01 X129.142132 Y26.105550 Z-0.125000
G01 X129.424355 Y25.541106 Z-0.125000
G01 X129.988799 Y26.387772 Z-0.125000
G01 X130.553244 Y25.823328 Z-0.125000
G01 X130.835466 Y25.258883 Z-0.125000
G01 X130.835466 Y24.412217 Z-0.125000
G01 X131.399910 Y24.129994 Z-0.125000
G01 X132.246577 Y24.129994 Z-0.125000
G01 X132.811021 Y23.565550 Z-0.125000
G01 X131.964355 Y23.283328 Z-0.125000
G01 X132.246577 Y22.718883 Z-0.125000
G01 X132.811021 Y22.436661 Z-0.125000
G01 X133.093244 Y21.872217 Z-0.125000
G01 X133.939910 Y21.872217 Z-0.125000
G01 X134.222132 Y21.307772 Z-0.125000
G01 X134.222132 Y20.461106 Z-0.125000
G01 X134.504355 Y20.178883 Z-0.125000
G01 X134.786577 Y19.614439 Z-0.125000
G01 X135.068799 Y18.767772 Z-0.125000
G01 X135.351021 Y18.203328 Z-0.125000
G01 X135.068799 Y17.356661 Z-0.125000
G01 X134.504355 Y17.638883 Z-0.125000
G01 X134.222132 Y18.203328 Z-0.125000
G01 X134.222132 Y19.049994 Z-0.125000
G01 X133.657688 Y18.767772 Z-0.125000
G01 X132.811021 Y19.049994 Z-0.125000
G01 X132.246577 Y18.767772 Z-0.125000
G01 X132.811021 Y18.203328 Z-0.125000
G01 X133.093244 Y17.638883 Z-0.125000
G01 X133.093244 Y17.074439 Z-0.125000
G01 X133.375466 Y16.792217 Z-0.125000
G01 X134.222132 Y16.792217 Z-0.125000
G01 X135.068799 Y16.509994 Z-0.125000
G01 X134.786577 Y15.663328 Z-0.125000
G01 X134.222132 Y15.381106 Z-0.125000
G01 X133.939910 Y15.945550 Z-0.125000
G01 X133.093244 Y15.945550 Z-0.125000
G01 X133.093244 Y15.098883 Z-0.125000
G01 X132.246577 Y15.381106 Z-0.125000
G01 X132.246577 Y16.227772 Z-0.125000
G01 X131.682132 Y16.509994 Z-0.125000
G01 X131.964355 Y17.356661 Z-0.125000
G01 X131.682132 Y17.921106 Z-0.125000
G01 X131.399910 Y18.767772 Z-0.125000
G01 X131.682132 Y19.614439 Z-0.125000
G01 X130.835466 Y19.332217 Z-0.125000
G01 X130.553244 Y19.896661 Z-0.125000
G01 X129.706577 Y20.178883 Z-0.125000
G01 X128.859910 Y19.896661 Z-0.125000
G01 X129.142132 Y20.743328 Z-0.125000
G01 X128.295466 Y21.025550 Z-0.125000
G01 X128.013243 Y20.178883 Z-0.125000
G01 X127.448799 Y20.461106 Z-0.125000
G01 X127.166577 Y19.614439 Z-0.125000
G01 X127.448799 Y19.049994 Z-0.125000
G01 X128.295466 Y19.049994 Z-0.125000
G01 X129.142132 Y18.767772 Z-0.125000
G01 X129.706577 Y19.049994 Z-0.125000
G01 X130.271021 Y18.485550 Z-0.125000
G01 X130.553244 Y17.921106 Z-0.125000
G01 X130.835466 Y17.356661 Z-0.125000
G01 X130.835466 Y16.509994 Z-0.125000
G01 X129.988799 Y16.792217 Z-0.125000
G01 X129.424355 Y17.356661 Z-0.125000
G01 X129.142132 Y17.921106 Z-0.125000
G01 X128.013243 Y17.921106 Z-0.125000
G01 X127.448799 Y18.203328 Z-0.125000
G01 X126.319910 Y18.485550 Z-0.125000
G01 X126.037688 Y18.767772 Z-0.125000
G01 X125.191021 Y18.767772 Z-0.125000
G01 X125.191021 Y17.921106 Z-0.125000
G01 X126.037688 Y17.638883 Z-0.125000
G01 X126.602132 Y17.356661 Z-0.125000
G01 X126.602132 Y16.509994 Z-0.125000
G01 X127.448799 Y16.227772 Z-0.125000
G01 X127.448799 Y17.074439 Z-0.125000
G01 X128.295466 Y16.792217 Z-0.125000
G01 X128.295466 Y15.945550 Z-0.125000
G01 X129.142132 Y16.227772 Z-0.125000
G01 X129.424355 Y15.663328 Z-0.125000
G01 X128.295466 Y15.098883 Z-0.125000
G01 X129.142132 Y14.816661 Z-0.125000
G01 X129.706577 Y14.534439 Z-0.125000
G01 X129.424355 Y13.687772 Z-0.125000
G01 X129.706577 Y13.123328 Z-0.125000
G01 X129.988799 Y12.558883 Z-0.125000
G01 X130.271021 Y11.994439 Z-0.125000
G01 X130.553244 Y11.429994 Z-0.125000
G01 X130.271021 Y10.583328 Z-0.125000
G01 X129.706577 Y10.865550 Z-0.125000
G01 X129.424355 Y11.712217 Z-0.125000
G01 X128.859910 Y12.276661 Z-0.125000
G01 X128.577688 Y13.123328 Z-0.125000
G01 X128.577688 Y13.969994 Z-0.125000
G01 X127.731021 Y13.969994 Z-0.125000
G01 X127.448799 Y13.123328 Z-0.125000
G01 X127.731021 Y12.276661 Z-0.125000
G01 X126.884355 Y12.276661 Z-0.125000
G01 X126.602132 Y13.123328 Z-0.125000
G01 X126.602132 Y13.969994 Z-0.125000
G01 X126.037688 Y14.534439 Z-0.125000
G01 X127.166577 Y14.816661 Z-0.125000
G01 X126.884355 Y15.381106 Z-0.125000
G01 X126.037688 Y15.381106 Z-0.125000
G01 X125.755466 Y15.945550 Z-0.125000
G01 X125.473243 Y16.509994 Z-0.125000
G01 X125.191021 Y17.074439 Z-0.125000
G01 X124.344355 Y17.074439 Z-0.125000
G01 X124.344355 Y17.638883 Z-0.125000
G01 X124.062132 Y18.203328 Z-0.125000
G01 X124.344355 Y19.049994 Z-0.125000
G01 X124.344355 Y19.896661 Z-0.125000
G01 X125.191021 Y19.896661 Z-0.125000
G01 X125.473243 Y19.614439 Z-0.125000
G01 X126.319910 Y19.614439 Z-0.125000
G01 X126.602132 Y20.461106 Z-0.125000
G01 X125.755466 Y20.743328 Z-0.125000
G01 X125.473243 Y21.025550 Z-0.125000
G01 X125.755466 Y21.872217 Z-0.125000
G01 X125.473243 Y22.436661 Z-0.125000
G01 X124.626577 Y22.154439 Z-0.125000
G01 X124.626577 Y21.025550 Z-0.125000
G01 X123.779910 Y21.307772 Z-0.125000
G01 X123.779910 Y22.154439 Z-0.125000
G01 X123.497688 Y23.001106 Z-0.125000
G01 X123.215466 Y23.847772 Z-0.125000
G01 X124.062132 Y23.847772 Z-0.125000
G01 X124.626577 Y23.283328 Z-0.125000
G01 X125.473243 Y23.565550 Z-0.125000
G01 X125.191021 Y24.412217 Z-0.125000
G01 X125.191021 Y25.258883 Z-0.125000
G01 X124.626577 Y25.541106 Z-0.125000
G01 X124.344355 Y26.387772 Z-0.125000
G01 X123.497688 Y26.387772 Z-0.125000
G01 X123.779910 Y25.541106 Z-0.125000
G01 X124.062132 Y24.694439 Z-0.125000
G01 X123.215466 Y24.694439 Z-0.125000
G01 X122.933243 Y25.541106 Z-0.125000
G01 X122.086577 Y25.541106 Z-0.125000
G01 X121.522132 Y25.823328 Z-0.125000
G01 X122.651021 Y26.387772 Z-0.125000
G01 X122.086577 Y26.669995 Z-0.125000
G01 X121.522132 Y26.952217 Z-0.125000
G01 X120.675466 Y27.234439 Z-0.125000
G01 X119.828799 Y27.516661 Z-0.125000
G01 X119.264355 Y28.081106 Z-0.125000
G01 X119.264355 Y28.927772 Z-0.125000
G01 X120.111021 Y28.927772 Z-0.125000
G01 X120.393243 Y28.363328 Z-0.125000
G01 X120.957688 Y28.081106 Z-0.125000
G01 X121.522132 Y27.798883 Z-0.125000
G01 X122.368799 Y27.516661 Z-0.125000
G01 X123.215466 Y27.234439 Z-0.125000
G01 X124.062132 Y27.234439 Z-0.125000
G01 X123.779910 Y28.081106 Z-0.125000
G01 X122.933243 Y28.081106 Z-0.125000
G01 X122.651021 Y28.645550 Z-0.125000
G01 X121.804355 Y28.645550 Z-0.125000
G01 X121.239910 Y28.927772 Z-0.125000
G01 X120.957688 Y29.492217 Z-0.125000
G01 X120.111021 Y29.774439 Z-0.125000
G01 X119.264355 Y29.774439 Z-0.125000
G01 X118.982132 Y30.056661 Z-0.125000
G01 X118.982132 Y30.621106 Z-0.125000
G01 X118.699910 Y31.185550 Z-0.125000
G01 X118.417688 Y31.749995 Z-0.125000
G01 X118.699910 Y32.596661 Z-0.125000
G01 X118.417688 Y32.878883 Z-0.125000
G01 X117.571021 Y33.161106 Z-0.125000
G01 X118.135466 Y33.725550 Z-0.125000
G01 X118.982132 Y33.725550 Z-0.125000
G01 X119.828799 Y33.443328 Z-0.125000
G01 X119.546577 Y32.596661 Z-0.125000
G01 X120.393243 Y32.596661 Z-0.125000
G01 X120.393243 Y32.032217 Z-0.125000
G01 X119.546577 Y31.749995 Z-0.125000
G01 X120.111021 Y31.185550 Z-0.125000
G01 X120.393243 Y30.621106 Z-0.125000
G01 X120.957688 Y30.338883 Z-0.125000
G01 X120.957688 Y31.467772 Z-0.125000
G01 X121.804355 Y31.185550 Z-0.125000
G01 X121.804355 Y30.621106 Z-0.125000
G01 X121.804355 Y29.774439 Z-0.125000
G01 X122.651021 Y29.492217 Z-0.125000
G01 X122.933243 Y30.338883 Z-0.125000
G01 X122.651021 Y30.621106 Z-0.125000
G01 X122.933243 Y31.467772 Z-0.125000
G01 X122.651021 Y32.032217 Z-0.125000
G01 X121.804355 Y32.032217 Z-0.125000
G01 X121.522132 Y32.596661 Z-0.125000
G01 X121.239910 Y33.161106 Z-0.125000
G01 X120.675466 Y33.443328 Z-0.125000
G01 X120.675466 Y34.289995 Z-0.125000
G01 X119.828799 Y34.289995 Z-0.125000
G01 X119.264355 Y34.572217 Z-0.125000
G01 X118.417688 Y34.854439 Z-0.125000
G01 X117.853243 Y34.572217 Z-0.125000
G01 X117.006577 Y34.572217 Z-0.125000
G01 X117.006577 Y33.725550 Z-0.125000
G01 X116.159910 Y33.725550 Z-0.125000
G01 X116.442132 Y32.878883 Z-0.125000
G01 X116.724355 Y32.314439 Z-0.125000
G01 X117.571021 Y32.032217 Z-0.125000
G01 X117.571021 Y31.185550 Z-0.125000
G01 X117.853243 Y30.338883 Z-0.125000
G01 X117.853243 Y29.492217 Z-0.125000
G01 X118.135466 Y28.927772 Z-0.125000
G01 X118.135466 Y28.363328 Z-0.125000
G01 X118.417688 Y27.798883 Z-0.125000
G01 X118.699910 Y27.234439 Z-0.125000
G01 X118.982132 Y26.952217 Z-0.125000
G01 X119.828799 Y26.669995 Z-0.125000
G01 X120.675466 Y26.387772 Z-0.125000
G01 X120.111021 Y25.823328 Z-0.125000
G01 X120.675466 Y25.541106 Z-0.125000
G01 X120.957688 Y24.976661 Z-0.125000
G01 X120.957688 Y24.412217 Z-0.125000
G01 X121.804355 Y24.412217 Z-0.125000
G01 X122.368799 Y24.694439 Z-0.125000
G01 X122.368799 Y23.847772 Z-0.125000
G01 X122.651021 Y23.001106 Z-0.125000
G01 X121.804355 Y23.001106 Z-0.125000
G01 X121.239910 Y23.565550 Z-0.125000
G01 X120.957688 Y22.436661 Z-0.125000
G01 X120.675466 Y22.718883 Z-0.125000
G01 X120.393243 Y23.283328 Z-0.125000
G01 X120.111021 Y23.847772 Z-0.125000
G01 X119.828799 Y24.694439 Z-0.125000
G01 X119.264355 Y25.258883 Z-0.125000
G01 X118.982132 Y25.541106 Z-0.125000
G01 X118.699910 Y26.105550 Z-0.125000
G01 X117.853243 Y26.387772 Z-0.125000
G01 X117.571021 Y26.952217 Z-0.125000
G01 X117.288799 Y27.516661 Z-0.125000
G01 X117.006577 Y27.798883 Z-0.125000
G01 X116.159910 Y27.798883 Z-0.125000
G01 X115.313243 Y27.798883 Z-0.125000
G01 X115.031021 Y28.645550 Z-0.125000
G01 X114.466577 Y28.927772 Z-0.125000
G01 X113.619910 Y29.209995 Z-0.125000
G01 X112.773243 Y29.492217 Z-0.125000
G01 X111.926577 Y29.774439 Z-0.125000
G01 X111.079910 Y30.338883 Z-0.125000
G01 X110.797688 Y29.492217 Z-0.125000
G01 X111.079910 Y28.927772 Z-0.125000
G01 X111.644355 Y28.645550 Z-0.125000
G01 X111.644355 Y28.081106 Z-0.125000
G01 X111.644355 Y27.234439 Z-0.125000
G01 X111.926577 Y26.669995 Z-0.125000
G01 X112.208799 Y26.387772 Z-0.125000
G01 X111.926577 Y25.541106 Z-0.125000
G01 X112.208799 Y24.976661 Z-0.125000
G01 X112.491021 Y24.129994 Z-0.125000
G01 X111.644355 Y24.129994 Z-0.125000
G01 X111.079910 Y24.976661 Z-0.125000
G01 X111.079910 Y25.823328 Z-0.125000
G01 X110.797688 Y26.669995 Z-0.125000
G01 X110.233243 Y27.234439 Z-0.125000
G01 X110.797688 Y27.516661 Z-0.125000
G01 X110.233243 Y28.081106 Z-0.125000
G01 X109.951021 Y28.645550 Z-0.125000
G01 X109.668799 Y29.209995 Z-0.125000
G01 X108.822132 Y29.209995 Z-0.125000
G01 X109.104354 Y28.363328 Z-0.125000
G01 X109.386577 Y27.516661 Z-0.125000
G01 X109.386577 Y26.669995 Z-0.125000
G01 X109.668799 Y26.105550 Z-0.125000
G01 X109.951021 Y25.541106 Z-0.125000
G01 X110.233243 Y25.258883 Z-0.125000
G01 X110.233243 Y24.412217 Z-0.125000
G01 X110.515466 Y23.847772 Z-0.125000
G01 X111.079910 Y23.565550 Z-0.125000
G01 X111.926577 Y23.283328 Z-0.125000
G01 X112.208799 Y22.718883 Z-0.125000
G01 X112.773243 Y23.001106 Z-0.125000
G01 X112.773243 Y22.154439 Z-0.125000
G01 X113.055466 Y21.589994 Z-0.125000
G01 X113.337688 Y20.743328 Z-0.125000
G01 X113.337688 Y19.896661 Z-0.125000
G01 X113.619910 Y19.614439 Z-0.125000
G01 X113.337688 Y18.767772 Z-0.125000
G01 X113.902132 Y18.203328 Z-0.125000
G01 X114.466577 Y17.921106 Z-0.125000
G01 X114.466577 Y18.767772 Z-0.125000
G01 X114.466577 Y19.332217 Z-0.125000
G01 X114.466577 Y20.178883 Z-0.125000
G01 X114.184355 Y20.743328 Z-0.125000
G01 X114.184355 Y21.589994 Z-0.125000
G01 X113.902132 Y22.154439 Z-0.125000
G01 X113.619910 Y22.718883 Z-0.125000
G01 X113.619910 Y23.565550 Z-0.125000
G01 X113.337688 Y24.129994 Z-0.125000
G01 X113.055466 Y24.976661 Z-0.125000
G01 X113.902132 Y25.258883 Z-0.125000
G01 X114.184355 Y24.694439 Z-0.125000
G01 X114.466577 Y24.129994 Z-0.125000
G01 X114.466577 Y23.283328 Z-0.125000
G01 X114.748799 Y22.436661 Z-0.125000
G01 X115.031021 Y21.589994 Z-0.125000
G01 X115.313243 Y21.025550 Z-0.125000
G01 X115.313243 Y20.178883 Z-0.125000
G01 X115.595466 Y19.614439 Z-0.125000
G01 X115.313243 Y18.767772 Z-0.125000
G01 X116.159910 Y19.049994 Z-0.125000
G01 X117.006577 Y18.767772 Z-0.125000
G01 X117.288799 Y18.485550 Z-0.125000
G01 X118.135466 Y18.203328 Z-0.125000
G01 X118.699910 Y17.921106 Z-0.125000
G01 X118.699910 Y17.074439 Z-0.125000
G01 X119.546577 Y17.074439 Z-0.125000
G01 X119.546577 Y17.921106 Z-0.125000
G01 X119.546577 Y18.767772 Z-0.125000
G01 X118.982132 Y19.049994 Z-0.125000
G01 X118.135466 Y19.049994 Z-0.125000
G01 X117.853243 Y19.614439 Z-0.125000
G01 X117.006577 Y19.614439 Z-0.125000
G01 X116.724355 Y20.178883 Z-0.125000
G01 X116.442132 Y20.461106 Z-0.125000
G01 X116.159910 Y21.025550 Z-0.125000
G01 X116.159910 Y21.872217 Z-0.125000
G01 X115.877688 Y22.436661 Z-0.125000
G01 X115.595466 Y23.001106 Z-0.125000
G01 X115.313243 Y23.565550 Z-0.125000
G01 X115.595466 Y24.412217 Z-0.125000
G01 X116.159910 Y24.129994 Z-0.125000
G01 X116.442132 Y23.565550 Z-0.125000
G01 X116.724355 Y23.001106 Z-0.125000
G01 X117.006577 Y22.436661 Z-0.125000
G01 X117.571021 Y21.872217 Z-0.125000
G01 X117.006577 Y21.589994 Z-0.125000
G01 X117.571021 Y21.025550 Z-0.125000
G01 X117.853243 Y20.461106 Z-0.125000
G01 X118.699910 Y20.178883 Z-0.125000
G01 X119.264355 Y19.896661 Z-0.125000
G01 X119.828799 Y19.614439 Z-0.125000
G01 X120.675466 Y19.614439 Z-0.125000
G01 X120.393243 Y18.767772 Z-0.125000
G01 X120.393243 Y17.921106 Z-0.125000
G01 X120.393243 Y17.074439 Z-0.125000
G01 X121.239910 Y17.356661 Z-0.125000
G01 X121.522132 Y18.203328 Z-0.125000
G01 X121.239910 Y18.767772 Z-0.125000
G01 X121.522132 Y19.614439 Z-0.125000
G01 X121.239910 Y20.461106 Z-0.125000
G01 X120.393243 Y20.461106 Z-0.125000
G01 X119.546577 Y20.743328 Z-0.125000
G01 X118.699910 Y21.025550 Z-0.125000
G01 X118.417688 Y21.589994 Z-0.125000
G01 X118.699910 Y22.436661 Z-0.125000
G01 X118.417688 Y22.718883 Z-0.125000
G01 X118.417688 Y23.565550 Z-0.125000
G01 X117.853243 Y23.283328 Z-0.125000
G01 X117.571021 Y23.847772 Z-0.125000
G01 X117.288799 Y24.412217 Z-0.125000
G01 X117.006577 Y24.976661 Z-0.125000
G01 X116.159910 Y25.258883 Z-0.125000
G01 X115.313243 Y24.976661 Z-0.125000
G01 X115.031021 Y25.541106 Z-0.125000
G01 X114.748799 Y26.105550 Z-0.125000
G01 X113.902132 Y26.105550 Z-0.125000
G01 X113.055466 Y26.105550 Z-0.125000
G01 X113.337688 Y26.952217 Z-0.125000
G01 X112.773243 Y27.516661 Z-0.125000
G01 X112.773243 Y28.363328 Z-0.125000
G01 X113.619910 Y28.081106 Z-0.125000
G01 X114.466577 Y27.798883 Z-0.125000
G01 X114.184355 Y26.952217 Z-0.125000
G01 X115.313243 Y26.952217 Z-0.125000
G01 X116.159910 Y26.952217 Z-0.125000
G01 X115.877688 Y26.105550 Z-0.125000
G01 X116.724355 Y26.387772 Z-0.125000
G01 X117.006577 Y25.823328 Z-0.125000
G01 X117.853243 Y25.541106 Z-0.125000
G01 X118.135466 Y24.694439 Z-0.125000
G01 X118.982132 Y24.412217 Z-0.125000
G01 X119.264355 Y23.847772 Z-0.125000
G01 X119.546577 Y23.001106 Z-0.125000
G01 X119.546577 Y22.154439 Z-0.125000
G01 X119.546577 Y21.589994 Z-0.125000
G01 X120.393243 Y21.589994 Z-0.125000
G01 X120.675466 Y21.307772 Z-0.125000
G01 X121.522132 Y21.307772 Z-0.125000
G01 X121.804355 Y22.154439 Z-0.125000
G01 X122.368799 Y21.872217 Z-0.125000
G01 X122.368799 Y21.025550 Z-0.125000
G01 X122.086577 Y20.178883 Z-0.125000
G01 X123.215466 Y20.461106 Z-0.125000
G01 X123.497688 Y19.896661 Z-0.125000
G01 X123.215466 Y19.049994 Z-0.125000
G01 X122.368799 Y19.332217 Z-0.125000
G01 X122.368799 Y18.485550 Z-0.125000
G01 X123.215466 Y18.203328 Z-0.125000
G01 X123.215466 Y17.356661 Z-0.125000
G01 X122.368799 Y17.638883 Z-0.125000
G01 X122.368799 Y16.792217 Z-0.125000
G01 X123.215466 Y16.509994 Z-0.125000
G01 X123.497688 Y16.227772 Z-0.125000
G01 X124.344355 Y16.227772 Z-0.125000
G01 X124.626577 Y15.663328 Z-0.125000
G01 X124.908799 Y15.098883 Z-0.125000
G01 X125.191021 Y14.534439 Z-0.125000
G01 X125.191021 Y13.687772 Z-0.125000
G01 X125.755466 Y13.405550 Z-0.125000
G01 X125.755466 Y12.558883 Z-0.125000
G01 X126.037688 Y11.994439 Z-0.125000
G01 X126.602132 Y11.429994 Z-0.125000
G01 X126.602132 Y10.583328 Z-0.125000
G01 X126.602132 Y9.736661 Z-0.125000
G01 X125.755466 Y10.018883 Z-0.125000
G01 X125.473243 Y10.583328 Z-0.125000
G01 X125.473243 Y11.147772 Z-0.125000
G01 X124.908799 Y11.712217 Z-0.125000
G01 X124.062132 Y11.994439 Z-0.125000
G01 X123.779910 Y12.841106 Z-0.125000
G01 X124.626577 Y12.841106 Z-0.125000
G01 X123.779910 Y13.687772 Z-0.125000
G01 X124.344355 Y13.969994 Z-0.125000
G01 X123.779910 Y14.534439 Z-0.125000
G01 X123.779910 Y15.098883 Z-0.125000
G01 X123.215466 Y15.381106 Z-0.125000
G01 X122.368799 Y15.663328 Z-0.125000
G01 X121.804355 Y15.381106 Z-0.125000
G01 X121.522132 Y16.227772 Z-0.125000
G01 X120.957688 Y16.509994 Z-0.125000
G01 X120.675466 Y15.381106 Z-0.125000
G01 X119.828799 Y15.663328 Z-0.125000
G01 X119.828799 Y16.227772 Z-0.125000
G01 X118.982132 Y16.227772 Z-0.125000
G01 X118.135466 Y16.227772 Z-0.125000
G01 X117.853243 Y16.509994 Z-0.125000
G01 X117.853243 Y17.356661 Z-0.125000
G01 X117.288799 Y17.074439 Z-0.125000
G01 X117.006577 Y17.638883 Z-0.125000
G01 X116.159910 Y17.921106 Z-0.125000
G01 X115.595466 Y18.203328 Z-0.125000
G01 X115.313243 Y17.356661 Z-0.125000
G01 X115.877688 Y17.074439 Z-0.125000
G01 X116.159910 Y16.792217 Z-0.125000
G01 X116.724355 Y16.227772 Z-0.125000
G01 X117.006577 Y15.663328 Z-0.125000
G01 X117.853243 Y15.381106 Z-0.125000
G01 X118.699910 Y15.381106 Z-0.125000
G01 X118.699910 Y14.816661 Z-0.125000
G01 X118.699910 Y13.969994 Z-0.125000
G01 X117.853243 Y13.969994 Z-0.125000
G01 X117.571021 Y14.534439 Z-0.125000
G01 X117.006577 Y14.816661 Z-0.125000
G01 X116.159910 Y15.098883 Z-0.125000
G01 X115.877688 Y15.663328 Z-0.125000
G01 X115.313243 Y15.381106 Z-0.125000
G01 X115.031021 Y15.945550 Z-0.125000
G01 X114.748799 Y16.509994 Z-0.125000
G01 X114.466577 Y17.074439 Z-0.125000
G01 X113.619910 Y17.356661 Z-0.125000
G01 X112.773243 Y17.356661 Z-0.125000
G01 X112.208799 Y17.638883 Z-0.125000
G01 X112.773243 Y18.203328 Z-0.125000
G01 X112.491021 Y19.049994 Z-0.125000
G01 X111.926577 Y18.485550 Z-0.125000
G01 X111.362132 Y17.921106 Z-0.125000
G01 X110.797688 Y18.203328 Z-0.125000
G01 X110.797688 Y18.767772 Z-0.125000
G01 X110.797688 Y19.614439 Z-0.125000
G01 X111.644355 Y19.332217 Z-0.125000
G01 X111.644355 Y20.178883 Z-0.125000
G01 X112.491021 Y19.896661 Z-0.125000
G01 X112.491021 Y20.743328 Z-0.125000
G01 X111.926577 Y21.025550 Z-0.125000
G01 X111.644355 Y21.589994 Z-0.125000
G01 X111.362132 Y22.154439 Z-0.125000
G01 X111.079910 Y22.718883 Z-0.125000
G01 X110.233243 Y23.001106 Z-0.125000
G01 X109.951021 Y22.154439 Z-0.125000
G01 X110.233243 Y21.872217 Z-0.125000
G01 X110.515466 Y21.307772 Z-0.125000
G01 X111.079910 Y20.743328 Z-0.125000
G01 X110.515466 Y20.461106 Z-0.125000
G01 X109.668799 Y20.743328 Z-0.125000
G01 X109.104354 Y21.307772 Z-0.125000
G01 X108.822132 Y21.872217 Z-0.125000
G01 X108.257688 Y22.154439 Z-0.125000
G01 X107.411021 Y22.154439 Z-0.125000
G01 X106.846577 Y22.436661 Z-0.125000
G01 X106.282132 Y22.718883 Z-0.125000
G01 X106.282132 Y23.565550 Z-0.125000
G01 X107.128799 Y23.565550 Z-0.125000
G01 X107.128799 Y24.412217 Z-0.125000
G01 X106.282132 Y24.412217 Z-0.125000
G01 X105.999910 Y24.976661 Z-0.125000
G01 X105.999910 Y25.541106 Z-0.125000
G01 X106.846577 Y25.258883 Z-0.125000
G01 X107.693243 Y25.258883 Z-0.125000
G01 X107.975466 Y24.412217 Z-0.125000
G01 X107.975466 Y23.847772 Z-0.125000
G01 X107.693243 Y23.001106 Z-0.125000
G01 X108.539910 Y23.001106 Z-0.125000
G01 X109.386577 Y22.718883 Z-0.125000
G01 X109.386577 Y23.565550 Z-0.125000
G01 X108.822132 Y23.847772 Z-0.125000
G01 X109.104354 Y24.694439 Z-0.125000
G01 X108.822132 Y25.258883 Z-0.125000
G01 X108.539910 Y25.823328 Z-0.125000
G01 X108.539910 Y26.669995 Z-0.125000
G01 X108.539910 Y27.516661 Z-0.125000
G01 X108.257688 Y28.363328 Z-0.125000
G01 X107.411021 Y28.645550 Z-0.125000
G01 X107.128799 Y29.774439 Z-0.125000
G01 X107.975466 Y29.492217 Z-0.125000
G01 X108.822132 Y30.056661 Z-0.125000
G01 X109.386577 Y30.338883 Z-0.125000
G01 X110.233243 Y30.056661 Z-0.125000
G01 X110.233243 Y30.903328 Z-0.125000
G01 X109.668799 Y31.185550 Z-0.125000
G01 X109.668799 Y31.749995 Z-0.125000
G01 X109.386577 Y32.314439 Z-0.125000
G01 X109.386577 Y33.161106 Z-0.125000
G01 X110.233243 Y32.878883 Z-0.125000
G01 X110.233243 Y33.725550 Z-0.125000
G01 X109.951021 Y34.289995 Z-0.125000
G01 X109.951021 Y35.136661 Z-0.125000
G01 X109.386577 Y35.701106 Z-0.125000
G01 X109.668799 Y36.547772 Z-0.125000
G01 X109.104354 Y37.112217 Z-0.125000
G01 X108.822132 Y37.958883 Z-0.125000
G01 X107.975466 Y38.241106 Z-0.125000
G01 X107.411021 Y38.805550 Z-0.125000
G01 X107.128799 Y39.369995 Z-0.125000
G01 X106.282132 Y39.369995 Z-0.125000
G01 X105.435466 Y39.369995 Z-0.125000
G01 X104.871021 Y38.805550 Z-0.125000
G01 X104.306577 Y38.523328 Z-0.125000
G01 X103.742132 Y39.087772 Z-0.125000
G01 X103.742132 Y39.934439 Z-0.125000
G01 X104.588799 Y39.652217 Z-0.125000
G01 X104.588799 Y40.498883 Z-0.125000
G01 X104.024354 Y41.063328 Z-0.125000
G01 X104.306577 Y41.909995 Z-0.125000
G01 X103.742132 Y42.474439 Z-0.125000
G01 X102.895466 Y42.474439 Z-0.125000
G01 X103.177688 Y41.627772 Z-0.125000
G01 X103.177688 Y40.781106 Z-0.125000
G01 X102.331021 Y40.781106 Z-0.125000
G01 X102.613243 Y39.934439 Z-0.125000
G01 X102.895466 Y39.369995 Z-0.125000
G01 X102.895466 Y38.523328 Z-0.125000
G01 X103.177688 Y37.958883 Z-0.125000
G01 X103.177688 Y37.394439 Z-0.125000
G01 X103.742132 Y37.112217 Z-0.125000
G01 X104.588799 Y37.676661 Z-0.125000
G01 X104.588799 Y36.829995 Z-0.125000
G01 X105.153243 Y36.547772 Z-0.125000
G01 X105.717688 Y36.265550 Z-0.125000
G01 X105.999910 Y37.112217 Z-0.125000
G01 X105.435466 Y37.676661 Z-0.125000
G01 X105.717688 Y38.523328 Z-0.125000
G01 X106.282132 Y38.241106 Z-0.125000
G01 X106.846577 Y37.676661 Z-0.125000
G01 X106.846577 Y36.829995 Z-0.125000
G01 X107.693243 Y37.112217 Z-0.125000
G01 X107.975466 Y36.547772 Z-0.125000
G01 X108.539910 Y35.983328 Z-0.125000
G01 X108.539910 Y35.136661 Z-0.125000
G01 X109.104354 Y34.572217 Z-0.125000
G01 X108.822132 Y33.725550 Z-0.125000
G01 X107.975466 Y33.725550 Z-0.125000
G01 X107.693243 Y34.289995 Z-0.125000
G01 X107.693243 Y35.418883 Z-0.125000
G01 X107.128799 Y35.136661 Z-0.125000
G01 X107.128799 Y35.983328 Z-0.125000
G01 X106.282132 Y35.983328 Z-0.125000
G01 X105.999910 Y35.136661 Z-0.125000
G01 X106.282132 Y34.572217 Z-0.125000
G01 X106.564354 Y34.007772 Z-0.125000
G01 X106.846577 Y33.443328 Z-0.125000
G01 X107.411021 Y32.878883 Z-0.125000
G01 X107.975466 Y32.314439 Z-0.125000
G01 X108.539910 Y32.596661 Z-0.125000
G01 X108.539910 Y31.749995 Z-0.125000
G01 X108.539910 Y30.903328 Z-0.125000
G01 X107.975466 Y30.621106 Z-0.125000
G01 X107.128799 Y30.621106 Z-0.125000
G01 X106.564354 Y31.185550 Z-0.125000
G01 X107.411021 Y31.467772 Z-0.125000
G01 X106.846577 Y32.032217 Z-0.125000
G01 X105.999910 Y31.749995 Z-0.125000
G01 X105.999910 Y32.596661 Z-0.125000
G01 X105.717688 Y33.161106 Z-0.125000
G01 X105.435466 Y33.725550 Z-0.125000
G01 X105.153243 Y34.289995 Z-0.125000
G01 X104.871021 Y34.572217 Z-0.125000
G01 X105.153243 Y35.418883 Z-0.125000
G01 X104.306577 Y35.418883 Z-0.125000
G01 X104.024354 Y35.701106 Z-0.125000
G01 X103.742132 Y36.265550 Z-0.125000
G01 X102.895466 Y36.547772 Z-0.125000
G01 X102.331021 Y37.112217 Z-0.125000
G01 X102.048799 Y37.958883 Z-0.125000
G01 X101.202132 Y38.241106 Z-0.125000
G01 X101.202132 Y37.394439 Z-0.125000
G01 X101.484354 Y36.829995 Z-0.125000
G01 X101.766577 Y36.265550 Z-0.125000
G01 X102.331021 Y35.701106 Z-0.125000
G01 X102.895466 Y35.418883 Z-0.125000
G01 X103.177688 Y34.854439 Z-0.125000
