%
(Header)
(Generated by gcodetools from Inkscape.)
(Using default header. To add your own header create file "header" in the output dir.)
M3
(Header end.)
G21 (All units in mm)

(Start cutting path id: path57488)
(Change tool to Default tool)

G00 Z5.000000
G00 X98.632847 Y426.195629

G01 Z-0.125000 F100.0(Penetrate)
G01 X98.632847 Y423.003375 Z-0.125000 F400.000000
G01 X99.430910 Y419.013057 Z-0.125000
G01 X101.825101 Y419.811121 Z-0.125000
G01 X101.027037 Y415.820804 Z-0.125000
G01 X104.219291 Y415.022740 Z-0.125000
G01 X107.411545 Y413.426613 Z-0.125000
G01 X109.007672 Y410.234359 Z-0.125000
G01 X114.594116 Y411.830486 Z-0.125000
G01 X116.190243 Y407.042106 Z-0.125000
G01 X111.401862 Y405.445979 Z-0.125000
G01 X108.209608 Y404.647915 Z-0.125000
G01 X101.825101 Y411.032423 Z-0.125000
G01 X102.623164 Y407.840169 Z-0.125000
G01 X102.623164 Y405.445979 Z-0.125000
G01 X103.421228 Y402.253725 Z-0.125000
G01 X103.421228 Y398.263408 Z-0.125000
G01 X107.411545 Y397.465344 Z-0.125000
G01 X112.199926 Y399.061471 Z-0.125000
G01 X113.796053 Y395.071154 Z-0.125000
G01 X118.584433 Y397.465344 Z-0.125000
G01 X117.786370 Y403.051788 Z-0.125000
G01 X123.372814 Y403.051788 Z-0.125000
G01 X124.170878 Y397.465344 Z-0.125000
G01 X127.363131 Y395.071154 Z-0.125000
G01 X130.555385 Y392.676963 Z-0.125000
G01 X133.747639 Y390.282773 Z-0.125000
G01 X134.545703 Y385.494392 Z-0.125000
G01 X128.161195 Y384.696329 Z-0.125000
G01 X124.170878 Y387.888583 Z-0.125000
G01 X120.180560 Y391.080836 Z-0.125000
G01 X116.190243 Y390.282773 Z-0.125000
G01 X110.603799 Y387.888583 Z-0.125000
G01 X108.209608 Y391.080836 Z-0.125000
G01 X103.421228 Y391.878900 Z-0.125000
G01 X103.421228 Y387.090519 Z-0.125000
G01 X105.017355 Y383.100202 Z-0.125000
G01 X109.007672 Y382.302138 Z-0.125000
G01 X112.199926 Y383.100202 Z-0.125000
G01 X116.190243 Y383.898265 Z-0.125000
G01 X118.584433 Y383.100202 Z-0.125000
G01 X122.574751 Y381.504075 Z-0.125000
G01 X127.363131 Y379.109884 Z-0.125000
G01 X131.353449 Y379.109884 Z-0.125000
G01 X134.545703 Y377.513758 Z-0.125000
G01 X139.334083 Y378.311821 Z-0.125000
G01 X138.536020 Y382.302138 Z-0.125000
G01 X139.334083 Y387.888583 Z-0.125000
G01 X144.122464 Y385.494392 Z-0.125000
G01 X148.910845 Y386.292456 Z-0.125000
G01 X151.305035 Y383.898265 Z-0.125000
G01 X148.910845 Y381.504075 Z-0.125000
G01 X149.708908 Y379.109884 Z-0.125000
G01 X151.305035 Y379.907948 Z-0.125000
G01 X151.305035 Y377.513758 Z-0.125000
G01 X150.506972 Y375.119567 Z-0.125000
G01 X152.901162 Y375.119567 Z-0.125000
G01 X154.497289 Y373.523440 Z-0.125000
G01 X156.891479 Y373.523440 Z-0.125000
G01 X157.689543 Y371.927313 Z-0.125000
G01 X159.285670 Y370.331186 Z-0.125000
G01 X156.891479 Y369.533123 Z-0.125000
G01 X157.689543 Y367.936996 Z-0.125000
G01 X158.487606 Y366.340869 Z-0.125000
G01 X160.083733 Y367.138933 Z-0.125000
G01 X160.881797 Y365.542806 Z-0.125000
G01 X161.679860 Y363.946679 Z-0.125000
G01 X160.881797 Y361.552488 Z-0.125000
G01 X159.285670 Y362.350552 Z-0.125000
G01 X157.689543 Y363.946679 Z-0.125000
G01 X155.295353 Y365.542806 Z-0.125000
G01 X154.497289 Y367.138933 Z-0.125000
G01 X154.497289 Y369.533123 Z-0.125000
G01 X154.497289 Y371.129250 Z-0.125000
G01 X152.103099 Y371.927313 Z-0.125000
G01 X151.305035 Y372.725377 Z-0.125000
G01 X148.910845 Y372.725377 Z-0.125000
G01 X148.112781 Y374.321504 Z-0.125000
G01 X146.516655 Y375.917631 Z-0.125000
G01 X148.112781 Y376.715694 Z-0.125000
G01 X146.516655 Y378.311821 Z-0.125000
G01 X144.122464 Y380.706011 Z-0.125000
G01 X144.122464 Y376.715694 Z-0.125000
G01 X142.526337 Y375.119567 Z-0.125000
G01 X144.122464 Y373.523440 Z-0.125000
G01 X144.920528 Y371.129250 Z-0.125000
G01 X146.516655 Y370.331186 Z-0.125000
G01 X148.910845 Y370.331186 Z-0.125000
G01 X151.305035 Y369.533123 Z-0.125000
G01 X152.103099 Y367.936996 Z-0.125000
G01 X152.103099 Y365.542806 Z-0.125000
G01 X149.708908 Y365.542806 Z-0.125000
G01 X148.910845 Y367.138933 Z-0.125000
G01 X148.112781 Y367.936996 Z-0.125000
G01 X145.718591 Y367.936996 Z-0.125000
G01 X143.324401 Y367.936996 Z-0.125000
G01 X141.728274 Y370.331186 Z-0.125000
G01 X140.930210 Y372.725377 Z-0.125000
G01 X138.536020 Y372.725377 Z-0.125000
G01 X138.536020 Y369.533123 Z-0.125000
G01 X137.737956 Y367.138933 Z-0.125000
G01 X135.343766 Y366.340869 Z-0.125000
G01 X135.343766 Y363.946679 Z-0.125000
G01 X138.536020 Y363.946679 Z-0.125000
G01 X139.334083 Y359.158298 Z-0.125000
G01 X136.141830 Y359.956361 Z-0.125000
G01 X133.747639 Y361.552488 Z-0.125000
G01 X132.949576 Y359.158298 Z-0.125000
G01 X130.555385 Y361.552488 Z-0.125000
G01 X126.565068 Y359.956361 Z-0.125000
G01 X126.565068 Y365.542806 Z-0.125000
G01 X129.757322 Y365.542806 Z-0.125000
G01 X133.747639 Y371.129250 Z-0.125000
G01 X129.757322 Y371.927313 Z-0.125000
G01 X126.565068 Y372.725377 Z-0.125000
G01 X121.776687 Y370.331186 Z-0.125000
G01 X120.978624 Y374.321504 Z-0.125000
G01 X117.786370 Y375.917631 Z-0.125000
G01 X113.796053 Y375.917631 Z-0.125000
G01 X111.401862 Y377.513758 Z-0.125000
G01 X108.209608 Y377.513758 Z-0.125000
G01 X102.623164 Y378.311821 Z-0.125000
G01 X103.421228 Y374.321504 Z-0.125000
G01 X103.421228 Y369.533123 Z-0.125000
G01 X102.623164 Y365.542806 Z-0.125000
G01 X102.623164 Y360.754425 Z-0.125000
G01 X107.411545 Y362.350552 Z-0.125000
G01 X110.603799 Y360.754425 Z-0.125000
G01 X112.199926 Y359.158298 Z-0.125000
G01 X112.997989 Y355.966044 Z-0.125000
G01 X113.796053 Y353.571854 Z-0.125000
G01 X113.796053 Y350.379600 Z-0.125000
G01 X116.190243 Y349.581536 Z-0.125000
G01 X117.786370 Y347.187346 Z-0.125000
G01 X118.584433 Y344.793156 Z-0.125000
G01 X121.776687 Y343.995092 Z-0.125000
G01 X121.776687 Y340.802838 Z-0.125000
G01 X123.372814 Y338.408648 Z-0.125000
G01 X124.968941 Y335.216394 Z-0.125000
G01 X126.565068 Y331.226077 Z-0.125000
G01 X130.555385 Y328.033823 Z-0.125000
G01 X133.747639 Y326.437696 Z-0.125000
G01 X136.141830 Y326.437696 Z-0.125000
G01 X136.939893 Y324.841569 Z-0.125000
G01 X133.747639 Y322.447379 Z-0.125000
G01 X135.343766 Y320.851252 Z-0.125000
G01 X136.141830 Y318.457061 Z-0.125000
G01 X137.737956 Y316.860934 Z-0.125000
G01 X140.132147 Y317.658998 Z-0.125000
G01 X139.334083 Y315.264808 Z-0.125000
G01 X140.132147 Y312.870617 Z-0.125000
G01 X143.324401 Y312.072554 Z-0.125000
G01 X144.122464 Y316.062871 Z-0.125000
G01 X146.516655 Y313.668681 Z-0.125000
G01 X149.708908 Y314.466744 Z-0.125000
G01 X153.699226 Y314.466744 Z-0.125000
G01 X156.891479 Y311.274490 Z-0.125000
G01 X158.487606 Y308.082236 Z-0.125000
G01 X160.881797 Y305.688046 Z-0.125000
G01 X164.074051 Y305.688046 Z-0.125000
G01 X167.266304 Y306.486110 Z-0.125000
G01 X169.660495 Y304.889983 Z-0.125000
G01 X170.458558 Y301.697729 Z-0.125000
G01 X168.064368 Y299.303538 Z-0.125000
G01 X166.468241 Y301.697729 Z-0.125000
G01 X164.872114 Y302.495792 Z-0.125000
G01 X161.679860 Y300.899665 Z-0.125000
G01 X158.487606 Y300.899665 Z-0.125000
G01 X156.093416 Y303.293856 Z-0.125000
G01 X153.699226 Y306.486110 Z-0.125000
G01 X152.103099 Y308.880300 Z-0.125000
G01 X148.910845 Y308.880300 Z-0.125000
G01 X144.920528 Y308.082236 Z-0.125000
G01 X145.718591 Y304.091919 Z-0.125000
G01 X148.910845 Y303.293856 Z-0.125000
G01 X152.103099 Y302.495792 Z-0.125000
G01 X152.103099 Y299.303538 Z-0.125000
G01 X152.103099 Y296.909348 Z-0.125000
G01 X151.305035 Y293.717094 Z-0.125000
G01 X153.699226 Y290.524840 Z-0.125000
G01 X157.689543 Y287.332586 Z-0.125000
G01 X157.689543 Y284.140333 Z-0.125000
G01 X157.689543 Y280.150015 Z-0.125000
G01 X154.497289 Y280.150015 Z-0.125000
G01 X152.103099 Y281.746142 Z-0.125000
G01 X153.699226 Y285.736460 Z-0.125000
G01 X150.506972 Y285.736460 Z-0.125000
G01 X148.910845 Y288.928713 Z-0.125000
G01 X145.718591 Y288.928713 Z-0.125000
G01 X143.324401 Y289.726777 Z-0.125000
G01 X140.930210 Y289.726777 Z-0.125000
G01 X141.728274 Y292.120967 Z-0.125000
G01 X140.132147 Y293.717094 Z-0.125000
G01 X139.334083 Y295.313221 Z-0.125000
G01 X139.334083 Y297.707411 Z-0.125000
G01 X138.536020 Y299.303538 Z-0.125000
G01 X136.939893 Y300.899665 Z-0.125000
G01 X137.737956 Y303.293856 Z-0.125000
G01 X140.132147 Y301.697729 Z-0.125000
G01 X141.728274 Y300.101602 Z-0.125000
G01 X141.728274 Y297.707411 Z-0.125000
G01 X142.526337 Y295.313221 Z-0.125000
G01 X144.122464 Y297.707411 Z-0.125000
G01 X145.718591 Y296.111285 Z-0.125000
G01 X146.516655 Y292.919031 Z-0.125000
G01 X148.112781 Y296.909348 Z-0.125000
G01 X148.910845 Y299.303538 Z-0.125000
G01 X146.516655 Y300.101602 Z-0.125000
G01 X144.920528 Y300.899665 Z-0.125000
G01 X143.324401 Y302.495792 Z-0.125000
G01 X142.526337 Y304.889983 Z-0.125000
G01 X140.930210 Y304.091919 Z-0.125000
G01 X140.132147 Y305.688046 Z-0.125000
G01 X140.930210 Y308.082236 Z-0.125000
G01 X139.334083 Y308.880300 Z-0.125000
G01 X138.536020 Y310.476427 Z-0.125000
G01 X137.737956 Y312.870617 Z-0.125000
G01 X135.343766 Y313.668681 Z-0.125000
G01 X133.747639 Y315.264808 Z-0.125000
G01 X132.151512 Y318.457061 Z-0.125000
G01 X131.353449 Y315.264808 Z-0.125000
G01 X128.161195 Y316.062871 Z-0.125000
G01 X127.363131 Y319.255125 Z-0.125000
G01 X130.555385 Y320.851252 Z-0.125000
G01 X130.555385 Y323.245442 Z-0.125000
G01 X125.767005 Y324.841569 Z-0.125000
G01 X120.978624 Y324.841569 Z-0.125000
G01 X119.382497 Y328.831886 Z-0.125000
G01 X117.786370 Y331.226077 Z-0.125000
G01 X118.584433 Y334.418331 Z-0.125000
G01 X120.978624 Y333.620267 Z-0.125000
G01 X120.180560 Y336.812521 Z-0.125000
G01 X116.988306 Y336.014458 Z-0.125000
G01 X115.392180 Y337.610584 Z-0.125000
G01 X111.401862 Y340.004775 Z-0.125000
G01 X114.594116 Y340.004775 Z-0.125000
G01 X117.786370 Y339.206711 Z-0.125000
G01 X117.786370 Y341.600902 Z-0.125000
G01 X115.392180 Y343.197029 Z-0.125000
G01 X114.594116 Y345.591219 Z-0.125000
G01 X112.997989 Y347.187346 Z-0.125000
G01 X110.603799 Y350.379600 Z-0.125000
G01 X109.007672 Y354.369917 Z-0.125000
G01 X105.815418 Y353.571854 Z-0.125000
G01 X103.421228 Y356.764108 Z-0.125000
G01 X102.623164 Y352.773790 Z-0.125000
G01 X103.421228 Y347.985409 Z-0.125000
G01 X105.815418 Y345.591219 Z-0.125000
G01 X108.209608 Y343.197029 Z-0.125000
G01 X104.219291 Y342.398965 Z-0.125000
G01 X105.815418 Y339.206711 Z-0.125000
G01 X106.613481 Y336.812521 Z-0.125000
G01 X108.209608 Y333.620267 Z-0.125000
G01 X110.603799 Y331.226077 Z-0.125000
G01 X112.199926 Y328.831886 Z-0.125000
G01 X112.997989 Y325.639633 Z-0.125000
G01 X113.796053 Y323.245442 Z-0.125000
G01 X116.190243 Y322.447379 Z-0.125000
G01 X116.190243 Y319.255125 Z-0.125000
G01 X118.584433 Y319.255125 Z-0.125000
G01 X120.978624 Y317.658998 Z-0.125000
G01 X116.988306 Y315.264808 Z-0.125000
G01 X117.786370 Y312.870617 Z-0.125000
G01 X118.584433 Y311.274490 Z-0.125000
G01 X119.382497 Y308.880300 Z-0.125000
G01 X120.180560 Y305.688046 Z-0.125000
G01 X122.574751 Y307.284173 Z-0.125000
G01 X122.574751 Y312.870617 Z-0.125000
G01 X126.565068 Y311.274490 Z-0.125000
G01 X127.363131 Y306.486110 Z-0.125000
G01 X131.353449 Y307.284173 Z-0.125000
G01 X130.555385 Y310.476427 Z-0.125000
G01 X134.545703 Y310.476427 Z-0.125000
G01 X136.141830 Y308.880300 Z-0.125000
G01 X137.737956 Y306.486110 Z-0.125000
G01 X135.343766 Y304.889983 Z-0.125000
G01 X132.151512 Y304.091919 Z-0.125000
G01 X133.747639 Y300.899665 Z-0.125000
G01 X135.343766 Y296.909348 Z-0.125000
G01 X132.151512 Y296.111285 Z-0.125000
G01 X129.757322 Y298.505475 Z-0.125000
G01 X127.363131 Y301.697729 Z-0.125000
G01 X124.170878 Y303.293856 Z-0.125000
G01 X121.776687 Y303.293856 Z-0.125000
G01 X123.372814 Y299.303538 Z-0.125000
G01 X125.767005 Y296.909348 Z-0.125000
G01 X127.363131 Y294.515158 Z-0.125000
G01 X128.959258 Y292.919031 Z-0.125000
G01 X132.151512 Y292.120967 Z-0.125000
G01 X136.141830 Y293.717094 Z-0.125000
G01 X138.536020 Y291.322904 Z-0.125000
G01 X137.737956 Y288.130650 Z-0.125000
G01 X138.536020 Y285.736460 Z-0.125000
G01 X141.728274 Y285.736460 Z-0.125000
G01 X144.122464 Y284.938396 Z-0.125000
G01 X146.516655 Y284.140333 Z-0.125000
G01 X148.112781 Y281.746142 Z-0.125000
G01 X148.112781 Y279.351952 Z-0.125000
G01 X148.910845 Y276.957761 Z-0.125000
G01 X150.506972 Y276.159698 Z-0.125000
G01 X151.305035 Y273.765508 Z-0.125000
G01 X154.497289 Y275.361635 Z-0.125000
G01 X157.689543 Y275.361635 Z-0.125000
G01 X159.285670 Y273.765508 Z-0.125000
G01 X160.881797 Y272.967444 Z-0.125000
G01 X161.679860 Y270.573254 Z-0.125000
G01 X163.275987 Y269.775190 Z-0.125000
G01 X166.468241 Y270.573254 Z-0.125000
G01 X168.064368 Y269.775190 Z-0.125000
G01 X171.256622 Y268.179063 Z-0.125000
G01 X171.256622 Y270.573254 Z-0.125000
G01 X171.256622 Y272.967444 Z-0.125000
G01 X168.862431 Y273.765508 Z-0.125000
G01 X164.872114 Y272.967444 Z-0.125000
G01 X164.074051 Y275.361635 Z-0.125000
G01 X162.477924 Y277.755825 Z-0.125000
G01 X161.679860 Y280.948079 Z-0.125000
G01 X162.477924 Y284.938396 Z-0.125000
G01 X165.670178 Y282.544206 Z-0.125000
G01 X167.266304 Y280.150015 Z-0.125000
G01 X168.064368 Y276.957761 Z-0.125000
G01 X171.256622 Y276.957761 Z-0.125000
G01 X172.054685 Y280.948079 Z-0.125000
G01 X172.054685 Y283.342269 Z-0.125000
G01 X169.660495 Y284.938396 Z-0.125000
G01 X167.266304 Y286.534523 Z-0.125000
G01 X166.468241 Y290.524840 Z-0.125000
G01 X162.477924 Y288.928713 Z-0.125000
G01 X161.679860 Y292.120967 Z-0.125000
G01 X157.689543 Y292.120967 Z-0.125000
G01 X156.093416 Y296.111285 Z-0.125000
G01 X155.295353 Y298.505475 Z-0.125000
G01 X158.487606 Y296.909348 Z-0.125000
G01 X161.679860 Y296.909348 Z-0.125000
G01 X164.074051 Y296.909348 Z-0.125000
G01 X166.468241 Y295.313221 Z-0.125000
G01 X169.660495 Y296.909348 Z-0.125000
G01 X170.458558 Y294.515158 Z-0.125000
G01 X170.458558 Y291.322904 Z-0.125000
G01 X172.852749 Y288.928713 Z-0.125000
G01 X175.246939 Y286.534523 Z-0.125000
G01 X178.439193 Y285.736460 Z-0.125000
G01 X181.631447 Y284.938396 Z-0.125000
G01 X180.035320 Y288.928713 Z-0.125000
G01 X176.843066 Y291.322904 Z-0.125000
G01 X175.246939 Y293.717094 Z-0.125000
G01 X173.650812 Y295.313221 Z-0.125000
G01 X172.852749 Y298.505475 Z-0.125000
G01 X176.045003 Y298.505475 Z-0.125000
G01 X177.641129 Y296.909348 Z-0.125000
G01 X179.237256 Y295.313221 Z-0.125000
G01 X180.833383 Y293.717094 Z-0.125000
G01 X182.429510 Y296.909348 Z-0.125000
G01 X184.025637 Y295.313221 Z-0.125000
G01 X184.025637 Y292.919031 Z-0.125000
G01 X185.621764 Y292.120967 Z-0.125000
G01 X184.025637 Y288.130650 Z-0.125000
G01 X185.621764 Y285.736460 Z-0.125000
G01 X188.015954 Y284.140333 Z-0.125000
G01 X187.217891 Y280.948079 Z-0.125000
G01 X187.217891 Y278.553888 Z-0.125000
G01 X188.814018 Y276.957761 Z-0.125000
G01 X190.410145 Y275.361635 Z-0.125000
G01 X192.006272 Y273.765508 Z-0.125000
G01 X192.804335 Y272.169381 Z-0.125000
G01 X195.198526 Y272.967444 Z-0.125000
G01 X197.592716 Y272.967444 Z-0.125000
G01 X196.794653 Y270.573254 Z-0.125000
G01 X199.986906 Y270.573254 Z-0.125000
G01 X201.583033 Y268.977127 Z-0.125000
G01 X203.977224 Y271.371317 Z-0.125000
G01 X204.775287 Y269.775190 Z-0.125000
G01 X204.775287 Y267.381000 Z-0.125000
G01 X206.371414 Y265.784873 Z-0.125000
G01 X208.765604 Y266.582936 Z-0.125000
G01 X209.563668 Y264.188746 Z-0.125000
G01 X209.563668 Y261.794556 Z-0.125000
G01 X212.755922 Y260.996492 Z-0.125000
G01 X212.755922 Y264.188746 Z-0.125000
G01 X215.150112 Y264.188746 Z-0.125000
G01 X215.948176 Y261.794556 Z-0.125000
G01 X217.544303 Y260.198429 Z-0.125000
G01 X219.938493 Y259.400365 Z-0.125000
G01 X221.534620 Y257.804238 Z-0.125000
G01 X222.332683 Y256.208111 Z-0.125000
G01 X223.928810 Y255.410048 Z-0.125000
G01 X226.323001 Y255.410048 Z-0.125000
G01 X226.323001 Y253.015858 Z-0.125000
G01 X227.121064 Y251.419731 Z-0.125000
G01 X227.919128 Y249.823604 Z-0.125000
G01 X229.515254 Y250.621667 Z-0.125000
G01 X229.515254 Y248.227477 Z-0.125000
G01 X230.313318 Y246.631350 Z-0.125000
G01 X231.111381 Y245.035223 Z-0.125000
G01 X231.909445 Y244.237160 Z-0.125000
G01 X232.707508 Y242.641033 Z-0.125000
G01 X232.707508 Y240.246842 Z-0.125000
G01 X233.505572 Y238.650715 Z-0.125000
G01 X234.303635 Y237.054588 Z-0.125000
G01 X235.101699 Y235.458461 Z-0.125000
G01 X235.899762 Y233.862335 Z-0.125000
G01 X235.899762 Y231.468144 Z-0.125000
G01 X236.697826 Y229.872017 Z-0.125000
G01 X239.092016 Y229.872017 Z-0.125000
G01 X240.688143 Y228.275890 Z-0.125000
G01 X241.486206 Y226.679763 Z-0.125000
G01 X241.486206 Y224.285573 Z-0.125000
G01 X239.092016 Y225.083636 Z-0.125000
G01 X238.293953 Y226.679763 Z-0.125000
G01 X236.697826 Y227.477827 Z-0.125000
G01 X235.899762 Y225.083636 Z-0.125000
G01 X236.697826 Y223.487510 Z-0.125000
G01 X239.092016 Y222.689446 Z-0.125000
G01 X240.688143 Y221.891383 Z-0.125000
G01 X243.082333 Y221.891383 Z-0.125000
G01 X244.678460 Y223.487510 Z-0.125000
G01 X243.880397 Y225.881700 Z-0.125000
G01 X245.476524 Y226.679763 Z-0.125000
G01 X243.880397 Y228.275890 Z-0.125000
G01 X243.082333 Y229.872017 Z-0.125000
G01 X242.284270 Y231.468144 Z-0.125000
G01 X241.486206 Y233.064271 Z-0.125000
G01 X239.092016 Y232.266208 Z-0.125000
G01 X238.293953 Y233.862335 Z-0.125000
G01 X237.495889 Y236.256525 Z-0.125000
G01 X236.697826 Y238.650715 Z-0.125000
G01 X235.899762 Y240.246842 Z-0.125000
G01 X235.101699 Y241.842969 Z-0.125000
G01 X235.101699 Y244.237160 Z-0.125000
G01 X237.495889 Y243.439096 Z-0.125000
G01 X238.293953 Y241.044906 Z-0.125000
G01 X239.092016 Y238.650715 Z-0.125000
G01 X239.890079 Y237.054588 Z-0.125000
G01 X240.688143 Y235.458461 Z-0.125000
G01 X243.082333 Y235.458461 Z-0.125000
G01 X242.284270 Y237.852652 Z-0.125000
G01 X244.678460 Y237.852652 Z-0.125000
G01 X245.476524 Y236.256525 Z-0.125000
G01 X244.678460 Y233.862335 Z-0.125000
G01 X245.476524 Y232.266208 Z-0.125000
G01 X246.274587 Y230.670081 Z-0.125000
G01 X247.072651 Y229.073954 Z-0.125000
G01 X247.870714 Y227.477827 Z-0.125000
G01 X247.072651 Y225.083636 Z-0.125000
G01 X249.466841 Y225.083636 Z-0.125000
G01 X249.466841 Y222.689446 Z-0.125000
G01 X250.264904 Y220.295256 Z-0.125000
G01 X250.264904 Y217.901065 Z-0.125000
G01 X252.659095 Y218.699129 Z-0.125000
G01 X251.861031 Y216.304938 Z-0.125000
G01 X254.255222 Y217.103002 Z-0.125000
G01 X253.457158 Y214.708812 Z-0.125000
G01 X252.659095 Y212.314621 Z-0.125000
G01 X250.264904 Y212.314621 Z-0.125000
G01 X249.466841 Y213.910748 Z-0.125000
G01 X248.668777 Y215.506875 Z-0.125000
G01 X247.870714 Y217.901065 Z-0.125000
G01 X247.870714 Y220.295256 Z-0.125000
G01 X247.072651 Y222.689446 Z-0.125000
G01 X245.476524 Y221.093319 Z-0.125000
G01 X245.476524 Y218.699129 Z-0.125000
G01 X245.476524 Y216.304938 Z-0.125000
G01 X246.274587 Y214.708812 Z-0.125000
G01 X246.274587 Y212.314621 Z-0.125000
G01 X246.274587 Y209.920431 Z-0.125000
G01 X247.870714 Y210.718494 Z-0.125000
G01 X250.264904 Y209.920431 Z-0.125000
G01 X252.659095 Y209.920431 Z-0.125000
G01 X253.457158 Y209.122367 Z-0.125000
G01 X254.255222 Y207.526240 Z-0.125000
G01 X253.457158 Y205.132050 Z-0.125000
G01 X251.062968 Y205.930113 Z-0.125000
G01 X249.466841 Y207.526240 Z-0.125000
G01 X247.072651 Y207.526240 Z-0.125000
G01 X247.072651 Y205.132050 Z-0.125000
G01 X248.668777 Y204.333987 Z-0.125000
G01 X251.062968 Y203.535923 Z-0.125000
G01 X251.861031 Y201.939796 Z-0.125000
G01 X253.457158 Y201.141733 Z-0.125000
G01 X254.255222 Y199.545606 Z-0.125000
G01 X256.649412 Y198.747542 Z-0.125000
G01 X257.447476 Y197.151415 Z-0.125000
G01 X259.043602 Y195.555288 Z-0.125000
G01 X260.639729 Y193.959162 Z-0.125000
G01 X262.235856 Y194.757225 Z-0.125000
G01 X262.235856 Y192.363035 Z-0.125000
G01 X263.033920 Y191.564971 Z-0.125000
G01 X265.428110 Y189.968844 Z-0.125000
G01 X265.428110 Y187.574654 Z-0.125000
G01 X265.428110 Y185.180463 Z-0.125000
G01 X265.428110 Y182.786273 Z-0.125000
G01 X266.226174 Y181.190146 Z-0.125000
G01 X267.822301 Y180.392083 Z-0.125000
G01 X268.620364 Y177.997892 Z-0.125000
G01 X269.418427 Y176.401765 Z-0.125000
G01 X270.216491 Y175.603702 Z-0.125000
G01 X269.418427 Y173.209512 Z-0.125000
G01 X270.216491 Y171.613385 Z-0.125000
G01 X271.812618 Y170.815321 Z-0.125000
G01 X274.206808 Y170.815321 Z-0.125000
G01 X274.206808 Y168.421131 Z-0.125000
G01 X276.600999 Y167.623067 Z-0.125000
G01 X276.600999 Y170.017258 Z-0.125000
G01 X278.995189 Y170.017258 Z-0.125000
G01 X279.793252 Y168.421131 Z-0.125000
G01 X281.389379 Y169.219194 Z-0.125000
G01 X283.783570 Y168.421131 Z-0.125000
G01 X285.379697 Y167.623067 Z-0.125000
G01 X286.177760 Y166.026940 Z-0.125000
G01 X285.379697 Y163.632750 Z-0.125000
G01 X287.773887 Y163.632750 Z-0.125000
G01 X290.168077 Y163.632750 Z-0.125000
G01 X289.370014 Y166.026940 Z-0.125000
G01 X288.571951 Y168.421131 Z-0.125000
G01 X287.773887 Y170.017258 Z-0.125000
G01 X286.975824 Y172.411448 Z-0.125000
G01 X285.379697 Y171.613385 Z-0.125000
G01 X284.581633 Y174.007575 Z-0.125000
G01 X282.985506 Y171.613385 Z-0.125000
G01 X282.187443 Y174.007575 Z-0.125000
G01 X280.591316 Y173.209512 Z-0.125000
G01 X279.793252 Y174.805638 Z-0.125000
G01 X278.995189 Y176.401765 Z-0.125000
G01 X278.995189 Y178.795956 Z-0.125000
G01 X278.197126 Y179.594019 Z-0.125000
G01 X277.399062 Y181.190146 Z-0.125000
G01 X278.995189 Y183.584337 Z-0.125000
G01 X276.600999 Y183.584337 Z-0.125000
G01 X277.399062 Y185.978527 Z-0.125000
G01 X279.793252 Y186.776590 Z-0.125000
G01 X281.389379 Y185.180463 Z-0.125000
G01 X281.389379 Y182.786273 Z-0.125000
G01 X282.187443 Y181.988210 Z-0.125000
G01 X282.985506 Y180.392083 Z-0.125000
G01 X284.581633 Y178.795956 Z-0.125000
G01 X282.187443 Y177.199829 Z-0.125000
G01 X284.581633 Y176.401765 Z-0.125000
G01 X286.975824 Y175.603702 Z-0.125000
G01 X286.975824 Y177.997892 Z-0.125000
G01 X286.975824 Y180.392083 Z-0.125000
G01 X286.177760 Y181.988210 Z-0.125000
G01 X284.581633 Y183.584337 Z-0.125000
G01 X284.581633 Y185.978527 Z-0.125000
G01 X282.985506 Y187.574654 Z-0.125000
G01 X281.389379 Y189.170781 Z-0.125000
G01 X280.591316 Y190.766908 Z-0.125000
G01 X278.995189 Y192.363035 Z-0.125000
G01 X277.399062 Y190.766908 Z-0.125000
G01 X278.197126 Y188.372717 Z-0.125000
G01 X275.802935 Y188.372717 Z-0.125000
G01 X274.206808 Y189.170781 Z-0.125000
G01 X273.408745 Y190.766908 Z-0.125000
G01 X271.014554 Y191.564971 Z-0.125000
G01 X270.216491 Y189.170781 Z-0.125000
G01 X271.014554 Y187.574654 Z-0.125000
G01 X272.610681 Y186.776590 Z-0.125000
G01 X275.004872 Y185.978527 Z-0.125000
G01 X274.206808 Y183.584337 Z-0.125000
G01 X274.206808 Y181.190146 Z-0.125000
G01 X275.004872 Y179.594019 Z-0.125000
G01 X275.004872 Y177.199829 Z-0.125000
G01 X275.802935 Y175.603702 Z-0.125000
G01 X277.399062 Y172.411448 Z-0.125000
G01 X275.802935 Y173.209512 Z-0.125000
G01 X273.408745 Y173.209512 Z-0.125000
G01 X272.610681 Y174.805638 Z-0.125000
G01 X272.610681 Y177.199829 Z-0.125000
G01 X271.812618 Y179.594019 Z-0.125000
G01 X271.014554 Y181.190146 Z-0.125000
G01 X271.812618 Y183.584337 Z-0.125000
G01 X269.418427 Y182.786273 Z-0.125000
G01 X269.418427 Y185.180463 Z-0.125000
G01 X267.822301 Y184.382400 Z-0.125000
G01 X267.822301 Y186.776590 Z-0.125000
G01 X267.822301 Y189.170781 Z-0.125000
G01 X268.620364 Y191.564971 Z-0.125000
G01 X267.024237 Y192.363035 Z-0.125000
G01 X265.428110 Y193.959162 Z-0.125000
G01 X265.428110 Y196.353352 Z-0.125000
G01 X263.831983 Y197.151415 Z-0.125000
G01 X261.437793 Y197.151415 Z-0.125000
G01 X261.437793 Y199.545606 Z-0.125000
G01 X259.841666 Y198.747542 Z-0.125000
G01 X259.043602 Y200.343669 Z-0.125000
G01 X256.649412 Y201.141733 Z-0.125000
G01 X255.053285 Y203.535923 Z-0.125000
G01 X259.043602 Y202.737860 Z-0.125000
G01 X258.245539 Y204.333987 Z-0.125000
G01 X257.447476 Y205.132050 Z-0.125000
G01 X256.649412 Y206.728177 Z-0.125000
G01 X256.649412 Y209.122367 Z-0.125000
G01 X259.043602 Y208.324304 Z-0.125000
G01 X260.639729 Y206.728177 Z-0.125000
G01 X261.437793 Y204.333987 Z-0.125000
G01 X262.235856 Y202.737860 Z-0.125000
G01 X263.831983 Y201.141733 Z-0.125000
G01 X264.630047 Y199.545606 Z-0.125000
G01 X267.024237 Y198.747542 Z-0.125000
G01 X268.620364 Y197.949479 Z-0.125000
G01 X267.822301 Y195.555288 Z-0.125000
G01 X269.418427 Y194.757225 Z-0.125000
G01 X271.812618 Y193.959162 Z-0.125000
G01 X273.408745 Y193.161098 Z-0.125000
G01 X275.802935 Y192.363035 Z-0.125000
G01 X275.802935 Y194.757225 Z-0.125000
G01 X278.197126 Y194.757225 Z-0.125000
G01 X280.591316 Y194.757225 Z-0.125000
G01 X279.793252 Y197.151415 Z-0.125000
G01 X277.399062 Y197.151415 Z-0.125000
G01 X276.600999 Y198.747542 Z-0.125000
G01 X278.995189 Y199.545606 Z-0.125000
G01 X277.399062 Y201.141733 Z-0.125000
G01 X276.600999 Y202.737860 Z-0.125000
G01 X276.600999 Y205.132050 Z-0.125000
G01 X274.206808 Y205.132050 Z-0.125000
G01 X274.206808 Y202.737860 Z-0.125000
G01 X274.206808 Y200.343669 Z-0.125000
G01 X274.206808 Y198.747542 Z-0.125000
G01 X274.206808 Y196.353352 Z-0.125000
G01 X271.812618 Y196.353352 Z-0.125000
G01 X271.014554 Y197.949479 Z-0.125000
G01 X271.812618 Y200.343669 Z-0.125000
G01 X271.812618 Y202.737860 Z-0.125000
G01 X271.812618 Y205.132050 Z-0.125000
G01 X271.014554 Y206.728177 Z-0.125000
G01 X268.620364 Y207.526240 Z-0.125000
G01 X266.226174 Y207.526240 Z-0.125000
G01 X267.024237 Y205.132050 Z-0.125000
G01 X268.620364 Y204.333987 Z-0.125000
G01 X269.418427 Y202.737860 Z-0.125000
G01 X269.418427 Y200.343669 Z-0.125000
G01 X267.024237 Y201.141733 Z-0.125000
G01 X265.428110 Y202.737860 Z-0.125000
G01 X264.630047 Y205.132050 Z-0.125000
G01 X263.831983 Y206.728177 Z-0.125000
G01 X263.033920 Y208.324304 Z-0.125000
G01 X263.831983 Y210.718494 Z-0.125000
G01 X261.437793 Y209.920431 Z-0.125000
G01 X259.043602 Y210.718494 Z-0.125000
G01 X257.447476 Y211.516558 Z-0.125000
G01 X255.053285 Y212.314621 Z-0.125000
G01 X255.851349 Y214.708812 Z-0.125000
G01 X257.447476 Y213.910748 Z-0.125000
G01 X259.841666 Y213.910748 Z-0.125000
G01 X261.437793 Y212.314621 Z-0.125000
G01 X263.831983 Y213.112685 Z-0.125000
G01 X263.033920 Y214.708812 Z-0.125000
G01 X261.437793 Y216.304938 Z-0.125000
G01 X263.831983 Y217.103002 Z-0.125000
G01 X262.235856 Y218.699129 Z-0.125000
G01 X261.437793 Y219.497192 Z-0.125000
G01 X259.043602 Y219.497192 Z-0.125000
G01 X259.043602 Y217.103002 Z-0.125000
G01 X256.649412 Y217.103002 Z-0.125000
G01 X255.851349 Y219.497192 Z-0.125000
G01 X255.053285 Y221.891383 Z-0.125000
G01 X253.457158 Y221.093319 Z-0.125000
G01 X252.659095 Y222.689446 Z-0.125000
G01 X251.861031 Y224.285573 Z-0.125000
G01 X254.255222 Y225.083636 Z-0.125000
G01 X256.649412 Y224.285573 Z-0.125000
G01 X257.447476 Y221.891383 Z-0.125000
G01 X259.841666 Y221.891383 Z-0.125000
G01 X262.235856 Y221.891383 Z-0.125000
G01 X264.630047 Y221.891383 Z-0.125000
G01 X265.428110 Y220.295256 Z-0.125000
G01 X266.226174 Y218.699129 Z-0.125000
G01 X266.226174 Y216.304938 Z-0.125000
G01 X267.024237 Y214.708812 Z-0.125000
G01 X266.226174 Y212.314621 Z-0.125000
G01 X266.226174 Y209.920431 Z-0.125000
G01 X268.620364 Y209.920431 Z-0.125000
G01 X268.620364 Y212.314621 Z-0.125000
G01 X269.418427 Y214.708812 Z-0.125000
G01 X271.014554 Y213.910748 Z-0.125000
G01 X271.812618 Y212.314621 Z-0.125000
G01 X271.014554 Y209.920431 Z-0.125000
G01 X271.812618 Y209.122367 Z-0.125000
G01 X274.206808 Y208.324304 Z-0.125000
G01 X274.206808 Y210.718494 Z-0.125000
G01 X276.600999 Y209.920431 Z-0.125000
G01 X276.600999 Y207.526240 Z-0.125000
G01 X278.995189 Y207.526240 Z-0.125000
G01 X278.995189 Y205.132050 Z-0.125000
G01 X279.793252 Y203.535923 Z-0.125000
G01 X280.591316 Y202.737860 Z-0.125000
G01 X281.389379 Y201.141733 Z-0.125000
G01 X282.187443 Y199.545606 Z-0.125000
G01 X282.187443 Y197.151415 Z-0.125000
G01 X283.783570 Y196.353352 Z-0.125000
G01 X282.985506 Y193.959162 Z-0.125000
G01 X283.783570 Y191.564971 Z-0.125000
G01 X284.581633 Y189.968844 Z-0.125000
G01 X286.177760 Y188.372717 Z-0.125000
G01 X286.975824 Y185.978527 Z-0.125000
G01 X287.773887 Y184.382400 Z-0.125000
G01 X289.370014 Y182.786273 Z-0.125000
G01 X290.168077 Y181.190146 Z-0.125000
G01 X290.966141 Y179.594019 Z-0.125000
G01 X289.370014 Y177.199829 Z-0.125000
G01 X289.370014 Y174.805638 Z-0.125000
G01 X290.168077 Y173.209512 Z-0.125000
G01 X290.966141 Y170.815321 Z-0.125000
G01 X290.966141 Y168.421131 Z-0.125000
G01 X292.562268 Y166.825004 Z-0.125000
G01 X294.956458 Y166.026940 Z-0.125000
G01 X297.350649 Y165.228877 Z-0.125000
G01 X298.946776 Y164.430813 Z-0.125000
G01 X299.744839 Y162.834687 Z-0.125000
G01 X301.340966 Y161.238560 Z-0.125000
G01 X302.937093 Y159.642433 Z-0.125000
G01 X302.937093 Y157.248242 Z-0.125000
G01 X305.331283 Y156.450179 Z-0.125000
G01 X305.331283 Y154.055988 Z-0.125000
G01 X306.129347 Y153.257925 Z-0.125000
G01 X305.331283 Y150.863735 Z-0.125000
G01 X306.129347 Y150.065671 Z-0.125000
G01 X308.523537 Y149.267608 Z-0.125000
G01 X309.321601 Y146.873417 Z-0.125000
G01 X306.927410 Y146.873417 Z-0.125000
G01 X305.331283 Y146.075354 Z-0.125000
G01 X304.533220 Y147.671481 Z-0.125000
G01 X302.937093 Y149.267608 Z-0.125000
G01 X302.937093 Y151.661798 Z-0.125000
G01 X301.340966 Y150.863735 Z-0.125000
G01 X300.542902 Y152.459862 Z-0.125000
G01 X302.937093 Y154.854052 Z-0.125000
G01 X300.542902 Y155.652115 Z-0.125000
G01 X299.744839 Y158.046306 Z-0.125000
G01 X298.148712 Y159.642433 Z-0.125000
G01 X297.350649 Y161.238560 Z-0.125000
G01 X295.754522 Y162.834687 Z-0.125000
G01 X292.562268 Y163.632750 Z-0.125000
G01 X293.360331 Y162.834687 Z-0.125000
G01 X292.562268 Y160.440496 Z-0.125000
G01 X294.158395 Y159.642433 Z-0.125000
G01 X294.956458 Y158.046306 Z-0.125000
G01 X296.552585 Y156.450179 Z-0.125000
G01 X297.350649 Y154.854052 Z-0.125000
G01 X298.148712 Y153.257925 Z-0.125000
G01 X298.148712 Y150.863735 Z-0.125000
G01 X297.350649 Y148.469544 Z-0.125000
G01 X295.754522 Y149.267608 Z-0.125000
G01 X294.956458 Y150.863735 Z-0.125000
G01 X294.956458 Y153.257925 Z-0.125000
G01 X293.360331 Y154.854052 Z-0.125000
G01 X291.764204 Y155.652115 Z-0.125000
G01 X290.966141 Y157.248242 Z-0.125000
G01 X290.168077 Y158.844369 Z-0.125000
G01 X290.168077 Y161.238560 Z-0.125000
G01 X287.773887 Y161.238560 Z-0.125000
G01 X286.975824 Y158.844369 Z-0.125000
G01 X285.379697 Y161.238560 Z-0.125000
G01 X282.985506 Y160.440496 Z-0.125000
G01 X283.783570 Y158.844369 Z-0.125000
G01 X284.581633 Y157.248242 Z-0.125000
G01 X285.379697 Y155.652115 Z-0.125000
G01 X287.773887 Y156.450179 Z-0.125000
G01 X286.975824 Y154.055988 Z-0.125000
G01 X289.370014 Y154.055988 Z-0.125000
G01 X290.168077 Y151.661798 Z-0.125000
G01 X292.562268 Y151.661798 Z-0.125000
G01 X292.562268 Y149.267608 Z-0.125000
G01 X293.360331 Y147.671481 Z-0.125000
G01 X294.158395 Y146.075354 Z-0.125000
G01 X296.552585 Y146.075354 Z-0.125000
G01 X297.350649 Y143.681163 Z-0.125000
G01 X294.956458 Y143.681163 Z-0.125000
G01 X292.562268 Y143.681163 Z-0.125000
G01 X290.966141 Y145.277290 Z-0.125000
G01 X290.168077 Y146.873417 Z-0.125000
G01 X290.168077 Y149.267608 Z-0.125000
G01 X288.571951 Y150.065671 Z-0.125000
G01 X286.975824 Y151.661798 Z-0.125000
G01 X284.581633 Y152.459862 Z-0.125000
G01 X282.187443 Y152.459862 Z-0.125000
G01 X282.187443 Y154.854052 Z-0.125000
G01 X281.389379 Y156.450179 Z-0.125000
G01 X280.591316 Y158.046306 Z-0.125000
G01 X279.793252 Y158.844369 Z-0.125000
G01 X278.995189 Y160.440496 Z-0.125000
G01 X277.399062 Y162.036623 Z-0.125000
G01 X279.793252 Y162.834687 Z-0.125000
G01 X282.187443 Y162.036623 Z-0.125000
G01 X282.985506 Y164.430813 Z-0.125000
G01 X282.187443 Y166.026940 Z-0.125000
G01 X278.995189 Y166.026940 Z-0.125000
G01 X276.600999 Y165.228877 Z-0.125000
G01 X275.004872 Y162.036623 Z-0.125000
G01 X273.408745 Y163.632750 Z-0.125000
G01 X274.206808 Y166.026940 Z-0.125000
G01 X271.812618 Y166.026940 Z-0.125000
G01 X271.014554 Y168.421131 Z-0.125000
G01 X268.620364 Y169.219194 Z-0.125000
G01 X267.024237 Y170.815321 Z-0.125000
G01 X264.630047 Y170.017258 Z-0.125000
G01 X262.235856 Y170.815321 Z-0.125000
G01 X259.841666 Y171.613385 Z-0.125000
G01 X259.043602 Y173.209512 Z-0.125000
G01 X258.245539 Y175.603702 Z-0.125000
G01 X255.851349 Y175.603702 Z-0.125000
G01 X255.851349 Y177.997892 Z-0.125000
G01 X254.255222 Y179.594019 Z-0.125000
G01 X255.851349 Y181.988210 Z-0.125000
G01 X255.053285 Y183.584337 Z-0.125000
G01 X254.255222 Y185.978527 Z-0.125000
G01 X253.457158 Y187.574654 Z-0.125000
G01 X255.851349 Y188.372717 Z-0.125000
G01 X256.649412 Y185.978527 Z-0.125000
G01 X258.245539 Y184.382400 Z-0.125000
G01 X259.043602 Y182.786273 Z-0.125000
G01 X258.245539 Y180.392083 Z-0.125000
G01 X258.245539 Y177.997892 Z-0.125000
G01 X260.639729 Y177.997892 Z-0.125000
G01 X261.437793 Y176.401765 Z-0.125000
G01 X262.235856 Y174.805638 Z-0.125000
G01 X263.033920 Y174.007575 Z-0.125000
G01 X264.630047 Y172.411448 Z-0.125000
G01 X267.024237 Y174.007575 Z-0.125000
G01 X265.428110 Y175.603702 Z-0.125000
G01 X266.226174 Y177.997892 Z-0.125000
G01 X263.831983 Y177.997892 Z-0.125000
G01 X263.033920 Y180.392083 Z-0.125000
G01 X261.437793 Y181.190146 Z-0.125000
G01 X260.639729 Y183.584337 Z-0.125000
G01 X263.033920 Y183.584337 Z-0.125000
G01 X263.033920 Y185.978527 Z-0.125000
G01 X263.033920 Y188.372717 Z-0.125000
G01 X261.437793 Y189.170781 Z-0.125000
G01 X260.639729 Y186.776590 Z-0.125000
G01 X258.245539 Y186.776590 Z-0.125000
G01 X259.043602 Y189.170781 Z-0.125000
G01 X257.447476 Y190.766908 Z-0.125000
G01 X259.043602 Y191.564971 Z-0.125000
G01 X257.447476 Y193.161098 Z-0.125000
G01 X255.851349 Y194.757225 Z-0.125000
G01 X254.255222 Y196.353352 Z-0.125000
G01 X252.659095 Y195.555288 Z-0.125000
G01 X253.457158 Y193.161098 Z-0.125000
G01 X255.053285 Y191.564971 Z-0.125000
G01 X253.457158 Y189.968844 Z-0.125000
G01 X251.861031 Y189.170781 Z-0.125000
G01 X251.062968 Y190.766908 Z-0.125000
G01 X250.264904 Y192.363035 Z-0.125000
G01 X249.466841 Y193.959162 Z-0.125000
G01 X249.466841 Y196.353352 Z-0.125000
G01 X251.861031 Y197.151415 Z-0.125000
G01 X251.062968 Y198.747542 Z-0.125000
G01 X248.668777 Y198.747542 Z-0.125000
G01 X249.466841 Y201.141733 Z-0.125000
G01 X247.072651 Y201.141733 Z-0.125000
G01 X246.274587 Y201.939796 Z-0.125000
G01 X244.678460 Y203.535923 Z-0.125000
G01 X244.678460 Y205.930113 Z-0.125000
G01 X243.880397 Y207.526240 Z-0.125000
G01 X243.880397 Y209.920431 Z-0.125000
G01 X241.486206 Y209.920431 Z-0.125000
G01 X239.092016 Y210.718494 Z-0.125000
G01 X236.697826 Y209.920431 Z-0.125000
G01 X237.495889 Y208.324304 Z-0.125000
G01 X239.092016 Y207.526240 Z-0.125000
G01 X241.486206 Y207.526240 Z-0.125000
G01 X241.486206 Y205.132050 Z-0.125000
G01 X242.284270 Y203.535923 Z-0.125000
G01 X243.082333 Y201.141733 Z-0.125000
G01 X243.082333 Y198.747542 Z-0.125000
G01 X245.476524 Y198.747542 Z-0.125000
G01 X246.274587 Y197.151415 Z-0.125000
G01 X247.072651 Y195.555288 Z-0.125000
G01 X246.274587 Y193.161098 Z-0.125000
G01 X247.072651 Y191.564971 Z-0.125000
G01 X248.668777 Y189.968844 Z-0.125000
G01 X250.264904 Y186.776590 Z-0.125000
G01 X251.062968 Y185.180463 Z-0.125000
G01 X252.659095 Y183.584337 Z-0.125000
G01 X252.659095 Y181.190146 Z-0.125000
G01 X250.264904 Y181.988210 Z-0.125000
G01 X248.668777 Y182.786273 Z-0.125000
G01 X247.870714 Y185.180463 Z-0.125000
G01 X247.870714 Y187.574654 Z-0.125000
G01 X246.274587 Y188.372717 Z-0.125000
G01 X243.880397 Y188.372717 Z-0.125000
G01 X244.678460 Y190.766908 Z-0.125000
G01 X243.880397 Y192.363035 Z-0.125000
G01 X243.880397 Y194.757225 Z-0.125000
G01 X243.082333 Y196.353352 Z-0.125000
G01 X240.688143 Y196.353352 Z-0.125000
G01 X240.688143 Y198.747542 Z-0.125000
G01 X240.688143 Y201.141733 Z-0.125000
G01 X239.092016 Y200.343669 Z-0.125000
G01 X236.697826 Y201.141733 Z-0.125000
G01 X236.697826 Y203.535923 Z-0.125000
G01 X239.092016 Y202.737860 Z-0.125000
G01 X239.092016 Y205.132050 Z-0.125000
G01 X236.697826 Y205.930113 Z-0.125000
G01 X234.303635 Y207.526240 Z-0.125000
G01 X233.505572 Y208.324304 Z-0.125000
G01 X234.303635 Y210.718494 Z-0.125000
G01 X231.909445 Y210.718494 Z-0.125000
G01 X231.111381 Y212.314621 Z-0.125000
G01 X230.313318 Y214.708812 Z-0.125000
G01 X232.707508 Y213.910748 Z-0.125000
G01 X235.101699 Y213.112685 Z-0.125000
G01 X236.697826 Y212.314621 Z-0.125000
G01 X237.495889 Y214.708812 Z-0.125000
G01 X235.101699 Y215.506875 Z-0.125000
G01 X232.707508 Y216.304938 Z-0.125000
G01 X230.313318 Y217.103002 Z-0.125000
G01 X229.515254 Y218.699129 Z-0.125000
G01 X230.313318 Y221.093319 Z-0.125000
G01 X231.909445 Y220.295256 Z-0.125000
G01 X232.707508 Y218.699129 Z-0.125000
G01 X235.101699 Y217.901065 Z-0.125000
G01 X237.495889 Y217.901065 Z-0.125000
G01 X238.293953 Y217.103002 Z-0.125000
G01 X240.688143 Y217.103002 Z-0.125000
G01 X239.890079 Y214.708812 Z-0.125000
G01 X239.890079 Y213.112685 Z-0.125000
G01 X241.486206 Y212.314621 Z-0.125000
G01 X243.880397 Y212.314621 Z-0.125000
G01 X243.082333 Y214.708812 Z-0.125000
G01 X243.082333 Y217.103002 Z-0.125000
G01 X243.082333 Y219.497192 Z-0.125000
G01 X240.688143 Y219.497192 Z-0.125000
G01 X238.293953 Y220.295256 Z-0.125000
G01 X235.899762 Y220.295256 Z-0.125000
G01 X235.101699 Y221.093319 Z-0.125000
G01 X234.303635 Y222.689446 Z-0.125000
G01 X231.909445 Y223.487510 Z-0.125000
G01 X229.515254 Y222.689446 Z-0.125000
G01 X227.919128 Y223.487510 Z-0.125000
G01 X229.515254 Y225.083636 Z-0.125000
G01 X227.121064 Y225.881700 Z-0.125000
G01 X225.524937 Y227.477827 Z-0.125000
G01 X227.919128 Y228.275890 Z-0.125000
G01 X227.121064 Y229.872017 Z-0.125000
G01 X226.323001 Y232.266208 Z-0.125000
G01 X224.726874 Y233.862335 Z-0.125000
G01 X221.534620 Y234.660398 Z-0.125000
G01 X222.332683 Y232.266208 Z-0.125000
G01 X223.928810 Y229.872017 Z-0.125000
G01 X221.534620 Y229.872017 Z-0.125000
G01 X219.140429 Y229.872017 Z-0.125000
G01 X219.938493 Y232.266208 Z-0.125000
G01 X218.342366 Y233.862335 Z-0.125000
G01 X219.140429 Y236.256525 Z-0.125000
G01 X215.948176 Y235.458461 Z-0.125000
G01 X215.948176 Y237.852652 Z-0.125000
G01 X214.352049 Y240.246842 Z-0.125000
G01 X211.957858 Y240.246842 Z-0.125000
G01 X210.361731 Y241.842969 Z-0.125000
G01 X210.361731 Y244.237160 Z-0.125000
G01 X207.169478 Y242.641033 Z-0.125000
G01 X206.371414 Y245.035223 Z-0.125000
G01 X205.573351 Y247.429413 Z-0.125000
G01 X203.977224 Y249.025540 Z-0.125000
G01 X204.775287 Y251.419731 Z-0.125000
G01 X203.179160 Y252.217794 Z-0.125000
G01 X202.381097 Y253.813921 Z-0.125000
G01 X200.784970 Y255.410048 Z-0.125000
G01 X199.188843 Y254.611985 Z-0.125000
G01 X199.188843 Y257.006175 Z-0.125000
G01 X199.188843 Y259.400365 Z-0.125000
G01 X202.381097 Y259.400365 Z-0.125000
G01 X203.179160 Y257.006175 Z-0.125000
G01 X204.775287 Y255.410048 Z-0.125000
G01 X205.573351 Y253.813921 Z-0.125000
G01 X207.967541 Y253.813921 Z-0.125000
G01 X207.169478 Y251.419731 Z-0.125000
G01 X207.967541 Y250.621667 Z-0.125000
G01 X210.361731 Y250.621667 Z-0.125000
G01 X208.765604 Y248.227477 Z-0.125000
G01 X210.361731 Y246.631350 Z-0.125000
G01 X213.553985 Y245.833286 Z-0.125000
G01 X214.352049 Y243.439096 Z-0.125000
G01 X216.746239 Y245.833286 Z-0.125000
G01 X217.544303 Y243.439096 Z-0.125000
G01 X217.544303 Y241.044906 Z-0.125000
G01 X219.140429 Y239.448779 Z-0.125000
G01 X221.534620 Y237.852652 Z-0.125000
G01 X223.928810 Y237.054588 Z-0.125000
G01 X225.524937 Y236.256525 Z-0.125000
G01 X227.919128 Y235.458461 Z-0.125000
G01 X228.717191 Y233.862335 Z-0.125000
G01 X229.515254 Y232.266208 Z-0.125000
G01 X229.515254 Y230.670081 Z-0.125000
G01 X231.111381 Y229.872017 Z-0.125000
G01 X230.313318 Y227.477827 Z-0.125000
G01 X231.909445 Y226.679763 Z-0.125000
G01 X233.505572 Y225.083636 Z-0.125000
G01 X234.303635 Y227.477827 Z-0.125000
G01 X233.505572 Y229.073954 Z-0.125000
G01 X233.505572 Y231.468144 Z-0.125000
G01 X232.707508 Y233.064271 Z-0.125000
G01 X231.909445 Y234.660398 Z-0.125000
G01 X231.111381 Y236.256525 Z-0.125000
G01 X230.313318 Y237.852652 Z-0.125000
G01 X227.919128 Y237.852652 Z-0.125000
G01 X228.717191 Y240.246842 Z-0.125000
G01 X230.313318 Y241.044906 Z-0.125000
G01 X227.919128 Y241.842969 Z-0.125000
G01 X227.919128 Y244.237160 Z-0.125000
G01 X227.121064 Y245.833286 Z-0.125000
G01 X226.323001 Y247.429413 Z-0.125000
G01 X224.726874 Y249.025540 Z-0.125000
G01 X223.928810 Y250.621667 Z-0.125000
G01 X223.928810 Y253.015858 Z-0.125000
G01 X221.534620 Y253.015858 Z-0.125000
G01 X221.534620 Y250.621667 Z-0.125000
G01 X222.332683 Y248.227477 Z-0.125000
G01 X223.130747 Y246.631350 Z-0.125000
G01 X223.928810 Y245.035223 Z-0.125000
G01 X224.726874 Y243.439096 Z-0.125000
G01 X225.524937 Y241.842969 Z-0.125000
G01 X225.524937 Y239.448779 Z-0.125000
G01 X223.130747 Y240.246842 Z-0.125000
G01 X221.534620 Y241.842969 Z-0.125000
G01 X220.736556 Y243.439096 Z-0.125000
G01 X219.938493 Y245.833286 Z-0.125000
G01 X219.938493 Y248.227477 Z-0.125000
G01 X219.140429 Y250.621667 Z-0.125000
G01 X219.140429 Y253.015858 Z-0.125000
G01 X218.342366 Y254.611985 Z-0.125000
G01 X216.746239 Y256.208111 Z-0.125000
G01 X213.553985 Y257.006175 Z-0.125000
G01 X214.352049 Y254.611985 Z-0.125000
G01 X215.948176 Y253.015858 Z-0.125000
G01 X216.746239 Y250.621667 Z-0.125000
G01 X217.544303 Y248.227477 Z-0.125000
G01 X215.150112 Y248.227477 Z-0.125000
G01 X214.352049 Y250.621667 Z-0.125000
G01 X212.755922 Y249.823604 Z-0.125000
G01 X212.755922 Y252.217794 Z-0.125000
G01 X211.159795 Y253.015858 Z-0.125000
G01 X210.361731 Y254.611985 Z-0.125000
G01 X210.361731 Y257.006175 Z-0.125000
G01 X208.765604 Y257.804238 Z-0.125000
G01 X206.371414 Y258.602302 Z-0.125000
G01 X206.371414 Y262.592619 Z-0.125000
G01 X203.179160 Y263.390683 Z-0.125000
G01 X199.986906 Y262.592619 Z-0.125000
G01 X200.784970 Y265.784873 Z-0.125000
G01 X198.390779 Y266.582936 Z-0.125000
G01 X195.996589 Y267.381000 Z-0.125000
G01 X192.804335 Y268.977127 Z-0.125000
G01 X189.612081 Y268.977127 Z-0.125000
G01 X188.814018 Y271.371317 Z-0.125000
G01 X187.217891 Y272.169381 Z-0.125000
G01 X187.217891 Y274.563571 Z-0.125000
G01 X184.823701 Y273.765508 Z-0.125000
G01 X184.025637 Y275.361635 Z-0.125000
G01 X184.025637 Y277.755825 Z-0.125000
G01 X184.025637 Y280.150015 Z-0.125000
G01 X182.429510 Y281.746142 Z-0.125000
G01 X179.237256 Y281.746142 Z-0.125000
G01 X176.045003 Y282.544206 Z-0.125000
G01 X175.246939 Y279.351952 Z-0.125000
G01 X176.843066 Y277.755825 Z-0.125000
G01 X180.035320 Y277.755825 Z-0.125000
G01 X180.833383 Y275.361635 Z-0.125000
G01 X180.833383 Y272.967444 Z-0.125000
G01 X182.429510 Y271.371317 Z-0.125000
G01 X184.823701 Y269.775190 Z-0.125000
G01 X185.621764 Y267.381000 Z-0.125000
G01 X187.217891 Y265.784873 Z-0.125000
G01 X186.419828 Y262.592619 Z-0.125000
G01 X184.823701 Y264.188746 Z-0.125000
G01 X182.429510 Y264.986810 Z-0.125000
G01 X181.631447 Y267.381000 Z-0.125000
G01 X180.035320 Y268.977127 Z-0.125000
G01 X178.439193 Y270.573254 Z-0.125000
G01 X177.641129 Y272.967444 Z-0.125000
G01 X176.843066 Y274.563571 Z-0.125000
G01 X173.650812 Y274.563571 Z-0.125000
G01 X174.448876 Y271.371317 Z-0.125000
G01 X174.448876 Y268.977127 Z-0.125000
G01 X176.045003 Y267.381000 Z-0.125000
G01 X177.641129 Y265.784873 Z-0.125000
G01 X178.439193 Y263.390683 Z-0.125000
G01 X180.833383 Y261.794556 Z-0.125000
G01 X183.227574 Y260.996492 Z-0.125000
G01 X184.823701 Y259.400365 Z-0.125000
G01 X187.217891 Y259.400365 Z-0.125000
G01 X189.612081 Y260.198429 Z-0.125000
G01 X188.814018 Y257.804238 Z-0.125000
G01 X191.208208 Y257.804238 Z-0.125000
G01 X193.602399 Y257.804238 Z-0.125000
G01 X193.602399 Y260.198429 Z-0.125000
G01 X192.804335 Y261.794556 Z-0.125000
G01 X189.612081 Y262.592619 Z-0.125000
G01 X190.410145 Y265.784873 Z-0.125000
G01 X192.804335 Y264.986810 Z-0.125000
G01 X195.996589 Y263.390683 Z-0.125000
G01 X196.794653 Y260.996492 Z-0.125000
G01 X195.996589 Y257.804238 Z-0.125000
G01 X196.794653 Y255.410048 Z-0.125000
G01 X194.400462 Y255.410048 Z-0.125000
G01 X192.006272 Y255.410048 Z-0.125000
G01 X189.612081 Y255.410048 Z-0.125000
G01 X187.217891 Y255.410048 Z-0.125000
G01 X185.621764 Y254.611985 Z-0.125000
G01 X184.823701 Y257.006175 Z-0.125000
G01 X182.429510 Y257.006175 Z-0.125000
G01 X180.833383 Y258.602302 Z-0.125000
G01 X180.035320 Y256.208111 Z-0.125000
G01 X180.833383 Y254.611985 Z-0.125000
G01 X183.227574 Y254.611985 Z-0.125000
G01 X182.429510 Y252.217794 Z-0.125000
G01 X182.429510 Y249.823604 Z-0.125000
G01 X184.823701 Y250.621667 Z-0.125000
G01 X184.823701 Y247.429413 Z-0.125000
G01 X188.015954 Y247.429413 Z-0.125000
G01 X189.612081 Y245.035223 Z-0.125000
G01 X192.804335 Y245.833286 Z-0.125000
G01 X195.198526 Y244.237160 Z-0.125000
G01 X194.400462 Y241.842969 Z-0.125000
G01 X196.794653 Y241.044906 Z-0.125000
G01 X196.794653 Y238.650715 Z-0.125000
G01 X198.390779 Y237.054588 Z-0.125000
G01 X199.986906 Y235.458461 Z-0.125000
G01 X201.583033 Y233.862335 Z-0.125000
G01 X201.583033 Y230.670081 Z-0.125000
G01 X203.977224 Y232.266208 Z-0.125000
G01 X205.573351 Y231.468144 Z-0.125000
G01 X206.371414 Y229.872017 Z-0.125000
G01 X207.169478 Y227.477827 Z-0.125000
G01 X208.765604 Y224.285573 Z-0.125000
G01 X209.563668 Y221.093319 Z-0.125000
G01 X211.159795 Y217.901065 Z-0.125000
G01 X211.957858 Y216.304938 Z-0.125000
G01 X212.755922 Y214.708812 Z-0.125000
G01 X213.553985 Y213.112685 Z-0.125000
G01 X214.352049 Y211.516558 Z-0.125000
G01 X216.746239 Y210.718494 Z-0.125000
G01 X218.342366 Y212.314621 Z-0.125000
G01 X216.746239 Y213.910748 Z-0.125000
G01 X215.948176 Y215.506875 Z-0.125000
G01 X214.352049 Y217.103002 Z-0.125000
G01 X213.553985 Y219.497192 Z-0.125000
G01 X211.957858 Y221.093319 Z-0.125000
G01 X214.352049 Y221.891383 Z-0.125000
G01 X216.746239 Y221.093319 Z-0.125000
G01 X216.746239 Y218.699129 Z-0.125000
G01 X218.342366 Y217.901065 Z-0.125000
G01 X219.140429 Y217.103002 Z-0.125000
G01 X219.938493 Y215.506875 Z-0.125000
G01 X220.736556 Y213.910748 Z-0.125000
G01 X223.130747 Y212.314621 Z-0.125000
G01 X220.736556 Y211.516558 Z-0.125000
G01 X221.534620 Y209.920431 Z-0.125000
G01 X222.332683 Y208.324304 Z-0.125000
G01 X223.928810 Y209.122367 Z-0.125000
G01 X223.928810 Y206.728177 Z-0.125000
G01 X224.726874 Y205.930113 Z-0.125000
G01 X225.524937 Y204.333987 Z-0.125000
G01 X226.323001 Y202.737860 Z-0.125000
G01 X228.717191 Y201.141733 Z-0.125000
G01 X228.717191 Y198.747542 Z-0.125000
G01 X229.515254 Y197.151415 Z-0.125000
G01 X230.313318 Y195.555288 Z-0.125000
G01 X231.111381 Y193.959162 Z-0.125000
G01 X233.505572 Y193.161098 Z-0.125000
G01 X231.111381 Y192.363035 Z-0.125000
G01 X231.909445 Y190.766908 Z-0.125000
G01 X232.707508 Y189.170781 Z-0.125000
G01 X234.303635 Y189.968844 Z-0.125000
G01 X234.303635 Y187.574654 Z-0.125000
G01 X235.101699 Y186.776590 Z-0.125000
G01 X235.899762 Y185.180463 Z-0.125000
G01 X236.697826 Y183.584337 Z-0.125000
G01 X236.697826 Y181.190146 Z-0.125000
G01 X237.495889 Y179.594019 Z-0.125000
G01 X238.293953 Y177.997892 Z-0.125000
G01 X240.688143 Y178.795956 Z-0.125000
G01 X240.688143 Y181.190146 Z-0.125000
G01 X243.880397 Y180.392083 Z-0.125000
G01 X243.082333 Y181.190146 Z-0.125000
G01 X243.082333 Y183.584337 Z-0.125000
G01 X240.688143 Y183.584337 Z-0.125000
G01 X239.092016 Y182.786273 Z-0.125000
G01 X239.092016 Y185.180463 Z-0.125000
G01 X238.293953 Y186.776590 Z-0.125000
G01 X237.495889 Y189.170781 Z-0.125000
G01 X236.697826 Y190.766908 Z-0.125000
G01 X235.899762 Y192.363035 Z-0.125000
G01 X235.899762 Y194.757225 Z-0.125000
G01 X235.101699 Y196.353352 Z-0.125000
G01 X232.707508 Y196.353352 Z-0.125000
G01 X231.909445 Y198.747542 Z-0.125000
G01 X231.111381 Y200.343669 Z-0.125000
G01 X231.111381 Y202.737860 Z-0.125000
G01 X229.515254 Y203.535923 Z-0.125000
G01 X228.717191 Y205.132050 Z-0.125000
G01 X227.919128 Y206.728177 Z-0.125000
G01 X227.121064 Y208.324304 Z-0.125000
G01 X226.323001 Y209.920431 Z-0.125000
G01 X225.524937 Y211.516558 Z-0.125000
G01 X225.524937 Y213.910748 Z-0.125000
G01 X223.928810 Y214.708812 Z-0.125000
G01 X223.130747 Y216.304938 Z-0.125000
G01 X222.332683 Y217.901065 Z-0.125000
G01 X221.534620 Y219.497192 Z-0.125000
G01 X220.736556 Y221.891383 Z-0.125000
G01 X219.140429 Y221.093319 Z-0.125000
G01 X217.544303 Y223.487510 Z-0.125000
G01 X215.948176 Y224.285573 Z-0.125000
G01 X215.150112 Y225.881700 Z-0.125000
G01 X212.755922 Y224.285573 Z-0.125000
G01 X211.957858 Y226.679763 Z-0.125000
G01 X210.361731 Y228.275890 Z-0.125000
G01 X210.361731 Y231.468144 Z-0.125000
G01 X209.563668 Y233.064271 Z-0.125000
G01 X208.765604 Y234.660398 Z-0.125000
G01 X206.371414 Y235.458461 Z-0.125000
G01 X203.977224 Y235.458461 Z-0.125000
G01 X203.977224 Y237.852652 Z-0.125000
G01 X201.583033 Y238.650715 Z-0.125000
G01 X199.986906 Y240.246842 Z-0.125000
G01 X199.986906 Y242.641033 Z-0.125000
G01 X198.390779 Y244.237160 Z-0.125000
G01 X195.996589 Y246.631350 Z-0.125000
G01 X196.794653 Y249.025540 Z-0.125000
G01 X193.602399 Y249.025540 Z-0.125000
G01 X192.006272 Y248.227477 Z-0.125000
G01 X190.410145 Y249.823604 Z-0.125000
G01 X188.015954 Y250.621667 Z-0.125000
G01 X187.217891 Y253.015858 Z-0.125000
G01 X189.612081 Y253.015858 Z-0.125000
G01 X192.006272 Y253.015858 Z-0.125000
G01 X194.400462 Y253.015858 Z-0.125000
G01 X195.198526 Y252.217794 Z-0.125000
G01 X197.592716 Y252.217794 Z-0.125000
G01 X199.986906 Y252.217794 Z-0.125000
G01 X199.986906 Y249.823604 Z-0.125000
G01 X200.784970 Y248.227477 Z-0.125000
G01 X201.583033 Y246.631350 Z-0.125000
G01 X203.179160 Y245.035223 Z-0.125000
G01 X203.179160 Y242.641033 Z-0.125000
G01 X203.977224 Y240.246842 Z-0.125000
G01 X207.169478 Y239.448779 Z-0.125000
G01 X208.765604 Y237.852652 Z-0.125000
G01 X211.957858 Y237.054588 Z-0.125000
G01 X212.755922 Y234.660398 Z-0.125000
G01 X214.352049 Y233.064271 Z-0.125000
G01 X215.948176 Y231.468144 Z-0.125000
G01 X212.755922 Y229.872017 Z-0.125000
G01 X215.150112 Y229.073954 Z-0.125000
G01 X216.746239 Y228.275890 Z-0.125000
G01 X219.140429 Y227.477827 Z-0.125000
G01 X219.938493 Y225.881700 Z-0.125000
G01 X220.736556 Y224.285573 Z-0.125000
G01 X222.332683 Y227.477827 Z-0.125000
G01 X223.130747 Y225.083636 Z-0.125000
G01 X223.928810 Y222.689446 Z-0.125000
G01 X225.524937 Y223.487510 Z-0.125000
G01 X227.121064 Y220.295256 Z-0.125000
G01 X225.524937 Y221.093319 Z-0.125000
G01 X224.726874 Y218.699129 Z-0.125000
G01 X226.323001 Y217.901065 Z-0.125000
G01 X227.121064 Y217.103002 Z-0.125000
G01 X227.919128 Y215.506875 Z-0.125000
G01 X227.919128 Y213.112685 Z-0.125000
G01 X228.717191 Y211.516558 Z-0.125000
G01 X229.515254 Y209.122367 Z-0.125000
G01 X231.111381 Y208.324304 Z-0.125000
G01 X231.111381 Y205.930113 Z-0.125000
G01 X233.505572 Y205.132050 Z-0.125000
G01 X234.303635 Y204.333987 Z-0.125000
G01 X233.505572 Y201.939796 Z-0.125000
G01 X234.303635 Y200.343669 Z-0.125000
G01 X235.101699 Y198.747542 Z-0.125000
G01 X237.495889 Y197.949479 Z-0.125000
G01 X238.293953 Y196.353352 Z-0.125000
G01 X238.293953 Y193.959162 Z-0.125000
G01 X240.688143 Y193.959162 Z-0.125000
G01 X241.486206 Y192.363035 Z-0.125000
G01 X239.092016 Y191.564971 Z-0.125000
G01 X239.890079 Y189.170781 Z-0.125000
G01 X241.486206 Y189.968844 Z-0.125000
G01 X241.486206 Y187.574654 Z-0.125000
G01 X242.284270 Y185.978527 Z-0.125000
G01 X244.678460 Y185.978527 Z-0.125000
G01 X245.476524 Y184.382400 Z-0.125000
G01 X246.274587 Y182.786273 Z-0.125000
G01 X247.072651 Y180.392083 Z-0.125000
G01 X249.466841 Y179.594019 Z-0.125000
G01 X250.264904 Y177.997892 Z-0.125000
G01 X252.659095 Y177.199829 Z-0.125000
G01 X252.659095 Y174.805638 Z-0.125000
G01 X250.264904 Y175.603702 Z-0.125000
G01 X250.264904 Y173.209512 Z-0.125000
G01 X251.062968 Y171.613385 Z-0.125000
G01 X250.264904 Y169.219194 Z-0.125000
G01 X251.062968 Y167.623067 Z-0.125000
G01 X253.457158 Y166.825004 Z-0.125000
G01 X255.053285 Y165.228877 Z-0.125000
G01 X255.851349 Y163.632750 Z-0.125000
G01 X256.649412 Y162.834687 Z-0.125000
G01 X256.649412 Y160.440496 Z-0.125000
G01 X255.851349 Y158.046306 Z-0.125000
G01 X256.649412 Y156.450179 Z-0.125000
G01 X255.851349 Y154.055988 Z-0.125000
G01 X256.649412 Y152.459862 Z-0.125000
G01 X257.447476 Y150.863735 Z-0.125000
G01 X259.841666 Y151.661798 Z-0.125000
G01 X262.235856 Y150.863735 Z-0.125000
G01 X262.235856 Y153.257925 Z-0.125000
G01 X259.841666 Y154.055988 Z-0.125000
G01 X259.043602 Y155.652115 Z-0.125000
G01 X262.235856 Y156.450179 Z-0.125000
G01 X260.639729 Y158.046306 Z-0.125000
G01 X259.043602 Y158.844369 Z-0.125000
G01 X259.043602 Y161.238560 Z-0.125000
G01 X259.841666 Y163.632750 Z-0.125000
G01 X259.841666 Y166.026940 Z-0.125000
G01 X258.245539 Y166.825004 Z-0.125000
G01 X255.851349 Y167.623067 Z-0.125000
G01 X254.255222 Y169.219194 Z-0.125000
G01 X253.457158 Y170.815321 Z-0.125000
G01 X254.255222 Y173.209512 Z-0.125000
G01 X256.649412 Y173.209512 Z-0.125000
G01 X256.649412 Y170.815321 Z-0.125000
G01 X258.245539 Y169.219194 Z-0.125000
G01 X260.639729 Y169.219194 Z-0.125000
G01 X262.235856 Y167.623067 Z-0.125000
G01 X264.630047 Y166.825004 Z-0.125000
G01 X267.024237 Y166.825004 Z-0.125000
G01 X268.620364 Y166.026940 Z-0.125000
G01 X267.822301 Y163.632750 Z-0.125000
G01 X270.216491 Y163.632750 Z-0.125000
G01 X271.014554 Y161.238560 Z-0.125000
G01 X271.812618 Y158.844369 Z-0.125000
G01 X273.408745 Y159.642433 Z-0.125000
G01 X275.802935 Y159.642433 Z-0.125000
G01 X276.600999 Y158.046306 Z-0.125000
G01 X274.206808 Y157.248242 Z-0.125000
G01 X275.802935 Y155.652115 Z-0.125000
G01 X278.197126 Y155.652115 Z-0.125000
G01 X278.995189 Y153.257925 Z-0.125000
G01 X276.600999 Y153.257925 Z-0.125000
G01 X277.399062 Y150.863735 Z-0.125000
G01 X278.995189 Y150.065671 Z-0.125000
G01 X279.793252 Y148.469544 Z-0.125000
G01 X277.399062 Y147.671481 Z-0.125000
G01 X275.004872 Y147.671481 Z-0.125000
G01 X274.206808 Y149.267608 Z-0.125000
G01 X274.206808 Y151.661798 Z-0.125000
G01 X273.408745 Y153.257925 Z-0.125000
G01 X272.610681 Y154.854052 Z-0.125000
G01 X271.014554 Y156.450179 Z-0.125000
G01 X269.418427 Y154.055988 Z-0.125000
G01 X267.822301 Y155.652115 Z-0.125000
G01 X268.620364 Y158.046306 Z-0.125000
G01 X267.822301 Y158.844369 Z-0.125000
G01 X267.822301 Y161.238560 Z-0.125000
G01 X265.428110 Y161.238560 Z-0.125000
G01 X264.630047 Y163.632750 Z-0.125000
G01 X262.235856 Y164.430813 Z-0.125000
G01 X262.235856 Y162.036623 Z-0.125000
G01 X263.831983 Y160.440496 Z-0.125000
G01 X264.630047 Y158.046306 Z-0.125000
G01 X264.630047 Y155.652115 Z-0.125000
G01 X265.428110 Y154.055988 Z-0.125000
G01 X264.630047 Y151.661798 Z-0.125000
G01 X267.024237 Y151.661798 Z-0.125000
G01 X270.216491 Y151.661798 Z-0.125000
G01 X271.014554 Y150.065671 Z-0.125000
G01 X267.822301 Y149.267608 Z-0.125000
G01 X265.428110 Y149.267608 Z-0.125000
G01 X266.226174 Y146.873417 Z-0.125000
G01 X266.226174 Y144.479227 Z-0.125000
G01 X267.024237 Y143.681163 Z-0.125000
G01 X266.226174 Y141.286973 Z-0.125000
G01 X267.822301 Y140.488910 Z-0.125000
G01 X269.418427 Y138.892783 Z-0.125000
G01 X270.216491 Y136.498592 Z-0.125000
G01 X271.014554 Y134.902465 Z-0.125000
G01 X271.014554 Y132.508275 Z-0.125000
G01 X270.216491 Y130.114085 Z-0.125000
G01 X271.812618 Y129.316021 Z-0.125000
G01 X271.812618 Y126.921831 Z-0.125000
G01 X270.216491 Y127.719894 Z-0.125000
G01 X267.822301 Y127.719894 Z-0.125000
G01 X268.620364 Y125.325704 Z-0.125000
G01 X269.418427 Y122.931514 Z-0.125000
G01 X271.014554 Y124.527640 Z-0.125000
G01 X273.408745 Y124.527640 Z-0.125000
G01 X274.206808 Y126.921831 Z-0.125000
G01 X275.802935 Y127.719894 Z-0.125000
G01 X274.206808 Y129.316021 Z-0.125000
G01 X274.206808 Y131.710212 Z-0.125000
G01 X273.408745 Y133.306339 Z-0.125000
G01 X273.408745 Y134.902465 Z-0.125000
G01 X275.802935 Y134.104402 Z-0.125000
G01 X276.600999 Y131.710212 Z-0.125000
G01 X277.399062 Y130.114085 Z-0.125000
G01 X278.995189 Y128.517958 Z-0.125000
G01 X281.389379 Y128.517958 Z-0.125000
G01 X280.591316 Y130.912148 Z-0.125000
G01 X279.793252 Y131.710212 Z-0.125000
G01 X278.995189 Y133.306339 Z-0.125000
G01 X278.197126 Y134.902465 Z-0.125000
G01 X277.399062 Y136.498592 Z-0.125000
G01 X275.004872 Y137.296656 Z-0.125000
G01 X272.610681 Y137.296656 Z-0.125000
G01 X271.812618 Y138.892783 Z-0.125000
G01 X271.014554 Y141.286973 Z-0.125000
G01 X273.408745 Y140.488910 Z-0.125000
G01 X273.408745 Y142.883100 Z-0.125000
G01 X271.014554 Y143.681163 Z-0.125000
G01 X269.418427 Y142.883100 Z-0.125000
G01 X269.418427 Y145.277290 Z-0.125000
G01 X269.418427 Y147.671481 Z-0.125000
G01 X271.812618 Y146.873417 Z-0.125000
G01 X273.408745 Y145.277290 Z-0.125000
G01 X275.802935 Y145.277290 Z-0.125000
G01 X275.802935 Y142.883100 Z-0.125000
G01 X276.600999 Y142.085037 Z-0.125000
G01 X275.802935 Y139.690846 Z-0.125000
G01 X277.399062 Y138.892783 Z-0.125000
G01 X279.793252 Y138.094719 Z-0.125000
G01 X280.591316 Y136.498592 Z-0.125000
G01 X282.187443 Y137.296656 Z-0.125000
G01 X283.783570 Y135.700529 Z-0.125000
G01 X285.379697 Y134.104402 Z-0.125000
G01 X283.783570 Y133.306339 Z-0.125000
G01 X281.389379 Y134.104402 Z-0.125000
G01 X282.985506 Y130.912148 Z-0.125000
G01 X285.379697 Y131.710212 Z-0.125000
G01 X287.773887 Y131.710212 Z-0.125000
G01 X290.168077 Y131.710212 Z-0.125000
G01 X290.966141 Y134.104402 Z-0.125000
G01 X288.571951 Y134.104402 Z-0.125000
G01 X287.773887 Y135.700529 Z-0.125000
G01 X286.975824 Y137.296656 Z-0.125000
G01 X286.177760 Y138.094719 Z-0.125000
G01 X284.581633 Y138.892783 Z-0.125000
G01 X282.985506 Y139.690846 Z-0.125000
G01 X280.591316 Y140.488910 Z-0.125000
G01 X278.995189 Y141.286973 Z-0.125000
G01 X278.995189 Y143.681163 Z-0.125000
G01 X278.995189 Y146.075354 Z-0.125000
G01 X281.389379 Y145.277290 Z-0.125000
G01 X281.389379 Y142.883100 Z-0.125000
G01 X282.985506 Y143.681163 Z-0.125000
G01 X283.783570 Y142.085037 Z-0.125000
G01 X286.975824 Y140.488910 Z-0.125000
G01 X286.177760 Y142.085037 Z-0.125000
G01 X286.177760 Y144.479227 Z-0.125000
G01 X285.379697 Y146.075354 Z-0.125000
G01 X283.783570 Y146.873417 Z-0.125000
G01 X282.187443 Y147.671481 Z-0.125000
G01 X282.187443 Y150.065671 Z-0.125000
G01 X284.581633 Y150.065671 Z-0.125000
G01 X286.177760 Y148.469544 Z-0.125000
G01 X287.773887 Y146.873417 Z-0.125000
G01 X288.571951 Y144.479227 Z-0.125000
G01 X289.370014 Y142.883100 Z-0.125000
G01 X290.168077 Y142.085037 Z-0.125000
G01 X292.562268 Y141.286973 Z-0.125000
G01 X294.956458 Y141.286973 Z-0.125000
G01 X294.158395 Y138.892783 Z-0.125000
G01 X291.764204 Y138.892783 Z-0.125000
G01 X289.370014 Y139.690846 Z-0.125000
G01 X290.168077 Y138.094719 Z-0.125000
G01 X290.966141 Y136.498592 Z-0.125000
G01 X293.360331 Y136.498592 Z-0.125000
G01 X293.360331 Y134.104402 Z-0.125000
G01 X294.956458 Y133.306339 Z-0.125000
G01 X297.350649 Y132.508275 Z-0.125000
G01 X296.552585 Y135.700529 Z-0.125000
G01 X295.754522 Y136.498592 Z-0.125000
G01 X296.552585 Y138.892783 Z-0.125000
G01 X297.350649 Y141.286973 Z-0.125000
G01 X298.946776 Y140.488910 Z-0.125000
G01 X298.946776 Y138.094719 Z-0.125000
G01 X299.744839 Y137.296656 Z-0.125000
G01 X298.946776 Y134.902465 Z-0.125000
G01 X299.744839 Y133.306339 Z-0.125000
G01 X301.340966 Y132.508275 Z-0.125000
G01 X302.139029 Y130.912148 Z-0.125000
G01 X304.533220 Y130.912148 Z-0.125000
G01 X306.129347 Y129.316021 Z-0.125000
G01 X308.523537 Y130.114085 Z-0.125000
G01 X307.725474 Y131.710212 Z-0.125000
G01 X306.927410 Y133.306339 Z-0.125000
G01 X304.533220 Y133.306339 Z-0.125000
G01 X303.735156 Y134.902465 Z-0.125000
G01 X301.340966 Y134.902465 Z-0.125000
G01 X302.139029 Y137.296656 Z-0.125000
G01 X302.139029 Y139.690846 Z-0.125000
G01 X301.340966 Y141.286973 Z-0.125000
G01 X300.542902 Y142.883100 Z-0.125000
G01 X299.744839 Y144.479227 Z-0.125000
G01 X298.946776 Y146.075354 Z-0.125000
G01 X299.744839 Y148.469544 Z-0.125000
G01 X301.340966 Y146.873417 Z-0.125000
G01 X302.937093 Y145.277290 Z-0.125000
G01 X303.735156 Y143.681163 Z-0.125000
G01 X304.533220 Y142.085037 Z-0.125000
G01 X304.533220 Y139.690846 Z-0.125000
G01 X304.533220 Y137.296656 Z-0.125000
G01 X306.129347 Y135.700529 Z-0.125000
G01 X308.523537 Y135.700529 Z-0.125000
G01 X307.725474 Y138.094719 Z-0.125000
G01 X306.927410 Y139.690846 Z-0.125000
G01 X306.927410 Y142.085037 Z-0.125000
G01 X306.927410 Y144.479227 Z-0.125000
G01 X309.321601 Y144.479227 Z-0.125000
G01 X309.321601 Y142.883100 Z-0.125000
G01 X309.321601 Y140.488910 Z-0.125000
G01 X310.119664 Y138.892783 Z-0.125000
G01 X310.917727 Y137.296656 Z-0.125000
G01 X310.119664 Y134.902465 Z-0.125000
G01 X310.917727 Y134.104402 Z-0.125000
G01 X310.917727 Y131.710212 Z-0.125000
G01 X311.715791 Y129.316021 Z-0.125000
G01 X309.321601 Y128.517958 Z-0.125000
G01 X310.119664 Y126.921831 Z-0.125000
G01 X310.917727 Y124.527640 Z-0.125000
G01 X310.917727 Y122.931514 Z-0.125000
G01 X310.917727 Y120.537323 Z-0.125000
G01 X308.523537 Y120.537323 Z-0.125000
G01 X307.725474 Y122.133450 Z-0.125000
G01 X307.725474 Y123.729577 Z-0.125000
G01 X307.725474 Y126.123767 Z-0.125000
G01 X306.129347 Y125.325704 Z-0.125000
G01 X305.331283 Y126.921831 Z-0.125000
G01 X303.735156 Y127.719894 Z-0.125000
G01 X302.139029 Y128.517958 Z-0.125000
G01 X299.744839 Y129.316021 Z-0.125000
G01 X298.946776 Y130.114085 Z-0.125000
G01 X296.552585 Y130.114085 Z-0.125000
G01 X294.956458 Y130.912148 Z-0.125000
G01 X292.562268 Y131.710212 Z-0.125000
G01 X292.562268 Y129.316021 Z-0.125000
G01 X290.168077 Y129.316021 Z-0.125000
G01 X290.168077 Y127.719894 Z-0.125000
G01 X292.562268 Y126.921831 Z-0.125000
G01 X294.158395 Y127.719894 Z-0.125000
G01 X296.552585 Y127.719894 Z-0.125000
G01 X296.552585 Y125.325704 Z-0.125000
G01 X296.552585 Y123.729577 Z-0.125000
G01 X297.350649 Y122.931514 Z-0.125000
G01 X298.148712 Y121.335387 Z-0.125000
G01 X295.754522 Y120.537323 Z-0.125000
G01 X293.360331 Y120.537323 Z-0.125000
G01 X291.764204 Y122.133450 Z-0.125000
G01 X293.360331 Y122.931514 Z-0.125000
G01 X294.158395 Y125.325704 Z-0.125000
G01 X291.764204 Y124.527640 Z-0.125000
G01 X289.370014 Y124.527640 Z-0.125000
G01 X288.571951 Y125.325704 Z-0.125000
G01 X287.773887 Y126.921831 Z-0.125000
G01 X287.773887 Y129.316021 Z-0.125000
G01 X285.379697 Y129.316021 Z-0.125000
G01 X283.783570 Y128.517958 Z-0.125000
G01 X285.379697 Y126.921831 Z-0.125000
G01 X285.379697 Y124.527640 Z-0.125000
G01 X286.177760 Y122.931514 Z-0.125000
G01 X288.571951 Y122.133450 Z-0.125000
G01 X289.370014 Y120.537323 Z-0.125000
G01 X290.168077 Y118.941196 Z-0.125000
G01 X290.966141 Y117.345069 Z-0.125000
G01 X292.562268 Y118.143133 Z-0.125000
G01 X292.562268 Y115.748942 Z-0.125000
G01 X292.562268 Y113.354752 Z-0.125000
G01 X294.956458 Y112.556689 Z-0.125000
G01 X295.754522 Y114.950879 Z-0.125000
G01 X294.956458 Y115.748942 Z-0.125000
G01 X294.956458 Y118.143133 Z-0.125000
G01 X297.350649 Y118.941196 Z-0.125000
G01 X298.148712 Y117.345069 Z-0.125000
G01 X298.946776 Y115.748942 Z-0.125000
G01 X299.744839 Y114.152815 Z-0.125000
G01 X297.350649 Y112.556689 Z-0.125000
G01 X298.946776 Y111.758625 Z-0.125000
G01 X301.340966 Y111.758625 Z-0.125000
G01 X300.542902 Y109.364435 Z-0.125000
G01 X301.340966 Y107.768308 Z-0.125000
G01 X303.735156 Y106.970244 Z-0.125000
G01 X304.533220 Y105.374117 Z-0.125000
G01 X305.331283 Y103.777990 Z-0.125000
G01 X302.937093 Y102.979927 Z-0.125000
G01 X304.533220 Y101.383800 Z-0.125000
G01 X305.331283 Y99.787673 Z-0.125000
G01 X306.927410 Y98.989610 Z-0.125000
G01 X306.129347 Y96.595419 Z-0.125000
G01 X306.927410 Y94.201229 Z-0.125000
G01 X304.533220 Y94.201229 Z-0.125000
G01 X302.937093 Y94.999292 Z-0.125000
G01 X301.340966 Y96.595419 Z-0.125000
G01 X303.735156 Y97.393483 Z-0.125000
G01 X302.139029 Y98.989610 Z-0.125000
G01 X301.340966 Y100.585737 Z-0.125000
G01 X300.542902 Y102.979927 Z-0.125000
G01 X301.340966 Y105.374117 Z-0.125000
G01 X298.946776 Y105.374117 Z-0.125000
G01 X298.148712 Y106.970244 Z-0.125000
G01 X298.148712 Y109.364435 Z-0.125000
G01 X295.754522 Y110.162498 Z-0.125000
G01 X295.754522 Y107.768308 Z-0.125000
G01 X295.754522 Y105.374117 Z-0.125000
G01 X295.754522 Y102.979927 Z-0.125000
G01 X298.148712 Y102.979927 Z-0.125000
G01 X298.946776 Y100.585737 Z-0.125000
G01 X298.946776 Y98.191546 Z-0.125000
G01 X298.946776 Y96.595419 Z-0.125000
G01 X299.744839 Y94.201229 Z-0.125000
G01 X300.542902 Y92.605102 Z-0.125000
G01 X302.937093 Y91.807039 Z-0.125000
G01 X303.735156 Y89.412848 Z-0.125000
G01 X305.331283 Y87.018658 Z-0.125000
G01 X306.129347 Y89.412848 Z-0.125000
G01 X305.331283 Y91.807039 Z-0.125000
G01 X307.725474 Y91.807039 Z-0.125000
G01 X310.119664 Y92.605102 Z-0.125000
G01 X311.715791 Y91.807039 Z-0.125000
G01 X312.513854 Y94.201229 Z-0.125000
G01 X310.119664 Y94.999292 Z-0.125000
G01 X308.523537 Y96.595419 Z-0.125000
G01 X310.917727 Y97.393483 Z-0.125000
G01 X310.119664 Y98.989610 Z-0.125000
G01 X310.119664 Y100.585737 Z-0.125000
G01 X307.725474 Y101.383800 Z-0.125000
G01 X307.725474 Y103.777990 Z-0.125000
G01 X310.119664 Y102.979927 Z-0.125000
G01 X312.513854 Y102.181864 Z-0.125000
G01 X313.311918 Y100.585737 Z-0.125000
G01 X314.109981 Y98.989610 Z-0.125000
G01 X314.109981 Y96.595419 Z-0.125000
G01 X315.706108 Y94.999292 Z-0.125000
G01 X316.504172 Y97.393483 Z-0.125000
G01 X317.302235 Y99.787673 Z-0.125000
G01 X316.504172 Y101.383800 Z-0.125000
G01 X315.706108 Y102.979927 Z-0.125000
G01 X314.908045 Y104.576054 Z-0.125000
G01 X312.513854 Y104.576054 Z-0.125000
G01 X310.119664 Y105.374117 Z-0.125000
G01 X307.725474 Y106.172181 Z-0.125000
G01 X306.927410 Y107.768308 Z-0.125000
G01 X306.927410 Y109.364435 Z-0.125000
G01 X306.129347 Y110.960562 Z-0.125000
G01 X303.735156 Y109.364435 Z-0.125000
G01 X303.735156 Y111.758625 Z-0.125000
G01 X302.937093 Y114.152815 Z-0.125000
G01 X302.937093 Y116.547006 Z-0.125000
G01 X302.139029 Y117.345069 Z-0.125000
G01 X301.340966 Y118.941196 Z-0.125000
G01 X300.542902 Y120.537323 Z-0.125000
G01 X300.542902 Y122.931514 Z-0.125000
G01 X299.744839 Y124.527640 Z-0.125000
G01 X298.946776 Y126.921831 Z-0.125000
G01 X301.340966 Y126.123767 Z-0.125000
G01 X302.937093 Y124.527640 Z-0.125000
G01 X302.937093 Y122.133450 Z-0.125000
G01 X304.533220 Y122.931514 Z-0.125000
G01 X304.533220 Y120.537323 Z-0.125000
G01 X305.331283 Y119.739260 Z-0.125000
G01 X306.129347 Y118.143133 Z-0.125000
G01 X305.331283 Y115.748942 Z-0.125000
G01 X305.331283 Y113.354752 Z-0.125000
G01 X307.725474 Y113.354752 Z-0.125000
G01 X309.321601 Y111.758625 Z-0.125000
G01 X310.119664 Y109.364435 Z-0.125000
G01 X310.917727 Y107.768308 Z-0.125000
G01 X312.513854 Y106.970244 Z-0.125000
G01 X314.908045 Y106.970244 Z-0.125000
G01 X314.908045 Y109.364435 Z-0.125000
G01 X313.311918 Y110.162498 Z-0.125000
G01 X311.715791 Y111.758625 Z-0.125000
G01 X310.917727 Y114.152815 Z-0.125000
G01 X310.119664 Y115.748942 Z-0.125000
G01 X307.725474 Y115.748942 Z-0.125000
G01 X308.523537 Y118.143133 Z-0.125000
G01 X310.917727 Y118.143133 Z-0.125000
G01 X312.513854 Y116.547006 Z-0.125000
G01 X313.311918 Y114.152815 Z-0.125000
G01 X314.908045 Y113.354752 Z-0.125000
G01 X315.706108 Y111.758625 Z-0.125000
G01 X317.302235 Y109.364435 Z-0.125000
G01 X317.302235 Y106.970244 Z-0.125000
G01 X318.100299 Y104.576054 Z-0.125000
G01 X319.696426 Y102.979927 Z-0.125000
G01 X321.292552 Y103.777990 Z-0.125000
G01 X323.686743 Y102.979927 Z-0.125000
G01 X325.282870 Y102.181864 Z-0.125000
G01 X325.282870 Y99.787673 Z-0.125000
G01 X325.282870 Y97.393483 Z-0.125000
G01 X327.677060 Y96.595419 Z-0.125000
G01 X328.475124 Y94.999292 Z-0.125000
G01 X330.071251 Y93.403165 Z-0.125000
G01 X330.869314 Y95.797356 Z-0.125000
G01 X330.071251 Y97.393483 Z-0.125000
G01 X328.475124 Y98.989610 Z-0.125000
G01 X327.677060 Y102.181864 Z-0.125000
G01 X327.677060 Y104.576054 Z-0.125000
G01 X330.071251 Y103.777990 Z-0.125000
G01 X330.869314 Y101.383800 Z-0.125000
G01 X332.465441 Y99.787673 Z-0.125000
G01 X333.263504 Y98.191546 Z-0.125000
G01 X334.061568 Y96.595419 Z-0.125000
G01 X336.455758 Y96.595419 Z-0.125000
G01 X338.051885 Y94.999292 Z-0.125000
G01 X338.849949 Y93.403165 Z-0.125000
G01 X338.849949 Y91.008975 Z-0.125000
G01 X341.244139 Y90.210912 Z-0.125000
G01 X342.840266 Y91.008975 Z-0.125000
G01 X341.244139 Y92.605102 Z-0.125000
G01 X341.244139 Y94.999292 Z-0.125000
G01 X343.638329 Y94.999292 Z-0.125000
G01 X344.436393 Y93.403165 Z-0.125000
G01 X346.830583 Y94.201229 Z-0.125000
G01 X346.032520 Y91.807039 Z-0.125000
G01 X347.628647 Y91.008975 Z-0.125000
G01 X348.426710 Y89.412848 Z-0.125000
G01 X350.022837 Y87.816721 Z-0.125000
G01 X350.820900 Y86.220594 Z-0.125000
G01 X352.417027 Y84.624467 Z-0.125000
G01 X349.224774 Y83.826404 Z-0.125000
G01 X350.820900 Y82.230277 Z-0.125000
G01 X350.820900 Y79.836087 Z-0.125000
G01 X352.417027 Y78.239960 Z-0.125000
G01 X352.417027 Y75.845769 Z-0.125000
G01 X353.215091 Y75.047706 Z-0.125000
G01 X353.215091 Y72.653515 Z-0.125000
G01 X354.811218 Y71.855452 Z-0.125000
G01 X357.205408 Y73.451579 Z-0.125000
G01 X356.407345 Y75.047706 Z-0.125000
G01 X355.609281 Y76.643833 Z-0.125000
G01 X354.811218 Y79.038023 Z-0.125000
G01 X354.013154 Y80.634150 Z-0.125000
G01 X353.215091 Y82.230277 Z-0.125000
G01 X355.609281 Y83.028340 Z-0.125000
G01 X357.205408 Y81.432214 Z-0.125000
G01 X358.801535 Y79.836087 Z-0.125000
G01 X357.205408 Y79.038023 Z-0.125000
G01 X358.801535 Y77.441896 Z-0.125000
G01 X359.599599 Y75.845769 Z-0.125000
G01 X360.397662 Y74.249642 Z-0.125000
G01 X361.195725 Y72.653515 Z-0.125000
G01 X358.801535 Y71.855452 Z-0.125000
G01 X357.205408 Y71.057389 Z-0.125000
G01 X356.407345 Y68.663198 Z-0.125000
G01 X354.013154 Y69.461262 Z-0.125000
G01 X351.618964 Y69.461262 Z-0.125000
G01 X350.820900 Y71.057389 Z-0.125000
G01 X350.022837 Y72.653515 Z-0.125000
G01 X349.224774 Y74.249642 Z-0.125000
G01 X350.022837 Y76.643833 Z-0.125000
G01 X348.426710 Y77.441896 Z-0.125000
G01 X347.628647 Y79.038023 Z-0.125000
G01 X347.628647 Y81.432214 Z-0.125000
G01 X345.234456 Y81.432214 Z-0.125000
G01 X345.234456 Y79.038023 Z-0.125000
G01 X345.234456 Y76.643833 Z-0.125000
G01 X346.830583 Y75.047706 Z-0.125000
G01 X346.830583 Y72.653515 Z-0.125000
G01 X347.628647 Y70.259325 Z-0.125000
G01 X348.426710 Y68.663198 Z-0.125000
G01 X349.224774 Y67.067071 Z-0.125000
G01 X349.224774 Y64.672881 Z-0.125000
G01 X346.830583 Y65.470944 Z-0.125000
G01 X344.436393 Y65.470944 Z-0.125000
G01 X342.840266 Y64.672881 Z-0.125000
G01 X340.446075 Y65.470944 Z-0.125000
G01 X338.849949 Y67.067071 Z-0.125000
G01 X338.849949 Y69.461262 Z-0.125000
G01 X338.051885 Y71.057389 Z-0.125000
G01 X338.051885 Y73.451579 Z-0.125000
G01 X340.446075 Y73.451579 Z-0.125000
G01 X341.244139 Y70.259325 Z-0.125000
G01 X342.042202 Y68.663198 Z-0.125000
G01 X342.840266 Y67.067071 Z-0.125000
G01 X346.032520 Y67.865135 Z-0.125000
G01 X345.234456 Y69.461262 Z-0.125000
G01 X344.436393 Y71.057389 Z-0.125000
G01 X344.436393 Y73.451579 Z-0.125000
G01 X342.840266 Y72.653515 Z-0.125000
G01 X342.840266 Y75.047706 Z-0.125000
G01 X342.042202 Y76.643833 Z-0.125000
G01 X342.840266 Y79.038023 Z-0.125000
G01 X341.244139 Y80.634150 Z-0.125000
G01 X342.840266 Y81.432214 Z-0.125000
G01 X342.042202 Y83.826404 Z-0.125000
G01 X344.436393 Y83.826404 Z-0.125000
G01 X346.830583 Y83.826404 Z-0.125000
G01 X347.628647 Y86.220594 Z-0.125000
G01 X345.234456 Y86.220594 Z-0.125000
G01 X345.234456 Y88.614785 Z-0.125000
G01 X342.840266 Y88.614785 Z-0.125000
G01 X342.840266 Y86.220594 Z-0.125000
G01 X340.446075 Y85.422531 Z-0.125000
G01 X339.648012 Y87.018658 Z-0.125000
G01 X338.849949 Y88.614785 Z-0.125000
G01 X336.455758 Y89.412848 Z-0.125000
G01 X335.657695 Y90.210912 Z-0.125000
G01 X335.657695 Y92.605102 Z-0.125000
G01 X334.859631 Y94.201229 Z-0.125000
G01 X332.465441 Y94.201229 Z-0.125000
G01 X332.465441 Y91.807039 Z-0.125000
G01 X333.263504 Y90.210912 Z-0.125000
G01 X331.667377 Y87.816721 Z-0.125000
G01 X330.071251 Y89.412848 Z-0.125000
G01 X329.273187 Y91.008975 Z-0.125000
G01 X326.878997 Y90.210912 Z-0.125000
G01 X326.878997 Y92.605102 Z-0.125000
G01 X325.282870 Y93.403165 Z-0.125000
G01 X324.484806 Y94.999292 Z-0.125000
G01 X322.888679 Y96.595419 Z-0.125000
G01 X322.090616 Y98.191546 Z-0.125000
G01 X322.090616 Y100.585737 Z-0.125000
G01 X319.696426 Y100.585737 Z-0.125000
G01 X319.696426 Y98.191546 Z-0.125000
G01 X319.696426 Y95.797356 Z-0.125000
G01 X318.100299 Y94.999292 Z-0.125000
G01 X318.898362 Y92.605102 Z-0.125000
G01 X321.292552 Y94.201229 Z-0.125000
G01 X321.292552 Y91.807039 Z-0.125000
G01 X322.090616 Y91.008975 Z-0.125000
G01 X324.484806 Y91.008975 Z-0.125000
G01 X324.484806 Y88.614785 Z-0.125000
G01 X326.080933 Y87.816721 Z-0.125000
G01 X326.878997 Y86.220594 Z-0.125000
G01 X329.273187 Y86.220594 Z-0.125000
G01 X331.667377 Y85.422531 Z-0.125000
G01 X334.061568 Y84.624467 Z-0.125000
G01 X334.061568 Y87.018658 Z-0.125000
G01 X336.455758 Y86.220594 Z-0.125000
G01 X336.455758 Y83.826404 Z-0.125000
G01 X338.849949 Y83.028340 Z-0.125000
G01 X338.849949 Y80.634150 Z-0.125000
G01 X339.648012 Y78.239960 Z-0.125000
G01 X339.648012 Y75.845769 Z-0.125000
G01 X337.253822 Y76.643833 Z-0.125000
G01 X336.455758 Y78.239960 Z-0.125000
G01 X334.859631 Y79.836087 Z-0.125000
G01 X336.455758 Y81.432214 Z-0.125000
G01 X334.061568 Y82.230277 Z-0.125000
G01 X331.667377 Y83.028340 Z-0.125000
G01 X331.667377 Y80.634150 Z-0.125000
G01 X332.465441 Y79.038023 Z-0.125000
G01 X333.263504 Y77.441896 Z-0.125000
G01 X334.061568 Y75.845769 Z-0.125000
G01 X334.859631 Y74.249642 Z-0.125000
G01 X335.657695 Y73.451579 Z-0.125000
G01 X334.859631 Y71.057389 Z-0.125000
G01 X335.657695 Y69.461262 Z-0.125000
G01 X336.455758 Y67.067071 Z-0.125000
G01 X337.253822 Y64.672881 Z-0.125000
G01 X334.859631 Y64.672881 Z-0.125000
G01 X334.061568 Y66.269008 Z-0.125000
G01 X333.263504 Y67.865135 Z-0.125000
G01 X332.465441 Y69.461262 Z-0.125000
G01 X332.465441 Y71.855452 Z-0.125000
G01 X331.667377 Y75.047706 Z-0.125000
G01 X329.273187 Y75.047706 Z-0.125000
G01 X327.677060 Y75.845769 Z-0.125000
G01 X330.071251 Y77.441896 Z-0.125000
G01 X329.273187 Y79.038023 Z-0.125000
G01 X329.273187 Y81.432214 Z-0.125000
G01 X328.475124 Y82.230277 Z-0.125000
G01 X327.677060 Y83.826404 Z-0.125000
G01 X325.282870 Y81.432214 Z-0.125000
G01 X323.686743 Y82.230277 Z-0.125000
G01 X322.090616 Y83.826404 Z-0.125000
G01 X324.484806 Y84.624467 Z-0.125000
G01 X322.888679 Y86.220594 Z-0.125000
G01 X320.494489 Y86.220594 Z-0.125000
G01 X321.292552 Y88.614785 Z-0.125000
G01 X318.100299 Y87.816721 Z-0.125000
G01 X318.898362 Y90.210912 Z-0.125000
G01 X316.504172 Y91.008975 Z-0.125000
G01 X315.706108 Y92.605102 Z-0.125000
G01 X314.109981 Y91.807039 Z-0.125000
G01 X313.311918 Y89.412848 Z-0.125000
G01 X315.706108 Y88.614785 Z-0.125000
G01 X314.908045 Y86.220594 Z-0.125000
G01 X317.302235 Y85.422531 Z-0.125000
G01 X318.100299 Y83.826404 Z-0.125000
G01 X318.898362 Y83.028340 Z-0.125000
G01 X320.494489 Y81.432214 Z-0.125000
G01 X322.888679 Y79.836087 Z-0.125000
G01 X325.282870 Y79.038023 Z-0.125000
G01 X326.080933 Y78.239960 Z-0.125000
G01 X325.282870 Y75.845769 Z-0.125000
G01 X324.484806 Y73.451579 Z-0.125000
G01 X322.090616 Y74.249642 Z-0.125000
G01 X322.888679 Y76.643833 Z-0.125000
G01 X321.292552 Y77.441896 Z-0.125000
G01 X319.696426 Y79.038023 Z-0.125000
G01 X317.302235 Y79.038023 Z-0.125000
G01 X316.504172 Y80.634150 Z-0.125000
G01 X314.109981 Y80.634150 Z-0.125000
G01 X314.908045 Y83.028340 Z-0.125000
G01 X312.513854 Y83.028340 Z-0.125000
G01 X312.513854 Y85.422531 Z-0.125000
G01 X311.715791 Y87.018658 Z-0.125000
G01 X310.917727 Y89.412848 Z-0.125000
G01 X308.523537 Y89.412848 Z-0.125000
G01 X308.523537 Y87.018658 Z-0.125000
G01 X309.321601 Y85.422531 Z-0.125000
G01 X310.119664 Y83.028340 Z-0.125000
G01 X310.917727 Y80.634150 Z-0.125000
G01 X311.715791 Y79.038023 Z-0.125000
G01 X314.109981 Y78.239960 Z-0.125000
G01 X314.109981 Y75.845769 Z-0.125000
G01 X316.504172 Y76.643833 Z-0.125000
G01 X317.302235 Y75.047706 Z-0.125000
G01 X319.696426 Y75.047706 Z-0.125000
G01 X318.898362 Y72.653515 Z-0.125000
G01 X319.696426 Y71.057389 Z-0.125000
G01 X322.090616 Y71.855452 Z-0.125000
G01 X324.484806 Y71.057389 Z-0.125000
G01 X326.878997 Y71.057389 Z-0.125000
G01 X326.878997 Y73.451579 Z-0.125000
G01 X329.273187 Y72.653515 Z-0.125000
G01 X330.071251 Y71.057389 Z-0.125000
G01 X329.273187 Y68.663198 Z-0.125000
G01 X330.071251 Y67.067071 Z-0.125000
G01 X330.869314 Y65.470944 Z-0.125000
G01 X331.667377 Y63.874817 Z-0.125000
G01 X333.263504 Y62.278690 Z-0.125000
G01 X335.657695 Y62.278690 Z-0.125000
G01 X335.657695 Y59.884500 Z-0.125000
G01 X335.657695 Y58.288373 Z-0.125000
G01 X337.253822 Y57.490310 Z-0.125000
G01 X339.648012 Y56.692246 Z-0.125000
G01 X339.648012 Y59.086437 Z-0.125000
G01 X338.849949 Y60.682564 Z-0.125000
G01 X338.849949 Y63.076754 Z-0.125000
G01 X341.244139 Y62.278690 Z-0.125000
G01 X342.042202 Y60.682564 Z-0.125000
G01 X342.042202 Y58.288373 Z-0.125000
G01 X342.840266 Y56.692246 Z-0.125000
G01 X343.638329 Y55.096119 Z-0.125000
G01 X344.436393 Y53.499992 Z-0.125000
G01 X346.032520 Y54.298056 Z-0.125000
G01 X346.032520 Y51.903865 Z-0.125000
G01 X346.830583 Y50.307739 Z-0.125000
G01 X349.224774 Y50.307739 Z-0.125000
G01 X350.022837 Y48.711612 Z-0.125000
G01 X352.417027 Y49.509675 Z-0.125000
G01 X351.618964 Y51.903865 Z-0.125000
G01 X349.224774 Y52.701929 Z-0.125000
G01 X348.426710 Y53.499992 Z-0.125000
G01 X347.628647 Y55.894183 Z-0.125000
G01 X346.032520 Y57.490310 Z-0.125000
G01 X345.234456 Y59.086437 Z-0.125000
G01 X344.436393 Y60.682564 Z-0.125000
G01 X344.436393 Y63.076754 Z-0.125000
G01 X346.830583 Y63.076754 Z-0.125000
G01 X347.628647 Y61.480627 Z-0.125000
G01 X348.426710 Y59.884500 Z-0.125000
G01 X349.224774 Y58.288373 Z-0.125000
G01 X351.618964 Y57.490310 Z-0.125000
G01 X350.022837 Y55.894183 Z-0.125000
G01 X351.618964 Y54.298056 Z-0.125000
G01 X354.013154 Y53.499992 Z-0.125000
G01 X353.215091 Y55.894183 Z-0.125000
G01 X355.609281 Y55.096119 Z-0.125000
G01 X356.407345 Y52.701929 Z-0.125000
G01 X356.407345 Y50.307739 Z-0.125000
G01 X354.013154 Y51.105802 Z-0.125000
G01 X354.811218 Y48.711612 Z-0.125000
G01 X355.609281 Y47.115485 Z-0.125000
G01 X356.407345 Y45.519358 Z-0.125000
G01 X357.205408 Y43.923231 Z-0.125000
G01 X358.003472 Y41.529041 Z-0.125000
G01 X355.609281 Y41.529041 Z-0.125000
G01 X354.013154 Y40.730977 Z-0.125000
G01 X354.013154 Y43.125167 Z-0.125000
G01 X353.215091 Y44.721294 Z-0.125000
G01 X352.417027 Y46.317421 Z-0.125000
G01 X350.820900 Y47.115485 Z-0.125000
G01 X350.022837 Y44.721294 Z-0.125000
G01 X350.820900 Y43.125167 Z-0.125000
G01 X351.618964 Y41.529041 Z-0.125000
G01 X349.224774 Y40.730977 Z-0.125000
G01 X350.022837 Y39.134850 Z-0.125000
G01 X352.417027 Y38.336787 Z-0.125000
G01 X353.215091 Y36.740660 Z-0.125000
G01 X353.215091 Y34.346469 Z-0.125000
G01 X354.013154 Y32.750342 Z-0.125000
G01 X355.609281 Y31.952279 Z-0.125000
G01 X357.205408 Y30.356152 Z-0.125000
G01 X357.205408 Y27.961962 Z-0.125000
G01 X359.599599 Y27.961962 Z-0.125000
G01 X360.397662 Y26.365835 Z-0.125000
G01 X361.993789 Y25.567771 Z-0.125000
G01 X363.589916 Y24.769708 Z-0.125000
G01 X365.186043 Y23.971644 Z-0.125000
G01 X365.186043 Y21.577454 Z-0.125000
G01 X362.791852 Y22.375517 Z-0.125000
G01 X360.397662 Y22.375517 Z-0.125000
G01 X359.599599 Y23.971644 Z-0.125000
G01 X357.205408 Y25.567771 Z-0.125000
G01 X357.205408 Y23.173581 Z-0.125000
G01 X358.003472 Y21.577454 Z-0.125000
G01 X358.801535 Y19.981327 Z-0.125000
G01 X358.003472 Y17.587137 Z-0.125000
G01 X360.397662 Y17.587137 Z-0.125000
G01 X361.195725 Y19.981327 Z-0.125000
G01 X362.791852 Y19.183264 Z-0.125000
G01 X365.186043 Y19.183264 Z-0.125000
G01 X367.580233 Y20.779391 Z-0.125000
G01 X368.378297 Y18.385200 Z-0.125000
G01 X369.176360 Y15.991010 Z-0.125000
G01 X371.570550 Y15.991010 Z-0.125000
G01 X373.964741 Y15.192946 Z-0.125000
G01 X374.762804 Y13.596819 Z-0.125000
G01 X377.156995 Y12.798756 Z-0.125000
G01 X377.156995 Y15.192946 Z-0.125000
G01 X376.358931 Y16.789073 Z-0.125000
G01 X373.964741 Y17.587137 Z-0.125000
G01 X373.166677 Y19.183264 Z-0.125000
G01 X370.772487 Y19.183264 Z-0.125000
G01 X370.772487 Y21.577454 Z-0.125000
G01 X369.974424 Y23.173581 Z-0.125000
G01 X367.580233 Y23.971644 Z-0.125000
G01 X367.580233 Y26.365835 Z-0.125000
G01 X366.782170 Y27.961962 Z-0.125000
G01 X364.387979 Y27.163898 Z-0.125000
G01 X362.791852 Y28.760025 Z-0.125000
G01 X361.993789 Y30.356152 Z-0.125000
G01 X360.397662 Y31.154216 Z-0.125000
G01 X358.801535 Y32.750342 Z-0.125000
G01 X358.801535 Y35.144533 Z-0.125000
G01 X356.407345 Y35.144533 Z-0.125000
G01 X355.609281 Y36.740660 Z-0.125000
G01 X355.609281 Y39.134850 Z-0.125000
G01 X358.003472 Y38.336787 Z-0.125000
G01 X360.397662 Y40.730977 Z-0.125000
G01 X361.195725 Y38.336787 Z-0.125000
G01 X361.195725 Y36.740660 Z-0.125000
G01 X362.791852 Y35.144533 Z-0.125000
G01 X361.195725 Y33.548406 Z-0.125000
G01 X362.791852 Y32.750342 Z-0.125000
G01 X365.186043 Y32.750342 Z-0.125000
G01 X365.186043 Y31.154216 Z-0.125000
G01 X365.984106 Y29.558089 Z-0.125000
G01 X367.580233 Y31.952279 Z-0.125000
G01 X369.176360 Y30.356152 Z-0.125000
G01 X369.974424 Y28.760025 Z-0.125000
G01 X369.974424 Y26.365835 Z-0.125000
G01 X371.570550 Y25.567771 Z-0.125000
G01 X373.964741 Y25.567771 Z-0.125000
G01 X375.560868 Y23.971644 Z-0.125000
G01 X373.166677 Y23.173581 Z-0.125000
G01 X373.964741 Y21.577454 Z-0.125000
G01 X375.560868 Y20.779391 Z-0.125000
G01 X376.358931 Y19.183264 Z-0.125000
G01 X378.753122 Y19.183264 Z-0.125000
G01 X379.551185 Y17.587137 Z-0.125000
G01 X379.551185 Y15.192946 Z-0.125000
G01 X380.349249 Y14.394883 Z-0.125000
G01 X381.147312 Y12.798756 Z-0.125000
G01 X381.945375 Y10.404566 Z-0.125000
G01 X382.743439 Y8.808439 Z-0.125000
G01 X381.945375 Y6.414248 Z-0.125000
G01 X380.349249 Y7.212312 Z-0.125000
G01 X379.551185 Y8.808439 Z-0.125000
G01 X379.551185 Y11.202629 Z-0.125000
G01 X377.955058 Y10.404566 Z-0.125000
G01 X375.560868 Y11.202629 Z-0.125000
G01 X373.964741 Y10.404566 Z-0.125000
G01 X375.560868 Y8.808439 Z-0.125000
G01 X376.358931 Y7.212312 Z-0.125000
G01 X376.358931 Y5.616185 Z-0.125000
G01 X377.156995 Y4.818121 Z-0.125000
G01 X379.551185 Y4.818121 Z-0.125000
G01 X381.945375 Y4.020058 Z-0.125000
G01 X381.147312 Y1.625867 Z-0.125000
G01 X379.551185 Y0.827804 Z-0.125000
G01 X378.753122 Y2.423931 Z-0.125000
G01 X376.358931 Y2.423931 Z-0.125000
G01 X376.358931 Y0.029741 Z-0.125000
G01 X373.964741 Y0.827804 Z-0.125000
G01 X373.964741 Y3.221994 Z-0.125000
G01 X372.368614 Y4.020058 Z-0.125000
G01 X373.166677 Y6.414248 Z-0.125000
G01 X372.368614 Y8.010375 Z-0.125000
G01 X371.570550 Y10.404566 Z-0.125000
G01 X372.368614 Y12.798756 Z-0.125000
G01 X369.974424 Y12.000692 Z-0.125000
G01 X369.176360 Y13.596819 Z-0.125000
G01 X366.782170 Y14.394883 Z-0.125000
G01 X364.387979 Y13.596819 Z-0.125000
G01 X365.186043 Y15.991010 Z-0.125000
G01 X362.791852 Y16.789073 Z-0.125000
G01 X361.993789 Y14.394883 Z-0.125000
G01 X360.397662 Y15.192946 Z-0.125000
G01 X359.599599 Y12.798756 Z-0.125000
G01 X360.397662 Y11.202629 Z-0.125000
G01 X362.791852 Y11.202629 Z-0.125000
G01 X365.186043 Y10.404566 Z-0.125000
G01 X366.782170 Y11.202629 Z-0.125000
G01 X368.378297 Y9.606502 Z-0.125000
G01 X369.176360 Y8.010375 Z-0.125000
G01 X369.974424 Y6.414248 Z-0.125000
G01 X369.974424 Y4.020058 Z-0.125000
G01 X367.580233 Y4.818121 Z-0.125000
G01 X365.984106 Y6.414248 Z-0.125000
G01 X365.186043 Y8.010375 Z-0.125000
G01 X361.993789 Y8.010375 Z-0.125000
G01 X360.397662 Y8.808439 Z-0.125000
G01 X357.205408 Y9.606502 Z-0.125000
G01 X356.407345 Y10.404566 Z-0.125000
G01 X354.013154 Y10.404566 Z-0.125000
G01 X354.013154 Y8.010375 Z-0.125000
G01 X356.407345 Y7.212312 Z-0.125000
G01 X358.003472 Y6.414248 Z-0.125000
G01 X358.003472 Y4.020058 Z-0.125000
G01 X360.397662 Y3.221994 Z-0.125000
G01 X360.397662 Y5.616185 Z-0.125000
G01 X362.791852 Y4.818121 Z-0.125000
G01 X362.791852 Y2.423931 Z-0.125000
G01 X365.186043 Y3.221994 Z-0.125000
G01 X365.984106 Y1.625867 Z-0.125000
G01 X362.791852 Y0.029741 Z-0.125000
G01 X365.186043 Y-0.768323 Z-0.125000
G01 X366.782170 Y-1.566386 Z-0.125000
G01 X365.984106 Y-3.960577 Z-0.125000
G01 X366.782170 Y-5.556704 Z-0.125000
G01 X367.580233 Y-7.152831 Z-0.125000
G01 X368.378297 Y-8.748958 Z-0.125000
G01 X369.176360 Y-10.345084 Z-0.125000
G01 X368.378297 Y-12.739275 Z-0.125000
G01 X366.782170 Y-11.941211 Z-0.125000
G01 X365.984106 Y-9.547021 Z-0.125000
G01 X364.387979 Y-7.950894 Z-0.125000
G01 X363.589916 Y-5.556704 Z-0.125000
G01 X363.589916 Y-3.162513 Z-0.125000
G01 X361.195725 Y-3.162513 Z-0.125000
G01 X360.397662 Y-5.556704 Z-0.125000
G01 X361.195725 Y-7.950894 Z-0.125000
G01 X358.801535 Y-7.950894 Z-0.125000
G01 X358.003472 Y-5.556704 Z-0.125000
G01 X358.003472 Y-3.162513 Z-0.125000
G01 X356.407345 Y-1.566386 Z-0.125000
G01 X359.599599 Y-0.768323 Z-0.125000
G01 X358.801535 Y0.827804 Z-0.125000
G01 X356.407345 Y0.827804 Z-0.125000
G01 X355.609281 Y2.423931 Z-0.125000
G01 X354.811218 Y4.020058 Z-0.125000
G01 X354.013154 Y5.616185 Z-0.125000
G01 X351.618964 Y5.616185 Z-0.125000
G01 X351.618964 Y7.212312 Z-0.125000
G01 X350.820900 Y8.808439 Z-0.125000
G01 X351.618964 Y11.202629 Z-0.125000
G01 X351.618964 Y13.596819 Z-0.125000
G01 X354.013154 Y13.596819 Z-0.125000
G01 X354.811218 Y12.798756 Z-0.125000
G01 X357.205408 Y12.798756 Z-0.125000
G01 X358.003472 Y15.192946 Z-0.125000
G01 X355.609281 Y15.991010 Z-0.125000
G01 X354.811218 Y16.789073 Z-0.125000
G01 X355.609281 Y19.183264 Z-0.125000
G01 X354.811218 Y20.779391 Z-0.125000
G01 X352.417027 Y19.981327 Z-0.125000
G01 X352.417027 Y16.789073 Z-0.125000
G01 X350.022837 Y17.587137 Z-0.125000
G01 X350.022837 Y19.981327 Z-0.125000
G01 X349.224774 Y22.375517 Z-0.125000
G01 X348.426710 Y24.769708 Z-0.125000
G01 X350.820900 Y24.769708 Z-0.125000
G01 X352.417027 Y23.173581 Z-0.125000
G01 X354.811218 Y23.971644 Z-0.125000
G01 X354.013154 Y26.365835 Z-0.125000
G01 X354.013154 Y28.760025 Z-0.125000
G01 X352.417027 Y29.558089 Z-0.125000
G01 X351.618964 Y31.952279 Z-0.125000
G01 X349.224774 Y31.952279 Z-0.125000
G01 X350.022837 Y29.558089 Z-0.125000
G01 X350.820900 Y27.163898 Z-0.125000
G01 X348.426710 Y27.163898 Z-0.125000
G01 X347.628647 Y29.558089 Z-0.125000
G01 X345.234456 Y29.558089 Z-0.125000
G01 X343.638329 Y30.356152 Z-0.125000
G01 X346.830583 Y31.952279 Z-0.125000
G01 X345.234456 Y32.750342 Z-0.125000
G01 X343.638329 Y33.548406 Z-0.125000
G01 X341.244139 Y34.346469 Z-0.125000
G01 X338.849949 Y35.144533 Z-0.125000
G01 X337.253822 Y36.740660 Z-0.125000
G01 X337.253822 Y39.134850 Z-0.125000
G01 X339.648012 Y39.134850 Z-0.125000
G01 X340.446075 Y37.538723 Z-0.125000
G01 X342.042202 Y36.740660 Z-0.125000
G01 X343.638329 Y35.942596 Z-0.125000
G01 X346.032520 Y35.144533 Z-0.125000
G01 X348.426710 Y34.346469 Z-0.125000
G01 X350.820900 Y34.346469 Z-0.125000
G01 X350.022837 Y36.740660 Z-0.125000
G01 X347.628647 Y36.740660 Z-0.125000
G01 X346.830583 Y38.336787 Z-0.125000
G01 X344.436393 Y38.336787 Z-0.125000
G01 X342.840266 Y39.134850 Z-0.125000
G01 X342.042202 Y40.730977 Z-0.125000
G01 X339.648012 Y41.529041 Z-0.125000
G01 X337.253822 Y41.529041 Z-0.125000
G01 X336.455758 Y42.327104 Z-0.125000
G01 X336.455758 Y43.923231 Z-0.125000
G01 X335.657695 Y45.519358 Z-0.125000
G01 X334.859631 Y47.115485 Z-0.125000
G01 X335.657695 Y49.509675 Z-0.125000
G01 X334.859631 Y50.307739 Z-0.125000
G01 X332.465441 Y51.105802 Z-0.125000
G01 X334.061568 Y52.701929 Z-0.125000
G01 X336.455758 Y52.701929 Z-0.125000
G01 X338.849949 Y51.903865 Z-0.125000
G01 X338.051885 Y49.509675 Z-0.125000
G01 X340.446075 Y49.509675 Z-0.125000
G01 X340.446075 Y47.913548 Z-0.125000
G01 X338.051885 Y47.115485 Z-0.125000
G01 X339.648012 Y45.519358 Z-0.125000
G01 X340.446075 Y43.923231 Z-0.125000
G01 X342.042202 Y43.125167 Z-0.125000
G01 X342.042202 Y46.317421 Z-0.125000
G01 X344.436393 Y45.519358 Z-0.125000
G01 X344.436393 Y43.923231 Z-0.125000
G01 X344.436393 Y41.529041 Z-0.125000
G01 X346.830583 Y40.730977 Z-0.125000
G01 X347.628647 Y43.125167 Z-0.125000
G01 X346.830583 Y43.923231 Z-0.125000
G01 X347.628647 Y46.317421 Z-0.125000
G01 X346.830583 Y47.913548 Z-0.125000
G01 X344.436393 Y47.913548 Z-0.125000
G01 X343.638329 Y49.509675 Z-0.125000
G01 X342.840266 Y51.105802 Z-0.125000
G01 X341.244139 Y51.903865 Z-0.125000
G01 X341.244139 Y54.298056 Z-0.125000
G01 X338.849949 Y54.298056 Z-0.125000
G01 X337.253822 Y55.096119 Z-0.125000
G01 X334.859631 Y55.894183 Z-0.125000
G01 X333.263504 Y55.096119 Z-0.125000
G01 X330.869314 Y55.096119 Z-0.125000
G01 X330.869314 Y52.701929 Z-0.125000
G01 X328.475124 Y52.701929 Z-0.125000
G01 X329.273187 Y50.307739 Z-0.125000
G01 X330.071251 Y48.711612 Z-0.125000
G01 X332.465441 Y47.913548 Z-0.125000
G01 X332.465441 Y45.519358 Z-0.125000
G01 X333.263504 Y43.125167 Z-0.125000
G01 X333.263504 Y40.730977 Z-0.125000
G01 X334.061568 Y39.134850 Z-0.125000
G01 X334.061568 Y37.538723 Z-0.125000
G01 X334.859631 Y35.942596 Z-0.125000
G01 X335.657695 Y34.346469 Z-0.125000
G01 X336.455758 Y33.548406 Z-0.125000
G01 X338.849949 Y32.750342 Z-0.125000
G01 X341.244139 Y31.952279 Z-0.125000
G01 X339.648012 Y30.356152 Z-0.125000
G01 X341.244139 Y29.558089 Z-0.125000
G01 X342.042202 Y27.961962 Z-0.125000
G01 X342.042202 Y26.365835 Z-0.125000
G01 X344.436393 Y26.365835 Z-0.125000
G01 X346.032520 Y27.163898 Z-0.125000
G01 X346.032520 Y24.769708 Z-0.125000
G01 X346.830583 Y22.375517 Z-0.125000
G01 X344.436393 Y22.375517 Z-0.125000
G01 X342.840266 Y23.971644 Z-0.125000
G01 X342.042202 Y20.779391 Z-0.125000
G01 X341.244139 Y21.577454 Z-0.125000
G01 X340.446075 Y23.173581 Z-0.125000
G01 X339.648012 Y24.769708 Z-0.125000
G01 X338.849949 Y27.163898 Z-0.125000
G01 X337.253822 Y28.760025 Z-0.125000
G01 X336.455758 Y29.558089 Z-0.125000
G01 X335.657695 Y31.154216 Z-0.125000
G01 X333.263504 Y31.952279 Z-0.125000
G01 X332.465441 Y33.548406 Z-0.125000
G01 X331.667377 Y35.144533 Z-0.125000
G01 X330.869314 Y35.942596 Z-0.125000
G01 X328.475124 Y35.942596 Z-0.125000
G01 X326.080933 Y35.942596 Z-0.125000
G01 X325.282870 Y38.336787 Z-0.125000
G01 X323.686743 Y39.134850 Z-0.125000
G01 X321.292552 Y39.932914 Z-0.125000
G01 X318.898362 Y40.730977 Z-0.125000
G01 X316.504172 Y41.529041 Z-0.125000
G01 X314.109981 Y43.125167 Z-0.125000
G01 X313.311918 Y40.730977 Z-0.125000
G01 X314.109981 Y39.134850 Z-0.125000
G01 X315.706108 Y38.336787 Z-0.125000
G01 X315.706108 Y36.740660 Z-0.125000
G01 X315.706108 Y34.346469 Z-0.125000
G01 X316.504172 Y32.750342 Z-0.125000
G01 X317.302235 Y31.952279 Z-0.125000
G01 X316.504172 Y29.558089 Z-0.125000
G01 X317.302235 Y27.961962 Z-0.125000
G01 X318.100299 Y25.567771 Z-0.125000
G01 X315.706108 Y25.567771 Z-0.125000
G01 X314.109981 Y27.961962 Z-0.125000
G01 X314.109981 Y30.356152 Z-0.125000
G01 X313.311918 Y32.750342 Z-0.125000
G01 X311.715791 Y34.346469 Z-0.125000
G01 X313.311918 Y35.144533 Z-0.125000
G01 X311.715791 Y36.740660 Z-0.125000
G01 X310.917727 Y38.336787 Z-0.125000
G01 X310.119664 Y39.932914 Z-0.125000
G01 X307.725474 Y39.932914 Z-0.125000
G01 X308.523537 Y37.538723 Z-0.125000
G01 X309.321601 Y35.144533 Z-0.125000
G01 X309.321601 Y32.750342 Z-0.125000
G01 X310.119664 Y31.154216 Z-0.125000
G01 X310.917727 Y29.558089 Z-0.125000
G01 X311.715791 Y28.760025 Z-0.125000
G01 X311.715791 Y26.365835 Z-0.125000
G01 X312.513854 Y24.769708 Z-0.125000
G01 X314.109981 Y23.971644 Z-0.125000
G01 X316.504172 Y23.173581 Z-0.125000
G01 X317.302235 Y21.577454 Z-0.125000
G01 X318.898362 Y22.375517 Z-0.125000
G01 X318.898362 Y19.981327 Z-0.125000
G01 X319.696426 Y18.385200 Z-0.125000
G01 X320.494489 Y15.991010 Z-0.125000
G01 X320.494489 Y13.596819 Z-0.125000
G01 X321.292552 Y12.798756 Z-0.125000
G01 X320.494489 Y10.404566 Z-0.125000
G01 X322.090616 Y8.808439 Z-0.125000
G01 X323.686743 Y8.010375 Z-0.125000
G01 X323.686743 Y10.404566 Z-0.125000
G01 X323.686743 Y12.000692 Z-0.125000
G01 X323.686743 Y14.394883 Z-0.125000
G01 X322.888679 Y15.991010 Z-0.125000
G01 X322.888679 Y18.385200 Z-0.125000
G01 X322.090616 Y19.981327 Z-0.125000
G01 X321.292552 Y21.577454 Z-0.125000
G01 X321.292552 Y23.971644 Z-0.125000
G01 X320.494489 Y25.567771 Z-0.125000
G01 X319.696426 Y27.961962 Z-0.125000
G01 X322.090616 Y28.760025 Z-0.125000
G01 X322.888679 Y27.163898 Z-0.125000
G01 X323.686743 Y25.567771 Z-0.125000
G01 X323.686743 Y23.173581 Z-0.125000
G01 X324.484806 Y20.779391 Z-0.125000
G01 X325.282870 Y18.385200 Z-0.125000
G01 X326.080933 Y16.789073 Z-0.125000
G01 X326.080933 Y14.394883 Z-0.125000
G01 X326.878997 Y12.798756 Z-0.125000
G01 X326.080933 Y10.404566 Z-0.125000
G01 X328.475124 Y11.202629 Z-0.125000
G01 X330.869314 Y10.404566 Z-0.125000
G01 X331.667377 Y9.606502 Z-0.125000
G01 X334.061568 Y8.808439 Z-0.125000
G01 X335.657695 Y8.010375 Z-0.125000
G01 X335.657695 Y5.616185 Z-0.125000
G01 X338.051885 Y5.616185 Z-0.125000
G01 X338.051885 Y8.010375 Z-0.125000
G01 X338.051885 Y10.404566 Z-0.125000
G01 X336.455758 Y11.202629 Z-0.125000
G01 X334.061568 Y11.202629 Z-0.125000
G01 X333.263504 Y12.798756 Z-0.125000
G01 X330.869314 Y12.798756 Z-0.125000
G01 X330.071251 Y14.394883 Z-0.125000
G01 X329.273187 Y15.192946 Z-0.125000
G01 X328.475124 Y16.789073 Z-0.125000
G01 X328.475124 Y19.183264 Z-0.125000
G01 X327.677060 Y20.779391 Z-0.125000
G01 X326.878997 Y22.375517 Z-0.125000
G01 X326.080933 Y23.971644 Z-0.125000
G01 X326.878997 Y26.365835 Z-0.125000
G01 X328.475124 Y25.567771 Z-0.125000
G01 X329.273187 Y23.971644 Z-0.125000
G01 X330.071251 Y22.375517 Z-0.125000
G01 X330.869314 Y20.779391 Z-0.125000
G01 X332.465441 Y19.183264 Z-0.125000
G01 X330.869314 Y18.385200 Z-0.125000
G01 X332.465441 Y16.789073 Z-0.125000
G01 X333.263504 Y15.192946 Z-0.125000
G01 X335.657695 Y14.394883 Z-0.125000
G01 X337.253822 Y13.596819 Z-0.125000
G01 X338.849949 Y12.798756 Z-0.125000
G01 X341.244139 Y12.798756 Z-0.125000
G01 X340.446075 Y10.404566 Z-0.125000
G01 X340.446075 Y8.010375 Z-0.125000
G01 X340.446075 Y5.616185 Z-0.125000
G01 X342.840266 Y6.414248 Z-0.125000
G01 X343.638329 Y8.808439 Z-0.125000
G01 X342.840266 Y10.404566 Z-0.125000
G01 X343.638329 Y12.798756 Z-0.125000
G01 X342.840266 Y15.192946 Z-0.125000
G01 X340.446075 Y15.192946 Z-0.125000
G01 X338.051885 Y15.991010 Z-0.125000
G01 X335.657695 Y16.789073 Z-0.125000
G01 X334.859631 Y18.385200 Z-0.125000
G01 X335.657695 Y20.779391 Z-0.125000
G01 X334.859631 Y21.577454 Z-0.125000
G01 X334.859631 Y23.971644 Z-0.125000
G01 X333.263504 Y23.173581 Z-0.125000
G01 X332.465441 Y24.769708 Z-0.125000
G01 X331.667377 Y26.365835 Z-0.125000
G01 X330.869314 Y27.961962 Z-0.125000
G01 X328.475124 Y28.760025 Z-0.125000
G01 X326.080933 Y27.961962 Z-0.125000
G01 X325.282870 Y29.558089 Z-0.125000
G01 X324.484806 Y31.154216 Z-0.125000
G01 X322.090616 Y31.154216 Z-0.125000
G01 X319.696426 Y31.154216 Z-0.125000
G01 X320.494489 Y33.548406 Z-0.125000
G01 X318.898362 Y35.144533 Z-0.125000
G01 X318.898362 Y37.538723 Z-0.125000
G01 X321.292552 Y36.740660 Z-0.125000
G01 X323.686743 Y35.942596 Z-0.125000
G01 X322.888679 Y33.548406 Z-0.125000
G01 X326.080933 Y33.548406 Z-0.125000
G01 X328.475124 Y33.548406 Z-0.125000
G01 X327.677060 Y31.154216 Z-0.125000
G01 X330.071251 Y31.952279 Z-0.125000
G01 X330.869314 Y30.356152 Z-0.125000
G01 X333.263504 Y29.558089 Z-0.125000
G01 X334.061568 Y27.163898 Z-0.125000
G01 X336.455758 Y26.365835 Z-0.125000
G01 X337.253822 Y24.769708 Z-0.125000
G01 X338.051885 Y22.375517 Z-0.125000
G01 X338.051885 Y19.981327 Z-0.125000
G01 X338.051885 Y18.385200 Z-0.125000
G01 X340.446075 Y18.385200 Z-0.125000
G01 X341.244139 Y17.587137 Z-0.125000
G01 X343.638329 Y17.587137 Z-0.125000
G01 X344.436393 Y19.981327 Z-0.125000
G01 X346.032520 Y19.183264 Z-0.125000
G01 X346.032520 Y16.789073 Z-0.125000
G01 X345.234456 Y14.394883 Z-0.125000
G01 X348.426710 Y15.192946 Z-0.125000
G01 X349.224774 Y13.596819 Z-0.125000
G01 X348.426710 Y11.202629 Z-0.125000
G01 X346.032520 Y12.000692 Z-0.125000
G01 X346.032520 Y9.606502 Z-0.125000
G01 X348.426710 Y8.808439 Z-0.125000
G01 X348.426710 Y6.414248 Z-0.125000
G01 X346.032520 Y7.212312 Z-0.125000
G01 X346.032520 Y4.818121 Z-0.125000
G01 X348.426710 Y4.020058 Z-0.125000
G01 X349.224774 Y3.221994 Z-0.125000
G01 X351.618964 Y3.221994 Z-0.125000
G01 X352.417027 Y1.625867 Z-0.125000
G01 X353.215091 Y0.029741 Z-0.125000
G01 X354.013154 Y-1.566386 Z-0.125000
G01 X354.013154 Y-3.960577 Z-0.125000
G01 X355.609281 Y-4.758640 Z-0.125000
G01 X355.609281 Y-7.152831 Z-0.125000
G01 X356.407345 Y-8.748958 Z-0.125000
G01 X358.003472 Y-10.345084 Z-0.125000
G01 X358.003472 Y-12.739275 Z-0.125000
G01 X358.003472 Y-15.133465 Z-0.125000
G01 X355.609281 Y-14.335402 Z-0.125000
G01 X354.811218 Y-12.739275 Z-0.125000
G01 X354.811218 Y-11.143148 Z-0.125000
G01 X353.215091 Y-9.547021 Z-0.125000
G01 X350.820900 Y-8.748958 Z-0.125000
G01 X350.022837 Y-6.354767 Z-0.125000
G01 X352.417027 Y-6.354767 Z-0.125000
G01 X350.022837 Y-3.960577 Z-0.125000
G01 X351.618964 Y-3.162513 Z-0.125000
G01 X350.022837 Y-1.566386 Z-0.125000
G01 X350.022837 Y0.029741 Z-0.125000
G01 X348.426710 Y0.827804 Z-0.125000
G01 X346.032520 Y1.625867 Z-0.125000
G01 X344.436393 Y0.827804 Z-0.125000
G01 X343.638329 Y3.221994 Z-0.125000
G01 X342.042202 Y4.020058 Z-0.125000
G01 X341.244139 Y0.827804 Z-0.125000
G01 X338.849949 Y1.625867 Z-0.125000
G01 X338.849949 Y3.221994 Z-0.125000
G01 X336.455758 Y3.221994 Z-0.125000
G01 X334.061568 Y3.221994 Z-0.125000
G01 X333.263504 Y4.020058 Z-0.125000
G01 X333.263504 Y6.414248 Z-0.125000
G01 X331.667377 Y5.616185 Z-0.125000
G01 X330.869314 Y7.212312 Z-0.125000
G01 X328.475124 Y8.010375 Z-0.125000
G01 X326.878997 Y8.808439 Z-0.125000
G01 X326.080933 Y6.414248 Z-0.125000
G01 X327.677060 Y5.616185 Z-0.125000
G01 X328.475124 Y4.818121 Z-0.125000
G01 X330.071251 Y3.221994 Z-0.125000
G01 X330.869314 Y1.625867 Z-0.125000
G01 X333.263504 Y0.827804 Z-0.125000
G01 X335.657695 Y0.827804 Z-0.125000
G01 X335.657695 Y-0.768323 Z-0.125000
G01 X335.657695 Y-3.162513 Z-0.125000
G01 X333.263504 Y-3.162513 Z-0.125000
G01 X332.465441 Y-1.566386 Z-0.125000
G01 X330.869314 Y-0.768323 Z-0.125000
G01 X328.475124 Y0.029741 Z-0.125000
G01 X327.677060 Y1.625867 Z-0.125000
G01 X326.080933 Y0.827804 Z-0.125000
G01 X325.282870 Y2.423931 Z-0.125000
G01 X324.484806 Y4.020058 Z-0.125000
G01 X323.686743 Y5.616185 Z-0.125000
G01 X321.292552 Y6.414248 Z-0.125000
G01 X318.898362 Y6.414248 Z-0.125000
G01 X317.302235 Y7.212312 Z-0.125000
G01 X318.898362 Y8.808439 Z-0.125000
G01 X318.100299 Y11.202629 Z-0.125000
G01 X316.504172 Y9.606502 Z-0.125000
G01 X314.908045 Y8.010375 Z-0.125000
G01 X313.311918 Y8.808439 Z-0.125000
G01 X313.311918 Y10.404566 Z-0.125000
G01 X313.311918 Y12.798756 Z-0.125000
G01 X315.706108 Y12.000692 Z-0.125000
G01 X315.706108 Y14.394883 Z-0.125000
G01 X318.100299 Y13.596819 Z-0.125000
G01 X318.100299 Y15.991010 Z-0.125000
G01 X316.504172 Y16.789073 Z-0.125000
G01 X315.706108 Y18.385200 Z-0.125000
G01 X314.908045 Y19.981327 Z-0.125000
G01 X314.109981 Y21.577454 Z-0.125000
G01 X311.715791 Y22.375517 Z-0.125000
G01 X310.917727 Y19.981327 Z-0.125000
G01 X311.715791 Y19.183264 Z-0.125000
G01 X312.513854 Y17.587137 Z-0.125000
G01 X314.109981 Y15.991010 Z-0.125000
G01 X312.513854 Y15.192946 Z-0.125000
G01 X310.119664 Y15.991010 Z-0.125000
G01 X308.523537 Y17.587137 Z-0.125000
G01 X307.725474 Y19.183264 Z-0.125000
G01 X306.129347 Y19.981327 Z-0.125000
G01 X303.735156 Y19.981327 Z-0.125000
G01 X302.139029 Y20.779391 Z-0.125000
G01 X300.542902 Y21.577454 Z-0.125000
G01 X300.542902 Y23.971644 Z-0.125000
G01 X302.937093 Y23.971644 Z-0.125000
G01 X302.937093 Y26.365835 Z-0.125000
G01 X300.542902 Y26.365835 Z-0.125000
G01 X299.744839 Y27.961962 Z-0.125000
G01 X299.744839 Y29.558089 Z-0.125000
G01 X302.139029 Y28.760025 Z-0.125000
G01 X304.533220 Y28.760025 Z-0.125000
G01 X305.331283 Y26.365835 Z-0.125000
G01 X305.331283 Y24.769708 Z-0.125000
G01 X304.533220 Y22.375517 Z-0.125000
G01 X306.927410 Y22.375517 Z-0.125000
G01 X309.321601 Y21.577454 Z-0.125000
G01 X309.321601 Y23.971644 Z-0.125000
G01 X307.725474 Y24.769708 Z-0.125000
G01 X308.523537 Y27.163898 Z-0.125000
G01 X307.725474 Y28.760025 Z-0.125000
G01 X306.927410 Y30.356152 Z-0.125000
G01 X306.927410 Y32.750342 Z-0.125000
G01 X306.927410 Y35.144533 Z-0.125000
G01 X306.129347 Y37.538723 Z-0.125000
G01 X303.735156 Y38.336787 Z-0.125000
G01 X302.937093 Y41.529041 Z-0.125000
G01 X305.331283 Y40.730977 Z-0.125000
G01 X307.725474 Y42.327104 Z-0.125000
G01 X309.321601 Y43.125167 Z-0.125000
G01 X311.715791 Y42.327104 Z-0.125000
G01 X311.715791 Y44.721294 Z-0.125000
G01 X310.119664 Y45.519358 Z-0.125000
G01 X310.119664 Y47.115485 Z-0.125000
G01 X309.321601 Y48.711612 Z-0.125000
G01 X309.321601 Y51.105802 Z-0.125000
G01 X311.715791 Y50.307739 Z-0.125000
G01 X311.715791 Y52.701929 Z-0.125000
G01 X310.917727 Y54.298056 Z-0.125000
G01 X310.917727 Y56.692246 Z-0.125000
G01 X309.321601 Y58.288373 Z-0.125000
G01 X310.119664 Y60.682564 Z-0.125000
G01 X308.523537 Y62.278690 Z-0.125000
G01 X307.725474 Y64.672881 Z-0.125000
G01 X305.331283 Y65.470944 Z-0.125000
G01 X303.735156 Y67.067071 Z-0.125000
G01 X302.937093 Y68.663198 Z-0.125000
G01 X300.542902 Y68.663198 Z-0.125000
G01 X298.148712 Y68.663198 Z-0.125000
G01 X296.552585 Y67.067071 Z-0.125000
G01 X294.956458 Y66.269008 Z-0.125000
G01 X293.360331 Y67.865135 Z-0.125000
G01 X293.360331 Y70.259325 Z-0.125000
G01 X295.754522 Y69.461262 Z-0.125000
G01 X295.754522 Y71.855452 Z-0.125000
G01 X294.158395 Y73.451579 Z-0.125000
G01 X294.956458 Y75.845769 Z-0.125000
G01 X293.360331 Y77.441896 Z-0.125000
G01 X290.966141 Y77.441896 Z-0.125000
G01 X291.764204 Y75.047706 Z-0.125000
G01 X291.764204 Y72.653515 Z-0.125000
G01 X289.370014 Y72.653515 Z-0.125000
G01 X290.168077 Y70.259325 Z-0.125000
