%
(Header)
(Generated by gcodetools from Inkscape.)
(Using default header. To add your own header create file "header" in the output dir.)
M3
(Header end.)
G21 (All units in mm)

(Start cutting path id: path57488)
(Change tool to Default tool)

G00 Z5.000000
G00 X135.620166 Y586.018975

G01 Z-0.125000 F100.0(Penetrate)
G01 X135.620166 Y581.629626 Z-0.125000 F400.000000
G01 X136.717503 Y576.142939 Z-0.125000
G01 X140.009515 Y577.240277 Z-0.125000
G01 X138.912178 Y571.753590 Z-0.125000
G01 X143.301527 Y570.656253 Z-0.125000
G01 X147.690876 Y568.461579 Z-0.125000
G01 X149.885550 Y564.072229 Z-0.125000
G01 X157.566911 Y566.266904 Z-0.125000
G01 X159.761586 Y559.682880 Z-0.125000
G01 X153.177562 Y557.488206 Z-0.125000
G01 X148.788213 Y556.390869 Z-0.125000
G01 X140.009515 Y565.169567 Z-0.125000
G01 X141.106852 Y560.780218 Z-0.125000
G01 X141.106852 Y557.488206 Z-0.125000
G01 X142.204189 Y553.098857 Z-0.125000
G01 X142.204189 Y547.612170 Z-0.125000
G01 X147.690876 Y546.514833 Z-0.125000
G01 X154.274899 Y548.709508 Z-0.125000
G01 X156.469574 Y543.222821 Z-0.125000
G01 X163.053597 Y546.514833 Z-0.125000
G01 X161.956260 Y554.196194 Z-0.125000
G01 X169.637621 Y554.196194 Z-0.125000
G01 X170.734958 Y546.514833 Z-0.125000
G01 X175.124307 Y543.222821 Z-0.125000
G01 X179.513656 Y539.930810 Z-0.125000
G01 X183.903006 Y536.638798 Z-0.125000
G01 X185.000343 Y530.054774 Z-0.125000
G01 X176.221645 Y528.957437 Z-0.125000
G01 X170.734958 Y533.346786 Z-0.125000
G01 X165.248272 Y537.736135 Z-0.125000
G01 X159.761586 Y536.638798 Z-0.125000
G01 X152.080225 Y533.346786 Z-0.125000
G01 X148.788213 Y537.736135 Z-0.125000
G01 X142.204189 Y538.833472 Z-0.125000
G01 X142.204189 Y532.249449 Z-0.125000
G01 X144.398864 Y526.762762 Z-0.125000
G01 X149.885550 Y525.665425 Z-0.125000
G01 X154.274899 Y526.762762 Z-0.125000
G01 X159.761586 Y527.860100 Z-0.125000
G01 X163.053597 Y526.762762 Z-0.125000
G01 X168.540284 Y524.568088 Z-0.125000
G01 X175.124307 Y521.276076 Z-0.125000
G01 X180.610994 Y521.276076 Z-0.125000
G01 X185.000343 Y519.081401 Z-0.125000
G01 X191.584366 Y520.178739 Z-0.125000
G01 X190.487029 Y525.665425 Z-0.125000
G01 X191.584366 Y533.346786 Z-0.125000
G01 X198.168390 Y530.054774 Z-0.125000
G01 X204.752414 Y531.152111 Z-0.125000
G01 X208.044425 Y527.860100 Z-0.125000
G01 X204.752414 Y524.568088 Z-0.125000
G01 X205.849751 Y521.276076 Z-0.125000
G01 X208.044425 Y522.373413 Z-0.125000
G01 X208.044425 Y519.081401 Z-0.125000
G01 X206.947088 Y515.789390 Z-0.125000
G01 X210.239100 Y515.789390 Z-0.125000
G01 X212.433775 Y513.594715 Z-0.125000
G01 X215.725786 Y513.594715 Z-0.125000
G01 X216.823124 Y511.400041 Z-0.125000
G01 X219.017798 Y509.205366 Z-0.125000
G01 X215.725786 Y508.108029 Z-0.125000
G01 X216.823124 Y505.913354 Z-0.125000
G01 X217.920461 Y503.718680 Z-0.125000
G01 X220.115135 Y504.816017 Z-0.125000
G01 X221.212473 Y502.621342 Z-0.125000
G01 X222.309810 Y500.426668 Z-0.125000
G01 X221.212473 Y497.134656 Z-0.125000
G01 X219.017798 Y498.231993 Z-0.125000
G01 X216.823124 Y500.426668 Z-0.125000
G01 X213.531112 Y502.621342 Z-0.125000
G01 X212.433775 Y504.816017 Z-0.125000
G01 X212.433775 Y508.108029 Z-0.125000
G01 X212.433775 Y510.302703 Z-0.125000
G01 X209.141763 Y511.400041 Z-0.125000
G01 X208.044425 Y512.497378 Z-0.125000
G01 X204.752414 Y512.497378 Z-0.125000
G01 X203.655076 Y514.692052 Z-0.125000
G01 X201.460402 Y516.886727 Z-0.125000
G01 X203.655076 Y517.984064 Z-0.125000
G01 X201.460402 Y520.178739 Z-0.125000
G01 X198.168390 Y523.470750 Z-0.125000
G01 X198.168390 Y517.984064 Z-0.125000
G01 X195.973716 Y515.789390 Z-0.125000
G01 X198.168390 Y513.594715 Z-0.125000
G01 X199.265727 Y510.302703 Z-0.125000
G01 X201.460402 Y509.205366 Z-0.125000
G01 X204.752414 Y509.205366 Z-0.125000
G01 X208.044425 Y508.108029 Z-0.125000
G01 X209.141763 Y505.913354 Z-0.125000
G01 X209.141763 Y502.621342 Z-0.125000
G01 X205.849751 Y502.621342 Z-0.125000
G01 X204.752414 Y504.816017 Z-0.125000
G01 X203.655076 Y505.913354 Z-0.125000
G01 X200.363065 Y505.913354 Z-0.125000
G01 X197.071053 Y505.913354 Z-0.125000
G01 X194.876378 Y509.205366 Z-0.125000
G01 X193.779041 Y512.497378 Z-0.125000
G01 X190.487029 Y512.497378 Z-0.125000
G01 X190.487029 Y508.108029 Z-0.125000
G01 X189.389692 Y504.816017 Z-0.125000
G01 X186.097680 Y503.718680 Z-0.125000
G01 X186.097680 Y500.426668 Z-0.125000
G01 X190.487029 Y500.426668 Z-0.125000
G01 X191.584366 Y493.842644 Z-0.125000
G01 X187.195017 Y494.939981 Z-0.125000
G01 X183.903006 Y497.134656 Z-0.125000
G01 X182.805668 Y493.842644 Z-0.125000
G01 X179.513656 Y497.134656 Z-0.125000
G01 X174.026970 Y494.939981 Z-0.125000
G01 X174.026970 Y502.621342 Z-0.125000
G01 X178.416319 Y502.621342 Z-0.125000
G01 X183.903006 Y510.302703 Z-0.125000
G01 X178.416319 Y511.400041 Z-0.125000
G01 X174.026970 Y512.497378 Z-0.125000
G01 X167.442947 Y509.205366 Z-0.125000
G01 X166.345609 Y514.692052 Z-0.125000
G01 X161.956260 Y516.886727 Z-0.125000
G01 X156.469574 Y516.886727 Z-0.125000
G01 X153.177562 Y519.081401 Z-0.125000
G01 X148.788213 Y519.081401 Z-0.125000
G01 X141.106852 Y520.178739 Z-0.125000
G01 X142.204189 Y514.692052 Z-0.125000
G01 X142.204189 Y508.108029 Z-0.125000
G01 X141.106852 Y502.621342 Z-0.125000
G01 X141.106852 Y496.037319 Z-0.125000
G01 X147.690876 Y498.231993 Z-0.125000
G01 X152.080225 Y496.037319 Z-0.125000
G01 X154.274899 Y493.842644 Z-0.125000
G01 X155.372237 Y489.453295 Z-0.125000
G01 X156.469574 Y486.161283 Z-0.125000
G01 X156.469574 Y481.771934 Z-0.125000
G01 X159.761586 Y480.674597 Z-0.125000
G01 X161.956260 Y477.382585 Z-0.125000
G01 X163.053597 Y474.090573 Z-0.125000
G01 X167.442947 Y472.993236 Z-0.125000
G01 X167.442947 Y468.603887 Z-0.125000
G01 X169.637621 Y465.311875 Z-0.125000
G01 X171.832296 Y460.922526 Z-0.125000
G01 X174.026970 Y455.435840 Z-0.125000
G01 X179.513656 Y451.046491 Z-0.125000
G01 X183.903006 Y448.851816 Z-0.125000
G01 X187.195017 Y448.851816 Z-0.125000
G01 X188.292355 Y446.657142 Z-0.125000
G01 X183.903006 Y443.365130 Z-0.125000
G01 X186.097680 Y441.170455 Z-0.125000
G01 X187.195017 Y437.878443 Z-0.125000
G01 X189.389692 Y435.683769 Z-0.125000
G01 X192.681704 Y436.781106 Z-0.125000
G01 X191.584366 Y433.489094 Z-0.125000
G01 X192.681704 Y430.197083 Z-0.125000
G01 X197.071053 Y429.099745 Z-0.125000
G01 X198.168390 Y434.586432 Z-0.125000
G01 X201.460402 Y431.294420 Z-0.125000
G01 X205.849751 Y432.391757 Z-0.125000
G01 X211.336437 Y432.391757 Z-0.125000
G01 X215.725786 Y428.002408 Z-0.125000
G01 X217.920461 Y423.613059 Z-0.125000
G01 X221.212473 Y420.321047 Z-0.125000
G01 X225.601822 Y420.321047 Z-0.125000
G01 X229.991171 Y421.418384 Z-0.125000
G01 X233.283183 Y419.223710 Z-0.125000
G01 X234.380520 Y414.834361 Z-0.125000
G01 X231.088508 Y411.542349 Z-0.125000
G01 X228.893834 Y414.834361 Z-0.125000
G01 X226.699159 Y415.931698 Z-0.125000
G01 X222.309810 Y413.737024 Z-0.125000
G01 X217.920461 Y413.737024 Z-0.125000
G01 X214.628449 Y417.029035 Z-0.125000
G01 X211.336437 Y421.418384 Z-0.125000
G01 X209.141763 Y424.710396 Z-0.125000
G01 X204.752414 Y424.710396 Z-0.125000
G01 X199.265727 Y423.613059 Z-0.125000
G01 X200.363065 Y418.126373 Z-0.125000
G01 X204.752414 Y417.029035 Z-0.125000
G01 X209.141763 Y415.931698 Z-0.125000
G01 X209.141763 Y411.542349 Z-0.125000
G01 X209.141763 Y408.250337 Z-0.125000
G01 X208.044425 Y403.860988 Z-0.125000
G01 X211.336437 Y399.471639 Z-0.125000
G01 X216.823124 Y395.082290 Z-0.125000
G01 X216.823124 Y390.692941 Z-0.125000
G01 X216.823124 Y385.206255 Z-0.125000
G01 X212.433775 Y385.206255 Z-0.125000
G01 X209.141763 Y387.400929 Z-0.125000
G01 X211.336437 Y392.887615 Z-0.125000
G01 X206.947088 Y392.887615 Z-0.125000
G01 X204.752414 Y397.276965 Z-0.125000
G01 X200.363065 Y397.276965 Z-0.125000
G01 X197.071053 Y398.374302 Z-0.125000
G01 X193.779041 Y398.374302 Z-0.125000
G01 X194.876378 Y401.666314 Z-0.125000
G01 X192.681704 Y403.860988 Z-0.125000
G01 X191.584366 Y406.055663 Z-0.125000
G01 X191.584366 Y409.347674 Z-0.125000
G01 X190.487029 Y411.542349 Z-0.125000
G01 X188.292355 Y413.737024 Z-0.125000
G01 X189.389692 Y417.029035 Z-0.125000
G01 X192.681704 Y414.834361 Z-0.125000
G01 X194.876378 Y412.639686 Z-0.125000
G01 X194.876378 Y409.347674 Z-0.125000
G01 X195.973716 Y406.055663 Z-0.125000
G01 X198.168390 Y409.347674 Z-0.125000
G01 X200.363065 Y407.153000 Z-0.125000
G01 X201.460402 Y402.763651 Z-0.125000
G01 X203.655076 Y408.250337 Z-0.125000
G01 X204.752414 Y411.542349 Z-0.125000
G01 X201.460402 Y412.639686 Z-0.125000
G01 X199.265727 Y413.737024 Z-0.125000
G01 X197.071053 Y415.931698 Z-0.125000
G01 X195.973716 Y419.223710 Z-0.125000
G01 X193.779041 Y418.126373 Z-0.125000
G01 X192.681704 Y420.321047 Z-0.125000
G01 X193.779041 Y423.613059 Z-0.125000
G01 X191.584366 Y424.710396 Z-0.125000
G01 X190.487029 Y426.905071 Z-0.125000
G01 X189.389692 Y430.197083 Z-0.125000
G01 X186.097680 Y431.294420 Z-0.125000
G01 X183.903006 Y433.489094 Z-0.125000
G01 X181.708331 Y437.878443 Z-0.125000
G01 X180.610994 Y433.489094 Z-0.125000
G01 X176.221645 Y434.586432 Z-0.125000
G01 X175.124307 Y438.975781 Z-0.125000
G01 X179.513656 Y441.170455 Z-0.125000
G01 X179.513656 Y444.462467 Z-0.125000
G01 X172.929633 Y446.657142 Z-0.125000
G01 X166.345609 Y446.657142 Z-0.125000
G01 X164.150935 Y452.143828 Z-0.125000
G01 X161.956260 Y455.435840 Z-0.125000
G01 X163.053597 Y459.825189 Z-0.125000
G01 X166.345609 Y458.727852 Z-0.125000
G01 X165.248272 Y463.117201 Z-0.125000
G01 X160.858923 Y462.019863 Z-0.125000
G01 X158.664248 Y464.214538 Z-0.125000
G01 X153.177562 Y467.506550 Z-0.125000
G01 X157.566911 Y467.506550 Z-0.125000
G01 X161.956260 Y466.409212 Z-0.125000
G01 X161.956260 Y469.701224 Z-0.125000
G01 X158.664248 Y471.895899 Z-0.125000
G01 X157.566911 Y475.187911 Z-0.125000
G01 X155.372237 Y477.382585 Z-0.125000
G01 X152.080225 Y481.771934 Z-0.125000
G01 X149.885550 Y487.258621 Z-0.125000
G01 X145.496201 Y486.161283 Z-0.125000
G01 X142.204189 Y490.550632 Z-0.125000
G01 X141.106852 Y485.063946 Z-0.125000
G01 X142.204189 Y478.479922 Z-0.125000
G01 X145.496201 Y475.187911 Z-0.125000
G01 X148.788213 Y471.895899 Z-0.125000
G01 X143.301527 Y470.798562 Z-0.125000
G01 X145.496201 Y466.409212 Z-0.125000
G01 X146.593538 Y463.117201 Z-0.125000
G01 X148.788213 Y458.727852 Z-0.125000
G01 X152.080225 Y455.435840 Z-0.125000
G01 X154.274899 Y452.143828 Z-0.125000
G01 X155.372237 Y447.754479 Z-0.125000
G01 X156.469574 Y444.462467 Z-0.125000
G01 X159.761586 Y443.365130 Z-0.125000
G01 X159.761586 Y438.975781 Z-0.125000
G01 X163.053597 Y438.975781 Z-0.125000
G01 X166.345609 Y436.781106 Z-0.125000
G01 X160.858923 Y433.489094 Z-0.125000
G01 X161.956260 Y430.197083 Z-0.125000
G01 X163.053597 Y428.002408 Z-0.125000
G01 X164.150935 Y424.710396 Z-0.125000
G01 X165.248272 Y420.321047 Z-0.125000
G01 X168.540284 Y422.515722 Z-0.125000
G01 X168.540284 Y430.197083 Z-0.125000
G01 X174.026970 Y428.002408 Z-0.125000
G01 X175.124307 Y421.418384 Z-0.125000
G01 X180.610994 Y422.515722 Z-0.125000
G01 X179.513656 Y426.905071 Z-0.125000
G01 X185.000343 Y426.905071 Z-0.125000
G01 X187.195017 Y424.710396 Z-0.125000
G01 X189.389692 Y421.418384 Z-0.125000
G01 X186.097680 Y419.223710 Z-0.125000
G01 X181.708331 Y418.126373 Z-0.125000
G01 X183.903006 Y413.737024 Z-0.125000
G01 X186.097680 Y408.250337 Z-0.125000
G01 X181.708331 Y407.153000 Z-0.125000
G01 X178.416319 Y410.445012 Z-0.125000
G01 X175.124307 Y414.834361 Z-0.125000
G01 X170.734958 Y417.029035 Z-0.125000
G01 X167.442947 Y417.029035 Z-0.125000
G01 X169.637621 Y411.542349 Z-0.125000
G01 X172.929633 Y408.250337 Z-0.125000
G01 X175.124307 Y404.958325 Z-0.125000
G01 X177.318982 Y402.763651 Z-0.125000
G01 X181.708331 Y401.666314 Z-0.125000
G01 X187.195017 Y403.860988 Z-0.125000
G01 X190.487029 Y400.568976 Z-0.125000
G01 X189.389692 Y396.179627 Z-0.125000
G01 X190.487029 Y392.887615 Z-0.125000
G01 X194.876378 Y392.887615 Z-0.125000
G01 X198.168390 Y391.790278 Z-0.125000
G01 X201.460402 Y390.692941 Z-0.125000
G01 X203.655076 Y387.400929 Z-0.125000
G01 X203.655076 Y384.108917 Z-0.125000
G01 X204.752414 Y380.816905 Z-0.125000
G01 X206.947088 Y379.719568 Z-0.125000
G01 X208.044425 Y376.427556 Z-0.125000
G01 X212.433775 Y378.622231 Z-0.125000
G01 X216.823124 Y378.622231 Z-0.125000
G01 X219.017798 Y376.427556 Z-0.125000
G01 X221.212473 Y375.330219 Z-0.125000
G01 X222.309810 Y372.038207 Z-0.125000
G01 X224.504485 Y370.940870 Z-0.125000
G01 X228.893834 Y372.038207 Z-0.125000
G01 X231.088508 Y370.940870 Z-0.125000
G01 X235.477857 Y368.746196 Z-0.125000
G01 X235.477857 Y372.038207 Z-0.125000
G01 X235.477857 Y375.330219 Z-0.125000
G01 X232.185845 Y376.427556 Z-0.125000
G01 X226.699159 Y375.330219 Z-0.125000
G01 X225.601822 Y378.622231 Z-0.125000
G01 X223.407147 Y381.914243 Z-0.125000
G01 X222.309810 Y386.303592 Z-0.125000
G01 X223.407147 Y391.790278 Z-0.125000
G01 X227.796496 Y388.498266 Z-0.125000
G01 X229.991171 Y385.206255 Z-0.125000
G01 X231.088508 Y380.816905 Z-0.125000
G01 X235.477857 Y380.816905 Z-0.125000
G01 X236.575194 Y386.303592 Z-0.125000
G01 X236.575194 Y389.595604 Z-0.125000
G01 X233.283183 Y391.790278 Z-0.125000
G01 X229.991171 Y393.984953 Z-0.125000
G01 X228.893834 Y399.471639 Z-0.125000
G01 X223.407147 Y397.276965 Z-0.125000
G01 X222.309810 Y401.666314 Z-0.125000
G01 X216.823124 Y401.666314 Z-0.125000
G01 X214.628449 Y407.153000 Z-0.125000
G01 X213.531112 Y410.445012 Z-0.125000
G01 X217.920461 Y408.250337 Z-0.125000
G01 X222.309810 Y408.250337 Z-0.125000
G01 X225.601822 Y408.250337 Z-0.125000
G01 X228.893834 Y406.055663 Z-0.125000
G01 X233.283183 Y408.250337 Z-0.125000
G01 X234.380520 Y404.958325 Z-0.125000
G01 X234.380520 Y400.568976 Z-0.125000
G01 X237.672532 Y397.276965 Z-0.125000
G01 X240.964544 Y393.984953 Z-0.125000
G01 X245.353893 Y392.887615 Z-0.125000
G01 X249.743242 Y391.790278 Z-0.125000
G01 X247.548567 Y397.276965 Z-0.125000
G01 X243.159218 Y400.568976 Z-0.125000
G01 X240.964544 Y403.860988 Z-0.125000
G01 X238.769869 Y406.055663 Z-0.125000
G01 X237.672532 Y410.445012 Z-0.125000
G01 X242.061881 Y410.445012 Z-0.125000
G01 X244.256555 Y408.250337 Z-0.125000
G01 X246.451230 Y406.055663 Z-0.125000
G01 X248.645904 Y403.860988 Z-0.125000
G01 X250.840579 Y408.250337 Z-0.125000
G01 X253.035254 Y406.055663 Z-0.125000
G01 X253.035254 Y402.763651 Z-0.125000
G01 X255.229928 Y401.666314 Z-0.125000
G01 X253.035254 Y396.179627 Z-0.125000
G01 X255.229928 Y392.887615 Z-0.125000
G01 X258.521940 Y390.692941 Z-0.125000
G01 X257.424603 Y386.303592 Z-0.125000
G01 X257.424603 Y383.011580 Z-0.125000
G01 X259.619277 Y380.816905 Z-0.125000
G01 X261.813952 Y378.622231 Z-0.125000
G01 X264.008626 Y376.427556 Z-0.125000
G01 X265.105963 Y374.232882 Z-0.125000
G01 X268.397975 Y375.330219 Z-0.125000
G01 X271.689987 Y375.330219 Z-0.125000
G01 X270.592650 Y372.038207 Z-0.125000
G01 X274.981999 Y372.038207 Z-0.125000
G01 X277.176673 Y369.843533 Z-0.125000
G01 X280.468685 Y373.135545 Z-0.125000
G01 X281.566023 Y370.940870 Z-0.125000
G01 X281.566023 Y367.648858 Z-0.125000
G01 X283.760697 Y365.454184 Z-0.125000
G01 X287.052709 Y366.551521 Z-0.125000
G01 X288.150046 Y363.259509 Z-0.125000
G01 X288.150046 Y359.967497 Z-0.125000
G01 X292.539395 Y358.870160 Z-0.125000
G01 X292.539395 Y363.259509 Z-0.125000
G01 X295.831407 Y363.259509 Z-0.125000
G01 X296.928744 Y359.967497 Z-0.125000
G01 X299.123419 Y357.772823 Z-0.125000
G01 X302.415431 Y356.675486 Z-0.125000
G01 X304.610105 Y354.480811 Z-0.125000
G01 X305.707442 Y352.286136 Z-0.125000
G01 X307.902117 Y351.188799 Z-0.125000
G01 X311.194129 Y351.188799 Z-0.125000
G01 X311.194129 Y347.896787 Z-0.125000
G01 X312.291466 Y345.702113 Z-0.125000
G01 X313.388803 Y343.507438 Z-0.125000
G01 X315.583478 Y344.604776 Z-0.125000
G01 X315.583478 Y341.312764 Z-0.125000
G01 X316.680815 Y339.118089 Z-0.125000
G01 X317.778152 Y336.923415 Z-0.125000
G01 X318.875490 Y335.826077 Z-0.125000
G01 X319.972827 Y333.631403 Z-0.125000
G01 X319.972827 Y330.339391 Z-0.125000
G01 X321.070164 Y328.144717 Z-0.125000
G01 X322.167501 Y325.950042 Z-0.125000
G01 X323.264839 Y323.755367 Z-0.125000
G01 X324.362176 Y321.560693 Z-0.125000
G01 X324.362176 Y318.268681 Z-0.125000
G01 X325.459513 Y316.074007 Z-0.125000
G01 X328.751525 Y316.074007 Z-0.125000
G01 X330.946200 Y313.879332 Z-0.125000
G01 X332.043537 Y311.684658 Z-0.125000
G01 X332.043537 Y308.392646 Z-0.125000
G01 X328.751525 Y309.489983 Z-0.125000
G01 X327.654188 Y311.684658 Z-0.125000
G01 X325.459513 Y312.781995 Z-0.125000
G01 X324.362176 Y309.489983 Z-0.125000
G01 X325.459513 Y307.295308 Z-0.125000
G01 X328.751525 Y306.197971 Z-0.125000
G01 X330.946200 Y305.100634 Z-0.125000
G01 X334.238211 Y305.100634 Z-0.125000
G01 X336.432886 Y307.295308 Z-0.125000
G01 X335.335549 Y310.587320 Z-0.125000
G01 X337.530223 Y311.684658 Z-0.125000
G01 X335.335549 Y313.879332 Z-0.125000
G01 X334.238211 Y316.074007 Z-0.125000
G01 X333.140874 Y318.268681 Z-0.125000
G01 X332.043537 Y320.463356 Z-0.125000
G01 X328.751525 Y319.366018 Z-0.125000
G01 X327.654188 Y321.560693 Z-0.125000
G01 X326.556851 Y324.852705 Z-0.125000
G01 X325.459513 Y328.144717 Z-0.125000
G01 X324.362176 Y330.339391 Z-0.125000
G01 X323.264839 Y332.534066 Z-0.125000
G01 X323.264839 Y335.826077 Z-0.125000
G01 X326.556851 Y334.728740 Z-0.125000
G01 X327.654188 Y331.436728 Z-0.125000
G01 X328.751525 Y328.144717 Z-0.125000
G01 X329.848862 Y325.950042 Z-0.125000
G01 X330.946200 Y323.755367 Z-0.125000
G01 X334.238211 Y323.755367 Z-0.125000
G01 X333.140874 Y327.047379 Z-0.125000
G01 X336.432886 Y327.047379 Z-0.125000
G01 X337.530223 Y324.852705 Z-0.125000
G01 X336.432886 Y321.560693 Z-0.125000
G01 X337.530223 Y319.366018 Z-0.125000
G01 X338.627561 Y317.171344 Z-0.125000
G01 X339.724898 Y314.976669 Z-0.125000
G01 X340.822235 Y312.781995 Z-0.125000
G01 X339.724898 Y309.489983 Z-0.125000
G01 X343.016910 Y309.489983 Z-0.125000
G01 X343.016910 Y306.197971 Z-0.125000
G01 X344.114247 Y302.905959 Z-0.125000
G01 X344.114247 Y299.613948 Z-0.125000
G01 X347.406259 Y300.711285 Z-0.125000
G01 X346.308921 Y297.419273 Z-0.125000
G01 X349.600933 Y298.516610 Z-0.125000
G01 X348.503596 Y295.224598 Z-0.125000
G01 X347.406259 Y291.932587 Z-0.125000
G01 X344.114247 Y291.932587 Z-0.125000
G01 X343.016910 Y294.127261 Z-0.125000
G01 X341.919572 Y296.321936 Z-0.125000
G01 X340.822235 Y299.613948 Z-0.125000
G01 X340.822235 Y302.905959 Z-0.125000
G01 X339.724898 Y306.197971 Z-0.125000
G01 X337.530223 Y304.003297 Z-0.125000
G01 X337.530223 Y300.711285 Z-0.125000
G01 X337.530223 Y297.419273 Z-0.125000
G01 X338.627561 Y295.224598 Z-0.125000
G01 X338.627561 Y291.932587 Z-0.125000
G01 X338.627561 Y288.640575 Z-0.125000
G01 X340.822235 Y289.737912 Z-0.125000
G01 X344.114247 Y288.640575 Z-0.125000
G01 X347.406259 Y288.640575 Z-0.125000
G01 X348.503596 Y287.543238 Z-0.125000
G01 X349.600933 Y285.348563 Z-0.125000
G01 X348.503596 Y282.056551 Z-0.125000
G01 X345.211584 Y283.153889 Z-0.125000
G01 X343.016910 Y285.348563 Z-0.125000
G01 X339.724898 Y285.348563 Z-0.125000
G01 X339.724898 Y282.056551 Z-0.125000
G01 X341.919572 Y280.959214 Z-0.125000
G01 X345.211584 Y279.861877 Z-0.125000
G01 X346.308921 Y277.667202 Z-0.125000
G01 X348.503596 Y276.569865 Z-0.125000
G01 X349.600933 Y274.375190 Z-0.125000
G01 X352.892945 Y273.277853 Z-0.125000
G01 X353.990282 Y271.083179 Z-0.125000
G01 X356.184957 Y268.888504 Z-0.125000
G01 X358.379631 Y266.693829 Z-0.125000
G01 X360.574306 Y267.791167 Z-0.125000
G01 X360.574306 Y264.499155 Z-0.125000
G01 X361.671643 Y263.401818 Z-0.125000
G01 X364.963655 Y261.207143 Z-0.125000
G01 X364.963655 Y257.915131 Z-0.125000
G01 X364.963655 Y254.623120 Z-0.125000
G01 X364.963655 Y251.331108 Z-0.125000
G01 X366.060992 Y249.136433 Z-0.125000
G01 X368.255667 Y248.039096 Z-0.125000
G01 X369.353004 Y244.747084 Z-0.125000
G01 X370.450341 Y242.552410 Z-0.125000
G01 X371.547679 Y241.455072 Z-0.125000
G01 X370.450341 Y238.163060 Z-0.125000
G01 X371.547679 Y235.968386 Z-0.125000
G01 X373.742353 Y234.871049 Z-0.125000
G01 X377.034365 Y234.871049 Z-0.125000
G01 X377.034365 Y231.579037 Z-0.125000
G01 X380.326377 Y230.481700 Z-0.125000
G01 X380.326377 Y233.773711 Z-0.125000
G01 X383.618389 Y233.773711 Z-0.125000
G01 X384.715726 Y231.579037 Z-0.125000
G01 X386.910400 Y232.676374 Z-0.125000
G01 X390.202412 Y231.579037 Z-0.125000
G01 X392.397087 Y230.481700 Z-0.125000
G01 X393.494424 Y228.287025 Z-0.125000
G01 X392.397087 Y224.995013 Z-0.125000
G01 X395.689099 Y224.995013 Z-0.125000
G01 X398.981110 Y224.995013 Z-0.125000
G01 X397.883773 Y228.287025 Z-0.125000
G01 X396.786436 Y231.579037 Z-0.125000
G01 X395.689099 Y233.773711 Z-0.125000
G01 X394.591761 Y237.065723 Z-0.125000
G01 X392.397087 Y235.968386 Z-0.125000
G01 X391.299749 Y239.260398 Z-0.125000
G01 X389.105075 Y235.968386 Z-0.125000
G01 X388.007738 Y239.260398 Z-0.125000
G01 X385.813063 Y238.163060 Z-0.125000
G01 X384.715726 Y240.357735 Z-0.125000
G01 X383.618389 Y242.552410 Z-0.125000
G01 X383.618389 Y245.844421 Z-0.125000
G01 X382.521051 Y246.941759 Z-0.125000
G01 X381.423714 Y249.136433 Z-0.125000
G01 X383.618389 Y252.428445 Z-0.125000
G01 X380.326377 Y252.428445 Z-0.125000
G01 X381.423714 Y255.720457 Z-0.125000
G01 X384.715726 Y256.817794 Z-0.125000
G01 X386.910400 Y254.623120 Z-0.125000
G01 X386.910400 Y251.331108 Z-0.125000
G01 X388.007738 Y250.233770 Z-0.125000
G01 X389.105075 Y248.039096 Z-0.125000
G01 X391.299749 Y245.844421 Z-0.125000
G01 X388.007738 Y243.649747 Z-0.125000
G01 X391.299749 Y242.552410 Z-0.125000
G01 X394.591761 Y241.455072 Z-0.125000
G01 X394.591761 Y244.747084 Z-0.125000
G01 X394.591761 Y248.039096 Z-0.125000
G01 X393.494424 Y250.233770 Z-0.125000
G01 X391.299749 Y252.428445 Z-0.125000
G01 X391.299749 Y255.720457 Z-0.125000
G01 X389.105075 Y257.915131 Z-0.125000
G01 X386.910400 Y260.109806 Z-0.125000
G01 X385.813063 Y262.304480 Z-0.125000
G01 X383.618389 Y264.499155 Z-0.125000
G01 X381.423714 Y262.304480 Z-0.125000
G01 X382.521051 Y259.012469 Z-0.125000
G01 X379.229040 Y259.012469 Z-0.125000
G01 X377.034365 Y260.109806 Z-0.125000
G01 X375.937028 Y262.304480 Z-0.125000
G01 X372.645016 Y263.401818 Z-0.125000
G01 X371.547679 Y260.109806 Z-0.125000
G01 X372.645016 Y257.915131 Z-0.125000
G01 X374.839690 Y256.817794 Z-0.125000
G01 X378.131702 Y255.720457 Z-0.125000
G01 X377.034365 Y252.428445 Z-0.125000
G01 X377.034365 Y249.136433 Z-0.125000
G01 X378.131702 Y246.941759 Z-0.125000
G01 X378.131702 Y243.649747 Z-0.125000
G01 X379.229040 Y241.455072 Z-0.125000
G01 X381.423714 Y237.065723 Z-0.125000
G01 X379.229040 Y238.163060 Z-0.125000
G01 X375.937028 Y238.163060 Z-0.125000
G01 X374.839690 Y240.357735 Z-0.125000
G01 X374.839690 Y243.649747 Z-0.125000
G01 X373.742353 Y246.941759 Z-0.125000
G01 X372.645016 Y249.136433 Z-0.125000
G01 X373.742353 Y252.428445 Z-0.125000
G01 X370.450341 Y251.331108 Z-0.125000
G01 X370.450341 Y254.623120 Z-0.125000
G01 X368.255667 Y253.525782 Z-0.125000
G01 X368.255667 Y256.817794 Z-0.125000
G01 X368.255667 Y260.109806 Z-0.125000
G01 X369.353004 Y263.401818 Z-0.125000
G01 X367.158330 Y264.499155 Z-0.125000
G01 X364.963655 Y266.693829 Z-0.125000
G01 X364.963655 Y269.985841 Z-0.125000
G01 X362.768980 Y271.083179 Z-0.125000
G01 X359.476969 Y271.083179 Z-0.125000
G01 X359.476969 Y274.375190 Z-0.125000
G01 X357.282294 Y273.277853 Z-0.125000
G01 X356.184957 Y275.472528 Z-0.125000
G01 X352.892945 Y276.569865 Z-0.125000
G01 X350.698271 Y279.861877 Z-0.125000
G01 X356.184957 Y278.764539 Z-0.125000
G01 X355.087620 Y280.959214 Z-0.125000
G01 X353.990282 Y282.056551 Z-0.125000
G01 X352.892945 Y284.251226 Z-0.125000
G01 X352.892945 Y287.543238 Z-0.125000
G01 X356.184957 Y286.445900 Z-0.125000
G01 X358.379631 Y284.251226 Z-0.125000
G01 X359.476969 Y280.959214 Z-0.125000
G01 X360.574306 Y278.764539 Z-0.125000
G01 X362.768980 Y276.569865 Z-0.125000
G01 X363.866318 Y274.375190 Z-0.125000
G01 X367.158330 Y273.277853 Z-0.125000
G01 X369.353004 Y272.180516 Z-0.125000
G01 X368.255667 Y268.888504 Z-0.125000
G01 X370.450341 Y267.791167 Z-0.125000
G01 X373.742353 Y266.693829 Z-0.125000
G01 X375.937028 Y265.596492 Z-0.125000
G01 X379.229040 Y264.499155 Z-0.125000
G01 X379.229040 Y267.791167 Z-0.125000
G01 X382.521051 Y267.791167 Z-0.125000
G01 X385.813063 Y267.791167 Z-0.125000
G01 X384.715726 Y271.083179 Z-0.125000
G01 X381.423714 Y271.083179 Z-0.125000
G01 X380.326377 Y273.277853 Z-0.125000
G01 X383.618389 Y274.375190 Z-0.125000
G01 X381.423714 Y276.569865 Z-0.125000
G01 X380.326377 Y278.764539 Z-0.125000
G01 X380.326377 Y282.056551 Z-0.125000
G01 X377.034365 Y282.056551 Z-0.125000
G01 X377.034365 Y278.764539 Z-0.125000
G01 X377.034365 Y275.472528 Z-0.125000
G01 X377.034365 Y273.277853 Z-0.125000
G01 X377.034365 Y269.985841 Z-0.125000
G01 X373.742353 Y269.985841 Z-0.125000
G01 X372.645016 Y272.180516 Z-0.125000
G01 X373.742353 Y275.472528 Z-0.125000
G01 X373.742353 Y278.764539 Z-0.125000
G01 X373.742353 Y282.056551 Z-0.125000
G01 X372.645016 Y284.251226 Z-0.125000
G01 X369.353004 Y285.348563 Z-0.125000
G01 X366.060992 Y285.348563 Z-0.125000
G01 X367.158330 Y282.056551 Z-0.125000
G01 X369.353004 Y280.959214 Z-0.125000
G01 X370.450341 Y278.764539 Z-0.125000
G01 X370.450341 Y275.472528 Z-0.125000
G01 X367.158330 Y276.569865 Z-0.125000
G01 X364.963655 Y278.764539 Z-0.125000
G01 X363.866318 Y282.056551 Z-0.125000
G01 X362.768980 Y284.251226 Z-0.125000
G01 X361.671643 Y286.445900 Z-0.125000
G01 X362.768980 Y289.737912 Z-0.125000
G01 X359.476969 Y288.640575 Z-0.125000
G01 X356.184957 Y289.737912 Z-0.125000
G01 X353.990282 Y290.835249 Z-0.125000
G01 X350.698271 Y291.932587 Z-0.125000
G01 X351.795608 Y295.224598 Z-0.125000
G01 X353.990282 Y294.127261 Z-0.125000
G01 X357.282294 Y294.127261 Z-0.125000
G01 X359.476969 Y291.932587 Z-0.125000
G01 X362.768980 Y293.029924 Z-0.125000
G01 X361.671643 Y295.224598 Z-0.125000
G01 X359.476969 Y297.419273 Z-0.125000
G01 X362.768980 Y298.516610 Z-0.125000
G01 X360.574306 Y300.711285 Z-0.125000
G01 X359.476969 Y301.808622 Z-0.125000
G01 X356.184957 Y301.808622 Z-0.125000
G01 X356.184957 Y298.516610 Z-0.125000
G01 X352.892945 Y298.516610 Z-0.125000
G01 X351.795608 Y301.808622 Z-0.125000
G01 X350.698271 Y305.100634 Z-0.125000
G01 X348.503596 Y304.003297 Z-0.125000
G01 X347.406259 Y306.197971 Z-0.125000
G01 X346.308921 Y308.392646 Z-0.125000
G01 X349.600933 Y309.489983 Z-0.125000
G01 X352.892945 Y308.392646 Z-0.125000
G01 X353.990282 Y305.100634 Z-0.125000
G01 X357.282294 Y305.100634 Z-0.125000
G01 X360.574306 Y305.100634 Z-0.125000
G01 X363.866318 Y305.100634 Z-0.125000
G01 X364.963655 Y302.905959 Z-0.125000
G01 X366.060992 Y300.711285 Z-0.125000
G01 X366.060992 Y297.419273 Z-0.125000
G01 X367.158330 Y295.224598 Z-0.125000
G01 X366.060992 Y291.932587 Z-0.125000
G01 X366.060992 Y288.640575 Z-0.125000
G01 X369.353004 Y288.640575 Z-0.125000
G01 X369.353004 Y291.932587 Z-0.125000
G01 X370.450341 Y295.224598 Z-0.125000
G01 X372.645016 Y294.127261 Z-0.125000
G01 X373.742353 Y291.932587 Z-0.125000
G01 X372.645016 Y288.640575 Z-0.125000
G01 X373.742353 Y287.543238 Z-0.125000
G01 X377.034365 Y286.445900 Z-0.125000
G01 X377.034365 Y289.737912 Z-0.125000
G01 X380.326377 Y288.640575 Z-0.125000
G01 X380.326377 Y285.348563 Z-0.125000
G01 X383.618389 Y285.348563 Z-0.125000
G01 X383.618389 Y282.056551 Z-0.125000
G01 X384.715726 Y279.861877 Z-0.125000
G01 X385.813063 Y278.764539 Z-0.125000
G01 X386.910400 Y276.569865 Z-0.125000
G01 X388.007738 Y274.375190 Z-0.125000
G01 X388.007738 Y271.083179 Z-0.125000
G01 X390.202412 Y269.985841 Z-0.125000
G01 X389.105075 Y266.693829 Z-0.125000
G01 X390.202412 Y263.401818 Z-0.125000
G01 X391.299749 Y261.207143 Z-0.125000
G01 X393.494424 Y259.012469 Z-0.125000
G01 X394.591761 Y255.720457 Z-0.125000
G01 X395.689099 Y253.525782 Z-0.125000
G01 X397.883773 Y251.331108 Z-0.125000
G01 X398.981110 Y249.136433 Z-0.125000
G01 X400.078448 Y246.941759 Z-0.125000
G01 X397.883773 Y243.649747 Z-0.125000
G01 X397.883773 Y240.357735 Z-0.125000
G01 X398.981110 Y238.163060 Z-0.125000
G01 X400.078448 Y234.871049 Z-0.125000
G01 X400.078448 Y231.579037 Z-0.125000
G01 X402.273122 Y229.384362 Z-0.125000
G01 X405.565134 Y228.287025 Z-0.125000
G01 X408.857146 Y227.189688 Z-0.125000
G01 X411.051820 Y226.092351 Z-0.125000
G01 X412.149158 Y223.897676 Z-0.125000
G01 X414.343832 Y221.703001 Z-0.125000
G01 X416.538507 Y219.508327 Z-0.125000
G01 X416.538507 Y216.216315 Z-0.125000
G01 X419.830518 Y215.118978 Z-0.125000
G01 X419.830518 Y211.826966 Z-0.125000
G01 X420.927856 Y210.729629 Z-0.125000
G01 X419.830518 Y207.437617 Z-0.125000
G01 X420.927856 Y206.340280 Z-0.125000
G01 X424.219868 Y205.242942 Z-0.125000
G01 X425.317205 Y201.950931 Z-0.125000
G01 X422.025193 Y201.950931 Z-0.125000
G01 X419.830518 Y200.853593 Z-0.125000
G01 X418.733181 Y203.048268 Z-0.125000
G01 X416.538507 Y205.242942 Z-0.125000
G01 X416.538507 Y208.534954 Z-0.125000
G01 X414.343832 Y207.437617 Z-0.125000
G01 X413.246495 Y209.632291 Z-0.125000
G01 X416.538507 Y212.924303 Z-0.125000
G01 X413.246495 Y214.021641 Z-0.125000
G01 X412.149158 Y217.313652 Z-0.125000
G01 X409.954483 Y219.508327 Z-0.125000
G01 X408.857146 Y221.703001 Z-0.125000
G01 X406.662471 Y223.897676 Z-0.125000
G01 X402.273122 Y224.995013 Z-0.125000
G01 X403.370459 Y223.897676 Z-0.125000
G01 X402.273122 Y220.605664 Z-0.125000
G01 X404.467797 Y219.508327 Z-0.125000
G01 X405.565134 Y217.313652 Z-0.125000
G01 X407.759809 Y215.118978 Z-0.125000
G01 X408.857146 Y212.924303 Z-0.125000
G01 X409.954483 Y210.729629 Z-0.125000
G01 X409.954483 Y207.437617 Z-0.125000
G01 X408.857146 Y204.145605 Z-0.125000
G01 X406.662471 Y205.242942 Z-0.125000
G01 X405.565134 Y207.437617 Z-0.125000
G01 X405.565134 Y210.729629 Z-0.125000
G01 X403.370459 Y212.924303 Z-0.125000
G01 X401.175785 Y214.021641 Z-0.125000
G01 X400.078448 Y216.216315 Z-0.125000
G01 X398.981110 Y218.410990 Z-0.125000
G01 X398.981110 Y221.703001 Z-0.125000
G01 X395.689099 Y221.703001 Z-0.125000
G01 X394.591761 Y218.410990 Z-0.125000
G01 X392.397087 Y221.703001 Z-0.125000
G01 X389.105075 Y220.605664 Z-0.125000
G01 X390.202412 Y218.410990 Z-0.125000
G01 X391.299749 Y216.216315 Z-0.125000
G01 X392.397087 Y214.021641 Z-0.125000
G01 X395.689099 Y215.118978 Z-0.125000
G01 X394.591761 Y211.826966 Z-0.125000
G01 X397.883773 Y211.826966 Z-0.125000
G01 X398.981110 Y208.534954 Z-0.125000
G01 X402.273122 Y208.534954 Z-0.125000
G01 X402.273122 Y205.242942 Z-0.125000
G01 X403.370459 Y203.048268 Z-0.125000
G01 X404.467797 Y200.853593 Z-0.125000
G01 X407.759809 Y200.853593 Z-0.125000
G01 X408.857146 Y197.561582 Z-0.125000
G01 X405.565134 Y197.561582 Z-0.125000
G01 X402.273122 Y197.561582 Z-0.125000
G01 X400.078448 Y199.756256 Z-0.125000
G01 X398.981110 Y201.950931 Z-0.125000
G01 X398.981110 Y205.242942 Z-0.125000
G01 X396.786436 Y206.340280 Z-0.125000
G01 X394.591761 Y208.534954 Z-0.125000
G01 X391.299749 Y209.632291 Z-0.125000
G01 X388.007738 Y209.632291 Z-0.125000
G01 X388.007738 Y212.924303 Z-0.125000
G01 X386.910400 Y215.118978 Z-0.125000
G01 X385.813063 Y217.313652 Z-0.125000
G01 X384.715726 Y218.410990 Z-0.125000
G01 X383.618389 Y220.605664 Z-0.125000
G01 X381.423714 Y222.800339 Z-0.125000
G01 X384.715726 Y223.897676 Z-0.125000
G01 X388.007738 Y222.800339 Z-0.125000
G01 X389.105075 Y226.092351 Z-0.125000
G01 X388.007738 Y228.287025 Z-0.125000
G01 X383.618389 Y228.287025 Z-0.125000
G01 X380.326377 Y227.189688 Z-0.125000
G01 X378.131702 Y222.800339 Z-0.125000
G01 X375.937028 Y224.995013 Z-0.125000
G01 X377.034365 Y228.287025 Z-0.125000
G01 X373.742353 Y228.287025 Z-0.125000
G01 X372.645016 Y231.579037 Z-0.125000
G01 X369.353004 Y232.676374 Z-0.125000
G01 X367.158330 Y234.871049 Z-0.125000
G01 X363.866318 Y233.773711 Z-0.125000
G01 X360.574306 Y234.871049 Z-0.125000
G01 X357.282294 Y235.968386 Z-0.125000
G01 X356.184957 Y238.163060 Z-0.125000
G01 X355.087620 Y241.455072 Z-0.125000
G01 X351.795608 Y241.455072 Z-0.125000
G01 X351.795608 Y244.747084 Z-0.125000
G01 X349.600933 Y246.941759 Z-0.125000
G01 X351.795608 Y250.233770 Z-0.125000
G01 X350.698271 Y252.428445 Z-0.125000
G01 X349.600933 Y255.720457 Z-0.125000
G01 X348.503596 Y257.915131 Z-0.125000
G01 X351.795608 Y259.012469 Z-0.125000
G01 X352.892945 Y255.720457 Z-0.125000
G01 X355.087620 Y253.525782 Z-0.125000
G01 X356.184957 Y251.331108 Z-0.125000
G01 X355.087620 Y248.039096 Z-0.125000
G01 X355.087620 Y244.747084 Z-0.125000
G01 X358.379631 Y244.747084 Z-0.125000
G01 X359.476969 Y242.552410 Z-0.125000
G01 X360.574306 Y240.357735 Z-0.125000
G01 X361.671643 Y239.260398 Z-0.125000
G01 X363.866318 Y237.065723 Z-0.125000
G01 X367.158330 Y239.260398 Z-0.125000
G01 X364.963655 Y241.455072 Z-0.125000
G01 X366.060992 Y244.747084 Z-0.125000
G01 X362.768980 Y244.747084 Z-0.125000
G01 X361.671643 Y248.039096 Z-0.125000
G01 X359.476969 Y249.136433 Z-0.125000
G01 X358.379631 Y252.428445 Z-0.125000
G01 X361.671643 Y252.428445 Z-0.125000
G01 X361.671643 Y255.720457 Z-0.125000
G01 X361.671643 Y259.012469 Z-0.125000
G01 X359.476969 Y260.109806 Z-0.125000
G01 X358.379631 Y256.817794 Z-0.125000
G01 X355.087620 Y256.817794 Z-0.125000
G01 X356.184957 Y260.109806 Z-0.125000
G01 X353.990282 Y262.304480 Z-0.125000
G01 X356.184957 Y263.401818 Z-0.125000
G01 X353.990282 Y265.596492 Z-0.125000
G01 X351.795608 Y267.791167 Z-0.125000
G01 X349.600933 Y269.985841 Z-0.125000
G01 X347.406259 Y268.888504 Z-0.125000
G01 X348.503596 Y265.596492 Z-0.125000
G01 X350.698271 Y263.401818 Z-0.125000
G01 X348.503596 Y261.207143 Z-0.125000
G01 X346.308921 Y260.109806 Z-0.125000
G01 X345.211584 Y262.304480 Z-0.125000
G01 X344.114247 Y264.499155 Z-0.125000
G01 X343.016910 Y266.693829 Z-0.125000
G01 X343.016910 Y269.985841 Z-0.125000
G01 X346.308921 Y271.083179 Z-0.125000
G01 X345.211584 Y273.277853 Z-0.125000
G01 X341.919572 Y273.277853 Z-0.125000
G01 X343.016910 Y276.569865 Z-0.125000
G01 X339.724898 Y276.569865 Z-0.125000
G01 X338.627561 Y277.667202 Z-0.125000
G01 X336.432886 Y279.861877 Z-0.125000
G01 X336.432886 Y283.153889 Z-0.125000
G01 X335.335549 Y285.348563 Z-0.125000
G01 X335.335549 Y288.640575 Z-0.125000
G01 X332.043537 Y288.640575 Z-0.125000
G01 X328.751525 Y289.737912 Z-0.125000
G01 X325.459513 Y288.640575 Z-0.125000
G01 X326.556851 Y286.445900 Z-0.125000
G01 X328.751525 Y285.348563 Z-0.125000
G01 X332.043537 Y285.348563 Z-0.125000
G01 X332.043537 Y282.056551 Z-0.125000
G01 X333.140874 Y279.861877 Z-0.125000
G01 X334.238211 Y276.569865 Z-0.125000
G01 X334.238211 Y273.277853 Z-0.125000
G01 X337.530223 Y273.277853 Z-0.125000
G01 X338.627561 Y271.083179 Z-0.125000
G01 X339.724898 Y268.888504 Z-0.125000
G01 X338.627561 Y265.596492 Z-0.125000
G01 X339.724898 Y263.401818 Z-0.125000
G01 X341.919572 Y261.207143 Z-0.125000
G01 X344.114247 Y256.817794 Z-0.125000
G01 X345.211584 Y254.623120 Z-0.125000
G01 X347.406259 Y252.428445 Z-0.125000
G01 X347.406259 Y249.136433 Z-0.125000
G01 X344.114247 Y250.233770 Z-0.125000
G01 X341.919572 Y251.331108 Z-0.125000
G01 X340.822235 Y254.623120 Z-0.125000
G01 X340.822235 Y257.915131 Z-0.125000
G01 X338.627561 Y259.012469 Z-0.125000
G01 X335.335549 Y259.012469 Z-0.125000
G01 X336.432886 Y262.304480 Z-0.125000
G01 X335.335549 Y264.499155 Z-0.125000
G01 X335.335549 Y267.791167 Z-0.125000
G01 X334.238211 Y269.985841 Z-0.125000
G01 X330.946200 Y269.985841 Z-0.125000
G01 X330.946200 Y273.277853 Z-0.125000
G01 X330.946200 Y276.569865 Z-0.125000
G01 X328.751525 Y275.472528 Z-0.125000
G01 X325.459513 Y276.569865 Z-0.125000
G01 X325.459513 Y279.861877 Z-0.125000
G01 X328.751525 Y278.764539 Z-0.125000
G01 X328.751525 Y282.056551 Z-0.125000
G01 X325.459513 Y283.153889 Z-0.125000
G01 X322.167501 Y285.348563 Z-0.125000
G01 X321.070164 Y286.445900 Z-0.125000
G01 X322.167501 Y289.737912 Z-0.125000
G01 X318.875490 Y289.737912 Z-0.125000
G01 X317.778152 Y291.932587 Z-0.125000
G01 X316.680815 Y295.224598 Z-0.125000
G01 X319.972827 Y294.127261 Z-0.125000
G01 X323.264839 Y293.029924 Z-0.125000
G01 X325.459513 Y291.932587 Z-0.125000
G01 X326.556851 Y295.224598 Z-0.125000
G01 X323.264839 Y296.321936 Z-0.125000
G01 X319.972827 Y297.419273 Z-0.125000
G01 X316.680815 Y298.516610 Z-0.125000
G01 X315.583478 Y300.711285 Z-0.125000
G01 X316.680815 Y304.003297 Z-0.125000
G01 X318.875490 Y302.905959 Z-0.125000
G01 X319.972827 Y300.711285 Z-0.125000
G01 X323.264839 Y299.613948 Z-0.125000
G01 X326.556851 Y299.613948 Z-0.125000
G01 X327.654188 Y298.516610 Z-0.125000
G01 X330.946200 Y298.516610 Z-0.125000
G01 X329.848862 Y295.224598 Z-0.125000
G01 X329.848862 Y293.029924 Z-0.125000
G01 X332.043537 Y291.932587 Z-0.125000
G01 X335.335549 Y291.932587 Z-0.125000
G01 X334.238211 Y295.224598 Z-0.125000
G01 X334.238211 Y298.516610 Z-0.125000
G01 X334.238211 Y301.808622 Z-0.125000
G01 X330.946200 Y301.808622 Z-0.125000
G01 X327.654188 Y302.905959 Z-0.125000
G01 X324.362176 Y302.905959 Z-0.125000
G01 X323.264839 Y304.003297 Z-0.125000
G01 X322.167501 Y306.197971 Z-0.125000
G01 X318.875490 Y307.295308 Z-0.125000
G01 X315.583478 Y306.197971 Z-0.125000
G01 X313.388803 Y307.295308 Z-0.125000
G01 X315.583478 Y309.489983 Z-0.125000
G01 X312.291466 Y310.587320 Z-0.125000
G01 X310.096792 Y312.781995 Z-0.125000
G01 X313.388803 Y313.879332 Z-0.125000
G01 X312.291466 Y316.074007 Z-0.125000
G01 X311.194129 Y319.366018 Z-0.125000
G01 X308.999454 Y321.560693 Z-0.125000
G01 X304.610105 Y322.658030 Z-0.125000
G01 X305.707442 Y319.366018 Z-0.125000
G01 X307.902117 Y316.074007 Z-0.125000
G01 X304.610105 Y316.074007 Z-0.125000
G01 X301.318093 Y316.074007 Z-0.125000
G01 X302.415431 Y319.366018 Z-0.125000
G01 X300.220756 Y321.560693 Z-0.125000
G01 X301.318093 Y324.852705 Z-0.125000
G01 X296.928744 Y323.755367 Z-0.125000
G01 X296.928744 Y327.047379 Z-0.125000
G01 X294.734070 Y330.339391 Z-0.125000
G01 X291.442058 Y330.339391 Z-0.125000
G01 X289.247383 Y332.534066 Z-0.125000
G01 X289.247383 Y335.826077 Z-0.125000
G01 X284.858034 Y333.631403 Z-0.125000
G01 X283.760697 Y336.923415 Z-0.125000
G01 X282.663360 Y340.215427 Z-0.125000
G01 X280.468685 Y342.410101 Z-0.125000
G01 X281.566023 Y345.702113 Z-0.125000
G01 X279.371348 Y346.799450 Z-0.125000
G01 X278.274011 Y348.994125 Z-0.125000
G01 X276.079336 Y351.188799 Z-0.125000
G01 X273.884662 Y350.091462 Z-0.125000
G01 X273.884662 Y353.383474 Z-0.125000
G01 X273.884662 Y356.675486 Z-0.125000
G01 X278.274011 Y356.675486 Z-0.125000
G01 X279.371348 Y353.383474 Z-0.125000
G01 X281.566023 Y351.188799 Z-0.125000
G01 X282.663360 Y348.994125 Z-0.125000
G01 X285.955372 Y348.994125 Z-0.125000
G01 X284.858034 Y345.702113 Z-0.125000
G01 X285.955372 Y344.604776 Z-0.125000
G01 X289.247383 Y344.604776 Z-0.125000
G01 X287.052709 Y341.312764 Z-0.125000
G01 X289.247383 Y339.118089 Z-0.125000
G01 X293.636732 Y338.020752 Z-0.125000
G01 X294.734070 Y334.728740 Z-0.125000
G01 X298.026082 Y338.020752 Z-0.125000
G01 X299.123419 Y334.728740 Z-0.125000
G01 X299.123419 Y331.436728 Z-0.125000
G01 X301.318093 Y329.242054 Z-0.125000
G01 X304.610105 Y327.047379 Z-0.125000
G01 X307.902117 Y325.950042 Z-0.125000
G01 X310.096792 Y324.852705 Z-0.125000
G01 X313.388803 Y323.755367 Z-0.125000
G01 X314.486141 Y321.560693 Z-0.125000
G01 X315.583478 Y319.366018 Z-0.125000
G01 X315.583478 Y317.171344 Z-0.125000
G01 X317.778152 Y316.074007 Z-0.125000
G01 X316.680815 Y312.781995 Z-0.125000
G01 X318.875490 Y311.684658 Z-0.125000
G01 X321.070164 Y309.489983 Z-0.125000
G01 X322.167501 Y312.781995 Z-0.125000
G01 X321.070164 Y314.976669 Z-0.125000
G01 X321.070164 Y318.268681 Z-0.125000
G01 X319.972827 Y320.463356 Z-0.125000
G01 X318.875490 Y322.658030 Z-0.125000
G01 X317.778152 Y324.852705 Z-0.125000
G01 X316.680815 Y327.047379 Z-0.125000
G01 X313.388803 Y327.047379 Z-0.125000
G01 X314.486141 Y330.339391 Z-0.125000
G01 X316.680815 Y331.436728 Z-0.125000
G01 X313.388803 Y332.534066 Z-0.125000
G01 X313.388803 Y335.826077 Z-0.125000
G01 X312.291466 Y338.020752 Z-0.125000
G01 X311.194129 Y340.215427 Z-0.125000
G01 X308.999454 Y342.410101 Z-0.125000
G01 X307.902117 Y344.604776 Z-0.125000
G01 X307.902117 Y347.896787 Z-0.125000
G01 X304.610105 Y347.896787 Z-0.125000
G01 X304.610105 Y344.604776 Z-0.125000
G01 X305.707442 Y341.312764 Z-0.125000
G01 X306.804780 Y339.118089 Z-0.125000
G01 X307.902117 Y336.923415 Z-0.125000
G01 X308.999454 Y334.728740 Z-0.125000
G01 X310.096792 Y332.534066 Z-0.125000
G01 X310.096792 Y329.242054 Z-0.125000
G01 X306.804780 Y330.339391 Z-0.125000
G01 X304.610105 Y332.534066 Z-0.125000
G01 X303.512768 Y334.728740 Z-0.125000
G01 X302.415431 Y338.020752 Z-0.125000
G01 X302.415431 Y341.312764 Z-0.125000
G01 X301.318093 Y344.604776 Z-0.125000
G01 X301.318093 Y347.896787 Z-0.125000
G01 X300.220756 Y350.091462 Z-0.125000
G01 X298.026082 Y352.286136 Z-0.125000
G01 X293.636732 Y353.383474 Z-0.125000
G01 X294.734070 Y350.091462 Z-0.125000
G01 X296.928744 Y347.896787 Z-0.125000
G01 X298.026082 Y344.604776 Z-0.125000
G01 X299.123419 Y341.312764 Z-0.125000
G01 X295.831407 Y341.312764 Z-0.125000
G01 X294.734070 Y344.604776 Z-0.125000
G01 X292.539395 Y343.507438 Z-0.125000
G01 X292.539395 Y346.799450 Z-0.125000
G01 X290.344721 Y347.896787 Z-0.125000
G01 X289.247383 Y350.091462 Z-0.125000
G01 X289.247383 Y353.383474 Z-0.125000
G01 X287.052709 Y354.480811 Z-0.125000
G01 X283.760697 Y355.578148 Z-0.125000
G01 X283.760697 Y361.064835 Z-0.125000
G01 X279.371348 Y362.162172 Z-0.125000
G01 X274.981999 Y361.064835 Z-0.125000
G01 X276.079336 Y365.454184 Z-0.125000
G01 X272.787324 Y366.551521 Z-0.125000
G01 X269.495313 Y367.648858 Z-0.125000
G01 X265.105963 Y369.843533 Z-0.125000
G01 X260.716614 Y369.843533 Z-0.125000
G01 X259.619277 Y373.135545 Z-0.125000
G01 X257.424603 Y374.232882 Z-0.125000
G01 X257.424603 Y377.524894 Z-0.125000
G01 X254.132591 Y376.427556 Z-0.125000
G01 X253.035254 Y378.622231 Z-0.125000
G01 X253.035254 Y381.914243 Z-0.125000
G01 X253.035254 Y385.206255 Z-0.125000
G01 X250.840579 Y387.400929 Z-0.125000
G01 X246.451230 Y387.400929 Z-0.125000
G01 X242.061881 Y388.498266 Z-0.125000
G01 X240.964544 Y384.108917 Z-0.125000
G01 X243.159218 Y381.914243 Z-0.125000
G01 X247.548567 Y381.914243 Z-0.125000
G01 X248.645904 Y378.622231 Z-0.125000
G01 X248.645904 Y375.330219 Z-0.125000
G01 X250.840579 Y373.135545 Z-0.125000
G01 X254.132591 Y370.940870 Z-0.125000
G01 X255.229928 Y367.648858 Z-0.125000
G01 X257.424603 Y365.454184 Z-0.125000
G01 X256.327265 Y361.064835 Z-0.125000
G01 X254.132591 Y363.259509 Z-0.125000
G01 X250.840579 Y364.356846 Z-0.125000
G01 X249.743242 Y367.648858 Z-0.125000
G01 X247.548567 Y369.843533 Z-0.125000
G01 X245.353893 Y372.038207 Z-0.125000
G01 X244.256555 Y375.330219 Z-0.125000
G01 X243.159218 Y377.524894 Z-0.125000
G01 X238.769869 Y377.524894 Z-0.125000
G01 X239.867206 Y373.135545 Z-0.125000
G01 X239.867206 Y369.843533 Z-0.125000
G01 X242.061881 Y367.648858 Z-0.125000
G01 X244.256555 Y365.454184 Z-0.125000
G01 X245.353893 Y362.162172 Z-0.125000
G01 X248.645904 Y359.967497 Z-0.125000
G01 X251.937916 Y358.870160 Z-0.125000
G01 X254.132591 Y356.675486 Z-0.125000
G01 X257.424603 Y356.675486 Z-0.125000
G01 X260.716614 Y357.772823 Z-0.125000
G01 X259.619277 Y354.480811 Z-0.125000
G01 X262.911289 Y354.480811 Z-0.125000
G01 X266.203301 Y354.480811 Z-0.125000
G01 X266.203301 Y357.772823 Z-0.125000
G01 X265.105963 Y359.967497 Z-0.125000
G01 X260.716614 Y361.064835 Z-0.125000
G01 X261.813952 Y365.454184 Z-0.125000
G01 X265.105963 Y364.356846 Z-0.125000
G01 X269.495313 Y362.162172 Z-0.125000
G01 X270.592650 Y358.870160 Z-0.125000
G01 X269.495313 Y354.480811 Z-0.125000
G01 X270.592650 Y351.188799 Z-0.125000
G01 X267.300638 Y351.188799 Z-0.125000
G01 X264.008626 Y351.188799 Z-0.125000
G01 X260.716614 Y351.188799 Z-0.125000
G01 X257.424603 Y351.188799 Z-0.125000
G01 X255.229928 Y350.091462 Z-0.125000
G01 X254.132591 Y353.383474 Z-0.125000
G01 X250.840579 Y353.383474 Z-0.125000
G01 X248.645904 Y355.578148 Z-0.125000
G01 X247.548567 Y352.286136 Z-0.125000
G01 X248.645904 Y350.091462 Z-0.125000
G01 X251.937916 Y350.091462 Z-0.125000
G01 X250.840579 Y346.799450 Z-0.125000
G01 X250.840579 Y343.507438 Z-0.125000
G01 X254.132591 Y344.604776 Z-0.125000
G01 X254.132591 Y340.215427 Z-0.125000
G01 X258.521940 Y340.215427 Z-0.125000
G01 X260.716614 Y336.923415 Z-0.125000
G01 X265.105963 Y338.020752 Z-0.125000
G01 X268.397975 Y335.826077 Z-0.125000
G01 X267.300638 Y332.534066 Z-0.125000
G01 X270.592650 Y331.436728 Z-0.125000
G01 X270.592650 Y328.144717 Z-0.125000
G01 X272.787324 Y325.950042 Z-0.125000
G01 X274.981999 Y323.755367 Z-0.125000
G01 X277.176673 Y321.560693 Z-0.125000
G01 X277.176673 Y317.171344 Z-0.125000
G01 X280.468685 Y319.366018 Z-0.125000
G01 X282.663360 Y318.268681 Z-0.125000
G01 X283.760697 Y316.074007 Z-0.125000
G01 X284.858034 Y312.781995 Z-0.125000
G01 X287.052709 Y308.392646 Z-0.125000
G01 X288.150046 Y304.003297 Z-0.125000
G01 X290.344721 Y299.613948 Z-0.125000
G01 X291.442058 Y297.419273 Z-0.125000
G01 X292.539395 Y295.224598 Z-0.125000
G01 X293.636732 Y293.029924 Z-0.125000
G01 X294.734070 Y290.835249 Z-0.125000
G01 X298.026082 Y289.737912 Z-0.125000
G01 X300.220756 Y291.932587 Z-0.125000
G01 X298.026082 Y294.127261 Z-0.125000
G01 X296.928744 Y296.321936 Z-0.125000
G01 X294.734070 Y298.516610 Z-0.125000
G01 X293.636732 Y301.808622 Z-0.125000
G01 X291.442058 Y304.003297 Z-0.125000
G01 X294.734070 Y305.100634 Z-0.125000
G01 X298.026082 Y304.003297 Z-0.125000
G01 X298.026082 Y300.711285 Z-0.125000
G01 X300.220756 Y299.613948 Z-0.125000
G01 X301.318093 Y298.516610 Z-0.125000
G01 X302.415431 Y296.321936 Z-0.125000
G01 X303.512768 Y294.127261 Z-0.125000
G01 X306.804780 Y291.932587 Z-0.125000
G01 X303.512768 Y290.835249 Z-0.125000
G01 X304.610105 Y288.640575 Z-0.125000
G01 X305.707442 Y286.445900 Z-0.125000
G01 X307.902117 Y287.543238 Z-0.125000
G01 X307.902117 Y284.251226 Z-0.125000
G01 X308.999454 Y283.153889 Z-0.125000
G01 X310.096792 Y280.959214 Z-0.125000
G01 X311.194129 Y278.764539 Z-0.125000
G01 X314.486141 Y276.569865 Z-0.125000
G01 X314.486141 Y273.277853 Z-0.125000
G01 X315.583478 Y271.083179 Z-0.125000
G01 X316.680815 Y268.888504 Z-0.125000
G01 X317.778152 Y266.693829 Z-0.125000
G01 X321.070164 Y265.596492 Z-0.125000
G01 X317.778152 Y264.499155 Z-0.125000
G01 X318.875490 Y262.304480 Z-0.125000
G01 X319.972827 Y260.109806 Z-0.125000
G01 X322.167501 Y261.207143 Z-0.125000
G01 X322.167501 Y257.915131 Z-0.125000
G01 X323.264839 Y256.817794 Z-0.125000
G01 X324.362176 Y254.623120 Z-0.125000
G01 X325.459513 Y252.428445 Z-0.125000
G01 X325.459513 Y249.136433 Z-0.125000
G01 X326.556851 Y246.941759 Z-0.125000
G01 X327.654188 Y244.747084 Z-0.125000
G01 X330.946200 Y245.844421 Z-0.125000
G01 X330.946200 Y249.136433 Z-0.125000
G01 X335.335549 Y248.039096 Z-0.125000
G01 X334.238211 Y249.136433 Z-0.125000
G01 X334.238211 Y252.428445 Z-0.125000
G01 X330.946200 Y252.428445 Z-0.125000
G01 X328.751525 Y251.331108 Z-0.125000
G01 X328.751525 Y254.623120 Z-0.125000
G01 X327.654188 Y256.817794 Z-0.125000
G01 X326.556851 Y260.109806 Z-0.125000
G01 X325.459513 Y262.304480 Z-0.125000
G01 X324.362176 Y264.499155 Z-0.125000
G01 X324.362176 Y267.791167 Z-0.125000
G01 X323.264839 Y269.985841 Z-0.125000
G01 X319.972827 Y269.985841 Z-0.125000
G01 X318.875490 Y273.277853 Z-0.125000
G01 X317.778152 Y275.472528 Z-0.125000
G01 X317.778152 Y278.764539 Z-0.125000
G01 X315.583478 Y279.861877 Z-0.125000
G01 X314.486141 Y282.056551 Z-0.125000
G01 X313.388803 Y284.251226 Z-0.125000
G01 X312.291466 Y286.445900 Z-0.125000
G01 X311.194129 Y288.640575 Z-0.125000
G01 X310.096792 Y290.835249 Z-0.125000
G01 X310.096792 Y294.127261 Z-0.125000
G01 X307.902117 Y295.224598 Z-0.125000
G01 X306.804780 Y297.419273 Z-0.125000
G01 X305.707442 Y299.613948 Z-0.125000
G01 X304.610105 Y301.808622 Z-0.125000
G01 X303.512768 Y305.100634 Z-0.125000
G01 X301.318093 Y304.003297 Z-0.125000
G01 X299.123419 Y307.295308 Z-0.125000
G01 X296.928744 Y308.392646 Z-0.125000
G01 X295.831407 Y310.587320 Z-0.125000
G01 X292.539395 Y308.392646 Z-0.125000
G01 X291.442058 Y311.684658 Z-0.125000
G01 X289.247383 Y313.879332 Z-0.125000
G01 X289.247383 Y318.268681 Z-0.125000
G01 X288.150046 Y320.463356 Z-0.125000
G01 X287.052709 Y322.658030 Z-0.125000
G01 X283.760697 Y323.755367 Z-0.125000
G01 X280.468685 Y323.755367 Z-0.125000
G01 X280.468685 Y327.047379 Z-0.125000
G01 X277.176673 Y328.144717 Z-0.125000
G01 X274.981999 Y330.339391 Z-0.125000
G01 X274.981999 Y333.631403 Z-0.125000
G01 X272.787324 Y335.826077 Z-0.125000
G01 X269.495313 Y339.118089 Z-0.125000
G01 X270.592650 Y342.410101 Z-0.125000
G01 X266.203301 Y342.410101 Z-0.125000
G01 X264.008626 Y341.312764 Z-0.125000
G01 X261.813952 Y343.507438 Z-0.125000
G01 X258.521940 Y344.604776 Z-0.125000
G01 X257.424603 Y347.896787 Z-0.125000
G01 X260.716614 Y347.896787 Z-0.125000
G01 X264.008626 Y347.896787 Z-0.125000
G01 X267.300638 Y347.896787 Z-0.125000
G01 X268.397975 Y346.799450 Z-0.125000
G01 X271.689987 Y346.799450 Z-0.125000
G01 X274.981999 Y346.799450 Z-0.125000
G01 X274.981999 Y343.507438 Z-0.125000
G01 X276.079336 Y341.312764 Z-0.125000
G01 X277.176673 Y339.118089 Z-0.125000
G01 X279.371348 Y336.923415 Z-0.125000
G01 X279.371348 Y333.631403 Z-0.125000
G01 X280.468685 Y330.339391 Z-0.125000
G01 X284.858034 Y329.242054 Z-0.125000
G01 X287.052709 Y327.047379 Z-0.125000
G01 X291.442058 Y325.950042 Z-0.125000
G01 X292.539395 Y322.658030 Z-0.125000
G01 X294.734070 Y320.463356 Z-0.125000
G01 X296.928744 Y318.268681 Z-0.125000
G01 X292.539395 Y316.074007 Z-0.125000
G01 X295.831407 Y314.976669 Z-0.125000
G01 X298.026082 Y313.879332 Z-0.125000
G01 X301.318093 Y312.781995 Z-0.125000
G01 X302.415431 Y310.587320 Z-0.125000
G01 X303.512768 Y308.392646 Z-0.125000
G01 X305.707442 Y312.781995 Z-0.125000
G01 X306.804780 Y309.489983 Z-0.125000
G01 X307.902117 Y306.197971 Z-0.125000
G01 X310.096792 Y307.295308 Z-0.125000
G01 X312.291466 Y302.905959 Z-0.125000
G01 X310.096792 Y304.003297 Z-0.125000
G01 X308.999454 Y300.711285 Z-0.125000
G01 X311.194129 Y299.613948 Z-0.125000
G01 X312.291466 Y298.516610 Z-0.125000
G01 X313.388803 Y296.321936 Z-0.125000
G01 X313.388803 Y293.029924 Z-0.125000
G01 X314.486141 Y290.835249 Z-0.125000
G01 X315.583478 Y287.543238 Z-0.125000
G01 X317.778152 Y286.445900 Z-0.125000
G01 X317.778152 Y283.153889 Z-0.125000
G01 X321.070164 Y282.056551 Z-0.125000
G01 X322.167501 Y280.959214 Z-0.125000
G01 X321.070164 Y277.667202 Z-0.125000
G01 X322.167501 Y275.472528 Z-0.125000
G01 X323.264839 Y273.277853 Z-0.125000
G01 X326.556851 Y272.180516 Z-0.125000
G01 X327.654188 Y269.985841 Z-0.125000
G01 X327.654188 Y266.693829 Z-0.125000
G01 X330.946200 Y266.693829 Z-0.125000
G01 X332.043537 Y264.499155 Z-0.125000
G01 X328.751525 Y263.401818 Z-0.125000
G01 X329.848862 Y260.109806 Z-0.125000
G01 X332.043537 Y261.207143 Z-0.125000
G01 X332.043537 Y257.915131 Z-0.125000
G01 X333.140874 Y255.720457 Z-0.125000
G01 X336.432886 Y255.720457 Z-0.125000
G01 X337.530223 Y253.525782 Z-0.125000
G01 X338.627561 Y251.331108 Z-0.125000
G01 X339.724898 Y248.039096 Z-0.125000
G01 X343.016910 Y246.941759 Z-0.125000
G01 X344.114247 Y244.747084 Z-0.125000
G01 X347.406259 Y243.649747 Z-0.125000
G01 X347.406259 Y240.357735 Z-0.125000
G01 X344.114247 Y241.455072 Z-0.125000
G01 X344.114247 Y238.163060 Z-0.125000
G01 X345.211584 Y235.968386 Z-0.125000
G01 X344.114247 Y232.676374 Z-0.125000
G01 X345.211584 Y230.481700 Z-0.125000
G01 X348.503596 Y229.384362 Z-0.125000
G01 X350.698271 Y227.189688 Z-0.125000
G01 X351.795608 Y224.995013 Z-0.125000
G01 X352.892945 Y223.897676 Z-0.125000
G01 X352.892945 Y220.605664 Z-0.125000
G01 X351.795608 Y217.313652 Z-0.125000
G01 X352.892945 Y215.118978 Z-0.125000
G01 X351.795608 Y211.826966 Z-0.125000
G01 X352.892945 Y209.632291 Z-0.125000
G01 X353.990282 Y207.437617 Z-0.125000
G01 X357.282294 Y208.534954 Z-0.125000
G01 X360.574306 Y207.437617 Z-0.125000
G01 X360.574306 Y210.729629 Z-0.125000
G01 X357.282294 Y211.826966 Z-0.125000
G01 X356.184957 Y214.021641 Z-0.125000
G01 X360.574306 Y215.118978 Z-0.125000
G01 X358.379631 Y217.313652 Z-0.125000
G01 X356.184957 Y218.410990 Z-0.125000
G01 X356.184957 Y221.703001 Z-0.125000
G01 X357.282294 Y224.995013 Z-0.125000
G01 X357.282294 Y228.287025 Z-0.125000
G01 X355.087620 Y229.384362 Z-0.125000
G01 X351.795608 Y230.481700 Z-0.125000
G01 X349.600933 Y232.676374 Z-0.125000
G01 X348.503596 Y234.871049 Z-0.125000
G01 X349.600933 Y238.163060 Z-0.125000
G01 X352.892945 Y238.163060 Z-0.125000
G01 X352.892945 Y234.871049 Z-0.125000
G01 X355.087620 Y232.676374 Z-0.125000
G01 X358.379631 Y232.676374 Z-0.125000
G01 X360.574306 Y230.481700 Z-0.125000
G01 X363.866318 Y229.384362 Z-0.125000
G01 X367.158330 Y229.384362 Z-0.125000
G01 X369.353004 Y228.287025 Z-0.125000
G01 X368.255667 Y224.995013 Z-0.125000
G01 X371.547679 Y224.995013 Z-0.125000
G01 X372.645016 Y221.703001 Z-0.125000
G01 X373.742353 Y218.410990 Z-0.125000
G01 X375.937028 Y219.508327 Z-0.125000
G01 X379.229040 Y219.508327 Z-0.125000
G01 X380.326377 Y217.313652 Z-0.125000
G01 X377.034365 Y216.216315 Z-0.125000
G01 X379.229040 Y214.021641 Z-0.125000
G01 X382.521051 Y214.021641 Z-0.125000
G01 X383.618389 Y210.729629 Z-0.125000
G01 X380.326377 Y210.729629 Z-0.125000
G01 X381.423714 Y207.437617 Z-0.125000
G01 X383.618389 Y206.340280 Z-0.125000
G01 X384.715726 Y204.145605 Z-0.125000
G01 X381.423714 Y203.048268 Z-0.125000
G01 X378.131702 Y203.048268 Z-0.125000
G01 X377.034365 Y205.242942 Z-0.125000
G01 X377.034365 Y208.534954 Z-0.125000
G01 X375.937028 Y210.729629 Z-0.125000
G01 X374.839690 Y212.924303 Z-0.125000
G01 X372.645016 Y215.118978 Z-0.125000
G01 X370.450341 Y211.826966 Z-0.125000
G01 X368.255667 Y214.021641 Z-0.125000
G01 X369.353004 Y217.313652 Z-0.125000
G01 X368.255667 Y218.410990 Z-0.125000
G01 X368.255667 Y221.703001 Z-0.125000
G01 X364.963655 Y221.703001 Z-0.125000
G01 X363.866318 Y224.995013 Z-0.125000
G01 X360.574306 Y226.092351 Z-0.125000
G01 X360.574306 Y222.800339 Z-0.125000
G01 X362.768980 Y220.605664 Z-0.125000
G01 X363.866318 Y217.313652 Z-0.125000
G01 X363.866318 Y214.021641 Z-0.125000
G01 X364.963655 Y211.826966 Z-0.125000
G01 X363.866318 Y208.534954 Z-0.125000
G01 X367.158330 Y208.534954 Z-0.125000
G01 X371.547679 Y208.534954 Z-0.125000
G01 X372.645016 Y206.340280 Z-0.125000
G01 X368.255667 Y205.242942 Z-0.125000
G01 X364.963655 Y205.242942 Z-0.125000
G01 X366.060992 Y201.950931 Z-0.125000
G01 X366.060992 Y198.658919 Z-0.125000
G01 X367.158330 Y197.561582 Z-0.125000
G01 X366.060992 Y194.269570 Z-0.125000
G01 X368.255667 Y193.172232 Z-0.125000
G01 X370.450341 Y190.977558 Z-0.125000
G01 X371.547679 Y187.685546 Z-0.125000
G01 X372.645016 Y185.490872 Z-0.125000
G01 X372.645016 Y182.198860 Z-0.125000
G01 X371.547679 Y178.906848 Z-0.125000
G01 X373.742353 Y177.809511 Z-0.125000
G01 X373.742353 Y174.517499 Z-0.125000
G01 X371.547679 Y175.614836 Z-0.125000
G01 X368.255667 Y175.614836 Z-0.125000
G01 X369.353004 Y172.322824 Z-0.125000
G01 X370.450341 Y169.030813 Z-0.125000
G01 X372.645016 Y171.225487 Z-0.125000
G01 X375.937028 Y171.225487 Z-0.125000
G01 X377.034365 Y174.517499 Z-0.125000
G01 X379.229040 Y175.614836 Z-0.125000
G01 X377.034365 Y177.809511 Z-0.125000
G01 X377.034365 Y181.101522 Z-0.125000
G01 X375.937028 Y183.296197 Z-0.125000
G01 X375.937028 Y185.490872 Z-0.125000
G01 X379.229040 Y184.393534 Z-0.125000
G01 X380.326377 Y181.101522 Z-0.125000
G01 X381.423714 Y178.906848 Z-0.125000
G01 X383.618389 Y176.712173 Z-0.125000
G01 X386.910400 Y176.712173 Z-0.125000
G01 X385.813063 Y180.004185 Z-0.125000
G01 X384.715726 Y181.101522 Z-0.125000
G01 X383.618389 Y183.296197 Z-0.125000
G01 X382.521051 Y185.490872 Z-0.125000
G01 X381.423714 Y187.685546 Z-0.125000
G01 X378.131702 Y188.782883 Z-0.125000
G01 X374.839690 Y188.782883 Z-0.125000
G01 X373.742353 Y190.977558 Z-0.125000
G01 X372.645016 Y194.269570 Z-0.125000
G01 X375.937028 Y193.172232 Z-0.125000
G01 X375.937028 Y196.464244 Z-0.125000
G01 X372.645016 Y197.561582 Z-0.125000
G01 X370.450341 Y196.464244 Z-0.125000
G01 X370.450341 Y199.756256 Z-0.125000
G01 X370.450341 Y203.048268 Z-0.125000
G01 X373.742353 Y201.950931 Z-0.125000
G01 X375.937028 Y199.756256 Z-0.125000
G01 X379.229040 Y199.756256 Z-0.125000
G01 X379.229040 Y196.464244 Z-0.125000
G01 X380.326377 Y195.366907 Z-0.125000
G01 X379.229040 Y192.074895 Z-0.125000
G01 X381.423714 Y190.977558 Z-0.125000
G01 X384.715726 Y189.880221 Z-0.125000
G01 X385.813063 Y187.685546 Z-0.125000
G01 X388.007738 Y188.782883 Z-0.125000
G01 X390.202412 Y186.588209 Z-0.125000
G01 X392.397087 Y184.393534 Z-0.125000
G01 X390.202412 Y183.296197 Z-0.125000
G01 X386.910400 Y184.393534 Z-0.125000
G01 X389.105075 Y180.004185 Z-0.125000
G01 X392.397087 Y181.101522 Z-0.125000
G01 X395.689099 Y181.101522 Z-0.125000
G01 X398.981110 Y181.101522 Z-0.125000
G01 X400.078448 Y184.393534 Z-0.125000
G01 X396.786436 Y184.393534 Z-0.125000
G01 X395.689099 Y186.588209 Z-0.125000
G01 X394.591761 Y188.782883 Z-0.125000
G01 X393.494424 Y189.880221 Z-0.125000
G01 X391.299749 Y190.977558 Z-0.125000
G01 X389.105075 Y192.074895 Z-0.125000
G01 X385.813063 Y193.172232 Z-0.125000
G01 X383.618389 Y194.269570 Z-0.125000
G01 X383.618389 Y197.561582 Z-0.125000
G01 X383.618389 Y200.853593 Z-0.125000
G01 X386.910400 Y199.756256 Z-0.125000
G01 X386.910400 Y196.464244 Z-0.125000
G01 X389.105075 Y197.561582 Z-0.125000
G01 X390.202412 Y195.366907 Z-0.125000
G01 X394.591761 Y193.172232 Z-0.125000
G01 X393.494424 Y195.366907 Z-0.125000
G01 X393.494424 Y198.658919 Z-0.125000
G01 X392.397087 Y200.853593 Z-0.125000
G01 X390.202412 Y201.950931 Z-0.125000
G01 X388.007738 Y203.048268 Z-0.125000
G01 X388.007738 Y206.340280 Z-0.125000
G01 X391.299749 Y206.340280 Z-0.125000
G01 X393.494424 Y204.145605 Z-0.125000
G01 X395.689099 Y201.950931 Z-0.125000
G01 X396.786436 Y198.658919 Z-0.125000
G01 X397.883773 Y196.464244 Z-0.125000
G01 X398.981110 Y195.366907 Z-0.125000
G01 X402.273122 Y194.269570 Z-0.125000
G01 X405.565134 Y194.269570 Z-0.125000
G01 X404.467797 Y190.977558 Z-0.125000
G01 X401.175785 Y190.977558 Z-0.125000
G01 X397.883773 Y192.074895 Z-0.125000
G01 X398.981110 Y189.880221 Z-0.125000
G01 X400.078448 Y187.685546 Z-0.125000
G01 X403.370459 Y187.685546 Z-0.125000
G01 X403.370459 Y184.393534 Z-0.125000
G01 X405.565134 Y183.296197 Z-0.125000
G01 X408.857146 Y182.198860 Z-0.125000
G01 X407.759809 Y186.588209 Z-0.125000
G01 X406.662471 Y187.685546 Z-0.125000
G01 X407.759809 Y190.977558 Z-0.125000
G01 X408.857146 Y194.269570 Z-0.125000
G01 X411.051820 Y193.172232 Z-0.125000
G01 X411.051820 Y189.880221 Z-0.125000
G01 X412.149158 Y188.782883 Z-0.125000
G01 X411.051820 Y185.490872 Z-0.125000
G01 X412.149158 Y183.296197 Z-0.125000
G01 X414.343832 Y182.198860 Z-0.125000
G01 X415.441169 Y180.004185 Z-0.125000
G01 X418.733181 Y180.004185 Z-0.125000
G01 X420.927856 Y177.809511 Z-0.125000
G01 X424.219868 Y178.906848 Z-0.125000
G01 X423.122530 Y181.101522 Z-0.125000
G01 X422.025193 Y183.296197 Z-0.125000
G01 X418.733181 Y183.296197 Z-0.125000
G01 X417.635844 Y185.490872 Z-0.125000
G01 X414.343832 Y185.490872 Z-0.125000
G01 X415.441169 Y188.782883 Z-0.125000
G01 X415.441169 Y192.074895 Z-0.125000
G01 X414.343832 Y194.269570 Z-0.125000
G01 X413.246495 Y196.464244 Z-0.125000
G01 X412.149158 Y198.658919 Z-0.125000
G01 X411.051820 Y200.853593 Z-0.125000
G01 X412.149158 Y204.145605 Z-0.125000
G01 X414.343832 Y201.950931 Z-0.125000
G01 X416.538507 Y199.756256 Z-0.125000
G01 X417.635844 Y197.561582 Z-0.125000
G01 X418.733181 Y195.366907 Z-0.125000
G01 X418.733181 Y192.074895 Z-0.125000
G01 X418.733181 Y188.782883 Z-0.125000
G01 X420.927856 Y186.588209 Z-0.125000
G01 X424.219868 Y186.588209 Z-0.125000
G01 X423.122530 Y189.880221 Z-0.125000
G01 X422.025193 Y192.074895 Z-0.125000
G01 X422.025193 Y195.366907 Z-0.125000
G01 X422.025193 Y198.658919 Z-0.125000
G01 X425.317205 Y198.658919 Z-0.125000
G01 X425.317205 Y196.464244 Z-0.125000
G01 X425.317205 Y193.172232 Z-0.125000
G01 X426.414542 Y190.977558 Z-0.125000
G01 X427.511879 Y188.782883 Z-0.125000
G01 X426.414542 Y185.490872 Z-0.125000
G01 X427.511879 Y184.393534 Z-0.125000
G01 X427.511879 Y181.101522 Z-0.125000
G01 X428.609217 Y177.809511 Z-0.125000
G01 X425.317205 Y176.712173 Z-0.125000
G01 X426.414542 Y174.517499 Z-0.125000
G01 X427.511879 Y171.225487 Z-0.125000
G01 X427.511879 Y169.030813 Z-0.125000
G01 X427.511879 Y165.738801 Z-0.125000
G01 X424.219868 Y165.738801 Z-0.125000
G01 X423.122530 Y167.933475 Z-0.125000
G01 X423.122530 Y170.128150 Z-0.125000
G01 X423.122530 Y173.420162 Z-0.125000
G01 X420.927856 Y172.322824 Z-0.125000
G01 X419.830518 Y174.517499 Z-0.125000
G01 X417.635844 Y175.614836 Z-0.125000
G01 X415.441169 Y176.712173 Z-0.125000
G01 X412.149158 Y177.809511 Z-0.125000
G01 X411.051820 Y178.906848 Z-0.125000
G01 X407.759809 Y178.906848 Z-0.125000
G01 X405.565134 Y180.004185 Z-0.125000
G01 X402.273122 Y181.101522 Z-0.125000
G01 X402.273122 Y177.809511 Z-0.125000
G01 X398.981110 Y177.809511 Z-0.125000
G01 X398.981110 Y175.614836 Z-0.125000
G01 X402.273122 Y174.517499 Z-0.125000
G01 X404.467797 Y175.614836 Z-0.125000
G01 X407.759809 Y175.614836 Z-0.125000
G01 X407.759809 Y172.322824 Z-0.125000
G01 X407.759809 Y170.128150 Z-0.125000
G01 X408.857146 Y169.030813 Z-0.125000
G01 X409.954483 Y166.836138 Z-0.125000
G01 X406.662471 Y165.738801 Z-0.125000
G01 X403.370459 Y165.738801 Z-0.125000
G01 X401.175785 Y167.933475 Z-0.125000
G01 X403.370459 Y169.030813 Z-0.125000
G01 X404.467797 Y172.322824 Z-0.125000
G01 X401.175785 Y171.225487 Z-0.125000
G01 X397.883773 Y171.225487 Z-0.125000
G01 X396.786436 Y172.322824 Z-0.125000
G01 X395.689099 Y174.517499 Z-0.125000
G01 X395.689099 Y177.809511 Z-0.125000
G01 X392.397087 Y177.809511 Z-0.125000
G01 X390.202412 Y176.712173 Z-0.125000
G01 X392.397087 Y174.517499 Z-0.125000
G01 X392.397087 Y171.225487 Z-0.125000
G01 X393.494424 Y169.030813 Z-0.125000
G01 X396.786436 Y167.933475 Z-0.125000
G01 X397.883773 Y165.738801 Z-0.125000
G01 X398.981110 Y163.544126 Z-0.125000
G01 X400.078448 Y161.349452 Z-0.125000
G01 X402.273122 Y162.446789 Z-0.125000
G01 X402.273122 Y159.154777 Z-0.125000
G01 X402.273122 Y155.862765 Z-0.125000
G01 X405.565134 Y154.765428 Z-0.125000
G01 X406.662471 Y158.057440 Z-0.125000
G01 X405.565134 Y159.154777 Z-0.125000
G01 X405.565134 Y162.446789 Z-0.125000
G01 X408.857146 Y163.544126 Z-0.125000
G01 X409.954483 Y161.349452 Z-0.125000
G01 X411.051820 Y159.154777 Z-0.125000
G01 X412.149158 Y156.960103 Z-0.125000
G01 X408.857146 Y154.765428 Z-0.125000
G01 X411.051820 Y153.668091 Z-0.125000
G01 X414.343832 Y153.668091 Z-0.125000
G01 X413.246495 Y150.376079 Z-0.125000
G01 X414.343832 Y148.181404 Z-0.125000
G01 X417.635844 Y147.084067 Z-0.125000
G01 X418.733181 Y144.889393 Z-0.125000
G01 X419.830518 Y142.694718 Z-0.125000
G01 X416.538507 Y141.597381 Z-0.125000
G01 X418.733181 Y139.402706 Z-0.125000
G01 X419.830518 Y137.208032 Z-0.125000
G01 X422.025193 Y136.110694 Z-0.125000
G01 X420.927856 Y132.818683 Z-0.125000
G01 X422.025193 Y129.526671 Z-0.125000
G01 X418.733181 Y129.526671 Z-0.125000
G01 X416.538507 Y130.624008 Z-0.125000
G01 X414.343832 Y132.818683 Z-0.125000
G01 X417.635844 Y133.916020 Z-0.125000
G01 X415.441169 Y136.110694 Z-0.125000
G01 X414.343832 Y138.305369 Z-0.125000
G01 X413.246495 Y141.597381 Z-0.125000
G01 X414.343832 Y144.889393 Z-0.125000
G01 X411.051820 Y144.889393 Z-0.125000
G01 X409.954483 Y147.084067 Z-0.125000
G01 X409.954483 Y150.376079 Z-0.125000
G01 X406.662471 Y151.473416 Z-0.125000
G01 X406.662471 Y148.181404 Z-0.125000
G01 X406.662471 Y144.889393 Z-0.125000
G01 X406.662471 Y141.597381 Z-0.125000
G01 X409.954483 Y141.597381 Z-0.125000
G01 X411.051820 Y138.305369 Z-0.125000
G01 X411.051820 Y135.013357 Z-0.125000
G01 X411.051820 Y132.818683 Z-0.125000
G01 X412.149158 Y129.526671 Z-0.125000
G01 X413.246495 Y127.331996 Z-0.125000
G01 X416.538507 Y126.234659 Z-0.125000
G01 X417.635844 Y122.942647 Z-0.125000
G01 X419.830518 Y119.650635 Z-0.125000
G01 X420.927856 Y122.942647 Z-0.125000
G01 X419.830518 Y126.234659 Z-0.125000
G01 X423.122530 Y126.234659 Z-0.125000
G01 X426.414542 Y127.331996 Z-0.125000
G01 X428.609217 Y126.234659 Z-0.125000
G01 X429.706554 Y129.526671 Z-0.125000
G01 X426.414542 Y130.624008 Z-0.125000
G01 X424.219868 Y132.818683 Z-0.125000
G01 X427.511879 Y133.916020 Z-0.125000
G01 X426.414542 Y136.110694 Z-0.125000
G01 X426.414542 Y138.305369 Z-0.125000
G01 X423.122530 Y139.402706 Z-0.125000
G01 X423.122530 Y142.694718 Z-0.125000
G01 X426.414542 Y141.597381 Z-0.125000
G01 X429.706554 Y140.500044 Z-0.125000
G01 X430.803891 Y138.305369 Z-0.125000
G01 X431.901228 Y136.110694 Z-0.125000
G01 X431.901228 Y132.818683 Z-0.125000
G01 X434.095903 Y130.624008 Z-0.125000
G01 X435.193240 Y133.916020 Z-0.125000
G01 X436.290578 Y137.208032 Z-0.125000
G01 X435.193240 Y139.402706 Z-0.125000
G01 X434.095903 Y141.597381 Z-0.125000
G01 X432.998566 Y143.792055 Z-0.125000
G01 X429.706554 Y143.792055 Z-0.125000
G01 X426.414542 Y144.889393 Z-0.125000
G01 X423.122530 Y145.986730 Z-0.125000
G01 X422.025193 Y148.181404 Z-0.125000
G01 X422.025193 Y150.376079 Z-0.125000
G01 X420.927856 Y152.570753 Z-0.125000
G01 X417.635844 Y150.376079 Z-0.125000
G01 X417.635844 Y153.668091 Z-0.125000
G01 X416.538507 Y156.960103 Z-0.125000
G01 X416.538507 Y160.252114 Z-0.125000
G01 X415.441169 Y161.349452 Z-0.125000
G01 X414.343832 Y163.544126 Z-0.125000
G01 X413.246495 Y165.738801 Z-0.125000
G01 X413.246495 Y169.030813 Z-0.125000
G01 X412.149158 Y171.225487 Z-0.125000
G01 X411.051820 Y174.517499 Z-0.125000
G01 X414.343832 Y173.420162 Z-0.125000
G01 X416.538507 Y171.225487 Z-0.125000
G01 X416.538507 Y167.933475 Z-0.125000
G01 X418.733181 Y169.030813 Z-0.125000
G01 X418.733181 Y165.738801 Z-0.125000
G01 X419.830518 Y164.641463 Z-0.125000
G01 X420.927856 Y162.446789 Z-0.125000
G01 X419.830518 Y159.154777 Z-0.125000
G01 X419.830518 Y155.862765 Z-0.125000
G01 X423.122530 Y155.862765 Z-0.125000
G01 X425.317205 Y153.668091 Z-0.125000
G01 X426.414542 Y150.376079 Z-0.125000
G01 X427.511879 Y148.181404 Z-0.125000
G01 X429.706554 Y147.084067 Z-0.125000
G01 X432.998566 Y147.084067 Z-0.125000
G01 X432.998566 Y150.376079 Z-0.125000
G01 X430.803891 Y151.473416 Z-0.125000
G01 X428.609217 Y153.668091 Z-0.125000
G01 X427.511879 Y156.960103 Z-0.125000
G01 X426.414542 Y159.154777 Z-0.125000
G01 X423.122530 Y159.154777 Z-0.125000
G01 X424.219868 Y162.446789 Z-0.125000
G01 X427.511879 Y162.446789 Z-0.125000
G01 X429.706554 Y160.252114 Z-0.125000
G01 X430.803891 Y156.960103 Z-0.125000
G01 X432.998566 Y155.862765 Z-0.125000
G01 X434.095903 Y153.668091 Z-0.125000
G01 X436.290578 Y150.376079 Z-0.125000
G01 X436.290578 Y147.084067 Z-0.125000
G01 X437.387915 Y143.792055 Z-0.125000
G01 X439.582589 Y141.597381 Z-0.125000
G01 X441.777264 Y142.694718 Z-0.125000
G01 X445.069276 Y141.597381 Z-0.125000
G01 X447.263950 Y140.500044 Z-0.125000
G01 X447.263950 Y137.208032 Z-0.125000
G01 X447.263950 Y133.916020 Z-0.125000
G01 X450.555962 Y132.818683 Z-0.125000
G01 X451.653299 Y130.624008 Z-0.125000
G01 X453.847974 Y128.429334 Z-0.125000
G01 X454.945311 Y131.721345 Z-0.125000
G01 X453.847974 Y133.916020 Z-0.125000
G01 X451.653299 Y136.110694 Z-0.125000
G01 X450.555962 Y140.500044 Z-0.125000
G01 X450.555962 Y143.792055 Z-0.125000
G01 X453.847974 Y142.694718 Z-0.125000
G01 X454.945311 Y139.402706 Z-0.125000
G01 X457.139986 Y137.208032 Z-0.125000
G01 X458.237323 Y135.013357 Z-0.125000
G01 X459.334660 Y132.818683 Z-0.125000
G01 X462.626672 Y132.818683 Z-0.125000
G01 X464.821347 Y130.624008 Z-0.125000
G01 X465.918684 Y128.429334 Z-0.125000
G01 X465.918684 Y125.137322 Z-0.125000
G01 X469.210696 Y124.039984 Z-0.125000
G01 X471.405370 Y125.137322 Z-0.125000
G01 X469.210696 Y127.331996 Z-0.125000
G01 X469.210696 Y130.624008 Z-0.125000
G01 X472.502707 Y130.624008 Z-0.125000
G01 X473.600045 Y128.429334 Z-0.125000
G01 X476.892056 Y129.526671 Z-0.125000
G01 X475.794719 Y126.234659 Z-0.125000
G01 X477.989394 Y125.137322 Z-0.125000
G01 X479.086731 Y122.942647 Z-0.125000
G01 X481.281406 Y120.747973 Z-0.125000
G01 X482.378743 Y118.553298 Z-0.125000
G01 X484.573417 Y116.358624 Z-0.125000
G01 X480.184068 Y115.261286 Z-0.125000
G01 X482.378743 Y113.066612 Z-0.125000
G01 X482.378743 Y109.774600 Z-0.125000
G01 X484.573417 Y107.579925 Z-0.125000
G01 X484.573417 Y104.287914 Z-0.125000
G01 X485.670755 Y103.190576 Z-0.125000
G01 X485.670755 Y99.898565 Z-0.125000
G01 X487.865429 Y98.801227 Z-0.125000
G01 X491.157441 Y100.995902 Z-0.125000
G01 X490.060104 Y103.190576 Z-0.125000
G01 X488.962766 Y105.385251 Z-0.125000
G01 X487.865429 Y108.677263 Z-0.125000
G01 X486.768092 Y110.871937 Z-0.125000
G01 X485.670755 Y113.066612 Z-0.125000
G01 X488.962766 Y114.163949 Z-0.125000
G01 X491.157441 Y111.969275 Z-0.125000
G01 X493.352116 Y109.774600 Z-0.125000
G01 X491.157441 Y108.677263 Z-0.125000
G01 X493.352116 Y106.482588 Z-0.125000
G01 X494.449453 Y104.287914 Z-0.125000
G01 X495.546790 Y102.093239 Z-0.125000
G01 X496.644127 Y99.898565 Z-0.125000
G01 X493.352116 Y98.801227 Z-0.125000
G01 X491.157441 Y97.703890 Z-0.125000
G01 X490.060104 Y94.411878 Z-0.125000
G01 X486.768092 Y95.509215 Z-0.125000
G01 X483.476080 Y95.509215 Z-0.125000
G01 X482.378743 Y97.703890 Z-0.125000
G01 X481.281406 Y99.898565 Z-0.125000
G01 X480.184068 Y102.093239 Z-0.125000
G01 X481.281406 Y105.385251 Z-0.125000
G01 X479.086731 Y106.482588 Z-0.125000
G01 X477.989394 Y108.677263 Z-0.125000
G01 X477.989394 Y111.969275 Z-0.125000
G01 X474.697382 Y111.969275 Z-0.125000
G01 X474.697382 Y108.677263 Z-0.125000
G01 X474.697382 Y105.385251 Z-0.125000
G01 X476.892056 Y103.190576 Z-0.125000
G01 X476.892056 Y99.898565 Z-0.125000
G01 X477.989394 Y96.606553 Z-0.125000
G01 X479.086731 Y94.411878 Z-0.125000
G01 X480.184068 Y92.217204 Z-0.125000
G01 X480.184068 Y88.925192 Z-0.125000
G01 X476.892056 Y90.022529 Z-0.125000
G01 X473.600045 Y90.022529 Z-0.125000
G01 X471.405370 Y88.925192 Z-0.125000
G01 X468.113358 Y90.022529 Z-0.125000
G01 X465.918684 Y92.217204 Z-0.125000
G01 X465.918684 Y95.509215 Z-0.125000
G01 X464.821347 Y97.703890 Z-0.125000
G01 X464.821347 Y100.995902 Z-0.125000
G01 X468.113358 Y100.995902 Z-0.125000
G01 X469.210696 Y96.606553 Z-0.125000
G01 X470.308033 Y94.411878 Z-0.125000
G01 X471.405370 Y92.217204 Z-0.125000
G01 X475.794719 Y93.314541 Z-0.125000
G01 X474.697382 Y95.509215 Z-0.125000
G01 X473.600045 Y97.703890 Z-0.125000
G01 X473.600045 Y100.995902 Z-0.125000
G01 X471.405370 Y99.898565 Z-0.125000
G01 X471.405370 Y103.190576 Z-0.125000
G01 X470.308033 Y105.385251 Z-0.125000
G01 X471.405370 Y108.677263 Z-0.125000
G01 X469.210696 Y110.871937 Z-0.125000
G01 X471.405370 Y111.969275 Z-0.125000
G01 X470.308033 Y115.261286 Z-0.125000
G01 X473.600045 Y115.261286 Z-0.125000
G01 X476.892056 Y115.261286 Z-0.125000
G01 X477.989394 Y118.553298 Z-0.125000
G01 X474.697382 Y118.553298 Z-0.125000
G01 X474.697382 Y121.845310 Z-0.125000
G01 X471.405370 Y121.845310 Z-0.125000
G01 X471.405370 Y118.553298 Z-0.125000
G01 X468.113358 Y117.455961 Z-0.125000
G01 X467.016021 Y119.650635 Z-0.125000
G01 X465.918684 Y121.845310 Z-0.125000
G01 X462.626672 Y122.942647 Z-0.125000
G01 X461.529335 Y124.039984 Z-0.125000
G01 X461.529335 Y127.331996 Z-0.125000
G01 X460.431997 Y129.526671 Z-0.125000
G01 X457.139986 Y129.526671 Z-0.125000
G01 X457.139986 Y126.234659 Z-0.125000
G01 X458.237323 Y124.039984 Z-0.125000
G01 X456.042648 Y120.747973 Z-0.125000
G01 X453.847974 Y122.942647 Z-0.125000
G01 X452.750637 Y125.137322 Z-0.125000
G01 X449.458625 Y124.039984 Z-0.125000
G01 X449.458625 Y127.331996 Z-0.125000
G01 X447.263950 Y128.429334 Z-0.125000
G01 X446.166613 Y130.624008 Z-0.125000
G01 X443.971938 Y132.818683 Z-0.125000
G01 X442.874601 Y135.013357 Z-0.125000
G01 X442.874601 Y138.305369 Z-0.125000
G01 X439.582589 Y138.305369 Z-0.125000
G01 X439.582589 Y135.013357 Z-0.125000
G01 X439.582589 Y131.721345 Z-0.125000
G01 X437.387915 Y130.624008 Z-0.125000
G01 X438.485252 Y127.331996 Z-0.125000
G01 X441.777264 Y129.526671 Z-0.125000
G01 X441.777264 Y126.234659 Z-0.125000
G01 X442.874601 Y125.137322 Z-0.125000
G01 X446.166613 Y125.137322 Z-0.125000
G01 X446.166613 Y121.845310 Z-0.125000
G01 X448.361287 Y120.747973 Z-0.125000
G01 X449.458625 Y118.553298 Z-0.125000
G01 X452.750637 Y118.553298 Z-0.125000
G01 X456.042648 Y117.455961 Z-0.125000
G01 X459.334660 Y116.358624 Z-0.125000
G01 X459.334660 Y119.650635 Z-0.125000
G01 X462.626672 Y118.553298 Z-0.125000
G01 X462.626672 Y115.261286 Z-0.125000
G01 X465.918684 Y114.163949 Z-0.125000
G01 X465.918684 Y110.871937 Z-0.125000
G01 X467.016021 Y107.579925 Z-0.125000
G01 X467.016021 Y104.287914 Z-0.125000
G01 X463.724009 Y105.385251 Z-0.125000
G01 X462.626672 Y107.579925 Z-0.125000
G01 X460.431997 Y109.774600 Z-0.125000
G01 X462.626672 Y111.969275 Z-0.125000
G01 X459.334660 Y113.066612 Z-0.125000
G01 X456.042648 Y114.163949 Z-0.125000
G01 X456.042648 Y110.871937 Z-0.125000
G01 X457.139986 Y108.677263 Z-0.125000
G01 X458.237323 Y106.482588 Z-0.125000
G01 X459.334660 Y104.287914 Z-0.125000
G01 X460.431997 Y102.093239 Z-0.125000
G01 X461.529335 Y100.995902 Z-0.125000
G01 X460.431997 Y97.703890 Z-0.125000
G01 X461.529335 Y95.509215 Z-0.125000
G01 X462.626672 Y92.217204 Z-0.125000
G01 X463.724009 Y88.925192 Z-0.125000
G01 X460.431997 Y88.925192 Z-0.125000
G01 X459.334660 Y91.119866 Z-0.125000
G01 X458.237323 Y93.314541 Z-0.125000
G01 X457.139986 Y95.509215 Z-0.125000
G01 X457.139986 Y98.801227 Z-0.125000
G01 X456.042648 Y103.190576 Z-0.125000
G01 X452.750637 Y103.190576 Z-0.125000
G01 X450.555962 Y104.287914 Z-0.125000
G01 X453.847974 Y106.482588 Z-0.125000
G01 X452.750637 Y108.677263 Z-0.125000
G01 X452.750637 Y111.969275 Z-0.125000
G01 X451.653299 Y113.066612 Z-0.125000
G01 X450.555962 Y115.261286 Z-0.125000
G01 X447.263950 Y111.969275 Z-0.125000
G01 X445.069276 Y113.066612 Z-0.125000
G01 X442.874601 Y115.261286 Z-0.125000
G01 X446.166613 Y116.358624 Z-0.125000
G01 X443.971938 Y118.553298 Z-0.125000
G01 X440.679927 Y118.553298 Z-0.125000
G01 X441.777264 Y121.845310 Z-0.125000
G01 X437.387915 Y120.747973 Z-0.125000
G01 X438.485252 Y124.039984 Z-0.125000
G01 X435.193240 Y125.137322 Z-0.125000
G01 X434.095903 Y127.331996 Z-0.125000
G01 X431.901228 Y126.234659 Z-0.125000
G01 X430.803891 Y122.942647 Z-0.125000
G01 X434.095903 Y121.845310 Z-0.125000
G01 X432.998566 Y118.553298 Z-0.125000
G01 X436.290578 Y117.455961 Z-0.125000
G01 X437.387915 Y115.261286 Z-0.125000
G01 X438.485252 Y114.163949 Z-0.125000
G01 X440.679927 Y111.969275 Z-0.125000
G01 X443.971938 Y109.774600 Z-0.125000
G01 X447.263950 Y108.677263 Z-0.125000
G01 X448.361287 Y107.579925 Z-0.125000
G01 X447.263950 Y104.287914 Z-0.125000
G01 X446.166613 Y100.995902 Z-0.125000
G01 X442.874601 Y102.093239 Z-0.125000
G01 X443.971938 Y105.385251 Z-0.125000
G01 X441.777264 Y106.482588 Z-0.125000
G01 X439.582589 Y108.677263 Z-0.125000
G01 X436.290578 Y108.677263 Z-0.125000
G01 X435.193240 Y110.871937 Z-0.125000
G01 X431.901228 Y110.871937 Z-0.125000
G01 X432.998566 Y114.163949 Z-0.125000
G01 X429.706554 Y114.163949 Z-0.125000
G01 X429.706554 Y117.455961 Z-0.125000
G01 X428.609217 Y119.650635 Z-0.125000
G01 X427.511879 Y122.942647 Z-0.125000
G01 X424.219868 Y122.942647 Z-0.125000
G01 X424.219868 Y119.650635 Z-0.125000
G01 X425.317205 Y117.455961 Z-0.125000
G01 X426.414542 Y114.163949 Z-0.125000
G01 X427.511879 Y110.871937 Z-0.125000
G01 X428.609217 Y108.677263 Z-0.125000
G01 X431.901228 Y107.579925 Z-0.125000
G01 X431.901228 Y104.287914 Z-0.125000
G01 X435.193240 Y105.385251 Z-0.125000
G01 X436.290578 Y103.190576 Z-0.125000
G01 X439.582589 Y103.190576 Z-0.125000
G01 X438.485252 Y99.898565 Z-0.125000
G01 X439.582589 Y97.703890 Z-0.125000
G01 X442.874601 Y98.801227 Z-0.125000
G01 X446.166613 Y97.703890 Z-0.125000
G01 X449.458625 Y97.703890 Z-0.125000
G01 X449.458625 Y100.995902 Z-0.125000
G01 X452.750637 Y99.898565 Z-0.125000
G01 X453.847974 Y97.703890 Z-0.125000
G01 X452.750637 Y94.411878 Z-0.125000
G01 X453.847974 Y92.217204 Z-0.125000
G01 X454.945311 Y90.022529 Z-0.125000
G01 X456.042648 Y87.827855 Z-0.125000
G01 X458.237323 Y85.633180 Z-0.125000
G01 X461.529335 Y85.633180 Z-0.125000
G01 X461.529335 Y82.341168 Z-0.125000
G01 X461.529335 Y80.146494 Z-0.125000
G01 X463.724009 Y79.049156 Z-0.125000
G01 X467.016021 Y77.951819 Z-0.125000
G01 X467.016021 Y81.243831 Z-0.125000
G01 X465.918684 Y83.438506 Z-0.125000
G01 X465.918684 Y86.730517 Z-0.125000
G01 X469.210696 Y85.633180 Z-0.125000
G01 X470.308033 Y83.438506 Z-0.125000
G01 X470.308033 Y80.146494 Z-0.125000
G01 X471.405370 Y77.951819 Z-0.125000
G01 X472.502707 Y75.757145 Z-0.125000
G01 X473.600045 Y73.562470 Z-0.125000
G01 X475.794719 Y74.659807 Z-0.125000
G01 X475.794719 Y71.367796 Z-0.125000
G01 X476.892056 Y69.173121 Z-0.125000
G01 X480.184068 Y69.173121 Z-0.125000
G01 X481.281406 Y66.978446 Z-0.125000
G01 X484.573417 Y68.075784 Z-0.125000
G01 X483.476080 Y71.367796 Z-0.125000
G01 X480.184068 Y72.465133 Z-0.125000
G01 X479.086731 Y73.562470 Z-0.125000
G01 X477.989394 Y76.854482 Z-0.125000
G01 X475.794719 Y79.049156 Z-0.125000
G01 X474.697382 Y81.243831 Z-0.125000
G01 X473.600045 Y83.438506 Z-0.125000
G01 X473.600045 Y86.730517 Z-0.125000
G01 X476.892056 Y86.730517 Z-0.125000
G01 X477.989394 Y84.535843 Z-0.125000
G01 X479.086731 Y82.341168 Z-0.125000
G01 X480.184068 Y80.146494 Z-0.125000
G01 X483.476080 Y79.049156 Z-0.125000
G01 X481.281406 Y76.854482 Z-0.125000
G01 X483.476080 Y74.659807 Z-0.125000
G01 X486.768092 Y73.562470 Z-0.125000
G01 X485.670755 Y76.854482 Z-0.125000
G01 X488.962766 Y75.757145 Z-0.125000
G01 X490.060104 Y72.465133 Z-0.125000
G01 X490.060104 Y69.173121 Z-0.125000
G01 X486.768092 Y70.270458 Z-0.125000
G01 X487.865429 Y66.978446 Z-0.125000
G01 X488.962766 Y64.783772 Z-0.125000
G01 X490.060104 Y62.589097 Z-0.125000
G01 X491.157441 Y60.394423 Z-0.125000
G01 X492.254778 Y57.102411 Z-0.125000
G01 X488.962766 Y57.102411 Z-0.125000
G01 X486.768092 Y56.005074 Z-0.125000
G01 X486.768092 Y59.297086 Z-0.125000
G01 X485.670755 Y61.491760 Z-0.125000
G01 X484.573417 Y63.686435 Z-0.125000
G01 X482.378743 Y64.783772 Z-0.125000
G01 X481.281406 Y61.491760 Z-0.125000
G01 X482.378743 Y59.297086 Z-0.125000
G01 X483.476080 Y57.102411 Z-0.125000
G01 X480.184068 Y56.005074 Z-0.125000
G01 X481.281406 Y53.810399 Z-0.125000
G01 X484.573417 Y52.713062 Z-0.125000
G01 X485.670755 Y50.518387 Z-0.125000
G01 X485.670755 Y47.226376 Z-0.125000
G01 X486.768092 Y45.031701 Z-0.125000
G01 X488.962766 Y43.934364 Z-0.125000
G01 X491.157441 Y41.739689 Z-0.125000
G01 X491.157441 Y38.447677 Z-0.125000
G01 X494.449453 Y38.447677 Z-0.125000
G01 X495.546790 Y36.253003 Z-0.125000
G01 X497.741465 Y35.155666 Z-0.125000
G01 X499.936139 Y34.058328 Z-0.125000
G01 X502.130814 Y32.960991 Z-0.125000
G01 X502.130814 Y29.668979 Z-0.125000
G01 X498.838802 Y30.766317 Z-0.125000
G01 X495.546790 Y30.766317 Z-0.125000
G01 X494.449453 Y32.960991 Z-0.125000
G01 X491.157441 Y35.155666 Z-0.125000
G01 X491.157441 Y31.863654 Z-0.125000
G01 X492.254778 Y29.668979 Z-0.125000
G01 X493.352116 Y27.474305 Z-0.125000
G01 X492.254778 Y24.182293 Z-0.125000
G01 X495.546790 Y24.182293 Z-0.125000
G01 X496.644127 Y27.474305 Z-0.125000
G01 X498.838802 Y26.376967 Z-0.125000
G01 X502.130814 Y26.376967 Z-0.125000
G01 X505.422825 Y28.571642 Z-0.125000
G01 X506.520163 Y25.279630 Z-0.125000
G01 X507.617500 Y21.987618 Z-0.125000
G01 X510.909512 Y21.987618 Z-0.125000
G01 X514.201524 Y20.890281 Z-0.125000
G01 X515.298861 Y18.695607 Z-0.125000
G01 X518.590873 Y17.598269 Z-0.125000
G01 X518.590873 Y20.890281 Z-0.125000
G01 X517.493535 Y23.084956 Z-0.125000
G01 X514.201524 Y24.182293 Z-0.125000
G01 X513.104186 Y26.376967 Z-0.125000
G01 X509.812175 Y26.376967 Z-0.125000
G01 X509.812175 Y29.668979 Z-0.125000
G01 X508.714837 Y31.863654 Z-0.125000
G01 X505.422825 Y32.960991 Z-0.125000
G01 X505.422825 Y36.253003 Z-0.125000
G01 X504.325488 Y38.447677 Z-0.125000
G01 X501.033476 Y37.350340 Z-0.125000
G01 X498.838802 Y39.545015 Z-0.125000
G01 X497.741465 Y41.739689 Z-0.125000
G01 X495.546790 Y42.837027 Z-0.125000
G01 X493.352116 Y45.031701 Z-0.125000
G01 X493.352116 Y48.323713 Z-0.125000
G01 X490.060104 Y48.323713 Z-0.125000
G01 X488.962766 Y50.518387 Z-0.125000
G01 X488.962766 Y53.810399 Z-0.125000
G01 X492.254778 Y52.713062 Z-0.125000
G01 X495.546790 Y56.005074 Z-0.125000
G01 X496.644127 Y52.713062 Z-0.125000
G01 X496.644127 Y50.518387 Z-0.125000
G01 X498.838802 Y48.323713 Z-0.125000
G01 X496.644127 Y46.129038 Z-0.125000
G01 X498.838802 Y45.031701 Z-0.125000
G01 X502.130814 Y45.031701 Z-0.125000
G01 X502.130814 Y42.837027 Z-0.125000
G01 X503.228151 Y40.642352 Z-0.125000
G01 X505.422825 Y43.934364 Z-0.125000
G01 X507.617500 Y41.739689 Z-0.125000
G01 X508.714837 Y39.545015 Z-0.125000
G01 X508.714837 Y36.253003 Z-0.125000
G01 X510.909512 Y35.155666 Z-0.125000
G01 X514.201524 Y35.155666 Z-0.125000
G01 X516.396198 Y32.960991 Z-0.125000
G01 X513.104186 Y31.863654 Z-0.125000
G01 X514.201524 Y29.668979 Z-0.125000
G01 X516.396198 Y28.571642 Z-0.125000
G01 X517.493535 Y26.376967 Z-0.125000
G01 X520.785547 Y26.376967 Z-0.125000
G01 X521.882885 Y24.182293 Z-0.125000
G01 X521.882885 Y20.890281 Z-0.125000
G01 X522.980222 Y19.792944 Z-0.125000
G01 X524.077559 Y17.598269 Z-0.125000
G01 X525.174896 Y14.306258 Z-0.125000
G01 X526.272234 Y12.111583 Z-0.125000
G01 X525.174896 Y8.819571 Z-0.125000
G01 X522.980222 Y9.916908 Z-0.125000
G01 X521.882885 Y12.111583 Z-0.125000
G01 X521.882885 Y15.403595 Z-0.125000
G01 X519.688210 Y14.306258 Z-0.125000
G01 X516.396198 Y15.403595 Z-0.125000
G01 X514.201524 Y14.306258 Z-0.125000
G01 X516.396198 Y12.111583 Z-0.125000
G01 X517.493535 Y9.916908 Z-0.125000
G01 X517.493535 Y7.722234 Z-0.125000
G01 X518.590873 Y6.624897 Z-0.125000
G01 X521.882885 Y6.624897 Z-0.125000
G01 X525.174896 Y5.527559 Z-0.125000
G01 X524.077559 Y2.235548 Z-0.125000
G01 X521.882885 Y1.138210 Z-0.125000
G01 X520.785547 Y3.332885 Z-0.125000
G01 X517.493535 Y3.332885 Z-0.125000
G01 X517.493535 Y0.040873 Z-0.125000
G01 X514.201524 Y1.138210 Z-0.125000
G01 X514.201524 Y4.430222 Z-0.125000
G01 X512.006849 Y5.527559 Z-0.125000
G01 X513.104186 Y8.819571 Z-0.125000
G01 X512.006849 Y11.014246 Z-0.125000
G01 X510.909512 Y14.306258 Z-0.125000
G01 X512.006849 Y17.598269 Z-0.125000
G01 X508.714837 Y16.500932 Z-0.125000
G01 X507.617500 Y18.695607 Z-0.125000
G01 X504.325488 Y19.792944 Z-0.125000
G01 X501.033476 Y18.695607 Z-0.125000
G01 X502.130814 Y21.987618 Z-0.125000
G01 X498.838802 Y23.084956 Z-0.125000
G01 X497.741465 Y19.792944 Z-0.125000
G01 X495.546790 Y20.890281 Z-0.125000
G01 X494.449453 Y17.598269 Z-0.125000
G01 X495.546790 Y15.403595 Z-0.125000
G01 X498.838802 Y15.403595 Z-0.125000
G01 X502.130814 Y14.306258 Z-0.125000
G01 X504.325488 Y15.403595 Z-0.125000
G01 X506.520163 Y13.208920 Z-0.125000
G01 X507.617500 Y11.014246 Z-0.125000
G01 X508.714837 Y8.819571 Z-0.125000
G01 X508.714837 Y5.527559 Z-0.125000
G01 X505.422825 Y6.624897 Z-0.125000
G01 X503.228151 Y8.819571 Z-0.125000
G01 X502.130814 Y11.014246 Z-0.125000
G01 X497.741465 Y11.014246 Z-0.125000
G01 X495.546790 Y12.111583 Z-0.125000
G01 X491.157441 Y13.208920 Z-0.125000
G01 X490.060104 Y14.306258 Z-0.125000
G01 X486.768092 Y14.306258 Z-0.125000
G01 X486.768092 Y11.014246 Z-0.125000
G01 X490.060104 Y9.916908 Z-0.125000
G01 X492.254778 Y8.819571 Z-0.125000
G01 X492.254778 Y5.527559 Z-0.125000
G01 X495.546790 Y4.430222 Z-0.125000
G01 X495.546790 Y7.722234 Z-0.125000
G01 X498.838802 Y6.624897 Z-0.125000
G01 X498.838802 Y3.332885 Z-0.125000
G01 X502.130814 Y4.430222 Z-0.125000
G01 X503.228151 Y2.235548 Z-0.125000
G01 X498.838802 Y0.040873 Z-0.125000
G01 X502.130814 Y-1.056464 Z-0.125000
G01 X504.325488 Y-2.153802 Z-0.125000
G01 X503.228151 Y-5.445813 Z-0.125000
G01 X504.325488 Y-7.640488 Z-0.125000
G01 X505.422825 Y-9.835162 Z-0.125000
G01 X506.520163 Y-12.029837 Z-0.125000
G01 X507.617500 Y-14.224511 Z-0.125000
G01 X506.520163 Y-17.516523 Z-0.125000
G01 X504.325488 Y-16.419186 Z-0.125000
G01 X503.228151 Y-13.127174 Z-0.125000
G01 X501.033476 Y-10.932500 Z-0.125000
G01 X499.936139 Y-7.640488 Z-0.125000
G01 X499.936139 Y-4.348476 Z-0.125000
G01 X496.644127 Y-4.348476 Z-0.125000
G01 X495.546790 Y-7.640488 Z-0.125000
G01 X496.644127 Y-10.932500 Z-0.125000
G01 X493.352116 Y-10.932500 Z-0.125000
G01 X492.254778 Y-7.640488 Z-0.125000
G01 X492.254778 Y-4.348476 Z-0.125000
G01 X490.060104 Y-2.153802 Z-0.125000
G01 X494.449453 Y-1.056464 Z-0.125000
G01 X493.352116 Y1.138210 Z-0.125000
G01 X490.060104 Y1.138210 Z-0.125000
G01 X488.962766 Y3.332885 Z-0.125000
G01 X487.865429 Y5.527559 Z-0.125000
G01 X486.768092 Y7.722234 Z-0.125000
G01 X483.476080 Y7.722234 Z-0.125000
G01 X483.476080 Y9.916908 Z-0.125000
G01 X482.378743 Y12.111583 Z-0.125000
G01 X483.476080 Y15.403595 Z-0.125000
G01 X483.476080 Y18.695607 Z-0.125000
G01 X486.768092 Y18.695607 Z-0.125000
G01 X487.865429 Y17.598269 Z-0.125000
G01 X491.157441 Y17.598269 Z-0.125000
G01 X492.254778 Y20.890281 Z-0.125000
G01 X488.962766 Y21.987618 Z-0.125000
G01 X487.865429 Y23.084956 Z-0.125000
G01 X488.962766 Y26.376967 Z-0.125000
G01 X487.865429 Y28.571642 Z-0.125000
G01 X484.573417 Y27.474305 Z-0.125000
G01 X484.573417 Y23.084956 Z-0.125000
G01 X481.281406 Y24.182293 Z-0.125000
G01 X481.281406 Y27.474305 Z-0.125000
G01 X480.184068 Y30.766317 Z-0.125000
G01 X479.086731 Y34.058328 Z-0.125000
G01 X482.378743 Y34.058328 Z-0.125000
G01 X484.573417 Y31.863654 Z-0.125000
G01 X487.865429 Y32.960991 Z-0.125000
G01 X486.768092 Y36.253003 Z-0.125000
G01 X486.768092 Y39.545015 Z-0.125000
G01 X484.573417 Y40.642352 Z-0.125000
G01 X483.476080 Y43.934364 Z-0.125000
G01 X480.184068 Y43.934364 Z-0.125000
G01 X481.281406 Y40.642352 Z-0.125000
G01 X482.378743 Y37.350340 Z-0.125000
G01 X479.086731 Y37.350340 Z-0.125000
G01 X477.989394 Y40.642352 Z-0.125000
G01 X474.697382 Y40.642352 Z-0.125000
G01 X472.502707 Y41.739689 Z-0.125000
G01 X476.892056 Y43.934364 Z-0.125000
G01 X474.697382 Y45.031701 Z-0.125000
G01 X472.502707 Y46.129038 Z-0.125000
G01 X469.210696 Y47.226376 Z-0.125000
G01 X465.918684 Y48.323713 Z-0.125000
G01 X463.724009 Y50.518387 Z-0.125000
G01 X463.724009 Y53.810399 Z-0.125000
G01 X467.016021 Y53.810399 Z-0.125000
G01 X468.113358 Y51.615725 Z-0.125000
G01 X470.308033 Y50.518387 Z-0.125000
G01 X472.502707 Y49.421050 Z-0.125000
G01 X475.794719 Y48.323713 Z-0.125000
G01 X479.086731 Y47.226376 Z-0.125000
G01 X482.378743 Y47.226376 Z-0.125000
G01 X481.281406 Y50.518387 Z-0.125000
G01 X477.989394 Y50.518387 Z-0.125000
G01 X476.892056 Y52.713062 Z-0.125000
G01 X473.600045 Y52.713062 Z-0.125000
G01 X471.405370 Y53.810399 Z-0.125000
G01 X470.308033 Y56.005074 Z-0.125000
G01 X467.016021 Y57.102411 Z-0.125000
G01 X463.724009 Y57.102411 Z-0.125000
G01 X462.626672 Y58.199748 Z-0.125000
G01 X462.626672 Y60.394423 Z-0.125000
G01 X461.529335 Y62.589097 Z-0.125000
G01 X460.431997 Y64.783772 Z-0.125000
G01 X461.529335 Y68.075784 Z-0.125000
G01 X460.431997 Y69.173121 Z-0.125000
G01 X457.139986 Y70.270458 Z-0.125000
G01 X459.334660 Y72.465133 Z-0.125000
G01 X462.626672 Y72.465133 Z-0.125000
G01 X465.918684 Y71.367796 Z-0.125000
G01 X464.821347 Y68.075784 Z-0.125000
G01 X468.113358 Y68.075784 Z-0.125000
G01 X468.113358 Y65.881109 Z-0.125000
G01 X464.821347 Y64.783772 Z-0.125000
G01 X467.016021 Y62.589097 Z-0.125000
G01 X468.113358 Y60.394423 Z-0.125000
G01 X470.308033 Y59.297086 Z-0.125000
G01 X470.308033 Y63.686435 Z-0.125000
G01 X473.600045 Y62.589097 Z-0.125000
G01 X473.600045 Y60.394423 Z-0.125000
G01 X473.600045 Y57.102411 Z-0.125000
G01 X476.892056 Y56.005074 Z-0.125000
G01 X477.989394 Y59.297086 Z-0.125000
G01 X476.892056 Y60.394423 Z-0.125000
G01 X477.989394 Y63.686435 Z-0.125000
G01 X476.892056 Y65.881109 Z-0.125000
G01 X473.600045 Y65.881109 Z-0.125000
G01 X472.502707 Y68.075784 Z-0.125000
G01 X471.405370 Y70.270458 Z-0.125000
G01 X469.210696 Y71.367796 Z-0.125000
G01 X469.210696 Y74.659807 Z-0.125000
G01 X465.918684 Y74.659807 Z-0.125000
G01 X463.724009 Y75.757145 Z-0.125000
G01 X460.431997 Y76.854482 Z-0.125000
G01 X458.237323 Y75.757145 Z-0.125000
G01 X454.945311 Y75.757145 Z-0.125000
G01 X454.945311 Y72.465133 Z-0.125000
G01 X451.653299 Y72.465133 Z-0.125000
G01 X452.750637 Y69.173121 Z-0.125000
G01 X453.847974 Y66.978446 Z-0.125000
G01 X457.139986 Y65.881109 Z-0.125000
G01 X457.139986 Y62.589097 Z-0.125000
G01 X458.237323 Y59.297086 Z-0.125000
G01 X458.237323 Y56.005074 Z-0.125000
G01 X459.334660 Y53.810399 Z-0.125000
G01 X459.334660 Y51.615725 Z-0.125000
G01 X460.431997 Y49.421050 Z-0.125000
G01 X461.529335 Y47.226376 Z-0.125000
G01 X462.626672 Y46.129038 Z-0.125000
G01 X465.918684 Y45.031701 Z-0.125000
G01 X469.210696 Y43.934364 Z-0.125000
G01 X467.016021 Y41.739689 Z-0.125000
G01 X469.210696 Y40.642352 Z-0.125000
G01 X470.308033 Y38.447677 Z-0.125000
G01 X470.308033 Y36.253003 Z-0.125000
G01 X473.600045 Y36.253003 Z-0.125000
G01 X475.794719 Y37.350340 Z-0.125000
G01 X475.794719 Y34.058328 Z-0.125000
G01 X476.892056 Y30.766317 Z-0.125000
G01 X473.600045 Y30.766317 Z-0.125000
G01 X471.405370 Y32.960991 Z-0.125000
G01 X470.308033 Y28.571642 Z-0.125000
G01 X469.210696 Y29.668979 Z-0.125000
G01 X468.113358 Y31.863654 Z-0.125000
G01 X467.016021 Y34.058328 Z-0.125000
G01 X465.918684 Y37.350340 Z-0.125000
G01 X463.724009 Y39.545015 Z-0.125000
G01 X462.626672 Y40.642352 Z-0.125000
G01 X461.529335 Y42.837027 Z-0.125000
G01 X458.237323 Y43.934364 Z-0.125000
G01 X457.139986 Y46.129038 Z-0.125000
G01 X456.042648 Y48.323713 Z-0.125000
G01 X454.945311 Y49.421050 Z-0.125000
G01 X451.653299 Y49.421050 Z-0.125000
G01 X448.361287 Y49.421050 Z-0.125000
G01 X447.263950 Y52.713062 Z-0.125000
G01 X445.069276 Y53.810399 Z-0.125000
G01 X441.777264 Y54.907737 Z-0.125000
G01 X438.485252 Y56.005074 Z-0.125000
G01 X435.193240 Y57.102411 Z-0.125000
G01 X431.901228 Y59.297086 Z-0.125000
G01 X430.803891 Y56.005074 Z-0.125000
G01 X431.901228 Y53.810399 Z-0.125000
G01 X434.095903 Y52.713062 Z-0.125000
G01 X434.095903 Y50.518387 Z-0.125000
G01 X434.095903 Y47.226376 Z-0.125000
G01 X435.193240 Y45.031701 Z-0.125000
G01 X436.290578 Y43.934364 Z-0.125000
G01 X435.193240 Y40.642352 Z-0.125000
G01 X436.290578 Y38.447677 Z-0.125000
G01 X437.387915 Y35.155666 Z-0.125000
G01 X434.095903 Y35.155666 Z-0.125000
G01 X431.901228 Y38.447677 Z-0.125000
G01 X431.901228 Y41.739689 Z-0.125000
G01 X430.803891 Y45.031701 Z-0.125000
G01 X428.609217 Y47.226376 Z-0.125000
G01 X430.803891 Y48.323713 Z-0.125000
G01 X428.609217 Y50.518387 Z-0.125000
G01 X427.511879 Y52.713062 Z-0.125000
G01 X426.414542 Y54.907737 Z-0.125000
G01 X423.122530 Y54.907737 Z-0.125000
G01 X424.219868 Y51.615725 Z-0.125000
G01 X425.317205 Y48.323713 Z-0.125000
G01 X425.317205 Y45.031701 Z-0.125000
G01 X426.414542 Y42.837027 Z-0.125000
G01 X427.511879 Y40.642352 Z-0.125000
G01 X428.609217 Y39.545015 Z-0.125000
G01 X428.609217 Y36.253003 Z-0.125000
G01 X429.706554 Y34.058328 Z-0.125000
G01 X431.901228 Y32.960991 Z-0.125000
G01 X435.193240 Y31.863654 Z-0.125000
G01 X436.290578 Y29.668979 Z-0.125000
G01 X438.485252 Y30.766317 Z-0.125000
G01 X438.485252 Y27.474305 Z-0.125000
G01 X439.582589 Y25.279630 Z-0.125000
G01 X440.679927 Y21.987618 Z-0.125000
G01 X440.679927 Y18.695607 Z-0.125000
G01 X441.777264 Y17.598269 Z-0.125000
G01 X440.679927 Y14.306258 Z-0.125000
G01 X442.874601 Y12.111583 Z-0.125000
G01 X445.069276 Y11.014246 Z-0.125000
G01 X445.069276 Y14.306258 Z-0.125000
G01 X445.069276 Y16.500932 Z-0.125000
G01 X445.069276 Y19.792944 Z-0.125000
G01 X443.971938 Y21.987618 Z-0.125000
G01 X443.971938 Y25.279630 Z-0.125000
G01 X442.874601 Y27.474305 Z-0.125000
G01 X441.777264 Y29.668979 Z-0.125000
G01 X441.777264 Y32.960991 Z-0.125000
G01 X440.679927 Y35.155666 Z-0.125000
G01 X439.582589 Y38.447677 Z-0.125000
G01 X442.874601 Y39.545015 Z-0.125000
G01 X443.971938 Y37.350340 Z-0.125000
G01 X445.069276 Y35.155666 Z-0.125000
G01 X445.069276 Y31.863654 Z-0.125000
G01 X446.166613 Y28.571642 Z-0.125000
G01 X447.263950 Y25.279630 Z-0.125000
G01 X448.361287 Y23.084956 Z-0.125000
G01 X448.361287 Y19.792944 Z-0.125000
G01 X449.458625 Y17.598269 Z-0.125000
G01 X448.361287 Y14.306258 Z-0.125000
G01 X451.653299 Y15.403595 Z-0.125000
G01 X454.945311 Y14.306258 Z-0.125000
G01 X456.042648 Y13.208920 Z-0.125000
G01 X459.334660 Y12.111583 Z-0.125000
G01 X461.529335 Y11.014246 Z-0.125000
G01 X461.529335 Y7.722234 Z-0.125000
G01 X464.821347 Y7.722234 Z-0.125000
G01 X464.821347 Y11.014246 Z-0.125000
G01 X464.821347 Y14.306258 Z-0.125000
G01 X462.626672 Y15.403595 Z-0.125000
G01 X459.334660 Y15.403595 Z-0.125000
G01 X458.237323 Y17.598269 Z-0.125000
G01 X454.945311 Y17.598269 Z-0.125000
G01 X453.847974 Y19.792944 Z-0.125000
G01 X452.750637 Y20.890281 Z-0.125000
G01 X451.653299 Y23.084956 Z-0.125000
G01 X451.653299 Y26.376967 Z-0.125000
G01 X450.555962 Y28.571642 Z-0.125000
G01 X449.458625 Y30.766317 Z-0.125000
G01 X448.361287 Y32.960991 Z-0.125000
G01 X449.458625 Y36.253003 Z-0.125000
G01 X451.653299 Y35.155666 Z-0.125000
G01 X452.750637 Y32.960991 Z-0.125000
G01 X453.847974 Y30.766317 Z-0.125000
G01 X454.945311 Y28.571642 Z-0.125000
G01 X457.139986 Y26.376967 Z-0.125000
G01 X454.945311 Y25.279630 Z-0.125000
G01 X457.139986 Y23.084956 Z-0.125000
G01 X458.237323 Y20.890281 Z-0.125000
G01 X461.529335 Y19.792944 Z-0.125000
G01 X463.724009 Y18.695607 Z-0.125000
G01 X465.918684 Y17.598269 Z-0.125000
G01 X469.210696 Y17.598269 Z-0.125000
G01 X468.113358 Y14.306258 Z-0.125000
G01 X468.113358 Y11.014246 Z-0.125000
G01 X468.113358 Y7.722234 Z-0.125000
G01 X471.405370 Y8.819571 Z-0.125000
G01 X472.502707 Y12.111583 Z-0.125000
G01 X471.405370 Y14.306258 Z-0.125000
G01 X472.502707 Y17.598269 Z-0.125000
G01 X471.405370 Y20.890281 Z-0.125000
G01 X468.113358 Y20.890281 Z-0.125000
G01 X464.821347 Y21.987618 Z-0.125000
G01 X461.529335 Y23.084956 Z-0.125000
G01 X460.431997 Y25.279630 Z-0.125000
G01 X461.529335 Y28.571642 Z-0.125000
G01 X460.431997 Y29.668979 Z-0.125000
G01 X460.431997 Y32.960991 Z-0.125000
G01 X458.237323 Y31.863654 Z-0.125000
G01 X457.139986 Y34.058328 Z-0.125000
G01 X456.042648 Y36.253003 Z-0.125000
G01 X454.945311 Y38.447677 Z-0.125000
G01 X451.653299 Y39.545015 Z-0.125000
G01 X448.361287 Y38.447677 Z-0.125000
G01 X447.263950 Y40.642352 Z-0.125000
G01 X446.166613 Y42.837027 Z-0.125000
G01 X442.874601 Y42.837027 Z-0.125000
G01 X439.582589 Y42.837027 Z-0.125000
G01 X440.679927 Y46.129038 Z-0.125000
G01 X438.485252 Y48.323713 Z-0.125000
G01 X438.485252 Y51.615725 Z-0.125000
G01 X441.777264 Y50.518387 Z-0.125000
G01 X445.069276 Y49.421050 Z-0.125000
G01 X443.971938 Y46.129038 Z-0.125000
G01 X448.361287 Y46.129038 Z-0.125000
G01 X451.653299 Y46.129038 Z-0.125000
G01 X450.555962 Y42.837027 Z-0.125000
G01 X453.847974 Y43.934364 Z-0.125000
G01 X454.945311 Y41.739689 Z-0.125000
G01 X458.237323 Y40.642352 Z-0.125000
G01 X459.334660 Y37.350340 Z-0.125000
G01 X462.626672 Y36.253003 Z-0.125000
G01 X463.724009 Y34.058328 Z-0.125000
G01 X464.821347 Y30.766317 Z-0.125000
G01 X464.821347 Y27.474305 Z-0.125000
G01 X464.821347 Y25.279630 Z-0.125000
G01 X468.113358 Y25.279630 Z-0.125000
G01 X469.210696 Y24.182293 Z-0.125000
G01 X472.502707 Y24.182293 Z-0.125000
G01 X473.600045 Y27.474305 Z-0.125000
G01 X475.794719 Y26.376967 Z-0.125000
G01 X475.794719 Y23.084956 Z-0.125000
G01 X474.697382 Y19.792944 Z-0.125000
G01 X479.086731 Y20.890281 Z-0.125000
G01 X480.184068 Y18.695607 Z-0.125000
G01 X479.086731 Y15.403595 Z-0.125000
G01 X475.794719 Y16.500932 Z-0.125000
G01 X475.794719 Y13.208920 Z-0.125000
G01 X479.086731 Y12.111583 Z-0.125000
G01 X479.086731 Y8.819571 Z-0.125000
G01 X475.794719 Y9.916908 Z-0.125000
G01 X475.794719 Y6.624897 Z-0.125000
G01 X479.086731 Y5.527559 Z-0.125000
G01 X480.184068 Y4.430222 Z-0.125000
G01 X483.476080 Y4.430222 Z-0.125000
G01 X484.573417 Y2.235548 Z-0.125000
G01 X485.670755 Y0.040873 Z-0.125000
G01 X486.768092 Y-2.153802 Z-0.125000
G01 X486.768092 Y-5.445813 Z-0.125000
G01 X488.962766 Y-6.543151 Z-0.125000
G01 X488.962766 Y-9.835162 Z-0.125000
G01 X490.060104 Y-12.029837 Z-0.125000
G01 X492.254778 Y-14.224511 Z-0.125000
G01 X492.254778 Y-17.516523 Z-0.125000
G01 X492.254778 Y-20.808535 Z-0.125000
G01 X488.962766 Y-19.711198 Z-0.125000
G01 X487.865429 Y-17.516523 Z-0.125000
G01 X487.865429 Y-15.321849 Z-0.125000
G01 X485.670755 Y-13.127174 Z-0.125000
G01 X482.378743 Y-12.029837 Z-0.125000
G01 X481.281406 Y-8.737825 Z-0.125000
G01 X484.573417 Y-8.737825 Z-0.125000
G01 X481.281406 Y-5.445813 Z-0.125000
G01 X483.476080 Y-4.348476 Z-0.125000
G01 X481.281406 Y-2.153802 Z-0.125000
G01 X481.281406 Y0.040873 Z-0.125000
G01 X479.086731 Y1.138210 Z-0.125000
G01 X475.794719 Y2.235548 Z-0.125000
G01 X473.600045 Y1.138210 Z-0.125000
G01 X472.502707 Y4.430222 Z-0.125000
G01 X470.308033 Y5.527559 Z-0.125000
G01 X469.210696 Y1.138210 Z-0.125000
G01 X465.918684 Y2.235548 Z-0.125000
G01 X465.918684 Y4.430222 Z-0.125000
G01 X462.626672 Y4.430222 Z-0.125000
G01 X459.334660 Y4.430222 Z-0.125000
G01 X458.237323 Y5.527559 Z-0.125000
G01 X458.237323 Y8.819571 Z-0.125000
G01 X456.042648 Y7.722234 Z-0.125000
G01 X454.945311 Y9.916908 Z-0.125000
G01 X451.653299 Y11.014246 Z-0.125000
G01 X449.458625 Y12.111583 Z-0.125000
G01 X448.361287 Y8.819571 Z-0.125000
G01 X450.555962 Y7.722234 Z-0.125000
G01 X451.653299 Y6.624897 Z-0.125000
G01 X453.847974 Y4.430222 Z-0.125000
G01 X454.945311 Y2.235548 Z-0.125000
G01 X458.237323 Y1.138210 Z-0.125000
G01 X461.529335 Y1.138210 Z-0.125000
G01 X461.529335 Y-1.056464 Z-0.125000
G01 X461.529335 Y-4.348476 Z-0.125000
G01 X458.237323 Y-4.348476 Z-0.125000
G01 X457.139986 Y-2.153802 Z-0.125000
G01 X454.945311 Y-1.056464 Z-0.125000
G01 X451.653299 Y0.040873 Z-0.125000
G01 X450.555962 Y2.235548 Z-0.125000
G01 X448.361287 Y1.138210 Z-0.125000
G01 X447.263950 Y3.332885 Z-0.125000
G01 X446.166613 Y5.527559 Z-0.125000
G01 X445.069276 Y7.722234 Z-0.125000
G01 X441.777264 Y8.819571 Z-0.125000
G01 X438.485252 Y8.819571 Z-0.125000
G01 X436.290578 Y9.916908 Z-0.125000
G01 X438.485252 Y12.111583 Z-0.125000
G01 X437.387915 Y15.403595 Z-0.125000
G01 X435.193240 Y13.208920 Z-0.125000
G01 X432.998566 Y11.014246 Z-0.125000
G01 X430.803891 Y12.111583 Z-0.125000
G01 X430.803891 Y14.306258 Z-0.125000
G01 X430.803891 Y17.598269 Z-0.125000
G01 X434.095903 Y16.500932 Z-0.125000
G01 X434.095903 Y19.792944 Z-0.125000
G01 X437.387915 Y18.695607 Z-0.125000
G01 X437.387915 Y21.987618 Z-0.125000
G01 X435.193240 Y23.084956 Z-0.125000
G01 X434.095903 Y25.279630 Z-0.125000
G01 X432.998566 Y27.474305 Z-0.125000
G01 X431.901228 Y29.668979 Z-0.125000
G01 X428.609217 Y30.766317 Z-0.125000
G01 X427.511879 Y27.474305 Z-0.125000
G01 X428.609217 Y26.376967 Z-0.125000
G01 X429.706554 Y24.182293 Z-0.125000
G01 X431.901228 Y21.987618 Z-0.125000
G01 X429.706554 Y20.890281 Z-0.125000
G01 X426.414542 Y21.987618 Z-0.125000
G01 X424.219868 Y24.182293 Z-0.125000
G01 X423.122530 Y26.376967 Z-0.125000
G01 X420.927856 Y27.474305 Z-0.125000
G01 X417.635844 Y27.474305 Z-0.125000
G01 X415.441169 Y28.571642 Z-0.125000
G01 X413.246495 Y29.668979 Z-0.125000
G01 X413.246495 Y32.960991 Z-0.125000
G01 X416.538507 Y32.960991 Z-0.125000
G01 X416.538507 Y36.253003 Z-0.125000
G01 X413.246495 Y36.253003 Z-0.125000
G01 X412.149158 Y38.447677 Z-0.125000
G01 X412.149158 Y40.642352 Z-0.125000
G01 X415.441169 Y39.545015 Z-0.125000
G01 X418.733181 Y39.545015 Z-0.125000
G01 X419.830518 Y36.253003 Z-0.125000
G01 X419.830518 Y34.058328 Z-0.125000
G01 X418.733181 Y30.766317 Z-0.125000
G01 X422.025193 Y30.766317 Z-0.125000
G01 X425.317205 Y29.668979 Z-0.125000
G01 X425.317205 Y32.960991 Z-0.125000
G01 X423.122530 Y34.058328 Z-0.125000
G01 X424.219868 Y37.350340 Z-0.125000
G01 X423.122530 Y39.545015 Z-0.125000
G01 X422.025193 Y41.739689 Z-0.125000
G01 X422.025193 Y45.031701 Z-0.125000
G01 X422.025193 Y48.323713 Z-0.125000
G01 X420.927856 Y51.615725 Z-0.125000
G01 X417.635844 Y52.713062 Z-0.125000
G01 X416.538507 Y57.102411 Z-0.125000
G01 X419.830518 Y56.005074 Z-0.125000
G01 X423.122530 Y58.199748 Z-0.125000
G01 X425.317205 Y59.297086 Z-0.125000
G01 X428.609217 Y58.199748 Z-0.125000
G01 X428.609217 Y61.491760 Z-0.125000
G01 X426.414542 Y62.589097 Z-0.125000
G01 X426.414542 Y64.783772 Z-0.125000
G01 X425.317205 Y66.978446 Z-0.125000
G01 X425.317205 Y70.270458 Z-0.125000
G01 X428.609217 Y69.173121 Z-0.125000
G01 X428.609217 Y72.465133 Z-0.125000
G01 X427.511879 Y74.659807 Z-0.125000
G01 X427.511879 Y77.951819 Z-0.125000
G01 X425.317205 Y80.146494 Z-0.125000
G01 X426.414542 Y83.438506 Z-0.125000
G01 X424.219868 Y85.633180 Z-0.125000
G01 X423.122530 Y88.925192 Z-0.125000
G01 X419.830518 Y90.022529 Z-0.125000
G01 X417.635844 Y92.217204 Z-0.125000
G01 X416.538507 Y94.411878 Z-0.125000
G01 X413.246495 Y94.411878 Z-0.125000
G01 X409.954483 Y94.411878 Z-0.125000
G01 X407.759809 Y92.217204 Z-0.125000
G01 X405.565134 Y91.119866 Z-0.125000
G01 X403.370459 Y93.314541 Z-0.125000
G01 X403.370459 Y96.606553 Z-0.125000
G01 X406.662471 Y95.509215 Z-0.125000
G01 X406.662471 Y98.801227 Z-0.125000
G01 X404.467797 Y100.995902 Z-0.125000
G01 X405.565134 Y104.287914 Z-0.125000
