%
(Header)
(Generated by gcodetools from Inkscape.)
(Using default header. To add your own header create file "header" in the output dir.)
M3
(Header end.)
G21 (All units in mm)

(Start cutting path id: path6)
(Change tool to Default tool)

G00 Z5.000000
G00 X0.527860 Y76.488174

G01 Z-0.125000 F100.0(Penetrate)
G01 X1.510532 Y77.962182 Z-0.125000 F400.000000
G01 X2.493204 Y80.418862 Z-0.125000
G01 X3.967211 Y82.384206 Z-0.125000
G01 X5.441219 Y84.349550 Z-0.125000
G01 X6.915227 Y86.806230 Z-0.125000
G01 X8.389235 Y88.771574 Z-0.125000
G01 X9.863243 Y90.736918 Z-0.125000
G01 X10.845915 Y93.193598 Z-0.125000
G01 X12.319923 Y96.141614 Z-0.125000
G01 X13.793931 Y98.106958 Z-0.125000
G01 X14.776603 Y100.563638 Z-0.125000
G01 X16.250611 Y103.020318 Z-0.125000
G01 X17.233283 Y104.985662 Z-0.125000
G01 X18.707291 Y107.442342 Z-0.125000
G01 X20.181299 Y110.881694 Z-0.125000
G01 X21.655307 Y112.847038 Z-0.125000
G01 X22.637979 Y115.303718 Z-0.125000
G01 X24.111987 Y118.251734 Z-0.125000
G01 X25.094659 Y120.217078 Z-0.125000
G01 X26.077331 Y122.182422 Z-0.125000
G01 X27.060003 Y124.147766 Z-0.125000
G01 X28.534011 Y126.113110 Z-0.125000
G01 X29.025347 Y128.078454 Z-0.125000
G01 X30.499355 Y130.043798 Z-0.125000
G01 X31.482027 Y132.500478 Z-0.125000
G01 X32.956035 Y135.448493 Z-0.125000
G01 X33.938707 Y137.905173 Z-0.125000
G01 X35.412715 Y140.361853 Z-0.125000
G01 X36.395387 Y143.309869 Z-0.125000
G01 X37.869395 Y146.257885 Z-0.125000
G01 X38.852067 Y148.223229 Z-0.125000
G01 X39.834739 Y150.679909 Z-0.125000
G01 X41.308747 Y153.136589 Z-0.125000
G01 X42.782755 Y155.593269 Z-0.125000
G01 X44.748099 Y159.032621 Z-0.125000
G01 X45.730771 Y161.489301 Z-0.125000
G01 X47.204779 Y163.945981 Z-0.125000
G01 X48.187451 Y166.893997 Z-0.125000
G01 X49.661459 Y169.842013 Z-0.125000
G01 X50.644131 Y172.790029 Z-0.125000
G01 X52.118139 Y175.246709 Z-0.125000
G01 X53.592147 Y177.703389 Z-0.125000
G01 X54.574819 Y180.160069 Z-0.125000
G01 X56.048827 Y182.616749 Z-0.125000
G01 X58.014171 Y185.073429 Z-0.125000
G01 X58.996843 Y188.021445 Z-0.125000
G01 X60.470851 Y191.460797 Z-0.125000
G01 X61.453523 Y193.917477 Z-0.125000
G01 X62.927531 Y196.374157 Z-0.125000
G01 X65.384211 Y199.813509 Z-0.125000
G01 X66.858219 Y202.270189 Z-0.125000
G01 X67.840891 Y205.218205 Z-0.125000
G01 X70.788907 Y207.674885 Z-0.125000
G01 X72.262915 Y211.114237 Z-0.125000
G01 X73.736923 Y214.062253 Z-0.125000
G01 X73.736923 Y217.992940 Z-0.125000
G01 X75.210931 Y220.449620 Z-0.125000
G01 X79.632955 Y220.449620 Z-0.125000
G01 X77.176275 Y224.380308 Z-0.125000
G01 X78.650283 Y226.836988 Z-0.125000
G01 X80.124291 Y230.276340 Z-0.125000
G01 X81.106963 Y233.715692 Z-0.125000
G01 X82.089635 Y236.172372 Z-0.125000
G01 X82.089635 Y239.120388 Z-0.125000
G01 X81.598299 Y242.559740 Z-0.125000
G01 X80.615627 Y246.981764 Z-0.125000
G01 X79.632955 Y249.929780 Z-0.125000
G01 X79.141619 Y252.877796 Z-0.125000
G01 X78.650283 Y256.317148 Z-0.125000
G01 X78.650283 Y259.265164 Z-0.125000
G01 X81.106963 Y260.247836 Z-0.125000
G01 X78.158947 Y264.178524 Z-0.125000
G01 X77.176275 Y268.109212 Z-0.125000
G01 X76.684939 Y271.548564 Z-0.125000
G01 X76.193603 Y274.496580 Z-0.125000
G01 X75.702267 Y277.444596 Z-0.125000
G01 X79.141619 Y278.427268 Z-0.125000
G01 X79.141619 Y281.866620 Z-0.125000
G01 X78.158947 Y285.797308 Z-0.125000
G01 X74.719595 Y281.866620 Z-0.125000
G01 X73.736923 Y285.797308 Z-0.125000
G01 X73.245587 Y289.727996 Z-0.125000
G01 X72.262915 Y293.167348 Z-0.125000
G01 X72.262915 Y296.115364 Z-0.125000
G01 X71.771579 Y299.554716 Z-0.125000
G01 X71.771579 Y302.502731 Z-0.125000
G01 X72.262915 Y304.468075 Z-0.125000
G01 X71.280243 Y307.907427 Z-0.125000
G01 X71.280243 Y310.855443 Z-0.125000
G01 X71.280243 Y313.312123 Z-0.125000
G01 X71.280243 Y316.260139 Z-0.125000
G01 X71.771579 Y319.699491 Z-0.125000
G01 X72.262915 Y322.156171 Z-0.125000
G01 X72.262915 Y325.104187 Z-0.125000
G01 X72.754251 Y328.052203 Z-0.125000
G01 X72.754251 Y331.491555 Z-0.125000
G01 X73.736923 Y333.948235 Z-0.125000
G01 X73.736923 Y336.896251 Z-0.125000
G01 X74.719595 Y339.352931 Z-0.125000
G01 X75.210931 Y342.792283 Z-0.125000
G01 X76.193603 Y346.231635 Z-0.125000
G01 X76.684939 Y349.179651 Z-0.125000
G01 X79.141619 Y350.162323 Z-0.125000
G01 X78.158947 Y353.110339 Z-0.125000
G01 X79.141619 Y356.058355 Z-0.125000
G01 X80.124291 Y358.515035 Z-0.125000
G01 X81.106963 Y361.463051 Z-0.125000
G01 X82.089635 Y363.428395 Z-0.125000
G01 X83.072307 Y365.885075 Z-0.125000
G01 X84.054979 Y367.850419 Z-0.125000
G01 X85.037651 Y370.307099 Z-0.125000
G01 X86.511659 Y372.763779 Z-0.125000
G01 X89.951010 Y367.850419 Z-0.125000
G01 X91.425018 Y370.307099 Z-0.125000
G01 X94.864370 Y370.798435 Z-0.125000
G01 X96.829714 Y372.272443 Z-0.125000
G01 X98.795058 Y374.729123 Z-0.125000
G01 X101.743074 Y377.185803 Z-0.125000
G01 X103.217082 Y379.642483 Z-0.125000
G01 X106.165098 Y380.625155 Z-0.125000
G01 X107.147770 Y383.081835 Z-0.125000
G01 X108.621778 Y386.029851 Z-0.125000
G01 X110.587122 Y388.486530 Z-0.125000
G01 X112.552466 Y391.434546 Z-0.125000
G01 X114.026474 Y393.399890 Z-0.125000
G01 X115.500482 Y395.365234 Z-0.125000
G01 X117.957162 Y396.839242 Z-0.125000
G01 X119.922506 Y398.804586 Z-0.125000
G01 X122.870522 Y399.295922 Z-0.125000
G01 X124.835866 Y401.752602 Z-0.125000
G01 X120.413842 Y402.735274 Z-0.125000
G01 X122.379186 Y405.191954 Z-0.125000
G01 X124.835866 Y406.665962 Z-0.125000
G01 X126.309874 Y408.631306 Z-0.125000
G01 X128.766554 Y410.105314 Z-0.125000
G01 X129.257890 Y412.561994 Z-0.125000
G01 X131.223234 Y414.036002 Z-0.125000
G01 X134.662586 Y414.036002 Z-0.125000
G01 X137.119266 Y415.510010 Z-0.125000
G01 X138.593274 Y417.475354 Z-0.125000
G01 X136.627930 Y420.914706 Z-0.125000
G01 X140.558618 Y420.423370 Z-0.125000
G01 X140.558618 Y422.880050 Z-0.125000
G01 X142.032626 Y425.336730 Z-0.125000
G01 X145.471978 Y425.828066 Z-0.125000
G01 X148.911330 Y425.336730 Z-0.125000
G01 X146.945986 Y428.776082 Z-0.125000
G01 X148.419994 Y430.741426 Z-0.125000
G01 X152.842018 Y433.198106 Z-0.125000
G01 X152.350682 Y430.741426 Z-0.125000
G01 X151.368010 Y426.810738 Z-0.125000
G01 X154.316026 Y427.302074 Z-0.125000
G01 X156.772706 Y429.758754 Z-0.125000
G01 X158.246714 Y431.724098 Z-0.125000
G01 X160.703394 Y432.706770 Z-0.125000
G01 X161.686066 Y435.163450 Z-0.125000
G01 X162.668738 Y437.620130 Z-0.125000
G01 X164.634082 Y439.094138 Z-0.125000
G01 X166.108090 Y441.059482 Z-0.125000
G01 X167.582098 Y444.007498 Z-0.125000
G01 X170.530114 Y444.990170 Z-0.125000
G01 X172.004122 Y442.042154 Z-0.125000
G01 X169.547442 Y440.568146 Z-0.125000
G01 X170.530114 Y437.620130 Z-0.125000
G01 X169.056106 Y436.146122 Z-0.125000
G01 X166.599426 Y435.163450 Z-0.125000
G01 X166.108090 Y432.706770 Z-0.125000
G01 X165.125418 Y430.741426 Z-0.125000
G01 X163.160074 Y428.776082 Z-0.125000
G01 X161.194730 Y427.302074 Z-0.125000
G01 X158.246714 Y426.319402 Z-0.125000
G01 X156.281370 Y423.862722 Z-0.125000
G01 X153.824690 Y422.880050 Z-0.125000
G01 X151.368010 Y421.897378 Z-0.125000
G01 X147.928658 Y421.897378 Z-0.125000
G01 X144.980642 Y421.897378 Z-0.125000
G01 X144.980642 Y418.949362 Z-0.125000
G01 X142.523962 Y416.492682 Z-0.125000
G01 X141.541290 Y413.053330 Z-0.125000
G01 X139.084610 Y411.579322 Z-0.125000
G01 X137.610602 Y410.105314 Z-0.125000
G01 X134.171250 Y410.105314 Z-0.125000
G01 X133.679914 Y407.648634 Z-0.125000
G01 X130.731898 Y406.665962 Z-0.125000
G01 X129.749226 Y404.209282 Z-0.125000
G01 X127.783882 Y402.735274 Z-0.125000
G01 X129.749226 Y399.295922 Z-0.125000
G01 X127.292546 Y397.821914 Z-0.125000
G01 X126.801210 Y395.856570 Z-0.125000
G01 X123.361858 Y395.365234 Z-0.125000
G01 X121.887850 Y393.399890 Z-0.125000
G01 X119.431170 Y391.925882 Z-0.125000
G01 X117.957162 Y388.977866 Z-0.125000
G01 X114.517810 Y387.995194 Z-0.125000
G01 X113.043802 Y385.047179 Z-0.125000
G01 X111.569794 Y382.099163 Z-0.125000
G01 X111.078458 Y379.151147 Z-0.125000
G01 X109.113114 Y376.694467 Z-0.125000
G01 X106.165098 Y375.711795 Z-0.125000
G01 X103.217082 Y373.746451 Z-0.125000
G01 X101.743074 Y370.307099 Z-0.125000
G01 X100.760402 Y367.850419 Z-0.125000
G01 X97.321050 Y367.359083 Z-0.125000
G01 X94.864370 Y365.885075 Z-0.125000
G01 X92.899026 Y363.919731 Z-0.125000
G01 X89.459674 Y363.919731 Z-0.125000
G01 X87.985666 Y361.463051 Z-0.125000
G01 X87.002995 Y359.006371 Z-0.125000
G01 X85.037651 Y357.041027 Z-0.125000
G01 X84.546315 Y354.584347 Z-0.125000
G01 X83.072307 Y351.636331 Z-0.125000
G01 X87.985666 Y350.162323 Z-0.125000
G01 X86.511659 Y347.705643 Z-0.125000
G01 X83.563643 Y346.722971 Z-0.125000
G01 X81.106963 Y344.757627 Z-0.125000
G01 X79.141619 Y342.300947 Z-0.125000
G01 X79.141619 Y338.861595 Z-0.125000
G01 X79.141619 Y335.422243 Z-0.125000
G01 X79.141619 Y332.965563 Z-0.125000
G01 X78.650283 Y330.508883 Z-0.125000
G01 X77.667611 Y328.052203 Z-0.125000
G01 X78.158947 Y324.612851 Z-0.125000
G01 X78.158947 Y321.664835 Z-0.125000
G01 X83.072307 Y325.104187 Z-0.125000
G01 X84.054979 Y328.052203 Z-0.125000
G01 X86.511659 Y329.526211 Z-0.125000
G01 X84.546315 Y332.474227 Z-0.125000
G01 X83.563643 Y335.913579 Z-0.125000
G01 X84.054979 Y337.878923 Z-0.125000
G01 X84.054979 Y340.335603 Z-0.125000
G01 X86.020323 Y342.792283 Z-0.125000
G01 X89.459674 Y343.774955 Z-0.125000
G01 X91.916354 Y345.740299 Z-0.125000
G01 X93.390362 Y348.196979 Z-0.125000
G01 X95.847042 Y350.162323 Z-0.125000
G01 X89.951010 Y352.127667 Z-0.125000
G01 X90.933682 Y354.584347 Z-0.125000
G01 X92.407690 Y357.041027 Z-0.125000
G01 X93.881698 Y359.989043 Z-0.125000
G01 X97.812386 Y360.480379 Z-0.125000
G01 X99.286394 Y362.937059 Z-0.125000
G01 X102.725746 Y363.919731 Z-0.125000
G01 X106.165098 Y365.393739 Z-0.125000
G01 X105.673762 Y369.324427 Z-0.125000
G01 X107.639106 Y371.781107 Z-0.125000
G01 X111.078458 Y372.763779 Z-0.125000
G01 X114.026474 Y374.729123 Z-0.125000
G01 X115.991818 Y377.185803 Z-0.125000
G01 X116.483154 Y380.625155 Z-0.125000
G01 X117.957162 Y383.081835 Z-0.125000
G01 X119.431170 Y385.047179 Z-0.125000
G01 X122.379186 Y387.995194 Z-0.125000
G01 X125.327202 Y389.469202 Z-0.125000
G01 X127.292546 Y390.943210 Z-0.125000
G01 X129.257890 Y391.925882 Z-0.125000
G01 X133.188578 Y391.434546 Z-0.125000
G01 X132.205906 Y394.382562 Z-0.125000
G01 X134.171250 Y395.856570 Z-0.125000
G01 X133.679914 Y398.804586 Z-0.125000
G01 X134.171250 Y401.261266 Z-0.125000
G01 X135.153922 Y403.717946 Z-0.125000
G01 X138.101938 Y406.174626 Z-0.125000
G01 X139.084610 Y403.226610 Z-0.125000
G01 X139.084610 Y400.278594 Z-0.125000
G01 X138.593274 Y398.313250 Z-0.125000
G01 X138.593274 Y395.856570 Z-0.125000
G01 X138.101938 Y391.434546 Z-0.125000
G01 X141.049954 Y391.925882 Z-0.125000
G01 X144.489306 Y393.399890 Z-0.125000
G01 X144.489306 Y397.330578 Z-0.125000
G01 X146.945986 Y398.804586 Z-0.125000
G01 X147.928658 Y400.769930 Z-0.125000
G01 X151.859346 Y402.243938 Z-0.125000
G01 X155.298698 Y403.226610 Z-0.125000
G01 X154.807362 Y405.683290 Z-0.125000
G01 X153.824690 Y409.122642 Z-0.125000
G01 X156.281370 Y411.579322 Z-0.125000
G01 X158.246714 Y407.648634 Z-0.125000
G01 X160.212058 Y404.209282 Z-0.125000
G01 X161.686066 Y407.648634 Z-0.125000
G01 X160.212058 Y411.087986 Z-0.125000
G01 X162.668738 Y412.070658 Z-0.125000
G01 X166.108090 Y412.070658 Z-0.125000
G01 X166.599426 Y414.036002 Z-0.125000
G01 X168.564770 Y415.018674 Z-0.125000
G01 X169.056106 Y417.475354 Z-0.125000
G01 X171.512786 Y419.440698 Z-0.125000
G01 X172.495457 Y416.492682 Z-0.125000
G01 X174.952137 Y418.949362 Z-0.125000
G01 X174.460801 Y421.406042 Z-0.125000
G01 X176.426145 Y423.371386 Z-0.125000
G01 X178.391489 Y425.828066 Z-0.125000
G01 X179.865497 Y427.793410 Z-0.125000
G01 X180.848169 Y430.741426 Z-0.125000
G01 X181.339505 Y433.198106 Z-0.125000
G01 X180.848169 Y436.146122 Z-0.125000
G01 X180.848169 Y438.602802 Z-0.125000
G01 X177.408817 Y436.637458 Z-0.125000
G01 X177.408817 Y434.180778 Z-0.125000
G01 X177.408817 Y430.741426 Z-0.125000
G01 X174.952137 Y429.267418 Z-0.125000
G01 X173.969465 Y426.810738 Z-0.125000
G01 X172.004122 Y424.845394 Z-0.125000
G01 X170.038778 Y422.880050 Z-0.125000
G01 X167.582098 Y421.406042 Z-0.125000
G01 X164.634082 Y419.932034 Z-0.125000
G01 X163.651410 Y418.458026 Z-0.125000
G01 X161.686066 Y416.984018 Z-0.125000
G01 X160.212058 Y416.001346 Z-0.125000
G01 X157.755378 Y415.018674 Z-0.125000
G01 X154.316026 Y414.527338 Z-0.125000
G01 X152.350682 Y412.561994 Z-0.125000
G01 X149.402666 Y412.070658 Z-0.125000
G01 X148.911330 Y409.613978 Z-0.125000
G01 X150.385338 Y406.665962 Z-0.125000
G01 X147.437322 Y406.174626 Z-0.125000
G01 X145.963314 Y404.209282 Z-0.125000
G01 X143.015298 Y402.243938 Z-0.125000
G01 X141.541290 Y406.174626 Z-0.125000
G01 X143.015298 Y408.139970 Z-0.125000
G01 X144.980642 Y410.105314 Z-0.125000
G01 X144.980642 Y413.053330 Z-0.125000
G01 X146.454650 Y415.510010 Z-0.125000
G01 X149.402666 Y416.492682 Z-0.125000
G01 X149.894002 Y418.458026 Z-0.125000
G01 X153.824690 Y417.966690 Z-0.125000
G01 X156.281370 Y419.440698 Z-0.125000
G01 X159.720722 Y420.423370 Z-0.125000
G01 X160.703394 Y422.880050 Z-0.125000
G01 X163.651410 Y423.862722 Z-0.125000
G01 X166.108090 Y425.336730 Z-0.125000
G01 X168.073434 Y427.302074 Z-0.125000
G01 X170.038778 Y429.267418 Z-0.125000
G01 X170.530114 Y431.724098 Z-0.125000
G01 X172.986793 Y432.706770 Z-0.125000
G01 X173.969465 Y434.672114 Z-0.125000
G01 X173.969465 Y438.111466 Z-0.125000
G01 X175.934809 Y440.076810 Z-0.125000
G01 X176.426145 Y441.550818 Z-0.125000
G01 X179.374161 Y442.042154 Z-0.125000
G01 X182.813513 Y443.024826 Z-0.125000
G01 X182.813513 Y445.481506 Z-0.125000
G01 X182.813513 Y447.938186 Z-0.125000
G01 X184.778857 Y449.412194 Z-0.125000
G01 X184.778857 Y452.360210 Z-0.125000
G01 X184.287521 Y454.325554 Z-0.125000
G01 X184.778857 Y456.782234 Z-0.125000
G01 X186.744201 Y458.256242 Z-0.125000
G01 X187.235537 Y460.221586 Z-0.125000
G01 X188.218209 Y462.186930 Z-0.125000
G01 X190.674889 Y462.678266 Z-0.125000
G01 X190.674889 Y465.134946 Z-0.125000
G01 X191.657561 Y467.100290 Z-0.125000
G01 X193.131569 Y469.065634 Z-0.125000
G01 X194.605577 Y471.030978 Z-0.125000
G01 X195.588249 Y472.996321 Z-0.125000
G01 X196.570921 Y474.961665 Z-0.125000
G01 X196.570921 Y476.927009 Z-0.125000
G01 X197.553593 Y478.892353 Z-0.125000
G01 X198.536265 Y480.857697 Z-0.125000
G01 X198.536265 Y483.314377 Z-0.125000
G01 X199.518937 Y485.771057 Z-0.125000
G01 X202.466953 Y486.753729 Z-0.125000
G01 X204.923633 Y488.227737 Z-0.125000
G01 X207.380313 Y490.193081 Z-0.125000
G01 X209.345657 Y491.175753 Z-0.125000
G01 X210.328329 Y493.141097 Z-0.125000
G01 X211.311001 Y495.597777 Z-0.125000
G01 X212.293673 Y498.545793 Z-0.125000
G01 X211.802337 Y501.002473 Z-0.125000
G01 X214.750353 Y502.476481 Z-0.125000
G01 X215.733025 Y504.933161 Z-0.125000
G01 X218.681041 Y505.424497 Z-0.125000
G01 X221.629057 Y505.915833 Z-0.125000
G01 X221.137721 Y502.476481 Z-0.125000
G01 X218.681041 Y501.002473 Z-0.125000
G01 X219.172377 Y499.037129 Z-0.125000
G01 X216.224361 Y498.545793 Z-0.125000
G01 X217.207033 Y495.597777 Z-0.125000
G01 X214.750353 Y494.615105 Z-0.125000
G01 X214.750353 Y492.158425 Z-0.125000
G01 X213.767681 Y489.701745 Z-0.125000
G01 X212.293673 Y487.245065 Z-0.125000
G01 X213.276345 Y484.297049 Z-0.125000
G01 X214.259017 Y481.840369 Z-0.125000
G01 X211.802337 Y480.366361 Z-0.125000
G01 X212.293673 Y478.401017 Z-0.125000
G01 X210.328329 Y477.418345 Z-0.125000
G01 X210.328329 Y474.961665 Z-0.125000
G01 X209.345657 Y472.504985 Z-0.125000
G01 X208.362985 Y470.539642 Z-0.125000
G01 X207.380313 Y468.574298 Z-0.125000
G01 X204.923633 Y468.082962 Z-0.125000
G01 X204.923633 Y465.626282 Z-0.125000
G01 X205.414969 Y462.678266 Z-0.125000
G01 X206.397641 Y460.221586 Z-0.125000
G01 X203.940961 Y459.730250 Z-0.125000
G01 X203.449625 Y457.764906 Z-0.125000
G01 X201.484281 Y456.782234 Z-0.125000
G01 X200.010273 Y454.325554 Z-0.125000
G01 X197.062257 Y454.325554 Z-0.125000
G01 X197.553593 Y452.360210 Z-0.125000
G01 X195.588249 Y451.377538 Z-0.125000
G01 X192.640233 Y449.412194 Z-0.125000
G01 X192.640233 Y451.377538 Z-0.125000
G01 X191.657561 Y453.834218 Z-0.125000
G01 X193.622905 Y454.816890 Z-0.125000
G01 X193.131569 Y456.782234 Z-0.125000
G01 X194.605577 Y458.256242 Z-0.125000
G01 X198.044929 Y457.273570 Z-0.125000
G01 X197.553593 Y459.730250 Z-0.125000
G01 X199.518937 Y460.712922 Z-0.125000
G01 X200.010273 Y462.186930 Z-0.125000
G01 X202.466953 Y463.169602 Z-0.125000
G01 X201.484281 Y465.626282 Z-0.125000
G01 X201.975617 Y468.082962 Z-0.125000
G01 X202.466953 Y471.030978 Z-0.125000
G01 X204.432297 Y472.013649 Z-0.125000
G01 X204.923633 Y473.978993 Z-0.125000
G01 X206.397641 Y475.453001 Z-0.125000
G01 X206.888977 Y477.418345 Z-0.125000
G01 X206.397641 Y480.366361 Z-0.125000
G01 X207.871649 Y481.840369 Z-0.125000
G01 X210.328329 Y483.805713 Z-0.125000
G01 X208.854321 Y487.245065 Z-0.125000
G01 X206.888977 Y484.788385 Z-0.125000
G01 X203.449625 Y484.297049 Z-0.125000
G01 X202.466953 Y481.840369 Z-0.125000
G01 X202.466953 Y479.875025 Z-0.125000
G01 X201.975617 Y477.909681 Z-0.125000
G01 X200.992945 Y476.435673 Z-0.125000
G01 X200.501609 Y474.470329 Z-0.125000
G01 X199.518937 Y471.522313 Z-0.125000
G01 X198.536265 Y469.556970 Z-0.125000
G01 X197.062257 Y468.082962 Z-0.125000
G01 X198.536265 Y465.626282 Z-0.125000
G01 X196.570921 Y463.660938 Z-0.125000
G01 X195.096913 Y466.117618 Z-0.125000
G01 X194.114241 Y463.169602 Z-0.125000
G01 X194.114241 Y460.712922 Z-0.125000
G01 X191.166225 Y459.730250 Z-0.125000
G01 X190.183553 Y457.273570 Z-0.125000
G01 X188.709545 Y454.816890 Z-0.125000
G01 X188.709545 Y452.360210 Z-0.125000
G01 X189.200881 Y449.412194 Z-0.125000
G01 X188.709545 Y447.938186 Z-0.125000
G01 X187.235537 Y445.972842 Z-0.125000
G01 X187.235537 Y442.533490 Z-0.125000
G01 X186.252865 Y439.585474 Z-0.125000
G01 X183.796185 Y439.094138 Z-0.125000
G01 X184.778857 Y436.146122 Z-0.125000
G01 X184.778857 Y433.198106 Z-0.125000
G01 X185.270193 Y430.741426 Z-0.125000
G01 X184.287521 Y428.284746 Z-0.125000
G01 X183.796185 Y425.336730 Z-0.125000
G01 X182.813513 Y423.371386 Z-0.125000
G01 X180.356833 Y422.388714 Z-0.125000
G01 X179.374161 Y419.932034 Z-0.125000
G01 X178.882825 Y417.966690 Z-0.125000
G01 X176.426145 Y416.001346 Z-0.125000
G01 X175.934809 Y413.053330 Z-0.125000
G01 X172.986793 Y413.053330 Z-0.125000
G01 X171.512786 Y411.087986 Z-0.125000
G01 X172.495457 Y408.139970 Z-0.125000
G01 X174.460801 Y404.700618 Z-0.125000
G01 X176.917481 Y406.174626 Z-0.125000
G01 X175.934809 Y409.122642 Z-0.125000
G01 X178.882825 Y409.122642 Z-0.125000
G01 X179.374161 Y410.596650 Z-0.125000
G01 X179.374161 Y413.053330 Z-0.125000
G01 X180.356833 Y414.527338 Z-0.125000
G01 X183.304849 Y414.527338 Z-0.125000
G01 X183.304849 Y416.984018 Z-0.125000
G01 X183.796185 Y418.949362 Z-0.125000
G01 X185.761529 Y419.932034 Z-0.125000
G01 X187.235537 Y422.388714 Z-0.125000
G01 X187.235537 Y425.336730 Z-0.125000
G01 X188.218209 Y427.302074 Z-0.125000
G01 X189.692217 Y429.267418 Z-0.125000
G01 X188.218209 Y432.706770 Z-0.125000
G01 X188.709545 Y435.163450 Z-0.125000
G01 X189.692217 Y437.128794 Z-0.125000
G01 X190.183553 Y439.585474 Z-0.125000
G01 X190.183553 Y443.024826 Z-0.125000
G01 X191.657561 Y444.990170 Z-0.125000
G01 X193.622905 Y446.464178 Z-0.125000
G01 X196.079585 Y447.446850 Z-0.125000
G01 X197.553593 Y448.920858 Z-0.125000
G01 X200.501609 Y447.938186 Z-0.125000
G01 X200.992945 Y449.903530 Z-0.125000
G01 X202.466953 Y451.377538 Z-0.125000
G01 X203.449625 Y453.342882 Z-0.125000
G01 X204.923633 Y454.325554 Z-0.125000
G01 X207.380313 Y454.816890 Z-0.125000
G01 X206.888977 Y456.782234 Z-0.125000
G01 X209.345657 Y457.764906 Z-0.125000
G01 X209.836993 Y459.730250 Z-0.125000
G01 X211.802337 Y461.695594 Z-0.125000
G01 X208.362985 Y462.678266 Z-0.125000
G01 X208.362985 Y465.134946 Z-0.125000
G01 X210.819665 Y465.134946 Z-0.125000
G01 X210.819665 Y467.591626 Z-0.125000
G01 X212.293673 Y469.556970 Z-0.125000
G01 X212.785009 Y472.013649 Z-0.125000
G01 X213.767681 Y474.470329 Z-0.125000
G01 X215.733025 Y475.453001 Z-0.125000
G01 X216.224361 Y477.909681 Z-0.125000
G01 X218.189705 Y479.383689 Z-0.125000
G01 X219.663713 Y480.366361 Z-0.125000
G01 X223.103065 Y480.366361 Z-0.125000
G01 X224.577073 Y482.331705 Z-0.125000
G01 X226.051081 Y484.297049 Z-0.125000
G01 X227.525089 Y485.771057 Z-0.125000
G01 X227.525089 Y488.719073 Z-0.125000
G01 X229.981769 Y489.210409 Z-0.125000
G01 X231.947113 Y490.684417 Z-0.125000
G01 X231.947113 Y493.632433 Z-0.125000
G01 X234.895129 Y494.123769 Z-0.125000
G01 X234.895129 Y496.580449 Z-0.125000
G01 X236.369137 Y498.545793 Z-0.125000
G01 X237.843145 Y501.002473 Z-0.125000
G01 X237.843145 Y503.459153 Z-0.125000
G01 X239.808489 Y505.424497 Z-0.125000
G01 X241.773833 Y507.389841 Z-0.125000
G01 X243.247841 Y510.337857 Z-0.125000
G01 X243.739177 Y513.285873 Z-0.125000
G01 X246.687193 Y514.759881 Z-0.125000
G01 X247.669865 Y517.216561 Z-0.125000
G01 X249.635209 Y520.164577 Z-0.125000
G01 X248.652537 Y522.621257 Z-0.125000
G01 X244.721849 Y521.147249 Z-0.125000
G01 X242.756505 Y519.181905 Z-0.125000
G01 X241.282497 Y516.725225 Z-0.125000
G01 X239.808489 Y513.777209 Z-0.125000
G01 X238.334481 Y511.811865 Z-0.125000
G01 X237.351809 Y509.355185 Z-0.125000
G01 X235.386465 Y506.898505 Z-0.125000
G01 X232.929785 Y505.424497 Z-0.125000
G01 X233.421121 Y502.476481 Z-0.125000
G01 X231.947113 Y500.511137 Z-0.125000
G01 X230.964441 Y497.563121 Z-0.125000
G01 X227.525089 Y498.054457 Z-0.125000
G01 X228.016425 Y495.106441 Z-0.125000
G01 X227.525089 Y492.649761 Z-0.125000
G01 X224.085737 Y492.158425 Z-0.125000
G01 X223.594401 Y489.701745 Z-0.125000
G01 X222.611729 Y487.736401 Z-0.125000
G01 X221.137721 Y486.262393 Z-0.125000
G01 X220.155049 Y484.297049 Z-0.125000
G01 X217.207033 Y483.805713 Z-0.125000
G01 X215.733025 Y486.753729 Z-0.125000
G01 X217.698369 Y488.719073 Z-0.125000
G01 X219.172377 Y490.684417 Z-0.125000
G01 X220.155049 Y492.649761 Z-0.125000
G01 X220.646385 Y495.597777 Z-0.125000
G01 X224.085737 Y495.597777 Z-0.125000
G01 X223.594401 Y498.545793 Z-0.125000
G01 X225.068409 Y501.493809 Z-0.125000
G01 X225.559745 Y504.933161 Z-0.125000
G01 X228.507761 Y501.493809 Z-0.125000
G01 X228.999097 Y504.933161 Z-0.125000
G01 X228.507761 Y507.389841 Z-0.125000
G01 X230.964441 Y508.863849 Z-0.125000
G01 X232.929785 Y510.829193 Z-0.125000
G01 X233.912457 Y513.285873 Z-0.125000
G01 X233.912457 Y515.742553 Z-0.125000
G01 X235.877801 Y517.216561 Z-0.125000
G01 X236.860473 Y519.181905 Z-0.125000
G01 X237.843145 Y521.638585 Z-0.125000
G01 X240.299825 Y524.095265 Z-0.125000
G01 X236.369137 Y524.586601 Z-0.125000
G01 X233.421121 Y523.112593 Z-0.125000
G01 X232.438449 Y520.164577 Z-0.125000
G01 X228.999097 Y518.690569 Z-0.125000
G01 X228.999097 Y516.233889 Z-0.125000
G01 X228.999097 Y513.777209 Z-0.125000
G01 X227.525089 Y511.811865 Z-0.125000
G01 X225.068409 Y510.829193 Z-0.125000
G01 X224.085737 Y508.372513 Z-0.125000
G01 X220.155049 Y509.355185 Z-0.125000
G01 X221.137721 Y512.303201 Z-0.125000
G01 X223.103065 Y514.759881 Z-0.125000
G01 X224.577073 Y516.233889 Z-0.125000
G01 X225.068409 Y519.181905 Z-0.125000
G01 X228.016425 Y521.638585 Z-0.125000
G01 X229.490433 Y524.095265 Z-0.125000
G01 X231.947113 Y526.551945 Z-0.125000
G01 X233.912457 Y528.517289 Z-0.125000
G01 X237.843145 Y528.025953 Z-0.125000
G01 X236.369137 Y530.482633 Z-0.125000
G01 X236.369137 Y532.939313 Z-0.125000
G01 X234.895129 Y536.378665 Z-0.125000
G01 X234.403793 Y538.835345 Z-0.125000
G01 X233.912457 Y542.274697 Z-0.125000
G01 X236.369137 Y545.714049 Z-0.125000
G01 X237.351809 Y549.153401 Z-0.125000
G01 X232.929785 Y550.136073 Z-0.125000
G01 X230.964441 Y548.662065 Z-0.125000
G01 X231.947113 Y545.714049 Z-0.125000
G01 X228.999097 Y544.731377 Z-0.125000
G01 X229.981769 Y541.783361 Z-0.125000
G01 X228.999097 Y539.818017 Z-0.125000
G01 X226.051081 Y539.326681 Z-0.125000
G01 X223.103065 Y538.344009 Z-0.125000
G01 X221.137721 Y535.887329 Z-0.125000
G01 X218.189705 Y533.921985 Z-0.125000
G01 X216.224361 Y529.991297 Z-0.125000
G01 X216.224361 Y532.447977 Z-0.125000
G01 X216.224361 Y537.361337 Z-0.125000
G01 X217.207033 Y539.818017 Z-0.125000
G01 X218.681041 Y541.783361 Z-0.125000
G01 X221.629057 Y542.766033 Z-0.125000
G01 X225.068409 Y543.748705 Z-0.125000
G01 X224.085737 Y546.696721 Z-0.125000
G01 X226.051081 Y548.662065 Z-0.125000
G01 X225.559745 Y550.627409 Z-0.125000
G01 X227.033753 Y552.592753 Z-0.125000
G01 X229.981769 Y553.575425 Z-0.125000
G01 X229.981769 Y556.032105 Z-0.125000
G01 X228.999097 Y559.471456 Z-0.125000
G01 X229.981769 Y561.928136 Z-0.125000
G01 X228.507761 Y564.384816 Z-0.125000
G01 X229.490433 Y566.841496 Z-0.125000
G01 X233.421121 Y567.332832 Z-0.125000
G01 X235.877801 Y568.806840 Z-0.125000
G01 X239.317153 Y570.280848 Z-0.125000
G01 X236.860473 Y574.211536 Z-0.125000
G01 X233.912457 Y572.246192 Z-0.125000
G01 X230.964441 Y571.263520 Z-0.125000
G01 X228.507761 Y569.789512 Z-0.125000
G01 X225.068409 Y568.806840 Z-0.125000
G01 X223.594401 Y566.841496 Z-0.125000
G01 X223.594401 Y564.384816 Z-0.125000
G01 X223.594401 Y561.928136 Z-0.125000
G01 X224.085737 Y559.471456 Z-0.125000
G01 X225.068409 Y556.523440 Z-0.125000
G01 X221.629057 Y555.540769 Z-0.125000
G01 X219.663713 Y554.558097 Z-0.125000
G01 X220.646385 Y551.118745 Z-0.125000
G01 X217.698369 Y550.627409 Z-0.125000
G01 X220.155049 Y546.696721 Z-0.125000
G01 X216.715697 Y546.205385 Z-0.125000
G01 X214.259017 Y544.240041 Z-0.125000
G01 X212.785009 Y541.783361 Z-0.125000
G01 X210.819665 Y539.818017 Z-0.125000
G01 X212.293673 Y537.361337 Z-0.125000
G01 X210.819665 Y535.395993 Z-0.125000
G01 X211.311001 Y532.939313 Z-0.125000
G01 X208.362985 Y532.447977 Z-0.125000
G01 X204.923633 Y532.447977 Z-0.125000
G01 X204.432297 Y529.499961 Z-0.125000
G01 X202.466953 Y528.025953 Z-0.125000
G01 X200.992945 Y526.060609 Z-0.125000
G01 X200.010273 Y524.095265 Z-0.125000
G01 X197.553593 Y522.621257 Z-0.125000
G01 X196.570921 Y520.164577 Z-0.125000
G01 X195.096913 Y517.707897 Z-0.125000
G01 X192.640233 Y515.742553 Z-0.125000
G01 X191.166225 Y513.777209 Z-0.125000
G01 X191.166225 Y511.320529 Z-0.125000
G01 X190.674889 Y509.355185 Z-0.125000
G01 X187.726873 Y511.811865 Z-0.125000
G01 X184.778857 Y511.320529 Z-0.125000
G01 X185.270193 Y508.372513 Z-0.125000
G01 X188.709545 Y507.881177 Z-0.125000
G01 X187.726873 Y505.424497 Z-0.125000
G01 X184.778857 Y505.424497 Z-0.125000
G01 X185.761529 Y502.476481 Z-0.125000
G01 X186.252865 Y499.528465 Z-0.125000
G01 X183.304849 Y498.545793 Z-0.125000
G01 X183.304849 Y496.089113 Z-0.125000
G01 X182.322177 Y492.649761 Z-0.125000
G01 X184.778857 Y493.141097 Z-0.125000
G01 X187.235537 Y494.615105 Z-0.125000
G01 X187.235537 Y496.580449 Z-0.125000
G01 X190.674889 Y496.580449 Z-0.125000
G01 X190.183553 Y499.037129 Z-0.125000
G01 X189.200881 Y501.985145 Z-0.125000
G01 X191.657561 Y502.967817 Z-0.125000
G01 X192.148897 Y505.424497 Z-0.125000
G01 X195.588249 Y503.950489 Z-0.125000
G01 X195.096913 Y506.898505 Z-0.125000
G01 X195.588249 Y509.846521 Z-0.125000
G01 X195.588249 Y512.303201 Z-0.125000
G01 X197.062257 Y513.777209 Z-0.125000
G01 X199.027601 Y516.233889 Z-0.125000
G01 X200.992945 Y519.181905 Z-0.125000
G01 X202.466953 Y520.655913 Z-0.125000
G01 X204.923633 Y522.621257 Z-0.125000
G01 X206.397641 Y524.586601 Z-0.125000
G01 X207.871649 Y526.060609 Z-0.125000
G01 X208.854321 Y529.008625 Z-0.125000
G01 X212.293673 Y529.499961 Z-0.125000
G01 X213.276345 Y527.043281 Z-0.125000
G01 X211.802337 Y525.077937 Z-0.125000
G01 X211.802337 Y522.621257 Z-0.125000
G01 X209.836993 Y520.655913 Z-0.125000
G01 X206.888977 Y519.181905 Z-0.125000
G01 X206.397641 Y517.216561 Z-0.125000
G01 X203.940961 Y515.742553 Z-0.125000
G01 X202.466953 Y514.759881 Z-0.125000
G01 X200.992945 Y512.303201 Z-0.125000
G01 X202.466953 Y509.355185 Z-0.125000
G01 X200.010273 Y508.372513 Z-0.125000
G01 X199.027601 Y505.915833 Z-0.125000
G01 X199.518937 Y503.459153 Z-0.125000
G01 X199.027601 Y501.002473 Z-0.125000
G01 X200.010273 Y498.054457 Z-0.125000
G01 X197.553593 Y497.071785 Z-0.125000
G01 X195.588249 Y500.511137 Z-0.125000
G01 X193.622905 Y499.037129 Z-0.125000
G01 X194.605577 Y496.089113 Z-0.125000
G01 X193.622905 Y493.632433 Z-0.125000
G01 X191.166225 Y492.649761 Z-0.125000
G01 X188.218209 Y491.175753 Z-0.125000
G01 X188.709545 Y488.719073 Z-0.125000
G01 X186.252865 Y486.753729 Z-0.125000
G01 X185.270193 Y489.701745 Z-0.125000
G01 X182.322177 Y489.701745 Z-0.125000
G01 X182.813513 Y486.753729 Z-0.125000
G01 X181.339505 Y484.788385 Z-0.125000
G01 X181.339505 Y482.331705 Z-0.125000
G01 X185.270193 Y483.805713 Z-0.125000
G01 X184.778857 Y481.349033 Z-0.125000
G01 X185.270193 Y478.892353 Z-0.125000
G01 X184.778857 Y475.944337 Z-0.125000
G01 X183.796185 Y473.487657 Z-0.125000
G01 X182.813513 Y472.013649 Z-0.125000
G01 X181.830841 Y469.556970 Z-0.125000
G01 X179.374161 Y468.574298 Z-0.125000
G01 X179.374161 Y464.643610 Z-0.125000
G01 X181.339505 Y465.626282 Z-0.125000
G01 X183.796185 Y466.117618 Z-0.125000
G01 X184.778857 Y468.082962 Z-0.125000
G01 X186.252865 Y470.048306 Z-0.125000
G01 X187.235537 Y472.996321 Z-0.125000
G01 X187.726873 Y475.453001 Z-0.125000
G01 X189.200881 Y477.418345 Z-0.125000
G01 X188.709545 Y479.875025 Z-0.125000
G01 X188.709545 Y482.331705 Z-0.125000
G01 X189.200881 Y483.805713 Z-0.125000
G01 X190.183553 Y485.279721 Z-0.125000
G01 X193.131569 Y486.262393 Z-0.125000
G01 X192.148897 Y489.210409 Z-0.125000
G01 X194.605577 Y490.684417 Z-0.125000
G01 X197.553593 Y492.649761 Z-0.125000
G01 X200.010273 Y493.632433 Z-0.125000
G01 X202.466953 Y494.615105 Z-0.125000
G01 X203.449625 Y497.563121 Z-0.125000
G01 X203.449625 Y500.019801 Z-0.125000
G01 X204.923633 Y501.002473 Z-0.125000
G01 X203.449625 Y504.441825 Z-0.125000
G01 X205.906305 Y505.915833 Z-0.125000
G01 X206.397641 Y508.863849 Z-0.125000
G01 X205.906305 Y511.320529 Z-0.125000
G01 X208.362985 Y513.777209 Z-0.125000
G01 X209.836993 Y510.337857 Z-0.125000
G01 X212.785009 Y511.811865 Z-0.125000
G01 X211.802337 Y514.759881 Z-0.125000
G01 X211.802337 Y517.216561 Z-0.125000
G01 X214.259017 Y518.690569 Z-0.125000
G01 X216.715697 Y520.164577 Z-0.125000
G01 X216.715697 Y522.621257 Z-0.125000
G01 X217.698369 Y526.060609 Z-0.125000
G01 X220.646385 Y526.551945 Z-0.125000
G01 X221.137721 Y529.008625 Z-0.125000
G01 X222.611729 Y530.482633 Z-0.125000
G01 X223.103065 Y532.939313 Z-0.125000
G01 X226.051081 Y534.413321 Z-0.125000
G01 X228.507761 Y535.395993 Z-0.125000
G01 X231.455777 Y536.378665 Z-0.125000
G01 X232.438449 Y532.939313 Z-0.125000
G01 X229.981769 Y530.973969 Z-0.125000
G01 X227.525089 Y529.991297 Z-0.125000
G01 X227.525089 Y527.534617 Z-0.125000
G01 X225.559745 Y525.077937 Z-0.125000
G01 X224.085737 Y522.621257 Z-0.125000
G01 X220.646385 Y522.621257 Z-0.125000
G01 X221.137721 Y519.673241 Z-0.125000
G01 X219.172377 Y516.725225 Z-0.125000
G01 X216.715697 Y515.251217 Z-0.125000
G01 X216.715697 Y512.794537 Z-0.125000
G01 X217.207033 Y508.863849 Z-0.125000
G01 X213.767681 Y508.372513 Z-0.125000
G01 X211.311001 Y506.407169 Z-0.125000
G01 X210.328329 Y504.441825 Z-0.125000
G01 X207.380313 Y502.967817 Z-0.125000
G01 X208.854321 Y499.037129 Z-0.125000
G01 X207.871649 Y496.089113 Z-0.125000
G01 X205.906305 Y494.123769 Z-0.125000
G01 X203.940961 Y491.175753 Z-0.125000
G01 X200.992945 Y490.193081 Z-0.125000
G01 X198.536265 Y488.719073 Z-0.125000
G01 X196.079585 Y487.245065 Z-0.125000
G01 X194.605577 Y483.805713 Z-0.125000
G01 X194.114241 Y481.349033 Z-0.125000
G01 X193.131569 Y478.892353 Z-0.125000
G01 X193.131569 Y475.944337 Z-0.125000
G01 X191.657561 Y473.978993 Z-0.125000
G01 X190.674889 Y472.013649 Z-0.125000
G01 X189.200881 Y470.048306 Z-0.125000
G01 X187.726873 Y467.591626 Z-0.125000
G01 X187.235537 Y465.134946 Z-0.125000
G01 X185.270193 Y463.169602 Z-0.125000
G01 X183.304849 Y461.695594 Z-0.125000
G01 X181.830841 Y460.221586 Z-0.125000
G01 X180.848169 Y457.764906 Z-0.125000
G01 X179.865497 Y455.308226 Z-0.125000
G01 X181.339505 Y451.868874 Z-0.125000
G01 X178.391489 Y450.886202 Z-0.125000
G01 X178.391489 Y447.938186 Z-0.125000
G01 X178.391489 Y444.990170 Z-0.125000
G01 X173.969465 Y445.481506 Z-0.125000
G01 X173.478129 Y448.429522 Z-0.125000
G01 X173.969465 Y450.886202 Z-0.125000
G01 X173.478129 Y453.834218 Z-0.125000
G01 X176.426145 Y454.816890 Z-0.125000
G01 X173.969465 Y458.747578 Z-0.125000
G01 X176.426145 Y459.730250 Z-0.125000
G01 X177.900153 Y462.678266 Z-0.125000
G01 X173.478129 Y463.660938 Z-0.125000
G01 X174.460801 Y467.100290 Z-0.125000
G01 X175.443473 Y469.065634 Z-0.125000
G01 X177.408817 Y471.522313 Z-0.125000
G01 X179.865497 Y472.504985 Z-0.125000
G01 X178.882825 Y475.453001 Z-0.125000
G01 X180.356833 Y476.435673 Z-0.125000
G01 X181.339505 Y477.909681 Z-0.125000
G01 X181.339505 Y480.366361 Z-0.125000
G01 X177.900153 Y479.875025 Z-0.125000
G01 X175.934809 Y478.892353 Z-0.125000
G01 X177.900153 Y482.331705 Z-0.125000
G01 X178.391489 Y484.788385 Z-0.125000
G01 X178.882825 Y487.736401 Z-0.125000
G01 X179.374161 Y489.701745 Z-0.125000
G01 X178.882825 Y492.649761 Z-0.125000
G01 X178.882825 Y495.106441 Z-0.125000
G01 X180.356833 Y496.580449 Z-0.125000
G01 X180.356833 Y499.528465 Z-0.125000
G01 X182.322177 Y501.493809 Z-0.125000
G01 X182.322177 Y503.459153 Z-0.125000
G01 X181.339505 Y506.407169 Z-0.125000
G01 X181.339505 Y508.863849 Z-0.125000
G01 X181.830841 Y511.320529 Z-0.125000
G01 X182.813513 Y514.268545 Z-0.125000
G01 X185.270193 Y514.759881 Z-0.125000
G01 X187.726873 Y515.251217 Z-0.125000
G01 X188.709545 Y517.707897 Z-0.125000
G01 X191.166225 Y518.690569 Z-0.125000
G01 X192.148897 Y521.147249 Z-0.125000
G01 X193.131569 Y523.112593 Z-0.125000
G01 X194.114241 Y525.569273 Z-0.125000
G01 X196.570921 Y527.043281 Z-0.125000
G01 X198.044929 Y529.499961 Z-0.125000
G01 X198.044929 Y532.447977 Z-0.125000
G01 X194.605577 Y532.939313 Z-0.125000
G01 X193.622905 Y530.482633 Z-0.125000
G01 X192.148897 Y529.008625 Z-0.125000
G01 X190.674889 Y526.551945 Z-0.125000
G01 X189.200881 Y524.095265 Z-0.125000
G01 X188.218209 Y521.638585 Z-0.125000
G01 X185.270193 Y521.147249 Z-0.125000
G01 X185.270193 Y518.690569 Z-0.125000
G01 X182.813513 Y518.199233 Z-0.125000
G01 X179.865497 Y517.707897 Z-0.125000
G01 X178.882825 Y514.759881 Z-0.125000
G01 X177.408817 Y512.303201 Z-0.125000
G01 X176.426145 Y509.846521 Z-0.125000
G01 X177.900153 Y506.407169 Z-0.125000
G01 X178.391489 Y503.459153 Z-0.125000
G01 X175.443473 Y501.985145 Z-0.125000
G01 X175.934809 Y500.019801 Z-0.125000
G01 X174.460801 Y498.054457 Z-0.125000
G01 X174.460801 Y495.106441 Z-0.125000
G01 X174.460801 Y492.649761 Z-0.125000
G01 X173.478129 Y491.175753 Z-0.125000
G01 X174.952137 Y488.227737 Z-0.125000
G01 X173.478129 Y486.262393 Z-0.125000
G01 X173.969465 Y483.314377 Z-0.125000
G01 X171.512786 Y481.840369 Z-0.125000
G01 X170.530114 Y479.875025 Z-0.125000
G01 X170.038778 Y476.927009 Z-0.125000
G01 X174.460801 Y476.927009 Z-0.125000
G01 X174.952137 Y474.961665 Z-0.125000
G01 X172.986793 Y473.487657 Z-0.125000
G01 X171.021450 Y472.013649 Z-0.125000
G01 X169.056106 Y470.048306 Z-0.125000
G01 X169.056106 Y467.591626 Z-0.125000
G01 X170.038778 Y463.169602 Z-0.125000
G01 X168.564770 Y460.712922 Z-0.125000
G01 X170.530114 Y457.273570 Z-0.125000
G01 X169.547442 Y453.342882 Z-0.125000
G01 X167.582098 Y451.868874 Z-0.125000
G01 X168.073434 Y449.412194 Z-0.125000
G01 X165.616754 Y447.938186 Z-0.125000
G01 X163.160074 Y445.972842 Z-0.125000
G01 X161.686066 Y443.516162 Z-0.125000
G01 X160.212058 Y442.042154 Z-0.125000
G01 X157.755378 Y441.059482 Z-0.125000
G01 X158.246714 Y438.602802 Z-0.125000
G01 X157.264042 Y436.146122 Z-0.125000
G01 X154.316026 Y435.163450 Z-0.125000
G01 X154.316026 Y440.076810 Z-0.125000
G01 X152.350682 Y438.111466 Z-0.125000
G01 X149.402666 Y437.128794 Z-0.125000
G01 X147.928658 Y435.163450 Z-0.125000
G01 X146.454650 Y433.689442 Z-0.125000
G01 X143.506634 Y432.706770 Z-0.125000
G01 X142.032626 Y430.741426 Z-0.125000
G01 X141.049954 Y428.776082 Z-0.125000
G01 X137.610602 Y427.793410 Z-0.125000
G01 X136.136594 Y425.828066 Z-0.125000
G01 X134.662586 Y424.354058 Z-0.125000
G01 X132.205906 Y422.880050 Z-0.125000
G01 X129.749226 Y420.914706 Z-0.125000
G01 X134.171250 Y419.440698 Z-0.125000
G01 X132.205906 Y417.475354 Z-0.125000
G01 X128.275218 Y417.966690 Z-0.125000
G01 X125.818538 Y416.984018 Z-0.125000
G01 X124.344530 Y415.018674 Z-0.125000
G01 X123.853194 Y413.053330 Z-0.125000
G01 X121.887850 Y411.087986 Z-0.125000
G01 X120.413842 Y409.122642 Z-0.125000
G01 X118.448498 Y406.665962 Z-0.125000
G01 X115.500482 Y405.191954 Z-0.125000
G01 X114.517810 Y403.226610 Z-0.125000
G01 X114.026474 Y401.261266 Z-0.125000
G01 X112.061130 Y399.787258 Z-0.125000
G01 X110.587122 Y397.330578 Z-0.125000
G01 X108.130442 Y395.365234 Z-0.125000
G01 X107.147770 Y392.908554 Z-0.125000
G01 X105.182426 Y390.943210 Z-0.125000
G01 X103.708418 Y388.486530 Z-0.125000
G01 X101.743074 Y387.012522 Z-0.125000
G01 X101.251738 Y385.047179 Z-0.125000
G01 X99.777730 Y383.081835 Z-0.125000
G01 X97.321050 Y381.607827 Z-0.125000
G01 X96.829714 Y378.659811 Z-0.125000
G01 X94.373034 Y376.203131 Z-0.125000
G01 X91.425018 Y374.729123 Z-0.125000
G01 X87.494331 Y375.220459 Z-0.125000
G01 X88.968338 Y378.659811 Z-0.125000
G01 X90.933682 Y380.625155 Z-0.125000
G01 X91.916354 Y382.590499 Z-0.125000
G01 X93.390362 Y385.047179 Z-0.125000
G01 X95.355706 Y387.012522 Z-0.125000
G01 X96.829714 Y388.977866 Z-0.125000
G01 X98.795058 Y391.434546 Z-0.125000
G01 X100.760402 Y393.399890 Z-0.125000
G01 X102.234410 Y395.365234 Z-0.125000
G01 X103.708418 Y397.821914 Z-0.125000
G01 X105.673762 Y399.787258 Z-0.125000
G01 X107.639106 Y401.752602 Z-0.125000
G01 X109.604450 Y404.209282 Z-0.125000
G01 X111.078458 Y406.665962 Z-0.125000
G01 X113.043802 Y409.122642 Z-0.125000
G01 X115.009146 Y410.596650 Z-0.125000
G01 X115.991818 Y412.561994 Z-0.125000
G01 X117.465826 Y414.527338 Z-0.125000
G01 X119.431170 Y416.001346 Z-0.125000
G01 X120.905178 Y418.458026 Z-0.125000
G01 X123.361858 Y420.423370 Z-0.125000
G01 X125.818538 Y421.897378 Z-0.125000
G01 X127.292546 Y424.354058 Z-0.125000
G01 X129.257890 Y426.319402 Z-0.125000
G01 X131.223234 Y427.793410 Z-0.125000
G01 X133.188578 Y429.758754 Z-0.125000
G01 X135.645258 Y431.232762 Z-0.125000
G01 X137.119266 Y432.706770 Z-0.125000
G01 X138.593274 Y434.672114 Z-0.125000
G01 X141.049954 Y436.146122 Z-0.125000
G01 X143.015298 Y437.620130 Z-0.125000
G01 X144.980642 Y439.094138 Z-0.125000
G01 X147.437322 Y440.568146 Z-0.125000
G01 X149.402666 Y442.042154 Z-0.125000
G01 X151.368010 Y443.516162 Z-0.125000
G01 X154.316026 Y444.007498 Z-0.125000
G01 X156.281370 Y445.481506 Z-0.125000
G01 X158.246714 Y447.446850 Z-0.125000
G01 X160.212058 Y449.903530 Z-0.125000
G01 X161.686066 Y452.360210 Z-0.125000
G01 X161.686066 Y454.816890 Z-0.125000
G01 X162.668738 Y456.782234 Z-0.125000
G01 X166.108090 Y457.273570 Z-0.125000
G01 X163.651410 Y460.712922 Z-0.125000
G01 X163.160074 Y463.660938 Z-0.125000
G01 X164.142746 Y466.117618 Z-0.125000
G01 X163.651410 Y468.082962 Z-0.125000
G01 X163.651410 Y471.030978 Z-0.125000
G01 X164.142746 Y473.978993 Z-0.125000
G01 X166.108090 Y475.453001 Z-0.125000
G01 X164.634082 Y478.401017 Z-0.125000
G01 X165.125418 Y481.349033 Z-0.125000
G01 X165.616754 Y483.805713 Z-0.125000
G01 X166.108090 Y486.262393 Z-0.125000
G01 X169.547442 Y486.262393 Z-0.125000
G01 X170.038778 Y490.193081 Z-0.125000
G01 X166.599426 Y490.193081 Z-0.125000
G01 X167.582098 Y494.123769 Z-0.125000
G01 X168.564770 Y496.089113 Z-0.125000
G01 X168.564770 Y498.545793 Z-0.125000
G01 X169.056106 Y501.002473 Z-0.125000
G01 X170.038778 Y503.459153 Z-0.125000
G01 X170.530114 Y505.915833 Z-0.125000
G01 X173.969465 Y506.407169 Z-0.125000
G01 X171.512786 Y509.846521 Z-0.125000
G01 X172.004122 Y512.794537 Z-0.125000
G01 X172.986793 Y515.742553 Z-0.125000
G01 X173.969465 Y518.199233 Z-0.125000
G01 X174.460801 Y520.655913 Z-0.125000
G01 X175.443473 Y523.112593 Z-0.125000
G01 X176.426145 Y526.060609 Z-0.125000
G01 X177.408817 Y528.517289 Z-0.125000
G01 X178.391489 Y531.465305 Z-0.125000
G01 X179.374161 Y534.413321 Z-0.125000
G01 X180.356833 Y536.870001 Z-0.125000
G01 X181.339505 Y539.818017 Z-0.125000
G01 X184.287521 Y540.309353 Z-0.125000
G01 X182.322177 Y543.748705 Z-0.125000
G01 X183.304849 Y546.205385 Z-0.125000
G01 X184.287521 Y549.153401 Z-0.125000
G01 X185.270193 Y552.592753 Z-0.125000
G01 X187.726873 Y549.153401 Z-0.125000
G01 X189.692217 Y551.118745 Z-0.125000
G01 X190.674889 Y553.084089 Z-0.125000
G01 X189.692217 Y555.540769 Z-0.125000
G01 X186.252865 Y555.540769 Z-0.125000
G01 X187.235537 Y558.980120 Z-0.125000
G01 X188.218209 Y562.419472 Z-0.125000
G01 X188.709545 Y565.367488 Z-0.125000
G01 X189.692217 Y568.315504 Z-0.125000
G01 X190.674889 Y570.772184 Z-0.125000
G01 X191.166225 Y573.720200 Z-0.125000
G01 X192.148897 Y576.668216 Z-0.125000
G01 X192.640233 Y579.124896 Z-0.125000
G01 X193.622905 Y581.581576 Z-0.125000
G01 X194.114241 Y583.546920 Z-0.125000
G01 X195.096913 Y585.020928 Z-0.125000
G01 X195.096913 Y587.477608 Z-0.125000
G01 X197.553593 Y587.968944 Z-0.125000
G01 X200.992945 Y587.968944 Z-0.125000
G01 X202.958289 Y589.934288 Z-0.125000
G01 X203.940961 Y592.882304 Z-0.125000
G01 X204.432297 Y595.338984 Z-0.125000
G01 X205.414969 Y597.795664 Z-0.125000
G01 X206.397641 Y599.761008 Z-0.125000
G01 X205.906305 Y602.217688 Z-0.125000
G01 X202.958289 Y602.217688 Z-0.125000
G01 X201.975617 Y599.269672 Z-0.125000
G01 X200.992945 Y596.321656 Z-0.125000
G01 X200.501609 Y593.373640 Z-0.125000
G01 X199.027601 Y590.916960 Z-0.125000
G01 X196.079585 Y590.916960 Z-0.125000
G01 X197.062257 Y593.864976 Z-0.125000
G01 X198.044929 Y596.321656 Z-0.125000
G01 X199.027601 Y599.269672 Z-0.125000
G01 X200.010273 Y602.217688 Z-0.125000
G01 X200.992945 Y605.165704 Z-0.125000
G01 X203.449625 Y605.657040 Z-0.125000
G01 X204.923633 Y608.113720 Z-0.125000
G01 X201.975617 Y608.113720 Z-0.125000
G01 X202.958289 Y611.061736 Z-0.125000
G01 X205.414969 Y611.553072 Z-0.125000
G01 X203.940961 Y614.501088 Z-0.125000
G01 X205.906305 Y614.992424 Z-0.125000
G01 X204.923633 Y617.940440 Z-0.125000
G01 X206.888977 Y618.431776 Z-0.125000
G01 X205.906305 Y621.379792 Z-0.125000
G01 X206.888977 Y622.853800 Z-0.125000
G01 X206.888977 Y625.310480 Z-0.125000
G01 X209.836993 Y625.310480 Z-0.125000
G01 X207.871649 Y628.258496 Z-0.125000
G01 X207.871649 Y630.715176 Z-0.125000
G01 X208.362985 Y633.171856 Z-0.125000
G01 X208.854321 Y635.137200 Z-0.125000
G01 X208.854321 Y637.593880 Z-0.125000
G01 X209.836993 Y639.559224 Z-0.125000
G01 X212.785009 Y636.119872 Z-0.125000
G01 X212.785009 Y633.663192 Z-0.125000
G01 X213.276345 Y631.206512 Z-0.125000
G01 X211.802337 Y629.732504 Z-0.125000
G01 X211.802337 Y627.275824 Z-0.125000
G01 X215.733025 Y626.784488 Z-0.125000
G01 X216.715697 Y623.836472 Z-0.125000
G01 X213.767681 Y623.836472 Z-0.125000
G01 X210.819665 Y622.362464 Z-0.125000
G01 X210.819665 Y619.905784 Z-0.125000
G01 X210.328329 Y617.940440 Z-0.125000
G01 X209.345657 Y614.501088 Z-0.125000
G01 X208.854321 Y611.061736 Z-0.125000
G01 X211.802337 Y611.553072 Z-0.125000
G01 X212.293673 Y614.501088 Z-0.125000
G01 X214.750353 Y616.466432 Z-0.125000
G01 X214.750353 Y619.414448 Z-0.125000
G01 X216.715697 Y620.888456 Z-0.125000
G01 X219.663713 Y616.957768 Z-0.125000
G01 X218.681041 Y615.483760 Z-0.125000
G01 X216.224361 Y613.027080 Z-0.125000
G01 X215.241689 Y611.061736 Z-0.125000
G01 X212.785009 Y608.605056 Z-0.125000
G01 X210.819665 Y607.622384 Z-0.125000
G01 X208.362985 Y607.622384 Z-0.125000
G01 X207.380313 Y604.183032 Z-0.125000
G01 X210.328329 Y604.674368 Z-0.125000
G01 X211.311001 Y601.726352 Z-0.125000
G01 X210.328329 Y599.269672 Z-0.125000
G01 X209.345657 Y595.830320 Z-0.125000
G01 X208.362985 Y593.864976 Z-0.125000
G01 X207.871649 Y591.899632 Z-0.125000
G01 X209.345657 Y588.951616 Z-0.125000
G01 X206.397641 Y588.951616 Z-0.125000
G01 X204.923633 Y586.494936 Z-0.125000
G01 X201.975617 Y585.020928 Z-0.125000
G01 X199.027601 Y584.529592 Z-0.125000
G01 X199.027601 Y582.072912 Z-0.125000
G01 X198.536265 Y579.616232 Z-0.125000
G01 X196.570921 Y578.142224 Z-0.125000
G01 X196.079585 Y576.176880 Z-0.125000
G01 X194.605577 Y573.228864 Z-0.125000
G01 X197.553593 Y573.228864 Z-0.125000
G01 X200.501609 Y574.211536 Z-0.125000
G01 X200.992945 Y575.685544 Z-0.125000
G01 X202.466953 Y577.650888 Z-0.125000
G01 X202.958289 Y580.107568 Z-0.125000
G01 X204.432297 Y582.072912 Z-0.125000
G01 X206.888977 Y583.055584 Z-0.125000
G01 X208.854321 Y585.512264 Z-0.125000
G01 X212.293673 Y585.512264 Z-0.125000
G01 X213.276345 Y587.968944 Z-0.125000
G01 X212.293673 Y590.425624 Z-0.125000
G01 X212.785009 Y592.390968 Z-0.125000
G01 X215.733025 Y593.373640 Z-0.125000
G01 X212.293673 Y595.830320 Z-0.125000
G01 X214.259017 Y597.795664 Z-0.125000
G01 X215.733025 Y600.743680 Z-0.125000
G01 X214.750353 Y604.183032 Z-0.125000
G01 X216.715697 Y605.165704 Z-0.125000
G01 X216.715697 Y607.622384 Z-0.125000
G01 X219.663713 Y609.096392 Z-0.125000
G01 X220.155049 Y612.044408 Z-0.125000
G01 X223.594401 Y611.061736 Z-0.125000
G01 X223.103065 Y608.605056 Z-0.125000
G01 X224.085737 Y605.657040 Z-0.125000
G01 X221.137721 Y605.165704 Z-0.125000
G01 X221.137721 Y602.709024 Z-0.125000
G01 X219.663713 Y600.743680 Z-0.125000
G01 X220.155049 Y597.795664 Z-0.125000
G01 X218.681041 Y595.338984 Z-0.125000
G01 X219.663713 Y591.899632 Z-0.125000
G01 X220.646385 Y588.951616 Z-0.125000
G01 X217.207033 Y589.442952 Z-0.125000
G01 X217.207033 Y586.986272 Z-0.125000
G01 X216.224361 Y584.038256 Z-0.125000
G01 X214.750353 Y582.072912 Z-0.125000
G01 X210.819665 Y582.564248 Z-0.125000
G01 X211.802337 Y579.616232 Z-0.125000
G01 X208.854321 Y579.124896 Z-0.125000
G01 X207.380313 Y577.159552 Z-0.125000
G01 X206.397641 Y574.702872 Z-0.125000
G01 X205.414969 Y572.246192 Z-0.125000
G01 X204.432297 Y569.789512 Z-0.125000
G01 X204.923633 Y566.841496 Z-0.125000
G01 X201.484281 Y566.841496 Z-0.125000
G01 X200.992945 Y570.280848 Z-0.125000
G01 X197.553593 Y567.332832 Z-0.125000
G01 X197.553593 Y569.789512 Z-0.125000
G01 X194.114241 Y570.280848 Z-0.125000
G01 X194.114241 Y567.332832 Z-0.125000
G01 X193.622905 Y565.858824 Z-0.125000
G01 X192.640233 Y563.893480 Z-0.125000
G01 X192.148897 Y561.436800 Z-0.125000
G01 X190.674889 Y558.980120 Z-0.125000
G01 X192.640233 Y555.540769 Z-0.125000
G01 X194.114241 Y557.997448 Z-0.125000
G01 X196.570921 Y558.980120 Z-0.125000
G01 X196.079585 Y561.436800 Z-0.125000
G01 X197.553593 Y563.402144 Z-0.125000
G01 X200.501609 Y563.893480 Z-0.125000
G01 X200.992945 Y559.962792 Z-0.125000
G01 X200.992945 Y557.506112 Z-0.125000
G01 X198.536265 Y555.540769 Z-0.125000
G01 X196.570921 Y554.066761 Z-0.125000
G01 X195.096913 Y552.101417 Z-0.125000
G01 X194.114241 Y550.136073 Z-0.125000
G01 X192.148897 Y548.170729 Z-0.125000
G01 X191.657561 Y546.696721 Z-0.125000
G01 X189.200881 Y545.714049 Z-0.125000
G01 X187.726873 Y544.731377 Z-0.125000
G01 X187.235537 Y542.274697 Z-0.125000
G01 X192.640233 Y543.257369 Z-0.125000
G01 X191.166225 Y541.292025 Z-0.125000
G01 X190.183553 Y539.818017 Z-0.125000
G01 X188.709545 Y538.344009 Z-0.125000
G01 X186.252865 Y536.870001 Z-0.125000
G01 X184.778857 Y534.904657 Z-0.125000
G01 X184.287521 Y531.956641 Z-0.125000
G01 X182.813513 Y529.991297 Z-0.125000
G01 X181.830841 Y527.043281 Z-0.125000
G01 X181.339505 Y523.603929 Z-0.125000
G01 X180.356833 Y521.638585 Z-0.125000
G01 X185.270193 Y524.095265 Z-0.125000
G01 X185.761529 Y526.551945 Z-0.125000
G01 X187.235537 Y528.025953 Z-0.125000
G01 X188.218209 Y530.482633 Z-0.125000
G01 X188.218209 Y532.447977 Z-0.125000
G01 X189.692217 Y533.921985 Z-0.125000
G01 X190.183553 Y535.395993 Z-0.125000
G01 X193.131569 Y536.378665 Z-0.125000
G01 X196.079585 Y536.378665 Z-0.125000
G01 X195.096913 Y539.326681 Z-0.125000
G01 X196.079585 Y542.766033 Z-0.125000
G01 X196.079585 Y545.222713 Z-0.125000
G01 X197.062257 Y546.696721 Z-0.125000
G01 X198.536265 Y548.662065 Z-0.125000
G01 X200.010273 Y550.627409 Z-0.125000
G01 X201.975617 Y552.101417 Z-0.125000
G01 X202.958289 Y553.575425 Z-0.125000
G01 X205.414969 Y556.032105 Z-0.125000
G01 X204.432297 Y559.962792 Z-0.125000
G01 X204.432297 Y562.419472 Z-0.125000
G01 X206.397641 Y563.893480 Z-0.125000
G01 X209.345657 Y565.858824 Z-0.125000
G01 X208.854321 Y568.806840 Z-0.125000
G01 X209.836993 Y570.772184 Z-0.125000
G01 X210.819665 Y573.228864 Z-0.125000
G01 X211.802337 Y575.194208 Z-0.125000
G01 X214.750353 Y576.176880 Z-0.125000
G01 X216.224361 Y578.142224 Z-0.125000
G01 X218.189705 Y580.107568 Z-0.125000
G01 X220.646385 Y580.598904 Z-0.125000
G01 X219.663713 Y583.546920 Z-0.125000
G01 X221.629057 Y585.512264 Z-0.125000
G01 X226.051081 Y586.003600 Z-0.125000
G01 X225.559745 Y588.951616 Z-0.125000
G01 X223.594401 Y592.882304 Z-0.125000
G01 X225.068409 Y595.338984 Z-0.125000
G01 X224.577073 Y598.778336 Z-0.125000
G01 X226.051081 Y600.743680 Z-0.125000
G01 X227.525089 Y603.200360 Z-0.125000
G01 X229.981769 Y599.761008 Z-0.125000
G01 X229.981769 Y597.304328 Z-0.125000
G01 X228.507761 Y595.338984 Z-0.125000
G01 X228.507761 Y590.425624 Z-0.125000
G01 X230.964441 Y591.899632 Z-0.125000
G01 X233.421121 Y593.864976 Z-0.125000
G01 X235.386465 Y590.425624 Z-0.125000
G01 X236.369137 Y587.477608 Z-0.125000
G01 X232.929785 Y587.477608 Z-0.125000
G01 X230.964441 Y585.512264 Z-0.125000
G01 X229.981769 Y582.072912 Z-0.125000
G01 X226.051081 Y582.072912 Z-0.125000
G01 X224.085737 Y580.598904 Z-0.125000
G01 X225.068409 Y578.142224 Z-0.125000
G01 X223.103065 Y576.668216 Z-0.125000
G01 X220.155049 Y576.176880 Z-0.125000
G01 X218.681041 Y573.720200 Z-0.125000
G01 X216.224361 Y571.754856 Z-0.125000
G01 X214.750353 Y569.789512 Z-0.125000
G01 X213.767681 Y566.841496 Z-0.125000
G01 X214.259017 Y563.402144 Z-0.125000
G01 X210.819665 Y562.419472 Z-0.125000
G01 X209.836993 Y559.962792 Z-0.125000
G01 X208.854321 Y557.997448 Z-0.125000
G01 X208.854321 Y555.540769 Z-0.125000
G01 X209.345657 Y553.084089 Z-0.125000
G01 X207.380313 Y551.610081 Z-0.125000
G01 X205.414969 Y548.662065 Z-0.125000
G01 X203.449625 Y546.696721 Z-0.125000
G01 X201.975617 Y544.731377 Z-0.125000
G01 X200.992945 Y542.274697 Z-0.125000
G01 X201.484281 Y539.818017 Z-0.125000
G01 X198.536265 Y539.326681 Z-0.125000
G01 X200.010273 Y535.887329 Z-0.125000
G01 X201.484281 Y532.447977 Z-0.125000
G01 X203.449625 Y535.887329 Z-0.125000
G01 X206.397641 Y536.870001 Z-0.125000
G01 X205.906305 Y539.326681 Z-0.125000
G01 X205.906305 Y541.783361 Z-0.125000
G01 X207.380313 Y543.748705 Z-0.125000
G01 X209.345657 Y545.222713 Z-0.125000
G01 X209.345657 Y547.679393 Z-0.125000
G01 X212.293673 Y548.662065 Z-0.125000
G01 X214.259017 Y550.627409 Z-0.125000
G01 X214.750353 Y554.558097 Z-0.125000
G01 X214.750353 Y557.014776 Z-0.125000
G01 X215.733025 Y559.471456 Z-0.125000
G01 X219.663713 Y559.471456 Z-0.125000
G01 X218.189705 Y562.910808 Z-0.125000
G01 X218.189705 Y565.367488 Z-0.125000
G01 X219.172377 Y567.824168 Z-0.125000
G01 X220.155049 Y570.772184 Z-0.125000
G01 X223.103065 Y572.246192 Z-0.125000
G01 X225.559745 Y573.228864 Z-0.125000
G01 X228.016425 Y574.702872 Z-0.125000
G01 X230.964441 Y576.176880 Z-0.125000
G01 X230.473105 Y578.142224 Z-0.125000
G01 X234.895129 Y578.142224 Z-0.125000
G01 X234.403793 Y581.581576 Z-0.125000
G01 X236.369137 Y583.055584 Z-0.125000
G01 X239.317153 Y584.038256 Z-0.125000
G01 X240.791161 Y579.616232 Z-0.125000
G01 X239.317153 Y577.650888 Z-0.125000
G01 X240.791161 Y574.211536 Z-0.125000
G01 X244.230513 Y575.194208 Z-0.125000
G01 X245.704521 Y572.246192 Z-0.125000
G01 X243.247841 Y570.280848 Z-0.125000
G01 X247.669865 Y568.315504 Z-0.125000
G01 X245.213185 Y566.350160 Z-0.125000
G01 X241.282497 Y566.350160 Z-0.125000
G01 X238.825817 Y564.384816 Z-0.125000
G01 X235.386465 Y563.893480 Z-0.125000
G01 X233.912457 Y562.910808 Z-0.125000
G01 X234.895129 Y560.454128 Z-0.125000
G01 X233.421121 Y557.997448 Z-0.125000
G01 X233.912457 Y555.540769 Z-0.125000
G01 X234.895129 Y553.084089 Z-0.125000
G01 X238.334481 Y556.032105 Z-0.125000
G01 X240.299825 Y558.488784 Z-0.125000
G01 X241.282497 Y559.962792 Z-0.125000
G01 X243.739177 Y561.928136 Z-0.125000
G01 X246.687193 Y562.910808 Z-0.125000
G01 X249.635209 Y563.893480 Z-0.125000
G01 X249.635209 Y559.471456 Z-0.125000
G01 X246.687193 Y557.997448 Z-0.125000
G01 X246.687193 Y555.049433 Z-0.125000
G01 X243.739177 Y554.066761 Z-0.125000
G01 X241.773833 Y552.592753 Z-0.125000
G01 X239.808489 Y551.118745 Z-0.125000
G01 X241.773833 Y547.679393 Z-0.125000
G01 X240.299825 Y545.714049 Z-0.125000
G01 X240.791161 Y543.257369 Z-0.125000
G01 X237.843145 Y541.783361 Z-0.125000
G01 X238.825817 Y537.852673 Z-0.125000
G01 X241.773833 Y539.818017 Z-0.125000
G01 X243.247841 Y536.378665 Z-0.125000
G01 X240.299825 Y534.413321 Z-0.125000
G01 X241.282497 Y531.465305 Z-0.125000
G01 X242.265169 Y528.025953 Z-0.125000
G01 X243.739177 Y524.586601 Z-0.125000
G01 X246.687193 Y527.043281 Z-0.125000
G01 X245.704521 Y529.991297 Z-0.125000
G01 X245.213185 Y532.447977 Z-0.125000
G01 X249.143873 Y532.447977 Z-0.125000
G01 X247.178529 Y536.378665 Z-0.125000
G01 X246.195857 Y539.818017 Z-0.125000
G01 X246.195857 Y542.766033 Z-0.125000
G01 X247.669865 Y544.731377 Z-0.125000
G01 X245.704521 Y548.170729 Z-0.125000
G01 X248.161201 Y550.136073 Z-0.125000
G01 X251.600553 Y554.558097 Z-0.125000
G01 X251.109217 Y552.101417 Z-0.125000
G01 X252.091889 Y548.662065 Z-0.125000
G01 X251.109217 Y546.205385 Z-0.125000
G01 X253.074561 Y542.766033 Z-0.125000
G01 X252.091889 Y541.292025 Z-0.125000
G01 X251.109217 Y538.835345 Z-0.125000
G01 X252.091889 Y535.887329 Z-0.125000
G01 X252.583225 Y533.430649 Z-0.125000
G01 X254.057233 Y529.991297 Z-0.125000
G01 X251.600553 Y528.025953 Z-0.125000
G01 X255.531241 Y526.060609 Z-0.125000
G01 X254.548569 Y524.095265 Z-0.125000
G01 X251.600553 Y524.095265 Z-0.125000
G01 X254.057233 Y520.164577 Z-0.125000
G01 X255.039905 Y517.216561 Z-0.125000
G01 X251.600553 Y516.725225 Z-0.125000
G01 X253.565897 Y513.777209 Z-0.125000
G01 X251.109217 Y512.794537 Z-0.125000
G01 X249.635209 Y510.829193 Z-0.125000
G01 X247.669865 Y509.355185 Z-0.125000
G01 X245.704521 Y506.407169 Z-0.125000
G01 X245.213185 Y503.950489 Z-0.125000
G01 X243.739177 Y502.476481 Z-0.125000
G01 X242.265169 Y500.511137 Z-0.125000
G01 X241.282497 Y497.563121 Z-0.125000
G01 X239.808489 Y495.597777 Z-0.125000
G01 X239.808489 Y493.141097 Z-0.125000
G01 X238.825817 Y491.175753 Z-0.125000
G01 X235.877801 Y490.193081 Z-0.125000
G01 X235.386465 Y487.736401 Z-0.125000
G01 X233.912457 Y486.262393 Z-0.125000
G01 X230.964441 Y485.771057 Z-0.125000
G01 X231.455777 Y482.823041 Z-0.125000
G01 X229.490433 Y480.857697 Z-0.125000
G01 X228.016425 Y479.383689 Z-0.125000
G01 X227.033753 Y477.418345 Z-0.125000
G01 X224.085737 Y476.927009 Z-0.125000
G01 X221.137721 Y476.435673 Z-0.125000
G01 X219.172377 Y474.961665 Z-0.125000
G01 X218.681041 Y472.504985 Z-0.125000
G01 X216.715697 Y471.522313 Z-0.125000
G01 X216.224361 Y469.065634 Z-0.125000
G01 X215.241689 Y466.608954 Z-0.125000
G01 X214.259017 Y464.643610 Z-0.125000
G01 X214.750353 Y462.186930 Z-0.125000
G01 X213.767681 Y458.747578 Z-0.125000
G01 X213.276345 Y455.799562 Z-0.125000
G01 X210.819665 Y454.816890 Z-0.125000
G01 X210.819665 Y452.360210 Z-0.125000
G01 X208.362985 Y451.377538 Z-0.125000
G01 X206.397641 Y450.394866 Z-0.125000
G01 X205.414969 Y448.429522 Z-0.125000
G01 X203.940961 Y446.955514 Z-0.125000
G01 X203.449625 Y444.498834 Z-0.125000
G01 X206.397641 Y444.007498 Z-0.125000
G01 X207.871649 Y445.481506 Z-0.125000
G01 X208.854321 Y447.446850 Z-0.125000
G01 X210.819665 Y448.920858 Z-0.125000
G01 X213.276345 Y449.412194 Z-0.125000
G01 X214.259017 Y451.868874 Z-0.125000
G01 X216.224361 Y452.851546 Z-0.125000
G01 X216.715697 Y455.799562 Z-0.125000
G01 X216.715697 Y458.747578 Z-0.125000
G01 X218.681041 Y460.712922 Z-0.125000
G01 X218.681041 Y463.660938 Z-0.125000
G01 X219.172377 Y465.626282 Z-0.125000
G01 X219.663713 Y467.591626 Z-0.125000
G01 X220.646385 Y469.065634 Z-0.125000
G01 X222.120393 Y471.030978 Z-0.125000
G01 X223.103065 Y472.996321 Z-0.125000
G01 X226.542417 Y473.487657 Z-0.125000
G01 X228.999097 Y474.470329 Z-0.125000
G01 X231.455777 Y475.944337 Z-0.125000
G01 X233.421121 Y476.927009 Z-0.125000
G01 X233.421121 Y479.383689 Z-0.125000
G01 X234.895129 Y481.840369 Z-0.125000
G01 X236.860473 Y482.823041 Z-0.125000
G01 X239.317153 Y484.788385 Z-0.125000
G01 X239.808489 Y488.227737 Z-0.125000
G01 X243.739177 Y488.227737 Z-0.125000
G01 X244.721849 Y490.684417 Z-0.125000
G01 X244.721849 Y493.141097 Z-0.125000
G01 X245.213185 Y496.580449 Z-0.125000
G01 X247.178529 Y498.545793 Z-0.125000
G01 X249.635209 Y500.019801 Z-0.125000
G01 X250.617881 Y502.476481 Z-0.125000
G01 X249.635209 Y504.933161 Z-0.125000
G01 X251.600553 Y506.407169 Z-0.125000
G01 X253.565897 Y508.372513 Z-0.125000
G01 X255.039905 Y510.337857 Z-0.125000
G01 X254.548569 Y502.476481 Z-0.125000
G01 X253.565897 Y498.545793 Z-0.125000
G01 X252.091889 Y496.580449 Z-0.125000
G01 X249.635209 Y495.597777 Z-0.125000
G01 X248.161201 Y493.141097 Z-0.125000
G01 X252.091889 Y492.158425 Z-0.125000
G01 X251.600553 Y490.193081 Z-0.125000
G01 X249.143873 Y489.210409 Z-0.125000
G01 X248.161201 Y486.753729 Z-0.125000
G01 X246.195857 Y484.788385 Z-0.125000
G01 X242.756505 Y484.788385 Z-0.125000
G01 X242.756505 Y482.331705 Z-0.125000
G01 X240.791161 Y480.857697 Z-0.125000
G01 X238.334481 Y479.383689 Z-0.125000
G01 X236.860473 Y477.418345 Z-0.125000
G01 X237.843145 Y474.961665 Z-0.125000
G01 X240.791161 Y476.435673 Z-0.125000
G01 X243.247841 Y477.418345 Z-0.125000
G01 X245.213185 Y478.892353 Z-0.125000
G01 X247.178529 Y481.349033 Z-0.125000
G01 X250.126545 Y482.823041 Z-0.125000
G01 X248.652537 Y478.892353 Z-0.125000
G01 X248.161201 Y476.435673 Z-0.125000
G01 X246.195857 Y474.470329 Z-0.125000
G01 X243.739177 Y473.487657 Z-0.125000
G01 X241.282497 Y472.504985 Z-0.125000
G01 X238.825817 Y470.539642 Z-0.125000
G01 X236.369137 Y469.556970 Z-0.125000
G01 X235.877801 Y473.487657 Z-0.125000
G01 X233.421121 Y472.504985 Z-0.125000
G01 X231.455777 Y471.030978 Z-0.125000
G01 X229.490433 Y470.048306 Z-0.125000
G01 X226.051081 Y470.048306 Z-0.125000
G01 X224.577073 Y468.082962 Z-0.125000
G01 X228.016425 Y467.100290 Z-0.125000
G01 X226.542417 Y465.134946 Z-0.125000
G01 X223.594401 Y465.134946 Z-0.125000
G01 X223.594401 Y462.678266 Z-0.125000
G01 X222.611729 Y461.695594 Z-0.125000
G01 X222.120393 Y460.221586 Z-0.125000
G01 X221.629057 Y457.764906 Z-0.125000
G01 X220.155049 Y455.799562 Z-0.125000
G01 X219.663713 Y452.851546 Z-0.125000
G01 X219.663713 Y450.394866 Z-0.125000
G01 X216.715697 Y448.920858 Z-0.125000
G01 X217.207033 Y446.955514 Z-0.125000
G01 X217.207033 Y444.990170 Z-0.125000
G01 X215.733025 Y443.024826 Z-0.125000
G01 X213.767681 Y446.464178 Z-0.125000
G01 X211.802337 Y445.481506 Z-0.125000
G01 X211.802337 Y443.516162 Z-0.125000
G01 X209.836993 Y442.533490 Z-0.125000
G01 X208.362985 Y440.568146 Z-0.125000
G01 X211.311001 Y440.076810 Z-0.125000
G01 X210.328329 Y437.620130 Z-0.125000
G01 X208.854321 Y436.146122 Z-0.125000
G01 X208.362985 Y433.689442 Z-0.125000
G01 X206.397641 Y431.724098 Z-0.125000
G01 X205.414969 Y433.689442 Z-0.125000
G01 X205.906305 Y436.637458 Z-0.125000
G01 X206.397641 Y439.094138 Z-0.125000
G01 X204.923633 Y441.550818 Z-0.125000
G01 X203.449625 Y439.585474 Z-0.125000
G01 X201.975617 Y438.111466 Z-0.125000
G01 X201.484281 Y436.146122 Z-0.125000
G01 X202.466953 Y433.198106 Z-0.125000
G01 X201.484281 Y431.232762 Z-0.125000
G01 X199.027601 Y430.741426 Z-0.125000
G01 X199.027601 Y428.776082 Z-0.125000
G01 X196.570921 Y428.284746 Z-0.125000
G01 X196.079585 Y431.724098 Z-0.125000
G01 X197.062257 Y434.180778 Z-0.125000
G01 X199.027601 Y435.163450 Z-0.125000
G01 X197.062257 Y438.111466 Z-0.125000
G01 X198.536265 Y439.585474 Z-0.125000
G01 X200.010273 Y441.550818 Z-0.125000
G01 X201.484281 Y443.024826 Z-0.125000
G01 X200.010273 Y445.481506 Z-0.125000
G01 X197.553593 Y444.990170 Z-0.125000
G01 X196.570921 Y443.024826 Z-0.125000
G01 X194.605577 Y442.042154 Z-0.125000
G01 X193.131569 Y440.076810 Z-0.125000
G01 X193.622905 Y437.128794 Z-0.125000
G01 X193.131569 Y434.672114 Z-0.125000
G01 X192.148897 Y432.215434 Z-0.125000
G01 X192.640233 Y429.758754 Z-0.125000
G01 X193.622905 Y427.302074 Z-0.125000
G01 X192.148897 Y425.336730 Z-0.125000
G01 X190.674889 Y422.388714 Z-0.125000
G01 X193.622905 Y422.388714 Z-0.125000
G01 X196.079585 Y423.371386 Z-0.125000
G01 X197.553593 Y425.336730 Z-0.125000
G01 X200.501609 Y425.336730 Z-0.125000
G01 X201.484281 Y422.880050 Z-0.125000
G01 X200.010273 Y421.406042 Z-0.125000
G01 X198.536265 Y419.932034 Z-0.125000
G01 X195.588249 Y419.440698 Z-0.125000
G01 X196.079585 Y416.492682 Z-0.125000
G01 X195.588249 Y413.544666 Z-0.125000
G01 X195.588249 Y410.596650 Z-0.125000
G01 X195.588249 Y407.648634 Z-0.125000
G01 X196.079585 Y404.700618 Z-0.125000
G01 X193.131569 Y403.717946 Z-0.125000
G01 X192.640233 Y401.261266 Z-0.125000
G01 X190.674889 Y398.804586 Z-0.125000
G01 X190.674889 Y396.347906 Z-0.125000
G01 X187.235537 Y395.856570 Z-0.125000
G01 X183.304849 Y394.873898 Z-0.125000
G01 X180.848169 Y394.382562 Z-0.125000
G01 X179.865497 Y391.434546 Z-0.125000
G01 X182.322177 Y391.434546 Z-0.125000
G01 X182.322177 Y388.977866 Z-0.125000
G01 X182.322177 Y386.521187 Z-0.125000
G01 X181.830841 Y385.047179 Z-0.125000
G01 X181.830841 Y383.081835 Z-0.125000
G01 X182.322177 Y380.625155 Z-0.125000
G01 X180.848169 Y379.151147 Z-0.125000
G01 X180.848169 Y376.694467 Z-0.125000
G01 X177.900153 Y378.659811 Z-0.125000
G01 X177.900153 Y376.203131 Z-0.125000
G01 X177.900153 Y373.255115 Z-0.125000
G01 X177.900153 Y371.289771 Z-0.125000
G01 X175.934809 Y370.307099 Z-0.125000
G01 X174.460801 Y368.341755 Z-0.125000
G01 X174.460801 Y366.376411 Z-0.125000
G01 X173.478129 Y364.902403 Z-0.125000
G01 X171.512786 Y362.445723 Z-0.125000
G01 X170.038778 Y359.989043 Z-0.125000
G01 X167.582098 Y359.006371 Z-0.125000
G01 X166.599426 Y361.463051 Z-0.125000
G01 X164.634082 Y359.497707 Z-0.125000
G01 X164.634082 Y357.041027 Z-0.125000
G01 X165.125418 Y354.584347 Z-0.125000
G01 X164.142746 Y352.619003 Z-0.125000
G01 X162.668738 Y350.653659 Z-0.125000
G01 X161.194730 Y349.179651 Z-0.125000
G01 X162.668738 Y345.740299 Z-0.125000
G01 X164.142746 Y347.214307 Z-0.125000
G01 X165.616754 Y349.179651 Z-0.125000
G01 X168.073434 Y350.162323 Z-0.125000
G01 X169.547442 Y353.110339 Z-0.125000
G01 X168.564770 Y356.058355 Z-0.125000
G01 X171.512786 Y356.549691 Z-0.125000
G01 X173.969465 Y358.515035 Z-0.125000
G01 X174.952137 Y361.463051 Z-0.125000
G01 X177.900153 Y361.954387 Z-0.125000
G01 X179.865497 Y362.937059 Z-0.125000
G01 X181.830841 Y364.411067 Z-0.125000
G01 X178.882825 Y365.393739 Z-0.125000
G01 X178.391489 Y367.850419 Z-0.125000
G01 X180.848169 Y367.850419 Z-0.125000
G01 X182.813513 Y368.341755 Z-0.125000
G01 X183.304849 Y365.393739 Z-0.125000
G01 X185.761529 Y365.393739 Z-0.125000
G01 X185.761529 Y367.359083 Z-0.125000
G01 X186.744201 Y368.833091 Z-0.125000
G01 X188.218209 Y369.815763 Z-0.125000
G01 X189.692217 Y371.289771 Z-0.125000
G01 X189.692217 Y373.746451 Z-0.125000
G01 X190.674889 Y375.711795 Z-0.125000
G01 X192.148897 Y378.168475 Z-0.125000
G01 X193.131569 Y380.133819 Z-0.125000
G01 X197.062257 Y380.133819 Z-0.125000
G01 X197.062257 Y383.081835 Z-0.125000
G01 X197.062257 Y385.538515 Z-0.125000
G01 X196.079585 Y388.977866 Z-0.125000
G01 X192.148897 Y389.469202 Z-0.125000
G01 X191.657561 Y387.503858 Z-0.125000
G01 X192.148897 Y384.555843 Z-0.125000
G01 X190.674889 Y383.573171 Z-0.125000
G01 X189.692217 Y381.607827 Z-0.125000
G01 X188.218209 Y380.133819 Z-0.125000
G01 X188.218209 Y378.168475 Z-0.125000
G01 X187.235537 Y376.203131 Z-0.125000
G01 X186.744201 Y374.237787 Z-0.125000
G01 X186.252865 Y372.272443 Z-0.125000
G01 X183.796185 Y370.798435 Z-0.125000
G01 X181.339505 Y370.798435 Z-0.125000
G01 X180.356833 Y373.746451 Z-0.125000
G01 X182.813513 Y373.255115 Z-0.125000
G01 X183.796185 Y374.729123 Z-0.125000
G01 X183.796185 Y377.185803 Z-0.125000
G01 X185.270193 Y378.659811 Z-0.125000
G01 X185.270193 Y381.116491 Z-0.125000
G01 X185.761529 Y383.573171 Z-0.125000
G01 X187.235537 Y384.555843 Z-0.125000
G01 X188.218209 Y386.521187 Z-0.125000
G01 X188.218209 Y388.486530 Z-0.125000
G01 X185.270193 Y387.012522 Z-0.125000
G01 X185.270193 Y389.469202 Z-0.125000
G01 X185.270193 Y391.434546 Z-0.125000
G01 X187.726873 Y391.925882 Z-0.125000
G01 X190.674889 Y392.908554 Z-0.125000
G01 X194.605577 Y392.417218 Z-0.125000
G01 X197.553593 Y393.399890 Z-0.125000
G01 X195.588249 Y396.839242 Z-0.125000
G01 X198.536265 Y397.330578 Z-0.125000
G01 X197.062257 Y400.278594 Z-0.125000
G01 X199.027601 Y401.752602 Z-0.125000
G01 X200.010273 Y404.209282 Z-0.125000
G01 X199.027601 Y407.157298 Z-0.125000
G01 X199.027601 Y410.105314 Z-0.125000
G01 X198.536265 Y413.053330 Z-0.125000
G01 X199.518937 Y415.510010 Z-0.125000
G01 X200.992945 Y416.492682 Z-0.125000
G01 X202.958289 Y417.966690 Z-0.125000
G01 X204.432297 Y419.932034 Z-0.125000
G01 X205.414969 Y421.897378 Z-0.125000
G01 X207.380313 Y422.880050 Z-0.125000
G01 X206.397641 Y425.828066 Z-0.125000
G01 X203.449625 Y425.336730 Z-0.125000
G01 X202.958289 Y427.793410 Z-0.125000
G01 X204.923633 Y429.758754 Z-0.125000
G01 X207.871649 Y427.793410 Z-0.125000
G01 X209.836993 Y429.758754 Z-0.125000
G01 X211.802337 Y430.741426 Z-0.125000
G01 X211.311001 Y433.198106 Z-0.125000
G01 X212.785009 Y435.163450 Z-0.125000
G01 X213.276345 Y437.620130 Z-0.125000
G01 X214.259017 Y440.568146 Z-0.125000
G01 X216.224361 Y437.620130 Z-0.125000
G01 X217.698369 Y440.076810 Z-0.125000
G01 X219.663713 Y441.550818 Z-0.125000
G01 X221.629057 Y443.024826 Z-0.125000
G01 X221.137721 Y446.464178 Z-0.125000
G01 X223.103065 Y447.446850 Z-0.125000
G01 X224.085737 Y449.412194 Z-0.125000
G01 X223.103065 Y451.377538 Z-0.125000
G01 X223.594401 Y452.851546 Z-0.125000
G01 X223.594401 Y454.816890 Z-0.125000
G01 X225.068409 Y456.782234 Z-0.125000
G01 X227.033753 Y458.256242 Z-0.125000
G01 X228.999097 Y459.730250 Z-0.125000
G01 X227.525089 Y462.186930 Z-0.125000
G01 X230.473105 Y463.660938 Z-0.125000
G01 X231.455777 Y466.608954 Z-0.125000
G01 X234.403793 Y467.591626 Z-0.125000
G01 X235.877801 Y464.643610 Z-0.125000
G01 X234.403793 Y462.678266 Z-0.125000
G01 X232.929785 Y459.238914 Z-0.125000
G01 X230.964441 Y455.308226 Z-0.125000
G01 X228.507761 Y453.834218 Z-0.125000
G01 X228.016425 Y451.868874 Z-0.125000
G01 X228.999097 Y449.412194 Z-0.125000
G01 X228.999097 Y446.955514 Z-0.125000
G01 X227.033753 Y444.990170 Z-0.125000
G01 X224.085737 Y444.007498 Z-0.125000
G01 X225.559745 Y441.059482 Z-0.125000
G01 X223.594401 Y439.585474 Z-0.125000
G01 X221.629057 Y438.111466 Z-0.125000
G01 X219.663713 Y437.128794 Z-0.125000
G01 X221.137721 Y434.672114 Z-0.125000
G01 X218.189705 Y434.672114 Z-0.125000
G01 X215.733025 Y434.180778 Z-0.125000
G01 X214.750353 Y432.215434 Z-0.125000
G01 X215.241689 Y430.250090 Z-0.125000
G01 X213.276345 Y427.793410 Z-0.125000
G01 X211.311001 Y426.319402 Z-0.125000
G01 X209.836993 Y424.845394 Z-0.125000
G01 X210.819665 Y421.897378 Z-0.125000
G01 X213.276345 Y422.880050 Z-0.125000
G01 X214.750353 Y424.354058 Z-0.125000
G01 X217.207033 Y424.845394 Z-0.125000
G01 X216.715697 Y427.302074 Z-0.125000
G01 X219.663713 Y427.302074 Z-0.125000
G01 X218.681041 Y429.758754 Z-0.125000
G01 X218.681041 Y431.724098 Z-0.125000
G01 X221.629057 Y431.724098 Z-0.125000
G01 X222.611729 Y428.284746 Z-0.125000
G01 X225.068409 Y428.776082 Z-0.125000
G01 X225.068409 Y431.232762 Z-0.125000
G01 X227.033753 Y432.706770 Z-0.125000
G01 X224.577073 Y435.163450 Z-0.125000
G01 X226.542417 Y436.637458 Z-0.125000
G01 X229.490433 Y438.111466 Z-0.125000
G01 X229.490433 Y441.059482 Z-0.125000
G01 X231.455777 Y442.533490 Z-0.125000
G01 X234.403793 Y444.990170 Z-0.125000
G01 X234.895129 Y447.446850 Z-0.125000
G01 X233.912457 Y450.394866 Z-0.125000
G01 X235.386465 Y452.360210 Z-0.125000
G01 X233.912457 Y456.290898 Z-0.125000
G01 X236.369137 Y459.238914 Z-0.125000
G01 X239.808489 Y460.221586 Z-0.125000
G01 X240.791161 Y462.678266 Z-0.125000
G01 X238.825817 Y466.117618 Z-0.125000
G01 X241.282497 Y467.100290 Z-0.125000
G01 X242.265169 Y469.556970 Z-0.125000
G01 X245.704521 Y469.556970 Z-0.125000
G01 X247.669865 Y470.539642 Z-0.125000
G01 X250.617881 Y470.539642 Z-0.125000
G01 X254.057233 Y470.048306 Z-0.125000
G01 X253.565897 Y467.100290 Z-0.125000
G01 X250.617881 Y467.100290 Z-0.125000
G01 X248.161201 Y466.117618 Z-0.125000
G01 X245.704521 Y465.626282 Z-0.125000
G01 X244.230513 Y463.169602 Z-0.125000
G01 X245.213185 Y459.730250 Z-0.125000
G01 X244.230513 Y458.256242 Z-0.125000
G01 X241.282497 Y456.290898 Z-0.125000
G01 X239.317153 Y454.816890 Z-0.125000
G01 X239.808489 Y452.360210 Z-0.125000
G01 X240.299825 Y448.920858 Z-0.125000
G01 X240.299825 Y446.464178 Z-0.125000
G01 X240.791161 Y444.007498 Z-0.125000
G01 X239.808489 Y441.550818 Z-0.125000
G01 X235.386465 Y441.550818 Z-0.125000
G01 X235.386465 Y438.602802 Z-0.125000
G01 X233.912457 Y436.637458 Z-0.125000
G01 X231.455777 Y434.672114 Z-0.125000
G01 X230.473105 Y433.198106 Z-0.125000
G01 X231.455777 Y429.758754 Z-0.125000
G01 X229.490433 Y428.776082 Z-0.125000
G01 X228.999097 Y426.810738 Z-0.125000
G01 X225.559745 Y425.828066 Z-0.125000
G01 X226.542417 Y422.880050 Z-0.125000
G01 X229.490433 Y423.371386 Z-0.125000
G01 X230.473105 Y420.423370 Z-0.125000
G01 X233.912457 Y420.423370 Z-0.125000
G01 X232.929785 Y423.371386 Z-0.125000
G01 X234.403793 Y425.336730 Z-0.125000
G01 X236.369137 Y427.302074 Z-0.125000
G01 X235.386465 Y430.250090 Z-0.125000
G01 X235.877801 Y432.706770 Z-0.125000
G01 X238.825817 Y433.198106 Z-0.125000
G01 X240.299825 Y435.163450 Z-0.125000
G01 X240.299825 Y437.620130 Z-0.125000
G01 X244.230513 Y438.602802 Z-0.125000
G01 X246.195857 Y441.059482 Z-0.125000
G01 X245.704521 Y444.007498 Z-0.125000
G01 X245.704521 Y446.464178 Z-0.125000
G01 X245.213185 Y449.412194 Z-0.125000
G01 X245.213185 Y451.868874 Z-0.125000
G01 X245.704521 Y454.325554 Z-0.125000
G01 X248.652537 Y455.308226 Z-0.125000
G01 X252.091889 Y455.308226 Z-0.125000
G01 X252.583225 Y458.256242 Z-0.125000
G01 X249.143873 Y458.747578 Z-0.125000
G01 X248.161201 Y461.695594 Z-0.125000
G01 X250.126545 Y462.678266 Z-0.125000
G01 X252.583225 Y463.660938 Z-0.125000
G01 X254.057233 Y460.712922 Z-0.125000
G01 X255.531241 Y463.169602 Z-0.125000
G01 X257.005248 Y464.152274 Z-0.125000
G01 X257.005248 Y467.100290 Z-0.125000
G01 X257.987920 Y468.574298 Z-0.125000
G01 X261.427272 Y468.082962 Z-0.125000
G01 X264.866624 Y467.591626 Z-0.125000
G01 X263.883952 Y465.134946 Z-0.125000
G01 X260.444600 Y464.643610 Z-0.125000
G01 X261.427272 Y462.186930 Z-0.125000
G01 X259.461928 Y460.712922 Z-0.125000
G01 X258.479256 Y458.747578 Z-0.125000
G01 X255.531241 Y458.256242 Z-0.125000
G01 X256.022577 Y455.799562 Z-0.125000
G01 X256.022577 Y453.342882 Z-0.125000
G01 X254.057233 Y452.360210 Z-0.125000
G01 X251.109217 Y451.868874 Z-0.125000
G01 X249.635209 Y450.394866 Z-0.125000
G01 X249.635209 Y447.938186 Z-0.125000
G01 X249.635209 Y445.481506 Z-0.125000
G01 X250.617881 Y442.042154 Z-0.125000
G01 X250.617881 Y439.094138 Z-0.125000
G01 X248.652537 Y437.128794 Z-0.125000
G01 X246.195857 Y435.163450 Z-0.125000
G01 X246.687193 Y433.198106 Z-0.125000
G01 X245.213185 Y431.232762 Z-0.125000
G01 X242.756505 Y429.267418 Z-0.125000
G01 X239.808489 Y428.284746 Z-0.125000
G01 X241.282497 Y424.845394 Z-0.125000
G01 X238.334481 Y423.862722 Z-0.125000
G01 X237.351809 Y420.914706 Z-0.125000
G01 X241.282497 Y420.423370 Z-0.125000
G01 X239.808489 Y417.475354 Z-0.125000
G01 X236.860473 Y416.984018 Z-0.125000
G01 X233.912457 Y416.984018 Z-0.125000
G01 X231.455777 Y416.492682 Z-0.125000
G01 X228.016425 Y416.984018 Z-0.125000
G01 X228.016425 Y419.440698 Z-0.125000
G01 X225.068409 Y419.932034 Z-0.125000
G01 X224.577073 Y417.966690 Z-0.125000
G01 X223.103065 Y416.492682 Z-0.125000
G01 X222.120393 Y414.527338 Z-0.125000
G01 X226.542417 Y415.018674 Z-0.125000
G01 X225.068409 Y413.544666 Z-0.125000
G01 X223.594401 Y411.087986 Z-0.125000
G01 X222.611729 Y409.122642 Z-0.125000
G01 X221.629057 Y407.157298 Z-0.125000
G01 X221.137721 Y405.683290 Z-0.125000
G01 X222.120393 Y403.226610 Z-0.125000
G01 X218.681041 Y403.226610 Z-0.125000
G01 X219.172377 Y400.769930 Z-0.125000
G01 X218.681041 Y397.821914 Z-0.125000
G01 X217.207033 Y395.856570 Z-0.125000
G01 X215.241689 Y393.399890 Z-0.125000
G01 X212.785009 Y390.943210 Z-0.125000
G01 X211.311001 Y389.469202 Z-0.125000
G01 X211.802337 Y386.521187 Z-0.125000
G01 X211.802337 Y384.064507 Z-0.125000
G01 X211.802337 Y381.607827 Z-0.125000
G01 X213.276345 Y378.659811 Z-0.125000
G01 X213.276345 Y376.203131 Z-0.125000
G01 X211.802337 Y373.255115 Z-0.125000
G01 X212.293673 Y370.307099 Z-0.125000
G01 X207.380313 Y370.798435 Z-0.125000
G01 X206.397641 Y368.341755 Z-0.125000
G01 X202.466953 Y367.850419 Z-0.125000
G01 X200.992945 Y365.393739 Z-0.125000
G01 X199.518937 Y362.937059 Z-0.125000
G01 X200.501609 Y359.497707 Z-0.125000
G01 X199.518937 Y357.041027 Z-0.125000
G01 X202.466953 Y353.601675 Z-0.125000
G01 X199.518937 Y352.619003 Z-0.125000
G01 X198.536265 Y350.162323 Z-0.125000
G01 X194.605577 Y349.670987 Z-0.125000
G01 X192.148897 Y348.196979 Z-0.125000
G01 X190.674889 Y346.231635 Z-0.125000
G01 X188.218209 Y344.266291 Z-0.125000
G01 X184.778857 Y344.266291 Z-0.125000
G01 X182.322177 Y341.318275 Z-0.125000
G01 X181.830841 Y344.266291 Z-0.125000
G01 X179.865497 Y343.774955 Z-0.125000
G01 X178.391489 Y342.300947 Z-0.125000
G01 X178.882825 Y340.335603 Z-0.125000
G01 X176.426145 Y339.844267 Z-0.125000
G01 X174.460801 Y338.370259 Z-0.125000
G01 X172.004122 Y336.896251 Z-0.125000
G01 X172.004122 Y334.439571 Z-0.125000
G01 X170.038778 Y332.965563 Z-0.125000
G01 X170.038778 Y329.034875 Z-0.125000
G01 X166.108090 Y327.069531 Z-0.125000
G01 X165.125418 Y330.017547 Z-0.125000
G01 X161.686066 Y329.526211 Z-0.125000
G01 X161.686066 Y326.578195 Z-0.125000
G01 X162.177402 Y324.612851 Z-0.125000
G01 X162.668738 Y321.664835 Z-0.125000
G01 X167.090762 Y323.138843 Z-0.125000
G01 X167.582098 Y319.208155 Z-0.125000
G01 X165.616754 Y317.734147 Z-0.125000
G01 X161.686066 Y318.225483 Z-0.125000
G01 X157.264042 Y319.208155 Z-0.125000
G01 X158.246714 Y315.768803 Z-0.125000
G01 X155.298698 Y314.294795 Z-0.125000
G01 X151.859346 Y313.312123 Z-0.125000
G01 X149.894002 Y310.364107 Z-0.125000
G01 X151.368010 Y306.433419 Z-0.125000
G01 X150.385338 Y303.976739 Z-0.125000
G01 X145.471978 Y303.976739 Z-0.125000
G01 X147.437322 Y300.537388 Z-0.125000
G01 X144.980642 Y299.063380 Z-0.125000
G01 X142.032626 Y298.080708 Z-0.125000
G01 X139.084610 Y297.098036 Z-0.125000
G01 X135.645258 Y296.606700 Z-0.125000
G01 X134.171250 Y294.150020 Z-0.125000
G01 X131.714570 Y292.184676 Z-0.125000
G01 X130.731898 Y289.727996 Z-0.125000
G01 X126.801210 Y288.253988 Z-0.125000
G01 X123.853194 Y287.762652 Z-0.125000
G01 X125.818538 Y291.202004 Z-0.125000
G01 X125.818538 Y294.150020 Z-0.125000
G01 X125.818538 Y296.606700 Z-0.125000
G01 X129.257890 Y297.098036 Z-0.125000
G01 X130.240562 Y299.554716 Z-0.125000
G01 X134.662586 Y301.028724 Z-0.125000
G01 X137.610602 Y302.502731 Z-0.125000
G01 X140.558618 Y303.976739 Z-0.125000
G01 X143.015298 Y307.907427 Z-0.125000
G01 X145.471978 Y309.872771 Z-0.125000
G01 X143.015298 Y314.294795 Z-0.125000
G01 X145.963314 Y315.768803 Z-0.125000
G01 X148.419994 Y318.225483 Z-0.125000
G01 X152.350682 Y318.225483 Z-0.125000
G01 X151.859346 Y320.682163 Z-0.125000
G01 X153.333354 Y323.138843 Z-0.125000
G01 X157.264042 Y322.647507 Z-0.125000
G01 X157.264042 Y325.595523 Z-0.125000
G01 X156.281370 Y328.052203 Z-0.125000
G01 X158.246714 Y330.017547 Z-0.125000
G01 X158.246714 Y333.456899 Z-0.125000
G01 X161.686066 Y333.948235 Z-0.125000
G01 X165.616754 Y333.456899 Z-0.125000
G01 X164.634082 Y336.896251 Z-0.125000
G01 X168.564770 Y337.387587 Z-0.125000
G01 X168.073434 Y340.335603 Z-0.125000
G01 X171.021450 Y340.335603 Z-0.125000
G01 X172.986793 Y341.809611 Z-0.125000
G01 X175.443473 Y342.792283 Z-0.125000
G01 X175.443473 Y345.248963 Z-0.125000
G01 X176.426145 Y346.722971 Z-0.125000
G01 X178.882825 Y347.705643 Z-0.125000
G01 X177.900153 Y350.162323 Z-0.125000
G01 X178.391489 Y351.636331 Z-0.125000
G01 X179.374161 Y353.110339 Z-0.125000
G01 X181.830841 Y353.601675 Z-0.125000
G01 X181.830841 Y355.567019 Z-0.125000
G01 X182.813513 Y357.041027 Z-0.125000
G01 X186.252865 Y359.006371 Z-0.125000
G01 X187.726873 Y360.480379 Z-0.125000
G01 X190.674889 Y360.971715 Z-0.125000
G01 X190.674889 Y359.006371 Z-0.125000
G01 X189.200881 Y357.532363 Z-0.125000
G01 X188.218209 Y356.058355 Z-0.125000
G01 X185.761529 Y356.549691 Z-0.125000
G01 X185.761529 Y354.584347 Z-0.125000
G01 X184.778857 Y353.110339 Z-0.125000
G01 X183.304849 Y350.653659 Z-0.125000
G01 X182.813513 Y348.688315 Z-0.125000
G01 X182.322177 Y346.722971 Z-0.125000
G01 X186.252865 Y347.705643 Z-0.125000
G01 X186.252865 Y350.162323 Z-0.125000
G01 X188.218209 Y351.144995 Z-0.125000
G01 X189.200881 Y353.110339 Z-0.125000
G01 X192.148897 Y353.110339 Z-0.125000
G01 X192.148897 Y355.075683 Z-0.125000
G01 X194.114241 Y356.058355 Z-0.125000
G01 X194.114241 Y358.023699 Z-0.125000
G01 X193.622905 Y360.480379 Z-0.125000
G01 X196.079585 Y361.954387 Z-0.125000
G01 X192.640233 Y363.428395 Z-0.125000
G01 X193.622905 Y365.393739 Z-0.125000
G01 X195.588249 Y366.376411 Z-0.125000
G01 X196.079585 Y368.833091 Z-0.125000
G01 X198.044929 Y370.798435 Z-0.125000
G01 X201.484281 Y371.289771 Z-0.125000
G01 X202.958289 Y373.255115 Z-0.125000
G01 X206.888977 Y373.746451 Z-0.125000
G01 X207.380313 Y377.185803 Z-0.125000
G01 X207.871649 Y379.151147 Z-0.125000
G01 X206.397641 Y382.590499 Z-0.125000
G01 X206.397641 Y385.047179 Z-0.125000
G01 X206.888977 Y387.995194 Z-0.125000
G01 X206.888977 Y390.943210 Z-0.125000
G01 X208.362985 Y393.891226 Z-0.125000
G01 X211.311001 Y394.382562 Z-0.125000
G01 X213.767681 Y396.839242 Z-0.125000
G01 X214.259017 Y399.787258 Z-0.125000
G01 X215.733025 Y401.261266 Z-0.125000
G01 X215.241689 Y404.700618 Z-0.125000
G01 X217.698369 Y406.174626 Z-0.125000
G01 X216.715697 Y409.122642 Z-0.125000
G01 X218.681041 Y410.105314 Z-0.125000
G01 X220.155049 Y412.070658 Z-0.125000
G01 X219.172377 Y414.527338 Z-0.125000
G01 X216.715697 Y413.544666 Z-0.125000
G01 X214.750353 Y412.561994 Z-0.125000
G01 X212.785009 Y410.596650 Z-0.125000
G01 X213.276345 Y408.631306 Z-0.125000
G01 X210.819665 Y407.648634 Z-0.125000
G01 X208.854321 Y406.665962 Z-0.125000
G01 X212.293673 Y404.209282 Z-0.125000
G01 X210.328329 Y402.735274 Z-0.125000
G01 X210.819665 Y399.787258 Z-0.125000
G01 X209.345657 Y397.330578 Z-0.125000
G01 X205.906305 Y397.821914 Z-0.125000
G01 X206.888977 Y400.769930 Z-0.125000
G01 X206.888977 Y403.226610 Z-0.125000
G01 X205.906305 Y406.174626 Z-0.125000
G01 X206.397641 Y409.613978 Z-0.125000
G01 X208.362985 Y411.087986 Z-0.125000
G01 X208.854321 Y413.053330 Z-0.125000
G01 X211.311001 Y414.036002 Z-0.125000
G01 X212.293673 Y416.001346 Z-0.125000
G01 X215.241689 Y416.492682 Z-0.125000
G01 X217.698369 Y417.475354 Z-0.125000
G01 X220.155049 Y417.966690 Z-0.125000
G01 X221.137721 Y419.932034 Z-0.125000
G01 X221.629057 Y421.406042 Z-0.125000
G01 X223.594401 Y422.880050 Z-0.125000
G01 X222.611729 Y425.336730 Z-0.125000
G01 X220.155049 Y424.354058 Z-0.125000
G01 X218.189705 Y421.897378 Z-0.125000
G01 X216.715697 Y420.423370 Z-0.125000
G01 X214.259017 Y419.932034 Z-0.125000
G01 X211.802337 Y418.949362 Z-0.125000
G01 X208.854321 Y419.440698 Z-0.125000
G01 X208.362985 Y417.475354 Z-0.125000
G01 X206.888977 Y416.001346 Z-0.125000
G01 X204.923633 Y414.036002 Z-0.125000
G01 X202.466953 Y412.561994 Z-0.125000
G01 X202.466953 Y410.105314 Z-0.125000
G01 X202.466953 Y407.157298 Z-0.125000
G01 X203.449625 Y403.717946 Z-0.125000
G01 X202.958289 Y400.769930 Z-0.125000
G01 X201.975617 Y397.821914 Z-0.125000
G01 X204.432297 Y394.873898 Z-0.125000
G01 X201.975617 Y393.399890 Z-0.125000
G01 X201.975617 Y390.451874 Z-0.125000
G01 X200.501609 Y388.486530 Z-0.125000
G01 X200.501609 Y386.029851 Z-0.125000
G01 X201.975617 Y382.590499 Z-0.125000
G01 X201.975617 Y380.133819 Z-0.125000
G01 X202.958289 Y377.185803 Z-0.125000
G01 X198.536265 Y377.185803 Z-0.125000
G01 X196.570921 Y375.220459 Z-0.125000
G01 X193.622905 Y374.729123 Z-0.125000
G01 X193.131569 Y372.763779 Z-0.125000
G01 X192.640233 Y370.798435 Z-0.125000
G01 X192.148897 Y368.833091 Z-0.125000
G01 X190.674889 Y367.359083 Z-0.125000
G01 X189.200881 Y365.885075 Z-0.125000
G01 X189.692217 Y363.919731 Z-0.125000
G01 X187.726873 Y362.937059 Z-0.125000
G01 X185.270193 Y362.445723 Z-0.125000
G01 X183.304849 Y361.463051 Z-0.125000
G01 X182.813513 Y359.989043 Z-0.125000
G01 X180.848169 Y359.497707 Z-0.125000
G01 X178.391489 Y358.515035 Z-0.125000
G01 X177.900153 Y356.549691 Z-0.125000
G01 X175.443473 Y355.075683 Z-0.125000
G01 X173.478129 Y353.110339 Z-0.125000
G01 X173.969465 Y350.653659 Z-0.125000
G01 X172.004122 Y349.179651 Z-0.125000
G01 X172.004122 Y346.231635 Z-0.125000
G01 X171.512786 Y343.774955 Z-0.125000
G01 X169.056106 Y343.283619 Z-0.125000
G01 X168.564770 Y346.722971 Z-0.125000
G01 X166.599426 Y345.740299 Z-0.125000
G01 X166.108090 Y343.283619 Z-0.125000
G01 X163.651410 Y342.300947 Z-0.125000
G01 X162.668738 Y340.826939 Z-0.125000
G01 X159.720722 Y338.370259 Z-0.125000
G01 X157.264042 Y337.878923 Z-0.125000
G01 X157.264042 Y342.300947 Z-0.125000
G01 X157.264042 Y345.248963 Z-0.125000
G01 X157.264042 Y347.705643 Z-0.125000
G01 X156.281370 Y351.144995 Z-0.125000
G01 X159.229386 Y353.110339 Z-0.125000
G01 X160.703394 Y354.093011 Z-0.125000
G01 X161.194730 Y356.549691 Z-0.125000
G01 X161.194730 Y359.006371 Z-0.125000
G01 X161.686066 Y361.463051 Z-0.125000
G01 X163.651410 Y363.428395 Z-0.125000
G01 X165.125418 Y364.902403 Z-0.125000
G01 X167.582098 Y365.393739 Z-0.125000
G01 X168.564770 Y362.937059 Z-0.125000
G01 X170.038778 Y365.393739 Z-0.125000
G01 X170.530114 Y367.359083 Z-0.125000
G01 X171.512786 Y369.324427 Z-0.125000
G01 X172.986793 Y371.289771 Z-0.125000
G01 X174.460801 Y373.255115 Z-0.125000
G01 X173.969465 Y375.711795 Z-0.125000
G01 X174.460801 Y377.185803 Z-0.125000
G01 X173.478129 Y379.642483 Z-0.125000
G01 X174.460801 Y380.625155 Z-0.125000
G01 X177.408817 Y381.116491 Z-0.125000
G01 X179.374161 Y382.590499 Z-0.125000
G01 X178.391489 Y385.538515 Z-0.125000
G01 X178.391489 Y387.503858 Z-0.125000
G01 X179.374161 Y388.977866 Z-0.125000
G01 X177.408817 Y391.434546 Z-0.125000
G01 X175.934809 Y389.469202 Z-0.125000
G01 X174.952137 Y387.503858 Z-0.125000
G01 X175.934809 Y385.047179 Z-0.125000
G01 X174.952137 Y383.573171 Z-0.125000
G01 X172.495457 Y383.573171 Z-0.125000
G01 X170.530114 Y382.099163 Z-0.125000
G01 X170.530114 Y379.642483 Z-0.125000
G01 X167.582098 Y379.151147 Z-0.125000
G01 X165.616754 Y378.168475 Z-0.125000
G01 X163.651410 Y377.677139 Z-0.125000
G01 X163.160074 Y375.711795 Z-0.125000
G01 X162.177402 Y374.237787 Z-0.125000
G01 X160.212058 Y373.255115 Z-0.125000
G01 X160.212058 Y369.815763 Z-0.125000
G01 X162.177402 Y370.307099 Z-0.125000
G01 X164.142746 Y370.798435 Z-0.125000
G01 X165.616754 Y372.272443 Z-0.125000
G01 X166.599426 Y374.237787 Z-0.125000
G01 X168.073434 Y375.711795 Z-0.125000
G01 X170.530114 Y377.185803 Z-0.125000
G01 X171.021450 Y375.220459 Z-0.125000
G01 X170.038778 Y372.763779 Z-0.125000
G01 X168.564770 Y371.289771 Z-0.125000
G01 X167.582098 Y369.324427 Z-0.125000
G01 X166.599426 Y368.341755 Z-0.125000
G01 X164.142746 Y367.359083 Z-0.125000
G01 X161.686066 Y366.867747 Z-0.125000
G01 X159.229386 Y366.867747 Z-0.125000
G01 X160.212058 Y364.411067 Z-0.125000
G01 X157.264042 Y364.411067 Z-0.125000
G01 X158.246714 Y361.954387 Z-0.125000
G01 X157.755378 Y359.497707 Z-0.125000
G01 X157.755378 Y357.041027 Z-0.125000
G01 X154.316026 Y355.075683 Z-0.125000
G01 X151.859346 Y352.127667 Z-0.125000
G01 X152.350682 Y348.688315 Z-0.125000
G01 X151.859346 Y346.231635 Z-0.125000
G01 X152.842018 Y342.792283 Z-0.125000
G01 X151.368010 Y340.335603 Z-0.125000
G01 X153.333354 Y337.387587 Z-0.125000
G01 X154.316026 Y333.948235 Z-0.125000
G01 X153.333354 Y331.982891 Z-0.125000
G01 X150.385338 Y331.000219 Z-0.125000
G01 X152.350682 Y327.560867 Z-0.125000
G01 X149.402666 Y326.578195 Z-0.125000
G01 X147.437322 Y324.612851 Z-0.125000
G01 X146.454650 Y322.156171 Z-0.125000
G01 X143.015298 Y320.190827 Z-0.125000
G01 X142.032626 Y323.630179 Z-0.125000
G01 X143.015298 Y327.069531 Z-0.125000
G01 X144.489306 Y329.526211 Z-0.125000
G01 X146.454650 Y331.491555 Z-0.125000
G01 X147.928658 Y334.930907 Z-0.125000
G01 X149.894002 Y336.404915 Z-0.125000
G01 X148.419994 Y339.844267 Z-0.125000
G01 X145.471978 Y339.352931 Z-0.125000
G01 X143.015298 Y337.878923 Z-0.125000
G01 X142.523962 Y335.422243 Z-0.125000
G01 X140.558618 Y333.456899 Z-0.125000
G01 X139.084610 Y331.000219 Z-0.125000
G01 X137.610602 Y328.543539 Z-0.125000
G01 X136.136594 Y326.086859 Z-0.125000
G01 X137.119266 Y322.647507 Z-0.125000
G01 X138.593274 Y319.208155 Z-0.125000
G01 X137.119266 Y316.260139 Z-0.125000
G01 X134.662586 Y312.329451 Z-0.125000
G01 X139.084610 Y312.329451 Z-0.125000
G01 X138.101938 Y307.907427 Z-0.125000
G01 X133.679914 Y307.416091 Z-0.125000
G01 X131.223234 Y305.450747 Z-0.125000
G01 X129.257890 Y302.994067 Z-0.125000
G01 X125.327202 Y301.520060 Z-0.125000
G01 X122.379186 Y300.537388 Z-0.125000
G01 X119.431170 Y299.554716 Z-0.125000
G01 X115.991818 Y298.080708 Z-0.125000
G01 X116.974490 Y294.641356 Z-0.125000
G01 X121.396514 Y296.115364 Z-0.125000
G01 X121.887850 Y292.184676 Z-0.125000
G01 X118.448498 Y290.710668 Z-0.125000
G01 X119.431170 Y287.762652 Z-0.125000
G01 X119.922506 Y284.814636 Z-0.125000
G01 X116.483154 Y284.323300 Z-0.125000
G01 X113.535138 Y283.831964 Z-0.125000
G01 X112.552466 Y279.901276 Z-0.125000
G01 X116.483154 Y279.901276 Z-0.125000
G01 X114.026474 Y276.461924 Z-0.125000
G01 X109.604450 Y276.953260 Z-0.125000
G01 X109.113114 Y274.496580 Z-0.125000
G01 X109.113114 Y270.074556 Z-0.125000
G01 X106.656434 Y268.109212 Z-0.125000
G01 X105.673762 Y264.669860 Z-0.125000
G01 X103.217082 Y262.704516 Z-0.125000
G01 X101.251738 Y260.247836 Z-0.125000
G01 X102.234410 Y257.299820 Z-0.125000
G01 X103.217082 Y253.369132 Z-0.125000
G01 X103.217082 Y250.912452 Z-0.125000
G01 X108.130442 Y251.895124 Z-0.125000
G01 X107.639106 Y254.843140 Z-0.125000
G01 X106.656434 Y258.282492 Z-0.125000
G01 X108.130442 Y260.247836 Z-0.125000
G01 X111.569794 Y260.247836 Z-0.125000
G01 X109.604450 Y264.178524 Z-0.125000
G01 X111.569794 Y265.652532 Z-0.125000
G01 X114.026474 Y267.617876 Z-0.125000
G01 X112.061130 Y271.057228 Z-0.125000
G01 X115.009146 Y272.531236 Z-0.125000
G01 X118.939834 Y273.022572 Z-0.125000
G01 X118.448498 Y275.970588 Z-0.125000
G01 X121.396514 Y276.953260 Z-0.125000
G01 X120.413842 Y280.392612 Z-0.125000
G01 X123.853194 Y280.883948 Z-0.125000
G01 X124.835866 Y283.831964 Z-0.125000
G01 X128.766554 Y283.831964 Z-0.125000
G01 X131.714570 Y285.305972 Z-0.125000
G01 X134.662586 Y286.288644 Z-0.125000
G01 X137.610602 Y287.271316 Z-0.125000
G01 X136.136594 Y289.727996 Z-0.125000
G01 X138.593274 Y291.693340 Z-0.125000
G01 X140.558618 Y293.658684 Z-0.125000
G01 X144.980642 Y293.167348 Z-0.125000
G01 X146.945986 Y294.641356 Z-0.125000
G01 X149.894002 Y296.115364 Z-0.125000
G01 X153.333354 Y296.606700 Z-0.125000
G01 X152.350682 Y300.046052 Z-0.125000
G01 X155.790034 Y301.520060 Z-0.125000
G01 X156.772706 Y305.450747 Z-0.125000
G01 X155.790034 Y308.890099 Z-0.125000
G01 X158.738050 Y309.872771 Z-0.125000
G01 X160.212058 Y312.329451 Z-0.125000
G01 X163.160074 Y314.786131 Z-0.125000
G01 X165.125418 Y311.346779 Z-0.125000
G01 X165.125418 Y308.398763 Z-0.125000
G01 X163.160074 Y306.433419 Z-0.125000
G01 X162.177402 Y303.976739 Z-0.125000
G01 X159.229386 Y302.011396 Z-0.125000
G01 X161.194730 Y298.572044 Z-0.125000
G01 X157.755378 Y297.589372 Z-0.125000
G01 X158.246714 Y294.641356 Z-0.125000
G01 X154.807362 Y292.676012 Z-0.125000
G01 X151.859346 Y291.693340 Z-0.125000
G01 X150.876674 Y289.727996 Z-0.125000
G01 X147.928658 Y289.236660 Z-0.125000
G01 X143.997970 Y289.236660 Z-0.125000
G01 X142.032626 Y287.762652 Z-0.125000
G01 X142.523962 Y284.814636 Z-0.125000
G01 X140.067282 Y282.849292 Z-0.125000
G01 X137.119266 Y282.357956 Z-0.125000
G01 X133.679914 Y281.375284 Z-0.125000
G01 X131.223234 Y279.901276 Z-0.125000
G01 X128.275218 Y279.409940 Z-0.125000
G01 X125.818538 Y276.461924 Z-0.125000
G01 X129.749226 Y275.970588 Z-0.125000
G01 X129.257890 Y273.513908 Z-0.125000
G01 X127.292546 Y272.531236 Z-0.125000
G01 X124.344530 Y272.531236 Z-0.125000
G01 X124.344530 Y269.583220 Z-0.125000
G01 X121.396514 Y269.091884 Z-0.125000
G01 X117.957162 Y268.600548 Z-0.125000
G01 X118.939834 Y264.669860 Z-0.125000
G01 X116.483154 Y262.704516 Z-0.125000
G01 X115.500482 Y260.739172 Z-0.125000
G01 X115.500482 Y256.317148 Z-0.125000
G01 X112.061130 Y255.334476 Z-0.125000
G01 X113.043802 Y251.403788 Z-0.125000
G01 X114.026474 Y248.455772 Z-0.125000
G01 X109.604450 Y248.455772 Z-0.125000
G01 X107.639106 Y246.981764 Z-0.125000
G01 X106.165098 Y245.016420 Z-0.125000
G01 X103.217082 Y243.051076 Z-0.125000
G01 X100.269066 Y240.103060 Z-0.125000
G01 X101.743074 Y236.172372 Z-0.125000
G01 X101.743074 Y233.224356 Z-0.125000
G01 X102.725746 Y229.293668 Z-0.125000
G01 X100.760402 Y227.328324 Z-0.125000
G01 X99.286394 Y225.854316 Z-0.125000
G01 X103.217082 Y221.432292 Z-0.125000
G01 X97.812386 Y221.923628 Z-0.125000
G01 X97.812386 Y218.975612 Z-0.125000
G01 X97.812386 Y216.518933 Z-0.125000
G01 X96.829714 Y214.553589 Z-0.125000
G01 X97.321050 Y211.114237 Z-0.125000
G01 X95.847042 Y208.166221 Z-0.125000
G01 X94.373034 Y206.200877 Z-0.125000
G01 X92.899026 Y203.744197 Z-0.125000
G01 X90.442346 Y201.778853 Z-0.125000
G01 X88.477002 Y199.813509 Z-0.125000
G01 X88.968338 Y195.882821 Z-0.125000
G01 X83.563643 Y199.813509 Z-0.125000
G01 X83.072307 Y196.865493 Z-0.125000
G01 X82.580971 Y194.408813 Z-0.125000
G01 X82.089635 Y190.969461 Z-0.125000
G01 X83.072307 Y187.530109 Z-0.125000
G01 X81.598299 Y183.599421 Z-0.125000
G01 X79.141619 Y181.634077 Z-0.125000
G01 X75.702267 Y181.142741 Z-0.125000
G01 X76.193603 Y178.194725 Z-0.125000
G01 X78.650283 Y173.772701 Z-0.125000
G01 X75.210931 Y172.298693 Z-0.125000
G01 X72.262915 Y176.720717 Z-0.125000
G01 X70.788907 Y172.790029 Z-0.125000
G01 X71.771579 Y169.842013 Z-0.125000
G01 X69.806235 Y167.876669 Z-0.125000
G01 X68.332227 Y164.928653 Z-0.125000
G01 X65.875547 Y162.963309 Z-0.125000
G01 X64.892875 Y160.506629 Z-0.125000
G01 X65.875547 Y157.558613 Z-0.125000
G01 X65.875547 Y154.119261 Z-0.125000
G01 X62.436195 Y152.645253 Z-0.125000
G01 X61.944859 Y150.679909 Z-0.125000
G01 X59.488179 Y148.714565 Z-0.125000
G01 X57.031499 Y147.240557 Z-0.125000
G01 X57.522835 Y143.801205 Z-0.125000
G01 X54.083483 Y141.835861 Z-0.125000
G01 X55.066155 Y138.887845 Z-0.125000
G01 X53.592147 Y136.431165 Z-0.125000
G01 X51.626803 Y134.957157 Z-0.125000
G01 X51.135467 Y131.517806 Z-0.125000
G01 X47.696115 Y130.535134 Z-0.125000
G01 X49.661459 Y126.604446 Z-0.125000
G01 X46.713443 Y125.621774 Z-0.125000
G01 X48.678787 Y121.691086 Z-0.125000
G01 X48.187451 Y119.725742 Z-0.125000
G01 X46.713443 Y117.760398 Z-0.125000
G01 X45.239435 Y115.303718 Z-0.125000
G01 X42.782755 Y113.338374 Z-0.125000
G01 X44.256763 Y108.916350 Z-0.125000
G01 X42.782755 Y106.459670 Z-0.125000
G01 X41.308747 Y104.494326 Z-0.125000
G01 X38.360731 Y103.511654 Z-0.125000
G01 X38.360731 Y100.563638 Z-0.125000
G01 X43.274091 Y99.089630 Z-0.125000
G01 X45.239435 Y100.563638 Z-0.125000
G01 X47.204779 Y102.528982 Z-0.125000
G01 X48.187451 Y104.985662 Z-0.125000
G01 X48.187451 Y108.916350 Z-0.125000
G01 X47.696115 Y110.881694 Z-0.125000
G01 X50.644131 Y113.338374 Z-0.125000
G01 X53.592147 Y115.303718 Z-0.125000
G01 X55.557491 Y117.269062 Z-0.125000
G01 X53.592147 Y121.199750 Z-0.125000
G01 X54.574819 Y123.165094 Z-0.125000
G01 X54.083483 Y127.095782 Z-0.125000
G01 X56.540163 Y130.535134 Z-0.125000
G01 X59.488179 Y132.500478 Z-0.125000
G01 X60.470851 Y134.465821 Z-0.125000
G01 X60.962187 Y138.396509 Z-0.125000
G01 X63.418867 Y139.379181 Z-0.125000
G01 X63.418867 Y142.327197 Z-0.125000
G01 X64.892875 Y144.783877 Z-0.125000
G01 X68.332227 Y146.257885 Z-0.125000
G01 X69.314899 Y148.714565 Z-0.125000
G01 X71.771579 Y151.171245 Z-0.125000
G01 X72.754251 Y153.627925 Z-0.125000
G01 X72.754251 Y156.575941 Z-0.125000
G01 X72.262915 Y159.523957 Z-0.125000
G01 X74.228259 Y162.471973 Z-0.125000
G01 X76.193603 Y163.945981 Z-0.125000
G01 X78.158947 Y165.911325 Z-0.125000
G01 X80.124291 Y167.876669 Z-0.125000
G01 X82.580971 Y169.842013 Z-0.125000
G01 X83.563643 Y173.772701 Z-0.125000
G01 X83.072307 Y176.229381 Z-0.125000
G01 X85.528987 Y178.194725 Z-0.125000
G01 X88.477002 Y179.668733 Z-0.125000
G01 X87.002995 Y182.616749 Z-0.125000
G01 X88.968338 Y185.564765 Z-0.125000
G01 X87.985666 Y189.495453 Z-0.125000
G01 X88.968338 Y191.460797 Z-0.125000
G01 X92.899026 Y191.952133 Z-0.125000
G01 X95.847042 Y192.443469 Z-0.125000
G01 X97.321050 Y194.900149 Z-0.125000
G01 X92.899026 Y196.374157 Z-0.125000
G01 X94.864370 Y198.830837 Z-0.125000
G01 X96.829714 Y200.304845 Z-0.125000
G01 X98.303722 Y202.761525 Z-0.125000
G01 X100.269066 Y204.726869 Z-0.125000
G01 X100.760402 Y206.692213 Z-0.125000
G01 X103.217082 Y208.166221 Z-0.125000
G01 X104.691090 Y210.622901 Z-0.125000
G01 X105.673762 Y214.062253 Z-0.125000
G01 X105.673762 Y217.010269 Z-0.125000
G01 X110.095786 Y217.501605 Z-0.125000
G01 X108.130442 Y221.432292 Z-0.125000
G01 X107.639106 Y223.888972 Z-0.125000
G01 X108.621778 Y226.345652 Z-0.125000
G01 X112.552466 Y227.328324 Z-0.125000
G01 X112.552466 Y229.785004 Z-0.125000
G01 X117.465826 Y230.767676 Z-0.125000
G01 X118.448498 Y232.241684 Z-0.125000
G01 X121.396514 Y234.207028 Z-0.125000
G01 X123.853194 Y236.172372 Z-0.125000
G01 X125.327202 Y238.629052 Z-0.125000
G01 X128.766554 Y238.137716 Z-0.125000
G01 X132.205906 Y238.137716 Z-0.125000
G01 X133.188578 Y240.103060 Z-0.125000
G01 X132.205906 Y243.542412 Z-0.125000
G01 X133.679914 Y245.016420 Z-0.125000
G01 X135.153922 Y246.981764 Z-0.125000
G01 X137.610602 Y246.981764 Z-0.125000
G01 X138.101938 Y244.525084 Z-0.125000
G01 X136.627930 Y243.542412 Z-0.125000
G01 X135.153922 Y242.068404 Z-0.125000
G01 X137.119266 Y239.611724 Z-0.125000
G01 X138.593274 Y241.085732 Z-0.125000
G01 X141.049954 Y240.594396 Z-0.125000
G01 X141.049954 Y243.051076 Z-0.125000
G01 X140.558618 Y245.999092 Z-0.125000
G01 X140.067282 Y248.455772 Z-0.125000
G01 X143.506634 Y247.964436 Z-0.125000
G01 X143.506634 Y245.999092 Z-0.125000
G01 X143.506634 Y243.542412 Z-0.125000
G01 X143.997970 Y241.085732 Z-0.125000
G01 X144.489306 Y237.155044 Z-0.125000
G01 X140.558618 Y236.663708 Z-0.125000
G01 X138.593274 Y234.698364 Z-0.125000
G01 X135.153922 Y233.715692 Z-0.125000
G01 X130.240562 Y234.207028 Z-0.125000
G01 X128.766554 Y232.241684 Z-0.125000
G01 X126.309874 Y230.276340 Z-0.125000
G01 X124.835866 Y228.310996 Z-0.125000
G01 X122.379186 Y226.345652 Z-0.125000
G01 X118.939834 Y225.854316 Z-0.125000
G01 X116.974490 Y223.397636 Z-0.125000
G01 X114.026474 Y222.414964 Z-0.125000
G01 X115.500482 Y218.484276 Z-0.125000
G01 X116.483154 Y215.044925 Z-0.125000
G01 X112.552466 Y213.079581 Z-0.125000
G01 X111.569794 Y210.622901 Z-0.125000
G01 X109.604450 Y208.166221 Z-0.125000
G01 X107.639106 Y205.709541 Z-0.125000
G01 X109.604450 Y201.778853 Z-0.125000
G01 X112.552466 Y203.744197 Z-0.125000
G01 X114.517810 Y206.200877 Z-0.125000
G01 X116.974490 Y208.166221 Z-0.125000
G01 X118.939834 Y210.131565 Z-0.125000
G01 X122.870522 Y210.131565 Z-0.125000
G01 X124.344530 Y211.605573 Z-0.125000
G01 X126.309874 Y214.062253 Z-0.125000
G01 X125.327202 Y217.010269 Z-0.125000
G01 X120.905178 Y216.518933 Z-0.125000
G01 X119.431170 Y219.466948 Z-0.125000
G01 X121.887850 Y221.432292 Z-0.125000
G01 X124.344530 Y222.414964 Z-0.125000
G01 X127.783882 Y223.397636 Z-0.125000
G01 X129.749226 Y225.362980 Z-0.125000
G01 X132.205906 Y226.836988 Z-0.125000
G01 X134.662586 Y228.802332 Z-0.125000
G01 X136.627930 Y230.767676 Z-0.125000
G01 X141.541290 Y230.276340 Z-0.125000
G01 X143.997970 Y232.241684 Z-0.125000
G01 X146.945986 Y233.224356 Z-0.125000
G01 X151.368010 Y232.733020 Z-0.125000
G01 X149.402666 Y236.172372 Z-0.125000
G01 X149.894002 Y238.137716 Z-0.125000
G01 X152.842018 Y240.594396 Z-0.125000
G01 X155.790034 Y242.068404 Z-0.125000
G01 X159.229386 Y242.559740 Z-0.125000
G01 X160.703394 Y239.120388 Z-0.125000
G01 X158.246714 Y237.155044 Z-0.125000
G01 X155.298698 Y236.172372 Z-0.125000
G01 X156.281370 Y232.241684 Z-0.125000
G01 X153.333354 Y229.293668 Z-0.125000
G01 X149.894002 Y228.802332 Z-0.125000
G01 X147.437322 Y227.819660 Z-0.125000
G01 X143.506634 Y226.836988 Z-0.125000
G01 X140.558618 Y225.854316 Z-0.125000
G01 X138.101938 Y224.380308 Z-0.125000
G01 X136.136594 Y222.906300 Z-0.125000
G01 X133.679914 Y220.940956 Z-0.125000
G01 X131.223234 Y219.466948 Z-0.125000
G01 X128.275218 Y218.484276 Z-0.125000
G01 X130.731898 Y214.553589 Z-0.125000
G01 X134.171250 Y214.553589 Z-0.125000
G01 X136.136594 Y216.518933 Z-0.125000
G01 X138.593274 Y218.484276 Z-0.125000
G01 X142.032626 Y219.958284 Z-0.125000
G01 X143.997970 Y221.432292 Z-0.125000
G01 X147.437322 Y222.414964 Z-0.125000
G01 X150.385338 Y223.888972 Z-0.125000
G01 X150.385338 Y218.484276 Z-0.125000
G01 X148.911330 Y216.027597 Z-0.125000
G01 X154.807362 Y218.975612 Z-0.125000
G01 X156.281370 Y221.432292 Z-0.125000
G01 X154.807362 Y224.871644 Z-0.125000
G01 X159.229386 Y225.362980 Z-0.125000
G01 X158.246714 Y228.310996 Z-0.125000
G01 X160.212058 Y232.241684 Z-0.125000
G01 X162.668738 Y234.207028 Z-0.125000
G01 X166.108090 Y235.189700 Z-0.125000
G01 X165.616754 Y237.155044 Z-0.125000
G01 X163.651410 Y241.577068 Z-0.125000
G01 X166.599426 Y244.033748 Z-0.125000
G01 X169.547442 Y245.016420 Z-0.125000
G01 X168.073434 Y240.594396 Z-0.125000
G01 X171.021450 Y236.663708 Z-0.125000
G01 X174.460801 Y237.646380 Z-0.125000
G01 X173.478129 Y240.594396 Z-0.125000
G01 X174.460801 Y243.542412 Z-0.125000
G01 X173.478129 Y246.981764 Z-0.125000
G01 X175.934809 Y248.947108 Z-0.125000
G01 X175.934809 Y251.895124 Z-0.125000
G01 X177.900153 Y255.334476 Z-0.125000
G01 X179.865497 Y251.895124 Z-0.125000
G01 X182.813513 Y253.860468 Z-0.125000
G01 X185.270193 Y254.843140 Z-0.125000
G01 X183.796185 Y258.282492 Z-0.125000
G01 X183.304849 Y260.739172 Z-0.125000
G01 X184.778857 Y263.195852 Z-0.125000
G01 X184.287521 Y265.652532 Z-0.125000
G01 X187.235537 Y266.635204 Z-0.125000
G01 X189.200881 Y269.583220 Z-0.125000
G01 X193.131569 Y270.074556 Z-0.125000
G01 X194.605577 Y272.039900 Z-0.125000
G01 X197.062257 Y274.005244 Z-0.125000
G01 X193.131569 Y274.987916 Z-0.125000
G01 X190.183553 Y274.005244 Z-0.125000
G01 X187.235537 Y273.513908 Z-0.125000
G01 X183.796185 Y271.057228 Z-0.125000
G01 X181.339505 Y269.583220 Z-0.125000
G01 X179.865497 Y266.143868 Z-0.125000
G01 X177.900153 Y264.669860 Z-0.125000
G01 X178.391489 Y261.721844 Z-0.125000
G01 X179.374161 Y258.282492 Z-0.125000
G01 X174.952137 Y259.756500 Z-0.125000
G01 X173.478129 Y256.317148 Z-0.125000
G01 X171.021450 Y253.860468 Z-0.125000
G01 X170.038778 Y251.403788 Z-0.125000
G01 X168.073434 Y248.947108 Z-0.125000
G01 X164.634082 Y247.964436 Z-0.125000
G01 X161.686066 Y245.999092 Z-0.125000
G01 X157.755378 Y245.999092 Z-0.125000
G01 X153.333354 Y246.490428 Z-0.125000
G01 X155.298698 Y249.929780 Z-0.125000
G01 X159.229386 Y249.929780 Z-0.125000
G01 X161.194730 Y251.895124 Z-0.125000
G01 X164.142746 Y252.877796 Z-0.125000
G01 X163.651410 Y255.334476 Z-0.125000
G01 X166.108090 Y256.808484 Z-0.125000
G01 X168.073434 Y258.773828 Z-0.125000
G01 X169.547442 Y260.739172 Z-0.125000
G01 X170.038778 Y263.687188 Z-0.125000
G01 X172.986793 Y264.669860 Z-0.125000
G01 X171.512786 Y268.109212 Z-0.125000
G01 X174.460801 Y269.583220 Z-0.125000
G01 X176.917481 Y271.057228 Z-0.125000
G01 X177.900153 Y274.496580 Z-0.125000
G01 X179.374161 Y277.935932 Z-0.125000
G01 X181.830841 Y274.496580 Z-0.125000
G01 X183.796185 Y277.935932 Z-0.125000
G01 X187.235537 Y278.427268 Z-0.125000
G01 X190.183553 Y279.409940 Z-0.125000
G01 X192.640233 Y281.375284 Z-0.125000
G01 X195.096913 Y277.444596 Z-0.125000
G01 X197.062257 Y278.918604 Z-0.125000
G01 X197.062257 Y282.357956 Z-0.125000
G01 X197.062257 Y284.814636 Z-0.125000
G01 X200.501609 Y285.305972 Z-0.125000
G01 X204.923633 Y286.288644 Z-0.125000
G01 X204.923633 Y288.745324 Z-0.125000
G01 X207.380313 Y290.219332 Z-0.125000
G01 X210.328329 Y291.202004 Z-0.125000
G01 X212.785009 Y292.676012 Z-0.125000
G01 X215.241689 Y294.641356 Z-0.125000
G01 X219.663713 Y294.641356 Z-0.125000
G01 X221.629057 Y296.115364 Z-0.125000
G01 X222.611729 Y298.080708 Z-0.125000
G01 X224.577073 Y299.554716 Z-0.125000
G01 X226.542417 Y301.028724 Z-0.125000
G01 X227.033753 Y303.485403 Z-0.125000
G01 X230.473105 Y302.011396 Z-0.125000
G01 X231.947113 Y303.485403 Z-0.125000
G01 X233.912457 Y304.468075 Z-0.125000
G01 X233.421121 Y306.433419 Z-0.125000
