%
(Header)
(Generated by gcodetools from Inkscape.)
(Using default header. To add your own header create file "header" in the output dir.)
M3
(Header end.)
G21 (All units in mm)

(Start cutting path id: path6)
(Change tool to Default tool)

G00 Z5.000000
G00 X3.017658 Y106.390585

G01 Z-0.125000 F100.0(Penetrate)
G01 X5.825998 Y109.198926 Z-0.125000 F400.000000
G01 X7.698225 Y112.943380 Z-0.125000
G01 X10.506565 Y114.815607 Z-0.125000
G01 X11.442679 Y116.687834 Z-0.125000
G01 X13.314906 Y119.496174 Z-0.125000
G01 X15.187133 Y121.368401 Z-0.125000
G01 X16.123246 Y119.496174 Z-0.125000
G01 X18.931587 Y120.432287 Z-0.125000
G01 X20.803814 Y122.304514 Z-0.125000
G01 X17.059360 Y123.240628 Z-0.125000
G01 X17.995473 Y125.112855 Z-0.125000
G01 X19.867700 Y125.112855 Z-0.125000
G01 X21.739927 Y125.112855 Z-0.125000
G01 X23.612154 Y126.048968 Z-0.125000
G01 X22.676041 Y127.921195 Z-0.125000
G01 X20.803814 Y127.921195 Z-0.125000
G01 X22.676041 Y130.729536 Z-0.125000
G01 X24.548268 Y130.729536 Z-0.125000
G01 X25.484381 Y127.921195 Z-0.125000
G01 X27.356608 Y128.857309 Z-0.125000
G01 X27.356608 Y131.665649 Z-0.125000
G01 X28.292721 Y134.473990 Z-0.125000
G01 X26.420495 Y133.537876 Z-0.125000
G01 X24.548268 Y133.537876 Z-0.125000
G01 X25.484381 Y137.282330 Z-0.125000
G01 X28.292721 Y137.282330 Z-0.125000
G01 X30.164948 Y138.218443 Z-0.125000
G01 X32.037175 Y138.218443 Z-0.125000
G01 X33.909402 Y139.154557 Z-0.125000
G01 X35.781629 Y140.090670 Z-0.125000
G01 X38.589970 Y140.090670 Z-0.125000
G01 X40.462197 Y141.026784 Z-0.125000
G01 X41.398310 Y141.962897 Z-0.125000
G01 X41.398310 Y144.771238 Z-0.125000
G01 X44.206651 Y143.835124 Z-0.125000
G01 X45.142764 Y146.643465 Z-0.125000
G01 X46.078878 Y144.771238 Z-0.125000
G01 X47.951105 Y145.707351 Z-0.125000
G01 X49.823331 Y145.707351 Z-0.125000
G01 X52.631672 Y145.707351 Z-0.125000
G01 X53.567785 Y143.835124 Z-0.125000
G01 X51.695558 Y142.899011 Z-0.125000
G01 X48.887218 Y142.899011 Z-0.125000
G01 X46.078878 Y141.962897 Z-0.125000
G01 X44.206651 Y141.026784 Z-0.125000
G01 X43.270537 Y139.154557 Z-0.125000
G01 X40.462197 Y137.282330 Z-0.125000
G01 X37.653856 Y138.218443 Z-0.125000
G01 X35.781629 Y136.346217 Z-0.125000
G01 X33.909402 Y135.410103 Z-0.125000
G01 X32.037175 Y134.473990 Z-0.125000
G01 X31.101062 Y133.537876 Z-0.125000
G01 X30.164948 Y131.665649 Z-0.125000
G01 X30.164948 Y128.857309 Z-0.125000
G01 X32.037175 Y128.857309 Z-0.125000
G01 X33.909402 Y130.729536 Z-0.125000
G01 X36.717743 Y130.729536 Z-0.125000
G01 X35.781629 Y132.601763 Z-0.125000
G01 X37.653856 Y133.537876 Z-0.125000
G01 X38.589970 Y135.410103 Z-0.125000
G01 X40.462197 Y133.537876 Z-0.125000
G01 X42.334424 Y134.473990 Z-0.125000
G01 X43.270537 Y136.346217 Z-0.125000
G01 X46.078878 Y135.410103 Z-0.125000
G01 X49.823331 Y136.346217 Z-0.125000
G01 X46.078878 Y138.218443 Z-0.125000
G01 X47.951105 Y139.154557 Z-0.125000
G01 X49.823331 Y140.090670 Z-0.125000
G01 X51.695558 Y140.090670 Z-0.125000
G01 X53.567785 Y140.090670 Z-0.125000
G01 X55.440012 Y141.026784 Z-0.125000
G01 X56.376126 Y142.899011 Z-0.125000
G01 X58.248353 Y142.899011 Z-0.125000
G01 X59.184466 Y141.026784 Z-0.125000
G01 X60.120580 Y142.899011 Z-0.125000
G01 X61.992807 Y143.835124 Z-0.125000
G01 X64.801147 Y142.899011 Z-0.125000
G01 X67.609488 Y142.899011 Z-0.125000
G01 X69.481715 Y143.835124 Z-0.125000
G01 X69.481715 Y146.643465 Z-0.125000
G01 X72.290055 Y145.707351 Z-0.125000
G01 X71.353941 Y148.515692 Z-0.125000
G01 X74.162282 Y147.579578 Z-0.125000
G01 X75.098395 Y149.451805 Z-0.125000
G01 X76.970622 Y150.387919 Z-0.125000
G01 X77.906736 Y146.643465 Z-0.125000
G01 X79.778963 Y149.451805 Z-0.125000
G01 X80.715076 Y151.324032 Z-0.125000
G01 X83.523417 Y149.451805 Z-0.125000
G01 X84.459530 Y151.324032 Z-0.125000
G01 X85.395644 Y154.132373 Z-0.125000
G01 X88.203984 Y155.068486 Z-0.125000
G01 X89.140098 Y153.196259 Z-0.125000
G01 X91.948438 Y154.132373 Z-0.125000
G01 X94.756778 Y159.749053 Z-0.125000
G01 X93.820665 Y164.429621 Z-0.125000
G01 X98.501232 Y166.301848 Z-0.125000
G01 X100.373459 Y170.046302 Z-0.125000
G01 X106.926254 Y173.790756 Z-0.125000
G01 X111.606821 Y177.535210 Z-0.125000
G01 X106.926254 Y184.088004 Z-0.125000
G01 X109.734594 Y186.896344 Z-0.125000
G01 X108.798481 Y188.768571 Z-0.125000
G01 X111.606821 Y188.768571 Z-0.125000
G01 X114.415161 Y188.768571 Z-0.125000
G01 X117.223502 Y189.704685 Z-0.125000
G01 X119.095729 Y190.640798 Z-0.125000
G01 X118.159615 Y192.513025 Z-0.125000
G01 X120.031842 Y193.449139 Z-0.125000
G01 X120.031842 Y198.129706 Z-0.125000
G01 X125.648523 Y200.001933 Z-0.125000
G01 X130.329091 Y200.938047 Z-0.125000
G01 X129.392977 Y203.746387 Z-0.125000
G01 X134.073544 Y204.682500 Z-0.125000
G01 X135.945771 Y208.426954 Z-0.125000
G01 X138.754112 Y210.299181 Z-0.125000
G01 X140.626339 Y213.107522 Z-0.125000
G01 X138.754112 Y217.788089 Z-0.125000
G01 X135.009658 Y215.915862 Z-0.125000
G01 X133.137431 Y212.171408 Z-0.125000
G01 X130.329091 Y209.363068 Z-0.125000
G01 X126.584637 Y208.426954 Z-0.125000
G01 X123.776296 Y205.618614 Z-0.125000
G01 X120.031842 Y204.682500 Z-0.125000
G01 X116.287388 Y203.746387 Z-0.125000
G01 X112.542934 Y199.065820 Z-0.125000
G01 X115.351275 Y192.513025 Z-0.125000
G01 X113.479048 Y191.576912 Z-0.125000
G01 X111.606821 Y191.576912 Z-0.125000
G01 X108.798481 Y191.576912 Z-0.125000
G01 X105.990140 Y191.576912 Z-0.125000
G01 X103.181800 Y191.576912 Z-0.125000
G01 X102.245686 Y190.640798 Z-0.125000
G01 X105.990140 Y188.768571 Z-0.125000
G01 X104.117913 Y187.832458 Z-0.125000
G01 X102.245686 Y186.896344 Z-0.125000
G01 X99.437346 Y186.896344 Z-0.125000
G01 X98.501232 Y185.960231 Z-0.125000
G01 X98.501232 Y182.215777 Z-0.125000
G01 X96.629005 Y178.471323 Z-0.125000
G01 X93.820665 Y175.662983 Z-0.125000
G01 X91.948438 Y170.046302 Z-0.125000
G01 X86.331757 Y169.110188 Z-0.125000
G01 X88.203984 Y164.429621 Z-0.125000
G01 X89.140098 Y159.749053 Z-0.125000
G01 X84.459530 Y159.749053 Z-0.125000
G01 X82.587303 Y165.365734 Z-0.125000
G01 X77.906736 Y163.493507 Z-0.125000
G01 X73.226168 Y162.557394 Z-0.125000
G01 X78.842849 Y157.876827 Z-0.125000
G01 X76.034509 Y156.004600 Z-0.125000
G01 X70.417828 Y157.876827 Z-0.125000
G01 X70.417828 Y153.196259 Z-0.125000
G01 X67.609488 Y150.387919 Z-0.125000
G01 X66.673374 Y147.579578 Z-0.125000
G01 X65.737261 Y145.707351 Z-0.125000
G01 X63.865034 Y147.579578 Z-0.125000
G01 X62.928920 Y145.707351 Z-0.125000
G01 X60.120580 Y145.707351 Z-0.125000
G01 X56.376126 Y145.707351 Z-0.125000
G01 X58.248353 Y149.451805 Z-0.125000
G01 X60.120580 Y153.196259 Z-0.125000
G01 X63.865034 Y156.004600 Z-0.125000
G01 X63.865034 Y160.685167 Z-0.125000
G01 X59.184466 Y162.557394 Z-0.125000
G01 X59.184466 Y165.365734 Z-0.125000
G01 X61.056693 Y165.365734 Z-0.125000
G01 X62.928920 Y165.365734 Z-0.125000
G01 X64.801147 Y166.301848 Z-0.125000
G01 X65.737261 Y167.237961 Z-0.125000
G01 X65.737261 Y170.046302 Z-0.125000
G01 X62.928920 Y169.110188 Z-0.125000
G01 X61.056693 Y168.174075 Z-0.125000
G01 X61.056693 Y170.982415 Z-0.125000
G01 X61.992807 Y173.790756 Z-0.125000
G01 X62.928920 Y171.918529 Z-0.125000
G01 X64.801147 Y172.854642 Z-0.125000
G01 X65.737261 Y174.726869 Z-0.125000
G01 X67.609488 Y175.662983 Z-0.125000
G01 X69.481715 Y176.599096 Z-0.125000
G01 X70.417828 Y178.471323 Z-0.125000
G01 X72.290055 Y178.471323 Z-0.125000
G01 X73.226168 Y180.343550 Z-0.125000
G01 X74.162282 Y182.215777 Z-0.125000
G01 X76.034509 Y183.151890 Z-0.125000
G01 X76.970622 Y184.088004 Z-0.125000
G01 X78.842849 Y184.088004 Z-0.125000
G01 X80.715076 Y185.024117 Z-0.125000
G01 X81.651190 Y181.279663 Z-0.125000
G01 X77.906736 Y181.279663 Z-0.125000
G01 X76.034509 Y179.407437 Z-0.125000
G01 X75.098395 Y177.535210 Z-0.125000
G01 X73.226168 Y174.726869 Z-0.125000
G01 X71.353941 Y174.726869 Z-0.125000
G01 X69.481715 Y172.854642 Z-0.125000
G01 X67.609488 Y171.918529 Z-0.125000
G01 X70.417828 Y168.174075 Z-0.125000
G01 X75.098395 Y169.110188 Z-0.125000
G01 X79.778963 Y170.982415 Z-0.125000
G01 X82.587303 Y174.726869 Z-0.125000
G01 X87.267871 Y175.662983 Z-0.125000
G01 X87.267871 Y180.343550 Z-0.125000
G01 X91.948438 Y184.088004 Z-0.125000
G01 X93.820665 Y186.896344 Z-0.125000
G01 X95.692892 Y187.832458 Z-0.125000
G01 X97.565119 Y189.704685 Z-0.125000
G01 X100.373459 Y189.704685 Z-0.125000
G01 X99.437346 Y191.576912 Z-0.125000
G01 X96.629005 Y193.449139 Z-0.125000
G01 X94.756778 Y191.576912 Z-0.125000
G01 X92.884551 Y189.704685 Z-0.125000
G01 X91.012325 Y188.768571 Z-0.125000
G01 X90.076211 Y190.640798 Z-0.125000
G01 X89.140098 Y188.768571 Z-0.125000
G01 X87.267871 Y187.832458 Z-0.125000
G01 X86.331757 Y185.024117 Z-0.125000
G01 X83.523417 Y185.024117 Z-0.125000
G01 X83.523417 Y187.832458 Z-0.125000
G01 X84.459530 Y188.768571 Z-0.125000
G01 X86.331757 Y189.704685 Z-0.125000
G01 X86.331757 Y192.513025 Z-0.125000
G01 X87.267871 Y194.385252 Z-0.125000
G01 X89.140098 Y194.385252 Z-0.125000
G01 X91.012325 Y194.385252 Z-0.125000
G01 X93.820665 Y193.449139 Z-0.125000
G01 X93.820665 Y196.257479 Z-0.125000
G01 X97.565119 Y198.129706 Z-0.125000
G01 X95.692892 Y203.746387 Z-0.125000
G01 X91.948438 Y202.810273 Z-0.125000
G01 X90.076211 Y201.874160 Z-0.125000
G01 X88.203984 Y201.874160 Z-0.125000
G01 X88.203984 Y199.065820 Z-0.125000
G01 X87.267871 Y198.129706 Z-0.125000
G01 X85.395644 Y197.193593 Z-0.125000
G01 X84.459530 Y195.321366 Z-0.125000
G01 X83.523417 Y193.449139 Z-0.125000
G01 X82.587303 Y191.576912 Z-0.125000
G01 X80.715076 Y193.449139 Z-0.125000
G01 X79.778963 Y196.257479 Z-0.125000
G01 X78.842849 Y198.129706 Z-0.125000
G01 X76.970622 Y196.257479 Z-0.125000
G01 X77.906736 Y194.385252 Z-0.125000
G01 X76.034509 Y193.449139 Z-0.125000
G01 X73.226168 Y192.513025 Z-0.125000
G01 X67.609488 Y190.640798 Z-0.125000
G01 X64.801147 Y185.960231 Z-0.125000
G01 X61.992807 Y182.215777 Z-0.125000
G01 X64.801147 Y180.343550 Z-0.125000
G01 X66.673374 Y181.279663 Z-0.125000
G01 X67.609488 Y182.215777 Z-0.125000
G01 X68.545601 Y185.024117 Z-0.125000
G01 X70.417828 Y185.960231 Z-0.125000
G01 X71.353941 Y187.832458 Z-0.125000
G01 X72.290055 Y189.704685 Z-0.125000
G01 X74.162282 Y189.704685 Z-0.125000
G01 X76.034509 Y190.640798 Z-0.125000
G01 X77.906736 Y191.576912 Z-0.125000
G01 X80.715076 Y190.640798 Z-0.125000
G01 X80.715076 Y187.832458 Z-0.125000
G01 X78.842849 Y187.832458 Z-0.125000
G01 X76.970622 Y187.832458 Z-0.125000
G01 X75.098395 Y186.896344 Z-0.125000
G01 X73.226168 Y185.024117 Z-0.125000
G01 X71.353941 Y183.151890 Z-0.125000
G01 X70.417828 Y181.279663 Z-0.125000
G01 X67.609488 Y178.471323 Z-0.125000
G01 X64.801147 Y177.535210 Z-0.125000
G01 X62.928920 Y176.599096 Z-0.125000
G01 X61.992807 Y178.471323 Z-0.125000
G01 X60.120580 Y176.599096 Z-0.125000
G01 X59.184466 Y174.726869 Z-0.125000
G01 X56.376126 Y175.662983 Z-0.125000
G01 X58.248353 Y171.918529 Z-0.125000
G01 X56.376126 Y171.918529 Z-0.125000
G01 X53.567785 Y169.110188 Z-0.125000
G01 X55.440012 Y170.046302 Z-0.125000
G01 X58.248353 Y169.110188 Z-0.125000
G01 X57.312239 Y167.237961 Z-0.125000
G01 X55.440012 Y166.301848 Z-0.125000
G01 X53.567785 Y166.301848 Z-0.125000
G01 X51.695558 Y166.301848 Z-0.125000
G01 X50.759445 Y164.429621 Z-0.125000
G01 X48.887218 Y162.557394 Z-0.125000
G01 X47.014991 Y160.685167 Z-0.125000
G01 X47.014991 Y157.876827 Z-0.125000
G01 X45.142764 Y157.876827 Z-0.125000
G01 X45.142764 Y155.068486 Z-0.125000
G01 X43.270537 Y155.068486 Z-0.125000
G01 X41.398310 Y152.260146 Z-0.125000
G01 X43.270537 Y152.260146 Z-0.125000
G01 X46.078878 Y152.260146 Z-0.125000
G01 X47.951105 Y153.196259 Z-0.125000
G01 X47.951105 Y156.004600 Z-0.125000
G01 X49.823331 Y156.940713 Z-0.125000
G01 X51.695558 Y157.876827 Z-0.125000
G01 X49.823331 Y159.749053 Z-0.125000
G01 X51.695558 Y160.685167 Z-0.125000
G01 X52.631672 Y162.557394 Z-0.125000
G01 X54.503899 Y162.557394 Z-0.125000
G01 X56.376126 Y163.493507 Z-0.125000
G01 X57.312239 Y161.621280 Z-0.125000
G01 X57.312239 Y158.812940 Z-0.125000
G01 X54.503899 Y159.749053 Z-0.125000
G01 X54.503899 Y156.940713 Z-0.125000
G01 X53.567785 Y154.132373 Z-0.125000
G01 X50.759445 Y154.132373 Z-0.125000
G01 X50.759445 Y151.324032 Z-0.125000
G01 X49.823331 Y150.387919 Z-0.125000
G01 X47.951105 Y149.451805 Z-0.125000
G01 X46.078878 Y149.451805 Z-0.125000
G01 X43.270537 Y149.451805 Z-0.125000
G01 X42.334424 Y148.515692 Z-0.125000
G01 X40.462197 Y147.579578 Z-0.125000
G01 X39.526083 Y149.451805 Z-0.125000
G01 X37.653856 Y147.579578 Z-0.125000
G01 X35.781629 Y145.707351 Z-0.125000
G01 X38.589970 Y145.707351 Z-0.125000
G01 X38.589970 Y142.899011 Z-0.125000
G01 X35.781629 Y142.899011 Z-0.125000
G01 X33.909402 Y142.899011 Z-0.125000
G01 X32.037175 Y141.026784 Z-0.125000
G01 X27.356608 Y141.962897 Z-0.125000
G01 X28.292721 Y146.643465 Z-0.125000
G01 X30.164948 Y150.387919 Z-0.125000
G01 X32.973289 Y154.132373 Z-0.125000
G01 X34.845516 Y157.876827 Z-0.125000
G01 X36.717743 Y162.557394 Z-0.125000
G01 X38.589970 Y165.365734 Z-0.125000
G01 X40.462197 Y168.174075 Z-0.125000
G01 X42.334424 Y170.046302 Z-0.125000
G01 X43.270537 Y171.918529 Z-0.125000
G01 X45.142764 Y174.726869 Z-0.125000
G01 X47.014991 Y177.535210 Z-0.125000
G01 X48.887218 Y181.279663 Z-0.125000
G01 X50.759445 Y184.088004 Z-0.125000
G01 X52.631672 Y186.896344 Z-0.125000
G01 X54.503899 Y189.704685 Z-0.125000
G01 X56.376126 Y192.513025 Z-0.125000
G01 X58.248353 Y196.257479 Z-0.125000
G01 X62.928920 Y199.065820 Z-0.125000
G01 X66.673374 Y201.874160 Z-0.125000
G01 X68.545601 Y205.618614 Z-0.125000
G01 X68.545601 Y211.235295 Z-0.125000
G01 X74.162282 Y222.468656 Z-0.125000
G01 X79.778963 Y226.213110 Z-0.125000
G01 X80.715076 Y233.702018 Z-0.125000
G01 X80.715076 Y237.446472 Z-0.125000
G01 X84.459530 Y239.318699 Z-0.125000
G01 X91.948438 Y241.190926 Z-0.125000
G01 X89.140098 Y247.743720 Z-0.125000
G01 X95.692892 Y252.424288 Z-0.125000
G01 X97.565119 Y258.977082 Z-0.125000
G01 X91.012325 Y260.849309 Z-0.125000
G01 X91.948438 Y264.593763 Z-0.125000
G01 X92.884551 Y267.402103 Z-0.125000
G01 X93.820665 Y268.338217 Z-0.125000
G01 X95.692892 Y269.274330 Z-0.125000
G01 X93.820665 Y272.082671 Z-0.125000
G01 X94.756778 Y273.954898 Z-0.125000
G01 X92.884551 Y278.635465 Z-0.125000
G01 X92.884551 Y284.252146 Z-0.125000
G01 X89.140098 Y287.996600 Z-0.125000
G01 X90.076211 Y291.741054 Z-0.125000
G01 X93.820665 Y293.613281 Z-0.125000
G01 X99.437346 Y293.613281 Z-0.125000
G01 X93.820665 Y299.229962 Z-0.125000
G01 X98.501232 Y300.166075 Z-0.125000
G01 X98.501232 Y304.846643 Z-0.125000
G01 X93.820665 Y304.846643 Z-0.125000
G01 X94.756778 Y310.463323 Z-0.125000
G01 X99.437346 Y310.463323 Z-0.125000
G01 X102.245686 Y314.207777 Z-0.125000
G01 X101.309573 Y317.016118 Z-0.125000
G01 X97.565119 Y316.080004 Z-0.125000
G01 X98.501232 Y320.760572 Z-0.125000
G01 X101.309573 Y320.760572 Z-0.125000
G01 X103.181800 Y321.696685 Z-0.125000
G01 X103.181800 Y324.505026 Z-0.125000
G01 X100.373459 Y324.505026 Z-0.125000
G01 X101.309573 Y327.313366 Z-0.125000
G01 X103.181800 Y328.249479 Z-0.125000
G01 X107.862367 Y329.185593 Z-0.125000
G01 X113.479048 Y331.057820 Z-0.125000
G01 X117.223502 Y335.738387 Z-0.125000
G01 X122.840183 Y337.610614 Z-0.125000
G01 X127.520750 Y341.355068 Z-0.125000
G01 X133.137431 Y343.227295 Z-0.125000
G01 X136.881885 Y346.035636 Z-0.125000
G01 X135.945771 Y357.268997 Z-0.125000
G01 X140.626339 Y361.949565 Z-0.125000
G01 X146.243020 Y366.630132 Z-0.125000
G01 X152.795814 Y367.566246 Z-0.125000
G01 X149.051360 Y370.374586 Z-0.125000
G01 X146.243020 Y373.182926 Z-0.125000
G01 X143.434679 Y375.991267 Z-0.125000
G01 X140.626339 Y380.671834 Z-0.125000
G01 X137.817998 Y383.480175 Z-0.125000
G01 X136.881885 Y388.160742 Z-0.125000
G01 X139.690225 Y391.905196 Z-0.125000
G01 X138.754112 Y401.266331 Z-0.125000
G01 X133.137431 Y400.330217 Z-0.125000
G01 X133.137431 Y404.074671 Z-0.125000
G01 X136.881885 Y405.946898 Z-0.125000
G01 X140.626339 Y406.883012 Z-0.125000
G01 X142.498566 Y409.691352 Z-0.125000
G01 X142.498566 Y413.435806 Z-0.125000
G01 X147.179133 Y414.371919 Z-0.125000
G01 X146.243020 Y417.180260 Z-0.125000
G01 X142.498566 Y418.116373 Z-0.125000
G01 X142.498566 Y421.860827 Z-0.125000
G01 X145.306906 Y422.796941 Z-0.125000
G01 X148.115247 Y424.669168 Z-0.125000
G01 X148.115247 Y419.052487 Z-0.125000
G01 X149.987474 Y420.924714 Z-0.125000
G01 X151.859701 Y422.796941 Z-0.125000
G01 X154.668041 Y423.733054 Z-0.125000
G01 X155.604154 Y425.605281 Z-0.125000
G01 X150.923587 Y426.541395 Z-0.125000
G01 X151.859701 Y429.349735 Z-0.125000
G01 X154.668041 Y430.285849 Z-0.125000
G01 X156.540268 Y433.094189 Z-0.125000
G01 X154.668041 Y436.838643 Z-0.125000
G01 X159.348608 Y436.838643 Z-0.125000
G01 X164.965289 Y435.902529 Z-0.125000
G01 X163.093062 Y432.158075 Z-0.125000
G01 X161.220835 Y431.221962 Z-0.125000
G01 X159.348608 Y429.349735 Z-0.125000
G01 X158.412495 Y426.541395 Z-0.125000
G01 X161.220835 Y427.477508 Z-0.125000
G01 X163.093062 Y428.413622 Z-0.125000
G01 X164.965289 Y429.349735 Z-0.125000
G01 X165.901403 Y432.158075 Z-0.125000
G01 X167.773630 Y432.158075 Z-0.125000
G01 X168.709743 Y433.094189 Z-0.125000
G01 X169.645857 Y435.902529 Z-0.125000
G01 X168.709743 Y438.710870 Z-0.125000
G01 X168.709743 Y442.455324 Z-0.125000
G01 X169.645857 Y444.327551 Z-0.125000
G01 X171.518084 Y444.327551 Z-0.125000
G01 X173.390311 Y444.327551 Z-0.125000
G01 X172.454197 Y441.519210 Z-0.125000
G01 X175.262537 Y441.519210 Z-0.125000
G01 X177.134764 Y441.519210 Z-0.125000
G01 X178.070878 Y442.455324 Z-0.125000
G01 X178.070878 Y445.263664 Z-0.125000
G01 X181.815332 Y445.263664 Z-0.125000
G01 X182.751445 Y441.519210 Z-0.125000
G01 X181.815332 Y438.710870 Z-0.125000
G01 X179.006991 Y438.710870 Z-0.125000
G01 X177.134764 Y437.774756 Z-0.125000
G01 X174.326424 Y438.710870 Z-0.125000
G01 X173.390311 Y436.838643 Z-0.125000
G01 X172.454197 Y434.030302 Z-0.125000
G01 X171.518084 Y432.158075 Z-0.125000
G01 X175.262537 Y432.158075 Z-0.125000
G01 X178.070878 Y433.094189 Z-0.125000
G01 X176.198651 Y434.966416 Z-0.125000
G01 X179.006991 Y435.902529 Z-0.125000
G01 X180.879218 Y434.030302 Z-0.125000
G01 X181.815332 Y434.966416 Z-0.125000
G01 X183.687559 Y435.902529 Z-0.125000
G01 X184.623672 Y437.774756 Z-0.125000
G01 X186.495899 Y438.710870 Z-0.125000
G01 X187.432013 Y441.519210 Z-0.125000
G01 X190.240353 Y442.455324 Z-0.125000
G01 X192.112580 Y439.646983 Z-0.125000
G01 X189.304240 Y437.774756 Z-0.125000
G01 X189.304240 Y434.966416 Z-0.125000
G01 X185.559786 Y433.094189 Z-0.125000
G01 X187.432013 Y434.966416 Z-0.125000
G01 X192.112580 Y433.094189 Z-0.125000
G01 X192.112580 Y435.902529 Z-0.125000
G01 X194.920921 Y434.966416 Z-0.125000
G01 X196.793147 Y435.902529 Z-0.125000
G01 X199.601488 Y434.966416 Z-0.125000
G01 X200.537601 Y435.902529 Z-0.125000
G01 X203.345942 Y436.838643 Z-0.125000
G01 X205.218169 Y437.774756 Z-0.125000
G01 X204.282055 Y439.646983 Z-0.125000
G01 X206.154282 Y441.519210 Z-0.125000
G01 X208.026509 Y441.519210 Z-0.125000
G01 X208.026509 Y438.710870 Z-0.125000
G01 X210.834850 Y439.646983 Z-0.125000
G01 X211.770963 Y441.519210 Z-0.125000
G01 X215.515417 Y439.646983 Z-0.125000
G01 X213.643190 Y438.710870 Z-0.125000
G01 X213.643190 Y435.902529 Z-0.125000
G01 X210.834850 Y436.838643 Z-0.125000
G01 X208.962623 Y435.902529 Z-0.125000
G01 X207.090396 Y432.158075 Z-0.125000
G01 X209.898736 Y430.285849 Z-0.125000
G01 X206.154282 Y428.413622 Z-0.125000
G01 X206.154282 Y424.669168 Z-0.125000
G01 X210.834850 Y425.605281 Z-0.125000
G01 X214.579304 Y428.413622 Z-0.125000
G01 X216.451531 Y431.221962 Z-0.125000
G01 X216.451531 Y435.902529 Z-0.125000
G01 X217.387644 Y436.838643 Z-0.125000
G01 X219.259871 Y438.710870 Z-0.125000
G01 X220.195984 Y435.902529 Z-0.125000
G01 X222.068211 Y436.838643 Z-0.125000
G01 X222.068211 Y439.646983 Z-0.125000
G01 X223.940438 Y439.646983 Z-0.125000
G01 X224.876552 Y440.583097 Z-0.125000
G01 X226.748779 Y442.455324 Z-0.125000
G01 X227.684892 Y439.646983 Z-0.125000
G01 X229.557119 Y439.646983 Z-0.125000
G01 X230.493233 Y441.519210 Z-0.125000
G01 X232.365460 Y439.646983 Z-0.125000
G01 X233.301573 Y441.519210 Z-0.125000
G01 X234.237687 Y442.455324 Z-0.125000
G01 X236.109914 Y443.391437 Z-0.125000
G01 X237.982140 Y441.519210 Z-0.125000
G01 X238.918254 Y447.135891 Z-0.125000
G01 X241.726594 Y449.008118 Z-0.125000
G01 X245.471048 Y451.816459 Z-0.125000
G01 X248.279389 Y454.624799 Z-0.125000
G01 X249.215502 Y457.433139 Z-0.125000
G01 X252.959956 Y463.049820 Z-0.125000
G01 X256.704410 Y465.858161 Z-0.125000
G01 X257.640524 Y471.474842 Z-0.125000
G01 X256.704410 Y473.347069 Z-0.125000
G01 X254.832183 Y473.347069 Z-0.125000
G01 X252.959956 Y472.410955 Z-0.125000
G01 X252.023843 Y471.474842 Z-0.125000
G01 X249.215502 Y471.474842 Z-0.125000
G01 X246.407162 Y470.538728 Z-0.125000
G01 X246.407162 Y466.794274 Z-0.125000
G01 X245.471048 Y463.049820 Z-0.125000
G01 X241.726594 Y461.177593 Z-0.125000
G01 X240.790481 Y457.433139 Z-0.125000
G01 X238.918254 Y454.624799 Z-0.125000
G01 X235.173800 Y452.752572 Z-0.125000
G01 X234.237687 Y447.135891 Z-0.125000
G01 X233.301573 Y445.263664 Z-0.125000
G01 X231.429346 Y445.263664 Z-0.125000
G01 X229.557119 Y444.327551 Z-0.125000
G01 X227.684892 Y444.327551 Z-0.125000
G01 X227.684892 Y447.135891 Z-0.125000
G01 X229.557119 Y448.072005 Z-0.125000
G01 X230.493233 Y449.008118 Z-0.125000
G01 X229.557119 Y452.752572 Z-0.125000
G01 X227.684892 Y450.880345 Z-0.125000
G01 X225.812665 Y449.944232 Z-0.125000
G01 X224.876552 Y448.072005 Z-0.125000
G01 X224.876552 Y445.263664 Z-0.125000
G01 X223.940438 Y444.327551 Z-0.125000
G01 X222.068211 Y444.327551 Z-0.125000
G01 X221.132098 Y442.455324 Z-0.125000
G01 X218.323757 Y443.391437 Z-0.125000
G01 X219.259871 Y445.263664 Z-0.125000
G01 X221.132098 Y447.135891 Z-0.125000
G01 X222.068211 Y449.008118 Z-0.125000
G01 X223.004325 Y450.880345 Z-0.125000
G01 X223.004325 Y453.688685 Z-0.125000
G01 X225.812665 Y452.752572 Z-0.125000
G01 X226.748779 Y453.688685 Z-0.125000
G01 X227.684892 Y457.433139 Z-0.125000
G01 X228.621006 Y458.369253 Z-0.125000
G01 X231.429346 Y459.305366 Z-0.125000
G01 X231.429346 Y462.113707 Z-0.125000
G01 X233.301573 Y463.049820 Z-0.125000
G01 X234.237687 Y465.858161 Z-0.125000
G01 X232.365460 Y464.922047 Z-0.125000
G01 X229.557119 Y463.985934 Z-0.125000
G01 X228.621006 Y461.177593 Z-0.125000
G01 X227.684892 Y463.985934 Z-0.125000
G01 X224.876552 Y463.985934 Z-0.125000
G01 X223.940438 Y463.049820 Z-0.125000
G01 X222.068211 Y463.049820 Z-0.125000
G01 X220.195984 Y463.049820 Z-0.125000
G01 X218.323757 Y463.049820 Z-0.125000
G01 X216.451531 Y462.113707 Z-0.125000
G01 X214.579304 Y462.113707 Z-0.125000
G01 X214.579304 Y459.305366 Z-0.125000
G01 X214.579304 Y456.497026 Z-0.125000
G01 X216.451531 Y458.369253 Z-0.125000
G01 X218.323757 Y459.305366 Z-0.125000
G01 X220.195984 Y459.305366 Z-0.125000
G01 X222.068211 Y459.305366 Z-0.125000
G01 X223.004325 Y460.241480 Z-0.125000
G01 X225.812665 Y459.305366 Z-0.125000
G01 X225.812665 Y456.497026 Z-0.125000
G01 X223.940438 Y456.497026 Z-0.125000
G01 X221.132098 Y456.497026 Z-0.125000
G01 X220.195984 Y455.560912 Z-0.125000
G01 X218.323757 Y455.560912 Z-0.125000
G01 X216.451531 Y454.624799 Z-0.125000
G01 X214.579304 Y453.688685 Z-0.125000
G01 X215.515417 Y449.944232 Z-0.125000
G01 X217.387644 Y451.816459 Z-0.125000
G01 X219.259871 Y452.752572 Z-0.125000
G01 X221.132098 Y450.880345 Z-0.125000
G01 X219.259871 Y449.008118 Z-0.125000
G01 X217.387644 Y448.072005 Z-0.125000
G01 X216.451531 Y446.199778 Z-0.125000
G01 X214.579304 Y444.327551 Z-0.125000
G01 X208.962623 Y447.135891 Z-0.125000
G01 X203.345942 Y449.008118 Z-0.125000
G01 X207.090396 Y453.688685 Z-0.125000
G01 X209.898736 Y459.305366 Z-0.125000
G01 X211.770963 Y463.049820 Z-0.125000
G01 X214.579304 Y464.922047 Z-0.125000
G01 X216.451531 Y465.858161 Z-0.125000
G01 X218.323757 Y466.794274 Z-0.125000
G01 X220.195984 Y466.794274 Z-0.125000
G01 X222.068211 Y466.794274 Z-0.125000
G01 X223.004325 Y467.730388 Z-0.125000
G01 X224.876552 Y468.666501 Z-0.125000
G01 X226.748779 Y466.794274 Z-0.125000
G01 X228.621006 Y468.666501 Z-0.125000
G01 X229.557119 Y466.794274 Z-0.125000
G01 X231.429346 Y467.730388 Z-0.125000
G01 X233.301573 Y468.666501 Z-0.125000
G01 X236.109914 Y468.666501 Z-0.125000
G01 X238.918254 Y467.730388 Z-0.125000
G01 X239.854367 Y469.602615 Z-0.125000
G01 X241.726594 Y471.474842 Z-0.125000
G01 X243.598821 Y472.410955 Z-0.125000
G01 X242.662708 Y475.219295 Z-0.125000
G01 X243.598821 Y477.091522 Z-0.125000
G01 X246.407162 Y477.091522 Z-0.125000
G01 X245.471048 Y475.219295 Z-0.125000
G01 X246.407162 Y473.347069 Z-0.125000
G01 X248.279389 Y474.283182 Z-0.125000
G01 X250.151616 Y475.219295 Z-0.125000
G01 X249.215502 Y477.091522 Z-0.125000
G01 X251.087729 Y478.963749 Z-0.125000
G01 X252.023843 Y476.155409 Z-0.125000
G01 X253.896070 Y476.155409 Z-0.125000
G01 X255.768297 Y477.091522 Z-0.125000
G01 X253.896070 Y478.963749 Z-0.125000
G01 X255.768297 Y479.899863 Z-0.125000
G01 X258.576637 Y478.963749 Z-0.125000
G01 X258.576637 Y476.155409 Z-0.125000
G01 X260.448864 Y477.091522 Z-0.125000
G01 X262.321091 Y478.027636 Z-0.125000
G01 X264.193318 Y479.899863 Z-0.125000
G01 X265.129431 Y476.155409 Z-0.125000
G01 X263.257204 Y475.219295 Z-0.125000
G01 X261.384977 Y474.283182 Z-0.125000
G01 X259.512750 Y473.347069 Z-0.125000
G01 X261.384977 Y471.474842 Z-0.125000
G01 X264.193318 Y472.410955 Z-0.125000
G01 X265.129431 Y470.538728 Z-0.125000
G01 X267.001658 Y472.410955 Z-0.125000
G01 X267.937772 Y473.347069 Z-0.125000
G01 X271.682226 Y471.474842 Z-0.125000
G01 X269.809999 Y470.538728 Z-0.125000
G01 X268.873885 Y468.666501 Z-0.125000
G01 X272.618339 Y467.730388 Z-0.125000
G01 X273.554453 Y468.666501 Z-0.125000
G01 X276.362793 Y473.347069 Z-0.125000
G01 X271.682226 Y480.835976 Z-0.125000
G01 X280.107247 Y479.899863 Z-0.125000
G01 X279.171134 Y484.580430 Z-0.125000
G01 X278.235020 Y490.197111 Z-0.125000
G01 X276.362793 Y496.749905 Z-0.125000
G01 X276.362793 Y502.366586 Z-0.125000
G01 X271.682226 Y509.855494 Z-0.125000
G01 X278.235020 Y512.663835 Z-0.125000
G01 X284.787814 Y513.599948 Z-0.125000
G01 X295.085063 Y522.024969 Z-0.125000
G01 X293.212836 Y516.408288 Z-0.125000
G01 X296.957290 Y508.919381 Z-0.125000
G01 X294.148949 Y503.302700 Z-0.125000
G01 X288.532268 Y500.494359 Z-0.125000
G01 X289.468382 Y492.069338 Z-0.125000
G01 X292.276722 Y485.516544 Z-0.125000
G01 X291.340609 Y481.772090 Z-0.125000
G01 X289.468382 Y477.091522 Z-0.125000
G01 X296.021176 Y476.155409 Z-0.125000
G01 X298.829517 Y478.963749 Z-0.125000
G01 X298.829517 Y482.708203 Z-0.125000
G01 X299.765630 Y486.452657 Z-0.125000
G01 X301.637857 Y490.197111 Z-0.125000
G01 X296.021176 Y492.069338 Z-0.125000
G01 X298.829517 Y495.813792 Z-0.125000
G01 X303.510084 Y496.749905 Z-0.125000
G01 X302.573970 Y500.494359 Z-0.125000
G01 X304.446197 Y502.366586 Z-0.125000
G01 X304.446197 Y506.111040 Z-0.125000
G01 X304.446197 Y509.855494 Z-0.125000
G01 X304.446197 Y513.599948 Z-0.125000
G01 X306.318424 Y514.536062 Z-0.125000
G01 X304.446197 Y517.344402 Z-0.125000
G01 X305.382311 Y520.152742 Z-0.125000
G01 X305.382311 Y522.961083 Z-0.125000
G01 X300.701743 Y524.833310 Z-0.125000
G01 X304.446197 Y525.769423 Z-0.125000
G01 X304.446197 Y528.577764 Z-0.125000
G01 X306.318424 Y529.513877 Z-0.125000
G01 X304.446197 Y531.386104 Z-0.125000
G01 X306.318424 Y532.322218 Z-0.125000
G01 X306.318424 Y535.130558 Z-0.125000
G01 X300.701743 Y537.002785 Z-0.125000
G01 X305.382311 Y537.938898 Z-0.125000
G01 X306.318424 Y540.747239 Z-0.125000
G01 X305.382311 Y542.619466 Z-0.125000
G01 X306.318424 Y544.491693 Z-0.125000
G01 X306.318424 Y547.300033 Z-0.125000
G01 X305.382311 Y551.044487 Z-0.125000
G01 X305.382311 Y554.788941 Z-0.125000
G01 X296.957290 Y551.980601 Z-0.125000
G01 X296.957290 Y546.363920 Z-0.125000
G01 X289.468382 Y544.491693 Z-0.125000
G01 X283.851701 Y541.683352 Z-0.125000
G01 X293.212836 Y534.194445 Z-0.125000
G01 X285.723928 Y532.322218 Z-0.125000
G01 X280.107247 Y528.577764 Z-0.125000
G01 X276.362793 Y523.897196 Z-0.125000
G01 X268.873885 Y522.024969 Z-0.125000
G01 X265.129431 Y518.280515 Z-0.125000
G01 X256.704410 Y517.344402 Z-0.125000
G01 X261.384977 Y509.855494 Z-0.125000
G01 X263.257204 Y504.238813 Z-0.125000
G01 X266.065545 Y496.749905 Z-0.125000
G01 X267.937772 Y489.260998 Z-0.125000
G01 X257.640524 Y488.324884 Z-0.125000
G01 X256.704410 Y494.877678 Z-0.125000
G01 X247.343275 Y490.197111 Z-0.125000
G01 X246.407162 Y485.516544 Z-0.125000
G01 X248.279389 Y481.772090 Z-0.125000
G01 X247.343275 Y479.899863 Z-0.125000
G01 X245.471048 Y479.899863 Z-0.125000
G01 X242.662708 Y479.899863 Z-0.125000
G01 X240.790481 Y481.772090 Z-0.125000
G01 X240.790481 Y478.963749 Z-0.125000
G01 X238.918254 Y478.963749 Z-0.125000
G01 X237.046027 Y480.835976 Z-0.125000
G01 X236.109914 Y478.963749 Z-0.125000
G01 X234.237687 Y478.963749 Z-0.125000
G01 X232.365460 Y478.963749 Z-0.125000
G01 X230.493233 Y477.091522 Z-0.125000
G01 X228.621006 Y478.963749 Z-0.125000
G01 X226.748779 Y478.027636 Z-0.125000
G01 X226.748779 Y475.219295 Z-0.125000
G01 X228.621006 Y475.219295 Z-0.125000
G01 X231.429346 Y474.283182 Z-0.125000
G01 X233.301573 Y475.219295 Z-0.125000
G01 X234.237687 Y476.155409 Z-0.125000
G01 X237.046027 Y475.219295 Z-0.125000
G01 X237.982140 Y476.155409 Z-0.125000
G01 X240.790481 Y475.219295 Z-0.125000
G01 X239.854367 Y473.347069 Z-0.125000
G01 X237.982140 Y471.474842 Z-0.125000
G01 X236.109914 Y473.347069 Z-0.125000
G01 X235.173800 Y471.474842 Z-0.125000
G01 X233.301573 Y471.474842 Z-0.125000
G01 X231.429346 Y470.538728 Z-0.125000
G01 X229.557119 Y472.410955 Z-0.125000
G01 X227.684892 Y472.410955 Z-0.125000
G01 X226.748779 Y470.538728 Z-0.125000
G01 X224.876552 Y472.410955 Z-0.125000
G01 X223.004325 Y471.474842 Z-0.125000
G01 X221.132098 Y470.538728 Z-0.125000
G01 X219.259871 Y470.538728 Z-0.125000
G01 X217.387644 Y470.538728 Z-0.125000
G01 X215.515417 Y468.666501 Z-0.125000
G01 X213.643190 Y468.666501 Z-0.125000
G01 X212.707077 Y466.794274 Z-0.125000
G01 X210.834850 Y468.666501 Z-0.125000
G01 X210.834850 Y471.474842 Z-0.125000
G01 X212.707077 Y471.474842 Z-0.125000
G01 X214.579304 Y472.410955 Z-0.125000
G01 X216.451531 Y473.347069 Z-0.125000
G01 X218.323757 Y474.283182 Z-0.125000
G01 X220.195984 Y474.283182 Z-0.125000
G01 X221.132098 Y475.219295 Z-0.125000
G01 X223.940438 Y475.219295 Z-0.125000
G01 X223.940438 Y478.027636 Z-0.125000
G01 X223.940438 Y480.835976 Z-0.125000
G01 X225.812665 Y480.835976 Z-0.125000
G01 X228.621006 Y482.708203 Z-0.125000
G01 X230.493233 Y480.835976 Z-0.125000
G01 X233.301573 Y482.708203 Z-0.125000
G01 X236.109914 Y486.452657 Z-0.125000
G01 X238.918254 Y489.260998 Z-0.125000
G01 X239.854367 Y494.877678 Z-0.125000
G01 X244.534935 Y496.749905 Z-0.125000
G01 X246.407162 Y501.430473 Z-0.125000
G01 X254.832183 Y502.366586 Z-0.125000
G01 X252.023843 Y510.791608 Z-0.125000
G01 X245.471048 Y508.919381 Z-0.125000
G01 X239.854367 Y507.047154 Z-0.125000
G01 X236.109914 Y505.174927 Z-0.125000
G01 X237.046027 Y502.366586 Z-0.125000
G01 X233.301573 Y499.558246 Z-0.125000
G01 X233.301573 Y494.877678 Z-0.125000
G01 X230.493233 Y490.197111 Z-0.125000
G01 X226.748779 Y487.388771 Z-0.125000
G01 X222.068211 Y487.388771 Z-0.125000
G01 X222.068211 Y483.644317 Z-0.125000
G01 X221.132098 Y480.835976 Z-0.125000
G01 X220.195984 Y478.963749 Z-0.125000
G01 X218.323757 Y478.027636 Z-0.125000
G01 X217.387644 Y479.899863 Z-0.125000
G01 X215.515417 Y478.027636 Z-0.125000
G01 X216.451531 Y476.155409 Z-0.125000
G01 X213.643190 Y475.219295 Z-0.125000
G01 X212.707077 Y474.283182 Z-0.125000
G01 X209.898736 Y474.283182 Z-0.125000
G01 X208.962623 Y477.091522 Z-0.125000
G01 X210.834850 Y478.027636 Z-0.125000
G01 X212.707077 Y478.027636 Z-0.125000
G01 X211.770963 Y480.835976 Z-0.125000
G01 X213.643190 Y480.835976 Z-0.125000
G01 X215.515417 Y481.772090 Z-0.125000
G01 X217.387644 Y482.708203 Z-0.125000
G01 X215.515417 Y484.580430 Z-0.125000
G01 X218.323757 Y485.516544 Z-0.125000
G01 X218.323757 Y488.324884 Z-0.125000
G01 X221.132098 Y491.133225 Z-0.125000
G01 X224.876552 Y493.005452 Z-0.125000
G01 X227.684892 Y496.749905 Z-0.125000
G01 X227.684892 Y502.366586 Z-0.125000
G01 X229.557119 Y505.174927 Z-0.125000
G01 X230.493233 Y508.919381 Z-0.125000
G01 X232.365460 Y511.727721 Z-0.125000
G01 X237.046027 Y512.663835 Z-0.125000
G01 X237.982140 Y514.536062 Z-0.125000
G01 X242.662708 Y515.472175 Z-0.125000
G01 X246.407162 Y519.216629 Z-0.125000
G01 X246.407162 Y525.769423 Z-0.125000
G01 X252.023843 Y525.769423 Z-0.125000
G01 X248.279389 Y532.322218 Z-0.125000
G01 X249.215502 Y534.194445 Z-0.125000
G01 X251.087729 Y537.938898 Z-0.125000
G01 X252.959956 Y542.619466 Z-0.125000
G01 X255.768297 Y544.491693 Z-0.125000
G01 X255.768297 Y548.236147 Z-0.125000
G01 X252.959956 Y551.980601 Z-0.125000
G01 X256.704410 Y553.852828 Z-0.125000
G01 X253.896070 Y554.788941 Z-0.125000
G01 X252.959956 Y556.661168 Z-0.125000
G01 X251.087729 Y555.725055 Z-0.125000
G01 X250.151616 Y553.852828 Z-0.125000
G01 X249.215502 Y555.725055 Z-0.125000
G01 X247.343275 Y553.852828 Z-0.125000
G01 X245.471048 Y550.108374 Z-0.125000
G01 X247.343275 Y551.044487 Z-0.125000
G01 X249.215502 Y551.044487 Z-0.125000
G01 X250.151616 Y549.172260 Z-0.125000
G01 X248.279389 Y547.300033 Z-0.125000
G01 X246.407162 Y545.427806 Z-0.125000
G01 X245.471048 Y547.300033 Z-0.125000
G01 X243.598821 Y547.300033 Z-0.125000
G01 X241.726594 Y544.491693 Z-0.125000
G01 X243.598821 Y544.491693 Z-0.125000
G01 X245.471048 Y542.619466 Z-0.125000
G01 X244.534935 Y540.747239 Z-0.125000
G01 X242.662708 Y538.875012 Z-0.125000
G01 X241.726594 Y541.683352 Z-0.125000
G01 X239.854367 Y541.683352 Z-0.125000
G01 X239.854367 Y538.875012 Z-0.125000
G01 X237.982140 Y537.938898 Z-0.125000
G01 X236.109914 Y536.066672 Z-0.125000
G01 X234.237687 Y534.194445 Z-0.125000
G01 X234.237687 Y531.386104 Z-0.125000
G01 X232.365460 Y531.386104 Z-0.125000
G01 X232.365460 Y528.577764 Z-0.125000
G01 X230.493233 Y528.577764 Z-0.125000
G01 X228.621006 Y526.705537 Z-0.125000
G01 X229.557119 Y524.833310 Z-0.125000
G01 X226.748779 Y523.897196 Z-0.125000
G01 X224.876552 Y521.088856 Z-0.125000
G01 X223.004325 Y521.088856 Z-0.125000
G01 X223.940438 Y518.280515 Z-0.125000
G01 X226.748779 Y519.216629 Z-0.125000
G01 X227.684892 Y521.088856 Z-0.125000
G01 X229.557119 Y522.024969 Z-0.125000
G01 X231.429346 Y522.961083 Z-0.125000
G01 X232.365460 Y525.769423 Z-0.125000
G01 X234.237687 Y525.769423 Z-0.125000
G01 X235.173800 Y528.577764 Z-0.125000
G01 X237.046027 Y529.513877 Z-0.125000
G01 X237.046027 Y532.322218 Z-0.125000
G01 X237.982140 Y534.194445 Z-0.125000
G01 X238.918254 Y536.066672 Z-0.125000
G01 X241.726594 Y537.002785 Z-0.125000
G01 X242.662708 Y533.258331 Z-0.125000
G01 X240.790481 Y530.449991 Z-0.125000
G01 X241.726594 Y524.833310 Z-0.125000
G01 X239.854367 Y521.088856 Z-0.125000
G01 X236.109914 Y520.152742 Z-0.125000
G01 X230.493233 Y519.216629 Z-0.125000
G01 X229.557119 Y517.344402 Z-0.125000
G01 X227.684892 Y516.408288 Z-0.125000
G01 X225.812665 Y516.408288 Z-0.125000
G01 X223.940438 Y515.472175 Z-0.125000
G01 X222.068211 Y515.472175 Z-0.125000
G01 X220.195984 Y515.472175 Z-0.125000
G01 X217.387644 Y511.727721 Z-0.125000
G01 X217.387644 Y507.047154 Z-0.125000
G01 X219.259871 Y508.919381 Z-0.125000
G01 X220.195984 Y510.791608 Z-0.125000
G01 X221.132098 Y511.727721 Z-0.125000
G01 X223.004325 Y511.727721 Z-0.125000
G01 X224.876552 Y512.663835 Z-0.125000
G01 X226.748779 Y512.663835 Z-0.125000
G01 X224.876552 Y508.919381 Z-0.125000
G01 X223.004325 Y507.983267 Z-0.125000
G01 X221.132098 Y507.047154 Z-0.125000
G01 X222.068211 Y505.174927 Z-0.125000
G01 X220.195984 Y503.302700 Z-0.125000
G01 X219.259871 Y505.174927 Z-0.125000
G01 X217.387644 Y504.238813 Z-0.125000
G01 X216.451531 Y503.302700 Z-0.125000
G01 X214.579304 Y503.302700 Z-0.125000
G01 X212.707077 Y503.302700 Z-0.125000
G01 X211.770963 Y498.622132 Z-0.125000
G01 X214.579304 Y499.558246 Z-0.125000
G01 X216.451531 Y499.558246 Z-0.125000
G01 X218.323757 Y499.558246 Z-0.125000
G01 X219.259871 Y500.494359 Z-0.125000
G01 X222.068211 Y501.430473 Z-0.125000
G01 X221.132098 Y497.686019 Z-0.125000
G01 X220.195984 Y494.877678 Z-0.125000
G01 X217.387644 Y492.069338 Z-0.125000
G01 X216.451531 Y494.877678 Z-0.125000
G01 X217.387644 Y496.749905 Z-0.125000
G01 X214.579304 Y496.749905 Z-0.125000
G01 X214.579304 Y493.941565 Z-0.125000
G01 X212.707077 Y493.005452 Z-0.125000
G01 X211.770963 Y494.877678 Z-0.125000
G01 X210.834850 Y492.069338 Z-0.125000
G01 X205.218169 Y492.069338 Z-0.125000
G01 X206.154282 Y486.452657 Z-0.125000
G01 X209.898736 Y487.388771 Z-0.125000
G01 X210.834850 Y489.260998 Z-0.125000
G01 X212.707077 Y490.197111 Z-0.125000
G01 X215.515417 Y491.133225 Z-0.125000
G01 X215.515417 Y488.324884 Z-0.125000
G01 X213.643190 Y487.388771 Z-0.125000
G01 X212.707077 Y485.516544 Z-0.125000
G01 X211.770963 Y483.644317 Z-0.125000
G01 X209.898736 Y484.580430 Z-0.125000
G01 X208.962623 Y482.708203 Z-0.125000
G01 X208.962623 Y479.899863 Z-0.125000
G01 X205.218169 Y481.772090 Z-0.125000
G01 X205.218169 Y477.091522 Z-0.125000
G01 X204.282055 Y471.474842 Z-0.125000
G01 X204.282055 Y466.794274 Z-0.125000
G01 X203.345942 Y460.241480 Z-0.125000
G01 X195.857034 Y457.433139 Z-0.125000
G01 X196.793147 Y450.880345 Z-0.125000
G01 X196.793147 Y447.135891 Z-0.125000
G01 X195.857034 Y445.263664 Z-0.125000
G01 X198.665374 Y444.327551 Z-0.125000
G01 X200.537601 Y445.263664 Z-0.125000
G01 X204.282055 Y444.327551 Z-0.125000
G01 X202.409828 Y442.455324 Z-0.125000
G01 X200.537601 Y440.583097 Z-0.125000
G01 X199.601488 Y439.646983 Z-0.125000
G01 X195.857034 Y439.646983 Z-0.125000
G01 X196.793147 Y441.519210 Z-0.125000
G01 X193.984807 Y442.455324 Z-0.125000
G01 X193.048694 Y445.263664 Z-0.125000
G01 X193.048694 Y448.072005 Z-0.125000
G01 X190.240353 Y449.008118 Z-0.125000
G01 X189.304240 Y446.199778 Z-0.125000
G01 X185.559786 Y445.263664 Z-0.125000
G01 X185.559786 Y449.008118 Z-0.125000
G01 X187.432013 Y449.944232 Z-0.125000
G01 X187.432013 Y454.624799 Z-0.125000
G01 X183.687559 Y451.816459 Z-0.125000
G01 X181.815332 Y449.008118 Z-0.125000
G01 X179.943105 Y451.816459 Z-0.125000
G01 X177.134764 Y450.880345 Z-0.125000
G01 X174.326424 Y449.944232 Z-0.125000
G01 X170.581970 Y448.072005 Z-0.125000
G01 X166.837516 Y445.263664 Z-0.125000
G01 X164.965289 Y444.327551 Z-0.125000
G01 X163.093062 Y443.391437 Z-0.125000
G01 X162.156949 Y440.583097 Z-0.125000
G01 X157.476381 Y442.455324 Z-0.125000
G01 X152.795814 Y441.519210 Z-0.125000
G01 X148.115247 Y441.519210 Z-0.125000
G01 X149.051360 Y438.710870 Z-0.125000
G01 X149.051360 Y435.902529 Z-0.125000
G01 X146.243020 Y433.094189 Z-0.125000
G01 X146.243020 Y429.349735 Z-0.125000
G01 X143.434679 Y426.541395 Z-0.125000
G01 X140.626339 Y430.285849 Z-0.125000
G01 X137.817998 Y427.477508 Z-0.125000
G01 X136.881885 Y423.733054 Z-0.125000
G01 X136.881885 Y419.988600 Z-0.125000
G01 X133.137431 Y419.052487 Z-0.125000
G01 X131.265204 Y415.308033 Z-0.125000
G01 X135.945771 Y415.308033 Z-0.125000
G01 X135.945771 Y411.563579 Z-0.125000
G01 X132.201318 Y410.627466 Z-0.125000
G01 X128.456864 Y408.755239 Z-0.125000
G01 X127.520750 Y412.499692 Z-0.125000
G01 X123.776296 Y410.627466 Z-0.125000
G01 X125.648523 Y406.883012 Z-0.125000
G01 X123.776296 Y405.946898 Z-0.125000
G01 X122.840183 Y404.074671 Z-0.125000
G01 X120.031842 Y403.138558 Z-0.125000
G01 X119.095729 Y401.266331 Z-0.125000
G01 X117.223502 Y400.330217 Z-0.125000
G01 X115.351275 Y399.394104 Z-0.125000
G01 X113.479048 Y395.649650 Z-0.125000
G01 X111.606821 Y391.905196 Z-0.125000
G01 X113.479048 Y392.841309 Z-0.125000
G01 X115.351275 Y396.585763 Z-0.125000
G01 X120.031842 Y395.649650 Z-0.125000
G01 X125.648523 Y397.521877 Z-0.125000
G01 X129.392977 Y398.457990 Z-0.125000
G01 X131.265204 Y399.394104 Z-0.125000
G01 X129.392977 Y395.649650 Z-0.125000
G01 X128.456864 Y393.777423 Z-0.125000
G01 X125.648523 Y393.777423 Z-0.125000
G01 X126.584637 Y390.969082 Z-0.125000
G01 X123.776296 Y390.969082 Z-0.125000
G01 X124.712410 Y389.096856 Z-0.125000
G01 X122.840183 Y388.160742 Z-0.125000
G01 X120.031842 Y389.096856 Z-0.125000
G01 X121.904069 Y385.352402 Z-0.125000
G01 X120.967956 Y384.416288 Z-0.125000
G01 X118.159615 Y385.352402 Z-0.125000
G01 X116.287388 Y382.544061 Z-0.125000
G01 X120.031842 Y381.607948 Z-0.125000
G01 X120.967956 Y379.735721 Z-0.125000
G01 X118.159615 Y378.799607 Z-0.125000
G01 X117.223502 Y376.927380 Z-0.125000
G01 X116.287388 Y374.119040 Z-0.125000
G01 X112.542934 Y378.799607 Z-0.125000
G01 X110.670708 Y374.119040 Z-0.125000
G01 X112.542934 Y372.246813 Z-0.125000
G01 X110.670708 Y368.502359 Z-0.125000
G01 X109.734594 Y365.694019 Z-0.125000
G01 X112.542934 Y363.821792 Z-0.125000
G01 X113.479048 Y366.630132 Z-0.125000
G01 X115.351275 Y367.566246 Z-0.125000
G01 X115.351275 Y370.374586 Z-0.125000
G01 X120.031842 Y368.502359 Z-0.125000
G01 X120.967956 Y364.757905 Z-0.125000
G01 X118.159615 Y361.013451 Z-0.125000
G01 X113.479048 Y357.268997 Z-0.125000
G01 X110.670708 Y361.949565 Z-0.125000
G01 X108.798481 Y361.013451 Z-0.125000
G01 X107.862367 Y359.141224 Z-0.125000
G01 X105.990140 Y358.205111 Z-0.125000
G01 X105.054027 Y355.396770 Z-0.125000
G01 X107.862367 Y354.460657 Z-0.125000
G01 X105.990140 Y350.716203 Z-0.125000
G01 X105.054027 Y352.588430 Z-0.125000
G01 X103.181800 Y350.716203 Z-0.125000
G01 X103.181800 Y347.907862 Z-0.125000
G01 X102.245686 Y346.035636 Z-0.125000
G01 X99.437346 Y344.163409 Z-0.125000
G01 X102.245686 Y339.482841 Z-0.125000
G01 X101.309573 Y336.674501 Z-0.125000
G01 X100.373459 Y332.930047 Z-0.125000
G01 X92.884551 Y335.738387 Z-0.125000
G01 X92.884551 Y338.546728 Z-0.125000
G01 X94.756778 Y340.418955 Z-0.125000
G01 X91.948438 Y342.291182 Z-0.125000
G01 X94.756778 Y343.227295 Z-0.125000
G01 X93.820665 Y345.099522 Z-0.125000
G01 X93.820665 Y348.843976 Z-0.125000
G01 X94.756778 Y350.716203 Z-0.125000
G01 X96.629005 Y351.652316 Z-0.125000
G01 X95.692892 Y353.524543 Z-0.125000
G01 X95.692892 Y356.332884 Z-0.125000
G01 X98.501232 Y356.332884 Z-0.125000
G01 X99.437346 Y360.077338 Z-0.125000
G01 X95.692892 Y360.077338 Z-0.125000
G01 X96.629005 Y364.757905 Z-0.125000
G01 X100.373459 Y363.821792 Z-0.125000
G01 X100.373459 Y366.630132 Z-0.125000
G01 X105.054027 Y366.630132 Z-0.125000
G01 X101.309573 Y370.374586 Z-0.125000
G01 X97.565119 Y370.374586 Z-0.125000
G01 X95.692892 Y376.927380 Z-0.125000
G01 X101.309573 Y376.927380 Z-0.125000
G01 X103.181800 Y372.246813 Z-0.125000
G01 X105.990140 Y373.182926 Z-0.125000
G01 X105.990140 Y375.991267 Z-0.125000
G01 X107.862367 Y376.927380 Z-0.125000
G01 X105.990140 Y380.671834 Z-0.125000
G01 X107.862367 Y383.480175 Z-0.125000
G01 X109.734594 Y385.352402 Z-0.125000
G01 X110.670708 Y389.096856 Z-0.125000
G01 X109.734594 Y388.160742 Z-0.125000
G01 X104.117913 Y388.160742 Z-0.125000
G01 X105.054027 Y392.841309 Z-0.125000
G01 X106.926254 Y394.713536 Z-0.125000
G01 X105.990140 Y397.521877 Z-0.125000
G01 X107.862367 Y398.457990 Z-0.125000
G01 X108.798481 Y399.394104 Z-0.125000
G01 X108.798481 Y402.202444 Z-0.125000
G01 X106.926254 Y407.819125 Z-0.125000
G01 X110.670708 Y404.074671 Z-0.125000
G01 X113.479048 Y405.010785 Z-0.125000
G01 X112.542934 Y406.883012 Z-0.125000
G01 X114.415161 Y407.819125 Z-0.125000
G01 X119.095729 Y407.819125 Z-0.125000
G01 X119.095729 Y411.563579 Z-0.125000
G01 X116.287388 Y410.627466 Z-0.125000
G01 X111.606821 Y412.499692 Z-0.125000
G01 X116.287388 Y414.371919 Z-0.125000
G01 X120.031842 Y415.308033 Z-0.125000
G01 X121.904069 Y416.244146 Z-0.125000
G01 X120.967956 Y420.924714 Z-0.125000
G01 X124.712410 Y418.116373 Z-0.125000
G01 X126.584637 Y420.924714 Z-0.125000
G01 X127.520750 Y423.733054 Z-0.125000
G01 X131.265204 Y425.605281 Z-0.125000
G01 X132.201318 Y429.349735 Z-0.125000
G01 X126.584637 Y430.285849 Z-0.125000
G01 X127.520750 Y434.030302 Z-0.125000
G01 X130.329091 Y434.030302 Z-0.125000
G01 X135.945771 Y434.030302 Z-0.125000
G01 X140.626339 Y434.966416 Z-0.125000
G01 X143.434679 Y438.710870 Z-0.125000
G01 X137.817998 Y440.583097 Z-0.125000
G01 X142.498566 Y443.391437 Z-0.125000
G01 X145.306906 Y445.263664 Z-0.125000
G01 X148.115247 Y446.199778 Z-0.125000
G01 X150.923587 Y448.072005 Z-0.125000
G01 X153.731928 Y448.072005 Z-0.125000
G01 X156.540268 Y449.008118 Z-0.125000
G01 X157.476381 Y449.944232 Z-0.125000
G01 X158.412495 Y452.752572 Z-0.125000
G01 X160.284722 Y449.944232 Z-0.125000
G01 X162.156949 Y450.880345 Z-0.125000
G01 X163.093062 Y455.560912 Z-0.125000
G01 X164.965289 Y450.880345 Z-0.125000
G01 X168.709743 Y452.752572 Z-0.125000
G01 X171.518084 Y456.497026 Z-0.125000
G01 X168.709743 Y465.858161 Z-0.125000
G01 X170.581970 Y467.730388 Z-0.125000
G01 X173.390311 Y470.538728 Z-0.125000
G01 X174.326424 Y472.410955 Z-0.125000
G01 X174.326424 Y476.155409 Z-0.125000
G01 X177.134764 Y475.219295 Z-0.125000
G01 X178.070878 Y478.027636 Z-0.125000
G01 X179.943105 Y479.899863 Z-0.125000
G01 X184.623672 Y483.644317 Z-0.125000
G01 X183.687559 Y485.516544 Z-0.125000
G01 X187.432013 Y489.260998 Z-0.125000
G01 X188.368126 Y492.069338 Z-0.125000
G01 X191.176467 Y494.877678 Z-0.125000
G01 X193.048694 Y502.366586 Z-0.125000
G01 X194.920921 Y504.238813 Z-0.125000
G01 X195.857034 Y507.047154 Z-0.125000
G01 X197.729261 Y507.983267 Z-0.125000
G01 X197.729261 Y510.791608 Z-0.125000
G01 X199.601488 Y511.727721 Z-0.125000
G01 X205.218169 Y517.344402 Z-0.125000
G01 X207.090396 Y519.216629 Z-0.125000
G01 X206.154282 Y522.024969 Z-0.125000
G01 X208.962623 Y522.024969 Z-0.125000
G01 X208.026509 Y523.897196 Z-0.125000
G01 X209.898736 Y525.769423 Z-0.125000
G01 X210.834850 Y528.577764 Z-0.125000
G01 X213.643190 Y527.641650 Z-0.125000
G01 X213.643190 Y530.449991 Z-0.125000
G01 X215.515417 Y533.258331 Z-0.125000
G01 X217.387644 Y535.130558 Z-0.125000
G01 X219.259871 Y537.002785 Z-0.125000
G01 X221.132098 Y538.875012 Z-0.125000
G01 X222.068211 Y541.683352 Z-0.125000
G01 X224.876552 Y543.555579 Z-0.125000
G01 X226.748779 Y545.427806 Z-0.125000
G01 X228.621006 Y547.300033 Z-0.125000
G01 X230.493233 Y550.108374 Z-0.125000
G01 X232.365460 Y553.852828 Z-0.125000
G01 X235.173800 Y556.661168 Z-0.125000
G01 X237.046027 Y559.469508 Z-0.125000
G01 X238.918254 Y562.277849 Z-0.125000
G01 X239.854367 Y564.150076 Z-0.125000
G01 X241.726594 Y566.022303 Z-0.125000
G01 X243.598821 Y568.830643 Z-0.125000
G01 X246.407162 Y571.638984 Z-0.125000
G01 X248.279389 Y573.511211 Z-0.125000
G01 X249.215502 Y575.383438 Z-0.125000
G01 X251.087729 Y577.255665 Z-0.125000
G01 X252.959956 Y579.127891 Z-0.125000
G01 X254.832183 Y581.000118 Z-0.125000
G01 X256.704410 Y582.872345 Z-0.125000
G01 X258.576637 Y583.808459 Z-0.125000
G01 X260.448864 Y585.680686 Z-0.125000
G01 X262.321091 Y587.552913 Z-0.125000
G01 X264.193318 Y589.425140 Z-0.125000
G01 X266.065545 Y590.361253 Z-0.125000
G01 X267.937772 Y593.169594 Z-0.125000
G01 X269.809999 Y594.105707 Z-0.125000
G01 X271.682226 Y595.041821 Z-0.125000
G01 X273.554453 Y596.914048 Z-0.125000
G01 X274.490566 Y595.041821 Z-0.125000
G01 X276.362793 Y595.977934 Z-0.125000
G01 X276.362793 Y598.786275 Z-0.125000
G01 X278.235020 Y596.914048 Z-0.125000
G01 X279.171134 Y597.850161 Z-0.125000
G01 X279.171134 Y600.658501 Z-0.125000
G01 X281.043360 Y601.594615 Z-0.125000
G01 X281.979474 Y598.786275 Z-0.125000
G01 X283.851701 Y599.722388 Z-0.125000
G01 X284.787814 Y601.594615 Z-0.125000
G01 X285.723928 Y599.722388 Z-0.125000
G01 X287.596155 Y600.658501 Z-0.125000
G01 X289.468382 Y599.722388 Z-0.125000
G01 X291.340609 Y601.594615 Z-0.125000
G01 X289.468382 Y602.530728 Z-0.125000
G01 X286.660041 Y603.466842 Z-0.125000
G01 X282.915587 Y603.466842 Z-0.125000
G01 X284.787814 Y605.339069 Z-0.125000
G01 X286.660041 Y607.211296 Z-0.125000
G01 X287.596155 Y605.339069 Z-0.125000
G01 X289.468382 Y606.275182 Z-0.125000
G01 X289.468382 Y609.083523 Z-0.125000
G01 X292.276722 Y609.083523 Z-0.125000
G01 X294.148949 Y610.019636 Z-0.125000
G01 X296.021176 Y610.019636 Z-0.125000
G01 X297.893403 Y610.955750 Z-0.125000
G01 X299.765630 Y611.891863 Z-0.125000
G01 X301.637857 Y611.891863 Z-0.125000
G01 X303.510084 Y612.827977 Z-0.125000
G01 X306.318424 Y611.891863 Z-0.125000
G01 X305.382311 Y610.019636 Z-0.125000
G01 X304.446197 Y609.083523 Z-0.125000
G01 X301.637857 Y609.083523 Z-0.125000
G01 X299.765630 Y608.147409 Z-0.125000
G01 X300.701743 Y606.275182 Z-0.125000
G01 X298.829517 Y605.339069 Z-0.125000
G01 X296.957290 Y605.339069 Z-0.125000
G01 X296.957290 Y608.147409 Z-0.125000
G01 X294.148949 Y607.211296 Z-0.125000
G01 X292.276722 Y606.275182 Z-0.125000
G01 X291.340609 Y604.402955 Z-0.125000
G01 X294.148949 Y604.402955 Z-0.125000
G01 X294.148949 Y602.530728 Z-0.125000
G01 X296.957290 Y603.466842 Z-0.125000
G01 X296.957290 Y600.658501 Z-0.125000
G01 X294.148949 Y599.722388 Z-0.125000
G01 X293.212836 Y598.786275 Z-0.125000
G01 X291.340609 Y597.850161 Z-0.125000
G01 X288.532268 Y596.914048 Z-0.125000
G01 X286.660041 Y596.914048 Z-0.125000
G01 X285.723928 Y595.977934 Z-0.125000
G01 X283.851701 Y595.977934 Z-0.125000
G01 X281.979474 Y595.977934 Z-0.125000
G01 X280.107247 Y595.041821 Z-0.125000
G01 X280.107247 Y592.233480 Z-0.125000
G01 X281.979474 Y592.233480 Z-0.125000
G01 X283.851701 Y592.233480 Z-0.125000
G01 X284.787814 Y593.169594 Z-0.125000
G01 X287.596155 Y592.233480 Z-0.125000
G01 X288.532268 Y593.169594 Z-0.125000
G01 X291.340609 Y593.169594 Z-0.125000
G01 X290.404495 Y595.041821 Z-0.125000
G01 X293.212836 Y595.041821 Z-0.125000
G01 X295.085063 Y595.977934 Z-0.125000
G01 X296.957290 Y597.850161 Z-0.125000
G01 X299.765630 Y597.850161 Z-0.125000
G01 X302.573970 Y598.786275 Z-0.125000
G01 X299.765630 Y601.594615 Z-0.125000
G01 X302.573970 Y603.466842 Z-0.125000
G01 X304.446197 Y606.275182 Z-0.125000
G01 X307.254538 Y607.211296 Z-0.125000
G01 X307.254538 Y604.402955 Z-0.125000
G01 X306.318424 Y602.530728 Z-0.125000
G01 X305.382311 Y600.658501 Z-0.125000
G01 X309.126765 Y601.594615 Z-0.125000
G01 X308.190651 Y599.722388 Z-0.125000
G01 X307.254538 Y597.850161 Z-0.125000
G01 X306.318424 Y596.914048 Z-0.125000
G01 X309.126765 Y595.041821 Z-0.125000
G01 X310.062878 Y593.169594 Z-0.125000
G01 X310.062878 Y590.361253 Z-0.125000
G01 X308.190651 Y588.489026 Z-0.125000
G01 X307.254538 Y585.680686 Z-0.125000
G01 X310.062878 Y585.680686 Z-0.125000
G01 X310.062878 Y582.872345 Z-0.125000
G01 X308.190651 Y582.872345 Z-0.125000
G01 X308.190651 Y580.064005 Z-0.125000
G01 X310.998992 Y580.064005 Z-0.125000
G01 X310.998992 Y577.255665 Z-0.125000
G01 X310.062878 Y576.319551 Z-0.125000
G01 X310.062878 Y573.511211 Z-0.125000
G01 X311.935105 Y573.511211 Z-0.125000
G01 X312.871219 Y570.702870 Z-0.125000
G01 X313.807332 Y567.894530 Z-0.125000
G01 X310.998992 Y567.894530 Z-0.125000
G01 X310.062878 Y570.702870 Z-0.125000
G01 X306.318424 Y570.702870 Z-0.125000
G01 X305.382311 Y577.255665 Z-0.125000
G01 X303.510084 Y582.872345 Z-0.125000
G01 X299.765630 Y581.936232 Z-0.125000
G01 X299.765630 Y577.255665 Z-0.125000
G01 X298.829517 Y573.511211 Z-0.125000
G01 X297.893403 Y569.766757 Z-0.125000
G01 X296.957290 Y566.022303 Z-0.125000
G01 X291.340609 Y566.022303 Z-0.125000
G01 X290.404495 Y571.638984 Z-0.125000
G01 X292.276722 Y575.383438 Z-0.125000
G01 X293.212836 Y580.064005 Z-0.125000
G01 X294.148949 Y582.872345 Z-0.125000
G01 X296.957290 Y586.616799 Z-0.125000
G01 X300.701743 Y588.489026 Z-0.125000
G01 X304.446197 Y589.425140 Z-0.125000
G01 X307.254538 Y590.361253 Z-0.125000
G01 X307.254538 Y593.169594 Z-0.125000
G01 X303.510084 Y595.041821 Z-0.125000
G01 X299.765630 Y593.169594 Z-0.125000
G01 X296.021176 Y592.233480 Z-0.125000
G01 X294.148949 Y591.297367 Z-0.125000
G01 X292.276722 Y589.425140 Z-0.125000
G01 X290.404495 Y589.425140 Z-0.125000
G01 X289.468382 Y587.552913 Z-0.125000
G01 X287.596155 Y589.425140 Z-0.125000
G01 X285.723928 Y589.425140 Z-0.125000
G01 X283.851701 Y588.489026 Z-0.125000
G01 X281.979474 Y587.552913 Z-0.125000
G01 X281.043360 Y589.425140 Z-0.125000
G01 X280.107247 Y586.616799 Z-0.125000
G01 X278.235020 Y586.616799 Z-0.125000
G01 X277.298907 Y584.744572 Z-0.125000
G01 X276.362793 Y583.808459 Z-0.125000
G01 X274.490566 Y583.808459 Z-0.125000
G01 X273.554453 Y581.936232 Z-0.125000
G01 X270.746112 Y581.000118 Z-0.125000
G01 X269.809999 Y582.872345 Z-0.125000
G01 X271.682226 Y583.808459 Z-0.125000
G01 X271.682226 Y586.616799 Z-0.125000
G01 X273.554453 Y588.489026 Z-0.125000
G01 X274.490566 Y586.616799 Z-0.125000
G01 X275.426680 Y588.489026 Z-0.125000
G01 X277.298907 Y589.425140 Z-0.125000
G01 X278.235020 Y591.297367 Z-0.125000
G01 X277.298907 Y593.169594 Z-0.125000
G01 X275.426680 Y591.297367 Z-0.125000
G01 X273.554453 Y592.233480 Z-0.125000
G01 X271.682226 Y590.361253 Z-0.125000
G01 X269.809999 Y589.425140 Z-0.125000
G01 X269.809999 Y586.616799 Z-0.125000
G01 X267.937772 Y585.680686 Z-0.125000
G01 X267.001658 Y583.808459 Z-0.125000
G01 X265.129431 Y583.808459 Z-0.125000
G01 X267.937772 Y581.000118 Z-0.125000
G01 X267.001658 Y579.127891 Z-0.125000
G01 X265.129431 Y581.000118 Z-0.125000
G01 X263.257204 Y580.064005 Z-0.125000
G01 X264.193318 Y577.255665 Z-0.125000
G01 X263.257204 Y576.319551 Z-0.125000
G01 X262.321091 Y574.447324 Z-0.125000
G01 X259.512750 Y578.191778 Z-0.125000
G01 X256.704410 Y575.383438 Z-0.125000
G01 X256.704410 Y570.702870 Z-0.125000
G01 X259.512750 Y569.766757 Z-0.125000
G01 X260.448864 Y572.575097 Z-0.125000
G01 X261.384977 Y570.702870 Z-0.125000
G01 X263.257204 Y571.638984 Z-0.125000
G01 X265.129431 Y572.575097 Z-0.125000
G01 X266.065545 Y574.447324 Z-0.125000
G01 X267.001658 Y576.319551 Z-0.125000
G01 X268.873885 Y577.255665 Z-0.125000
G01 X270.746112 Y578.191778 Z-0.125000
G01 X272.618339 Y579.127891 Z-0.125000
G01 X275.426680 Y580.064005 Z-0.125000
G01 X274.490566 Y577.255665 Z-0.125000
G01 X272.618339 Y575.383438 Z-0.125000
G01 X270.746112 Y574.447324 Z-0.125000
G01 X268.873885 Y573.511211 Z-0.125000
G01 X268.873885 Y570.702870 Z-0.125000
G01 X267.001658 Y570.702870 Z-0.125000
G01 X267.001658 Y567.894530 Z-0.125000
G01 X265.129431 Y566.958416 Z-0.125000
G01 X264.193318 Y568.830643 Z-0.125000
G01 X261.384977 Y567.894530 Z-0.125000
G01 X263.257204 Y566.022303 Z-0.125000
G01 X261.384977 Y565.086189 Z-0.125000
G01 X261.384977 Y562.277849 Z-0.125000
G01 X258.576637 Y562.277849 Z-0.125000
G01 X259.512750 Y564.150076 Z-0.125000
G01 X258.576637 Y566.958416 Z-0.125000
G01 X255.768297 Y567.894530 Z-0.125000
G01 X256.704410 Y565.086189 Z-0.125000
G01 X255.768297 Y563.213962 Z-0.125000
G01 X253.896070 Y562.277849 Z-0.125000
G01 X252.959956 Y565.086189 Z-0.125000
G01 X251.087729 Y561.341735 Z-0.125000
G01 X251.087729 Y558.533395 Z-0.125000
G01 X253.896070 Y559.469508 Z-0.125000
G01 X256.704410 Y560.405622 Z-0.125000
G01 X255.768297 Y557.597281 Z-0.125000
G01 X258.576637 Y556.661168 Z-0.125000
G01 X260.448864 Y558.533395 Z-0.125000
G01 X263.257204 Y558.533395 Z-0.125000
G01 X265.129431 Y560.405622 Z-0.125000
G01 X266.065545 Y562.277849 Z-0.125000
G01 X268.873885 Y563.213962 Z-0.125000
G01 X270.746112 Y565.086189 Z-0.125000
G01 X271.682226 Y566.958416 Z-0.125000
G01 X274.490566 Y567.894530 Z-0.125000
G01 X271.682226 Y570.702870 Z-0.125000
G01 X274.490566 Y571.638984 Z-0.125000
G01 X278.235020 Y572.575097 Z-0.125000
G01 X279.171134 Y576.319551 Z-0.125000
G01 X281.043360 Y578.191778 Z-0.125000
G01 X277.298907 Y580.064005 Z-0.125000
G01 X279.171134 Y581.936232 Z-0.125000
G01 X281.979474 Y581.936232 Z-0.125000
G01 X281.043360 Y583.808459 Z-0.125000
G01 X283.851701 Y583.808459 Z-0.125000
G01 X284.787814 Y585.680686 Z-0.125000
G01 X287.596155 Y585.680686 Z-0.125000
G01 X288.532268 Y581.000118 Z-0.125000
G01 X286.660041 Y577.255665 Z-0.125000
G01 X284.787814 Y571.638984 Z-0.125000
G01 X284.787814 Y566.958416 Z-0.125000
G01 X280.107247 Y566.958416 Z-0.125000
G01 X281.043360 Y561.341735 Z-0.125000
G01 X277.298907 Y559.469508 Z-0.125000
G01 X273.554453 Y556.661168 Z-0.125000
G01 X267.937772 Y552.916714 Z-0.125000
G01 X263.257204 Y551.980601 Z-0.125000
G01 X260.448864 Y549.172260 Z-0.125000
G01 X267.001658 Y546.363920 Z-0.125000
G01 X262.321091 Y543.555579 Z-0.125000
G01 X260.448864 Y537.938898 Z-0.125000
G01 X257.640524 Y535.130558 Z-0.125000
G01 X258.576637 Y529.513877 Z-0.125000
G01 X267.937772 Y531.386104 Z-0.125000
G01 X267.937772 Y537.938898 Z-0.125000
G01 X273.554453 Y539.811125 Z-0.125000
G01 X273.554453 Y545.427806 Z-0.125000
G01 X274.490566 Y550.108374 Z-0.125000
G01 X280.107247 Y551.044487 Z-0.125000
G01 X282.915587 Y552.916714 Z-0.125000
G01 X287.596155 Y554.788941 Z-0.125000
G01 X288.532268 Y560.405622 Z-0.125000
G01 X294.148949 Y559.469508 Z-0.125000
G01 X300.701743 Y560.405622 Z-0.125000
G01 X307.254538 Y564.150076 Z-0.125000
G01 X310.998992 Y565.086189 Z-0.125000
G01 X312.871219 Y565.086189 Z-0.125000
G01 X312.871219 Y562.277849 Z-0.125000
G01 X313.807332 Y559.469508 Z-0.125000
G01 X311.935105 Y559.469508 Z-0.125000
G01 X310.998992 Y556.661168 Z-0.125000
G01 X313.807332 Y555.725055 Z-0.125000
G01 X313.807332 Y552.916714 Z-0.125000
G01 X313.807332 Y550.108374 Z-0.125000
G01 X315.679559 Y548.236147 Z-0.125000
G01 X313.807332 Y546.363920 Z-0.125000
G01 X315.679559 Y543.555579 Z-0.125000
G01 X315.679559 Y540.747239 Z-0.125000
G01 X315.679559 Y537.938898 Z-0.125000
G01 X315.679559 Y534.194445 Z-0.125000
G01 X317.551786 Y535.130558 Z-0.125000
G01 X318.487900 Y531.386104 Z-0.125000
G01 X317.551786 Y529.513877 Z-0.125000
G01 X316.615673 Y527.641650 Z-0.125000
G01 X315.679559 Y524.833310 Z-0.125000
G01 X314.743446 Y522.024969 Z-0.125000
G01 X315.679559 Y519.216629 Z-0.125000
G01 X312.871219 Y518.280515 Z-0.125000
G01 X315.679559 Y516.408288 Z-0.125000
G01 X314.743446 Y513.599948 Z-0.125000
G01 X317.551786 Y511.727721 Z-0.125000
G01 X314.743446 Y510.791608 Z-0.125000
G01 X314.743446 Y507.983267 Z-0.125000
G01 X310.998992 Y507.047154 Z-0.125000
G01 X314.743446 Y505.174927 Z-0.125000
G01 X314.743446 Y502.366586 Z-0.125000
G01 X311.935105 Y502.366586 Z-0.125000
G01 X312.871219 Y498.622132 Z-0.125000
G01 X311.935105 Y497.686019 Z-0.125000
G01 X310.998992 Y494.877678 Z-0.125000
G01 X313.807332 Y494.877678 Z-0.125000
G01 X311.935105 Y491.133225 Z-0.125000
G01 X310.062878 Y491.133225 Z-0.125000
G01 X306.318424 Y491.133225 Z-0.125000
G01 X309.126765 Y487.388771 Z-0.125000
G01 X307.254538 Y485.516544 Z-0.125000
G01 X309.126765 Y483.644317 Z-0.125000
G01 X308.190651 Y481.772090 Z-0.125000
G01 X305.382311 Y482.708203 Z-0.125000
G01 X305.382311 Y479.899863 Z-0.125000
G01 X303.510084 Y477.091522 Z-0.125000
G01 X304.446197 Y475.219295 Z-0.125000
G01 X301.637857 Y474.283182 Z-0.125000
G01 X301.637857 Y471.474842 Z-0.125000
G01 X299.765630 Y470.538728 Z-0.125000
G01 X297.893403 Y469.602615 Z-0.125000
G01 X297.893403 Y466.794274 Z-0.125000
G01 X296.021176 Y465.858161 Z-0.125000
G01 X294.148949 Y464.922047 Z-0.125000
G01 X289.468382 Y464.922047 Z-0.125000
G01 X289.468382 Y472.410955 Z-0.125000
G01 X283.851701 Y472.410955 Z-0.125000
G01 X281.979474 Y466.794274 Z-0.125000
G01 X280.107247 Y463.049820 Z-0.125000
G01 X278.235020 Y459.305366 Z-0.125000
G01 X276.362793 Y455.560912 Z-0.125000
G01 X273.554453 Y451.816459 Z-0.125000
G01 X270.746112 Y448.072005 Z-0.125000
G01 X269.809999 Y440.583097 Z-0.125000
G01 X264.193318 Y439.646983 Z-0.125000
G01 X260.448864 Y437.774756 Z-0.125000
G01 X256.704410 Y434.966416 Z-0.125000
G01 X258.576637 Y432.158075 Z-0.125000
G01 X257.640524 Y431.221962 Z-0.125000
G01 X255.768297 Y430.285849 Z-0.125000
G01 X254.832183 Y433.094189 Z-0.125000
G01 X252.959956 Y432.158075 Z-0.125000
G01 X251.087729 Y430.285849 Z-0.125000
G01 X250.151616 Y427.477508 Z-0.125000
G01 X248.279389 Y426.541395 Z-0.125000
G01 X247.343275 Y428.413622 Z-0.125000
G01 X245.471048 Y431.221962 Z-0.125000
G01 X244.534935 Y430.285849 Z-0.125000
G01 X242.662708 Y429.349735 Z-0.125000
G01 X241.726594 Y431.221962 Z-0.125000
G01 X237.046027 Y429.349735 Z-0.125000
G01 X233.301573 Y428.413622 Z-0.125000
G01 X228.621006 Y429.349735 Z-0.125000
G01 X231.429346 Y433.094189 Z-0.125000
G01 X233.301573 Y434.030302 Z-0.125000
G01 X236.109914 Y434.030302 Z-0.125000
G01 X237.046027 Y432.158075 Z-0.125000
G01 X238.918254 Y433.094189 Z-0.125000
G01 X238.918254 Y435.902529 Z-0.125000
G01 X241.726594 Y436.838643 Z-0.125000
G01 X244.534935 Y437.774756 Z-0.125000
G01 X247.343275 Y439.646983 Z-0.125000
G01 X249.215502 Y440.583097 Z-0.125000
G01 X250.151616 Y437.774756 Z-0.125000
G01 X250.151616 Y434.966416 Z-0.125000
G01 X252.959956 Y434.966416 Z-0.125000
G01 X252.023843 Y437.774756 Z-0.125000
G01 X253.896070 Y440.583097 Z-0.125000
G01 X255.768297 Y443.391437 Z-0.125000
G01 X259.512750 Y445.263664 Z-0.125000
G01 X263.257204 Y448.072005 Z-0.125000
G01 X261.384977 Y453.688685 Z-0.125000
G01 X267.001658 Y456.497026 Z-0.125000
G01 X268.873885 Y460.241480 Z-0.125000
G01 X268.873885 Y464.922047 Z-0.125000
G01 X263.257204 Y464.922047 Z-0.125000
G01 X259.512750 Y460.241480 Z-0.125000
G01 X253.896070 Y458.369253 Z-0.125000
G01 X255.768297 Y452.752572 Z-0.125000
G01 X252.959956 Y449.008118 Z-0.125000
G01 X249.215502 Y447.135891 Z-0.125000
G01 X246.407162 Y445.263664 Z-0.125000
G01 X243.598821 Y442.455324 Z-0.125000
G01 X241.726594 Y440.583097 Z-0.125000
G01 X239.854367 Y439.646983 Z-0.125000
G01 X237.982140 Y438.710870 Z-0.125000
G01 X236.109914 Y438.710870 Z-0.125000
G01 X234.237687 Y437.774756 Z-0.125000
G01 X231.429346 Y436.838643 Z-0.125000
G01 X229.557119 Y435.902529 Z-0.125000
G01 X227.684892 Y434.966416 Z-0.125000
G01 X226.748779 Y436.838643 Z-0.125000
G01 X224.876552 Y435.902529 Z-0.125000
G01 X223.940438 Y434.030302 Z-0.125000
G01 X223.004325 Y429.349735 Z-0.125000
G01 X224.876552 Y423.733054 Z-0.125000
G01 X230.493233 Y423.733054 Z-0.125000
G01 X231.429346 Y417.180260 Z-0.125000
G01 X237.046027 Y419.052487 Z-0.125000
G01 X237.982140 Y423.733054 Z-0.125000
G01 X242.662708 Y423.733054 Z-0.125000
G01 X246.407162 Y423.733054 Z-0.125000
G01 X248.279389 Y419.988600 Z-0.125000
G01 X243.598821 Y418.116373 Z-0.125000
G01 X242.662708 Y415.308033 Z-0.125000
G01 X238.918254 Y412.499692 Z-0.125000
G01 X236.109914 Y408.755239 Z-0.125000
G01 X234.237687 Y400.330217 Z-0.125000
G01 X239.854367 Y402.202444 Z-0.125000
G01 X243.598821 Y405.946898 Z-0.125000
G01 X245.471048 Y409.691352 Z-0.125000
G01 X250.151616 Y410.627466 Z-0.125000
G01 X250.151616 Y415.308033 Z-0.125000
G01 X253.896070 Y419.052487 Z-0.125000
G01 X254.832183 Y419.988600 Z-0.125000
G01 X257.640524 Y419.052487 Z-0.125000
G01 X257.640524 Y421.860827 Z-0.125000
G01 X259.512750 Y421.860827 Z-0.125000
G01 X261.384977 Y422.796941 Z-0.125000
G01 X262.321091 Y424.669168 Z-0.125000
G01 X258.576637 Y424.669168 Z-0.125000
G01 X255.768297 Y424.669168 Z-0.125000
G01 X254.832183 Y422.796941 Z-0.125000
G01 X252.023843 Y422.796941 Z-0.125000
G01 X251.087729 Y424.669168 Z-0.125000
G01 X252.959956 Y425.605281 Z-0.125000
G01 X255.768297 Y427.477508 Z-0.125000
G01 X257.640524 Y427.477508 Z-0.125000
G01 X259.512750 Y427.477508 Z-0.125000
G01 X260.448864 Y429.349735 Z-0.125000
G01 X262.321091 Y427.477508 Z-0.125000
G01 X265.129431 Y427.477508 Z-0.125000
G01 X266.065545 Y431.221962 Z-0.125000
G01 X262.321091 Y432.158075 Z-0.125000
G01 X265.129431 Y434.966416 Z-0.125000
G01 X268.873885 Y434.030302 Z-0.125000
G01 X269.809999 Y434.966416 Z-0.125000
G01 X271.682226 Y436.838643 Z-0.125000
G01 X273.554453 Y438.710870 Z-0.125000
G01 X274.490566 Y441.519210 Z-0.125000
G01 X276.362793 Y442.455324 Z-0.125000
G01 X277.298907 Y444.327551 Z-0.125000
G01 X277.298907 Y446.199778 Z-0.125000
G01 X278.235020 Y449.008118 Z-0.125000
G01 X279.171134 Y450.880345 Z-0.125000
G01 X280.107247 Y453.688685 Z-0.125000
G01 X281.043360 Y454.624799 Z-0.125000
G01 X283.851701 Y455.560912 Z-0.125000
G01 X282.915587 Y457.433139 Z-0.125000
G01 X284.787814 Y458.369253 Z-0.125000
G01 X286.660041 Y459.305366 Z-0.125000
G01 X290.404495 Y459.305366 Z-0.125000
G01 X292.276722 Y460.241480 Z-0.125000
G01 X294.148949 Y462.113707 Z-0.125000
G01 X296.957290 Y462.113707 Z-0.125000
G01 X298.829517 Y463.985934 Z-0.125000
G01 X301.637857 Y464.922047 Z-0.125000
G01 X304.446197 Y463.985934 Z-0.125000
G01 X306.318424 Y465.858161 Z-0.125000
G01 X306.318424 Y462.113707 Z-0.125000
G01 X308.190651 Y463.049820 Z-0.125000
G01 X310.062878 Y463.985934 Z-0.125000
G01 X310.062878 Y466.794274 Z-0.125000
G01 X312.871219 Y465.858161 Z-0.125000
G01 X314.743446 Y466.794274 Z-0.125000
G01 X316.615673 Y467.730388 Z-0.125000
G01 X315.679559 Y464.922047 Z-0.125000
G01 X318.487900 Y464.922047 Z-0.125000
G01 X319.424013 Y466.794274 Z-0.125000
G01 X321.296240 Y466.794274 Z-0.125000
G01 X323.168467 Y466.794274 Z-0.125000
G01 X325.040694 Y467.730388 Z-0.125000
G01 X327.849034 Y467.730388 Z-0.125000
G01 X330.657375 Y466.794274 Z-0.125000
G01 X331.593488 Y468.666501 Z-0.125000
G01 X334.401829 Y469.602615 Z-0.125000
G01 X334.401829 Y466.794274 Z-0.125000
G01 X337.210169 Y468.666501 Z-0.125000
G01 X339.082396 Y467.730388 Z-0.125000
G01 X340.954623 Y468.666501 Z-0.125000
G01 X344.699077 Y467.730388 Z-0.125000
G01 X345.635190 Y465.858161 Z-0.125000
G01 X342.826850 Y465.858161 Z-0.125000
G01 X341.890737 Y464.922047 Z-0.125000
G01 X340.018510 Y463.985934 Z-0.125000
G01 X337.210169 Y463.049820 Z-0.125000
G01 X333.465715 Y463.049820 Z-0.125000
G01 X329.721261 Y463.985934 Z-0.125000
G01 X326.912921 Y463.985934 Z-0.125000
G01 X325.040694 Y463.049820 Z-0.125000
G01 X322.232353 Y463.049820 Z-0.125000
G01 X321.296240 Y462.113707 Z-0.125000
G01 X318.487900 Y462.113707 Z-0.125000
G01 X315.679559 Y462.113707 Z-0.125000
G01 X312.871219 Y463.049820 Z-0.125000
G01 X311.935105 Y461.177593 Z-0.125000
G01 X310.062878 Y460.241480 Z-0.125000
G01 X306.318424 Y459.305366 Z-0.125000
G01 X303.510084 Y458.369253 Z-0.125000
G01 X303.510084 Y461.177593 Z-0.125000
G01 X300.701743 Y461.177593 Z-0.125000
G01 X298.829517 Y459.305366 Z-0.125000
G01 X300.701743 Y457.433139 Z-0.125000
G01 X298.829517 Y456.497026 Z-0.125000
G01 X296.957290 Y455.560912 Z-0.125000
G01 X296.021176 Y458.369253 Z-0.125000
G01 X294.148949 Y456.497026 Z-0.125000
G01 X292.276722 Y455.560912 Z-0.125000
G01 X296.021176 Y453.688685 Z-0.125000
G01 X294.148949 Y452.752572 Z-0.125000
G01 X292.276722 Y452.752572 Z-0.125000
G01 X290.404495 Y452.752572 Z-0.125000
G01 X289.468382 Y450.880345 Z-0.125000
G01 X286.660041 Y448.072005 Z-0.125000
G01 X287.596155 Y446.199778 Z-0.125000
G01 X292.276722 Y446.199778 Z-0.125000
G01 X291.340609 Y445.263664 Z-0.125000
G01 X290.404495 Y443.391437 Z-0.125000
G01 X287.596155 Y443.391437 Z-0.125000
G01 X288.532268 Y440.583097 Z-0.125000
G01 X289.468382 Y438.710870 Z-0.125000
G01 X286.660041 Y438.710870 Z-0.125000
G01 X286.660041 Y435.902529 Z-0.125000
G01 X289.468382 Y435.902529 Z-0.125000
G01 X289.468382 Y433.094189 Z-0.125000
G01 X286.660041 Y433.094189 Z-0.125000
G01 X287.596155 Y431.221962 Z-0.125000
G01 X287.596155 Y428.413622 Z-0.125000
G01 X287.596155 Y425.605281 Z-0.125000
G01 X287.596155 Y422.796941 Z-0.125000
G01 X285.723928 Y421.860827 Z-0.125000
G01 X284.787814 Y423.733054 Z-0.125000
G01 X284.787814 Y426.541395 Z-0.125000
G01 X283.851701 Y429.349735 Z-0.125000
G01 X284.787814 Y430.285849 Z-0.125000
G01 X281.043360 Y427.477508 Z-0.125000
G01 X281.979474 Y425.605281 Z-0.125000
G01 X281.043360 Y423.733054 Z-0.125000
G01 X278.235020 Y423.733054 Z-0.125000
G01 X273.554453 Y424.669168 Z-0.125000
G01 X272.618339 Y420.924714 Z-0.125000
G01 X269.809999 Y417.180260 Z-0.125000
G01 X267.937772 Y416.244146 Z-0.125000
G01 X266.065545 Y415.308033 Z-0.125000
G01 X264.193318 Y414.371919 Z-0.125000
G01 X262.321091 Y416.244146 Z-0.125000
G01 X264.193318 Y418.116373 Z-0.125000
G01 X266.065545 Y419.052487 Z-0.125000
G01 X264.193318 Y421.860827 Z-0.125000
G01 X262.321091 Y419.988600 Z-0.125000
G01 X260.448864 Y419.052487 Z-0.125000
G01 X259.512750 Y417.180260 Z-0.125000
G01 X257.640524 Y416.244146 Z-0.125000
G01 X255.768297 Y414.371919 Z-0.125000
G01 X259.512750 Y413.435806 Z-0.125000
G01 X261.384977 Y413.435806 Z-0.125000
G01 X260.448864 Y410.627466 Z-0.125000
G01 X259.512750 Y408.755239 Z-0.125000
G01 X255.768297 Y408.755239 Z-0.125000
G01 X251.087729 Y405.946898 Z-0.125000
G01 X249.215502 Y403.138558 Z-0.125000
G01 X245.471048 Y400.330217 Z-0.125000
G01 X245.471048 Y396.585763 Z-0.125000
G01 X241.726594 Y394.713536 Z-0.125000
G01 X237.046027 Y391.905196 Z-0.125000
G01 X237.046027 Y387.224629 Z-0.125000
G01 X235.173800 Y383.480175 Z-0.125000
G01 X232.365460 Y379.735721 Z-0.125000
G01 X223.940438 Y380.671834 Z-0.125000
G01 X223.940438 Y374.119040 Z-0.125000
G01 X221.132098 Y369.438472 Z-0.125000
G01 X215.515417 Y366.630132 Z-0.125000
G01 X211.770963 Y363.821792 Z-0.125000
G01 X211.770963 Y358.205111 Z-0.125000
G01 X206.154282 Y357.268997 Z-0.125000
G01 X200.537601 Y356.332884 Z-0.125000
G01 X199.601488 Y352.588430 Z-0.125000
G01 X196.793147 Y351.652316 Z-0.125000
G01 X195.857034 Y349.780089 Z-0.125000
G01 X193.984807 Y348.843976 Z-0.125000
G01 X193.048694 Y350.716203 Z-0.125000
G01 X190.240353 Y349.780089 Z-0.125000
G01 X188.368126 Y347.907862 Z-0.125000
G01 X184.623672 Y350.716203 Z-0.125000
G01 X181.815332 Y347.907862 Z-0.125000
G01 X181.815332 Y343.227295 Z-0.125000
G01 X176.198651 Y346.035636 Z-0.125000
G01 X172.454197 Y345.099522 Z-0.125000
G01 X167.773630 Y343.227295 Z-0.125000
G01 X159.348608 Y342.291182 Z-0.125000
G01 X157.476381 Y348.843976 Z-0.125000
G01 X163.093062 Y351.652316 Z-0.125000
G01 X169.645857 Y352.588430 Z-0.125000
G01 X174.326424 Y354.460657 Z-0.125000
G01 X178.070878 Y358.205111 Z-0.125000
G01 X181.815332 Y360.077338 Z-0.125000
G01 X186.495899 Y356.332884 Z-0.125000
G01 X191.176467 Y358.205111 Z-0.125000
G01 X193.984807 Y362.885678 Z-0.125000
G01 X193.048694 Y365.694019 Z-0.125000
G01 X190.240353 Y364.757905 Z-0.125000
G01 X188.368126 Y363.821792 Z-0.125000
G01 X185.559786 Y362.885678 Z-0.125000
G01 X181.815332 Y362.885678 Z-0.125000
G01 X179.006991 Y363.821792 Z-0.125000
G01 X178.070878 Y365.694019 Z-0.125000
G01 X177.134764 Y368.502359 Z-0.125000
G01 X175.262537 Y368.502359 Z-0.125000
G01 X175.262537 Y371.310699 Z-0.125000
G01 X177.134764 Y372.246813 Z-0.125000
G01 X179.006991 Y372.246813 Z-0.125000
G01 X180.879218 Y373.182926 Z-0.125000
G01 X182.751445 Y373.182926 Z-0.125000
G01 X183.687559 Y374.119040 Z-0.125000
G01 X182.751445 Y376.927380 Z-0.125000
G01 X180.879218 Y376.927380 Z-0.125000
G01 X179.006991 Y375.991267 Z-0.125000
G01 X177.134764 Y375.055153 Z-0.125000
G01 X174.326424 Y374.119040 Z-0.125000
G01 X172.454197 Y373.182926 Z-0.125000
G01 X171.518084 Y376.927380 Z-0.125000
G01 X173.390311 Y376.927380 Z-0.125000
G01 X175.262537 Y377.863494 Z-0.125000
G01 X177.134764 Y378.799607 Z-0.125000
G01 X178.070878 Y379.735721 Z-0.125000
G01 X180.879218 Y379.735721 Z-0.125000
G01 X181.815332 Y381.607948 Z-0.125000
G01 X183.687559 Y381.607948 Z-0.125000
G01 X185.559786 Y382.544061 Z-0.125000
G01 X187.432013 Y383.480175 Z-0.125000
G01 X189.304240 Y383.480175 Z-0.125000
G01 X192.112580 Y383.480175 Z-0.125000
G01 X191.176467 Y385.352402 Z-0.125000
G01 X192.112580 Y387.224629 Z-0.125000
G01 X193.048694 Y389.096856 Z-0.125000
G01 X194.920921 Y390.032969 Z-0.125000
G01 X196.793147 Y391.905196 Z-0.125000
G01 X198.665374 Y391.905196 Z-0.125000
G01 X200.537601 Y392.841309 Z-0.125000
G01 X201.473715 Y394.713536 Z-0.125000
G01 X203.345942 Y394.713536 Z-0.125000
G01 X205.218169 Y395.649650 Z-0.125000
G01 X207.090396 Y396.585763 Z-0.125000
G01 X208.962623 Y396.585763 Z-0.125000
G01 X210.834850 Y397.521877 Z-0.125000
G01 X210.834850 Y394.713536 Z-0.125000
G01 X209.898736 Y391.905196 Z-0.125000
G01 X208.026509 Y393.777423 Z-0.125000
G01 X206.154282 Y392.841309 Z-0.125000
G01 X204.282055 Y391.905196 Z-0.125000
G01 X202.409828 Y390.032969 Z-0.125000
G01 X201.473715 Y389.096856 Z-0.125000
G01 X200.537601 Y387.224629 Z-0.125000
G01 X198.665374 Y389.096856 Z-0.125000
G01 X196.793147 Y388.160742 Z-0.125000
G01 X197.729261 Y386.288515 Z-0.125000
G01 X196.793147 Y384.416288 Z-0.125000
G01 X194.920921 Y386.288515 Z-0.125000
G01 X194.920921 Y383.480175 Z-0.125000
G01 X195.857034 Y381.607948 Z-0.125000
G01 X193.984807 Y380.671834 Z-0.125000
G01 X192.112580 Y380.671834 Z-0.125000
G01 X191.176467 Y378.799607 Z-0.125000
G01 X189.304240 Y380.671834 Z-0.125000
G01 X187.432013 Y379.735721 Z-0.125000
G01 X185.559786 Y378.799607 Z-0.125000
G01 X184.623672 Y377.863494 Z-0.125000
G01 X186.495899 Y375.991267 Z-0.125000
G01 X189.304240 Y376.927380 Z-0.125000
G01 X189.304240 Y374.119040 Z-0.125000
G01 X191.176467 Y375.055153 Z-0.125000
G01 X192.112580 Y376.927380 Z-0.125000
G01 X194.920921 Y377.863494 Z-0.125000
G01 X196.793147 Y377.863494 Z-0.125000
G01 X198.665374 Y378.799607 Z-0.125000
G01 X200.537601 Y379.735721 Z-0.125000
G01 X198.665374 Y381.607948 Z-0.125000
G01 X199.601488 Y383.480175 Z-0.125000
G01 X201.473715 Y383.480175 Z-0.125000
G01 X202.409828 Y385.352402 Z-0.125000
G01 X204.282055 Y387.224629 Z-0.125000
G01 X205.218169 Y389.096856 Z-0.125000
G01 X207.090396 Y390.032969 Z-0.125000
G01 X208.962623 Y388.160742 Z-0.125000
G01 X207.090396 Y386.288515 Z-0.125000
G01 X206.154282 Y384.416288 Z-0.125000
G01 X204.282055 Y383.480175 Z-0.125000
G01 X204.282055 Y380.671834 Z-0.125000
G01 X202.409828 Y379.735721 Z-0.125000
G01 X202.409828 Y376.927380 Z-0.125000
G01 X200.537601 Y375.991267 Z-0.125000
G01 X198.665374 Y375.055153 Z-0.125000
G01 X196.793147 Y374.119040 Z-0.125000
G01 X194.920921 Y375.055153 Z-0.125000
G01 X193.048694 Y373.182926 Z-0.125000
G01 X191.176467 Y371.310699 Z-0.125000
G01 X188.368126 Y372.246813 Z-0.125000
G01 X186.495899 Y373.182926 Z-0.125000
G01 X186.495899 Y370.374586 Z-0.125000
G01 X183.687559 Y370.374586 Z-0.125000
G01 X181.815332 Y369.438472 Z-0.125000
G01 X179.943105 Y368.502359 Z-0.125000
G01 X182.751445 Y366.630132 Z-0.125000
G01 X184.623672 Y367.566246 Z-0.125000
G01 X186.495899 Y367.566246 Z-0.125000
G01 X188.368126 Y368.502359 Z-0.125000
G01 X190.240353 Y368.502359 Z-0.125000
G01 X192.112580 Y368.502359 Z-0.125000
G01 X193.984807 Y369.438472 Z-0.125000
G01 X194.920921 Y371.310699 Z-0.125000
G01 X196.793147 Y371.310699 Z-0.125000
G01 X199.601488 Y371.310699 Z-0.125000
G01 X196.793147 Y368.502359 Z-0.125000
G01 X196.793147 Y364.757905 Z-0.125000
G01 X201.473715 Y365.694019 Z-0.125000
G01 X203.345942 Y369.438472 Z-0.125000
G01 X204.282055 Y372.246813 Z-0.125000
G01 X207.090396 Y374.119040 Z-0.125000
G01 X208.962623 Y375.991267 Z-0.125000
G01 X209.898736 Y377.863494 Z-0.125000
G01 X211.770963 Y380.671834 Z-0.125000
G01 X213.643190 Y382.544061 Z-0.125000
G01 X215.515417 Y387.224629 Z-0.125000
G01 X217.387644 Y390.969082 Z-0.125000
G01 X218.323757 Y393.777423 Z-0.125000
G01 X219.259871 Y396.585763 Z-0.125000
G01 X219.259871 Y399.394104 Z-0.125000
G01 X218.323757 Y402.202444 Z-0.125000
G01 X218.323757 Y405.010785 Z-0.125000
G01 X218.323757 Y407.819125 Z-0.125000
G01 X220.195984 Y412.499692 Z-0.125000
G01 X216.451531 Y410.627466 Z-0.125000
G01 X214.579304 Y413.435806 Z-0.125000
G01 X216.451531 Y418.116373 Z-0.125000
G01 X211.770963 Y416.244146 Z-0.125000
G01 X208.026509 Y419.052487 Z-0.125000
G01 X205.218169 Y419.052487 Z-0.125000
G01 X202.409828 Y419.988600 Z-0.125000
G01 X201.473715 Y419.052487 Z-0.125000
G01 X199.601488 Y418.116373 Z-0.125000
G01 X197.729261 Y417.180260 Z-0.125000
G01 X196.793147 Y419.052487 Z-0.125000
G01 X195.857034 Y416.244146 Z-0.125000
G01 X193.984807 Y415.308033 Z-0.125000
G01 X192.112580 Y414.371919 Z-0.125000
G01 X193.984807 Y412.499692 Z-0.125000
G01 X192.112580 Y411.563579 Z-0.125000
G01 X190.240353 Y410.627466 Z-0.125000
G01 X189.304240 Y412.499692 Z-0.125000
G01 X187.432013 Y410.627466 Z-0.125000
G01 X187.432013 Y407.819125 Z-0.125000
G01 X189.304240 Y407.819125 Z-0.125000
G01 X190.240353 Y405.946898 Z-0.125000
G01 X188.368126 Y405.010785 Z-0.125000
G01 X187.432013 Y403.138558 Z-0.125000
G01 X185.559786 Y402.202444 Z-0.125000
G01 X184.623672 Y400.330217 Z-0.125000
G01 X182.751445 Y400.330217 Z-0.125000
G01 X179.943105 Y400.330217 Z-0.125000
G01 X180.879218 Y398.457990 Z-0.125000
G01 X178.070878 Y398.457990 Z-0.125000
G01 X177.134764 Y397.521877 Z-0.125000
G01 X175.262537 Y396.585763 Z-0.125000
G01 X174.326424 Y393.777423 Z-0.125000
G01 X171.518084 Y394.713536 Z-0.125000
G01 X172.454197 Y396.585763 Z-0.125000
G01 X173.390311 Y398.457990 Z-0.125000
G01 X175.262537 Y400.330217 Z-0.125000
G01 X174.326424 Y402.202444 Z-0.125000
G01 X172.454197 Y401.266331 Z-0.125000
G01 X170.581970 Y402.202444 Z-0.125000
G01 X168.709743 Y401.266331 Z-0.125000
G01 X170.581970 Y399.394104 Z-0.125000
G01 X169.645857 Y397.521877 Z-0.125000
G01 X167.773630 Y397.521877 Z-0.125000
G01 X167.773630 Y393.777423 Z-0.125000
G01 X169.645857 Y393.777423 Z-0.125000
G01 X168.709743 Y390.969082 Z-0.125000
G01 X167.773630 Y389.096856 Z-0.125000
G01 X170.581970 Y389.096856 Z-0.125000
G01 X171.518084 Y391.905196 Z-0.125000
G01 X173.390311 Y390.032969 Z-0.125000
G01 X175.262537 Y390.032969 Z-0.125000
G01 X176.198651 Y391.905196 Z-0.125000
G01 X177.134764 Y393.777423 Z-0.125000
G01 X179.006991 Y394.713536 Z-0.125000
G01 X180.879218 Y395.649650 Z-0.125000
G01 X182.751445 Y396.585763 Z-0.125000
G01 X184.623672 Y397.521877 Z-0.125000
G01 X186.495899 Y397.521877 Z-0.125000
G01 X187.432013 Y399.394104 Z-0.125000
G01 X189.304240 Y401.266331 Z-0.125000
G01 X191.176467 Y403.138558 Z-0.125000
G01 X193.048694 Y405.010785 Z-0.125000
G01 X194.920921 Y405.946898 Z-0.125000
G01 X192.112580 Y407.819125 Z-0.125000
G01 X193.984807 Y408.755239 Z-0.125000
G01 X195.857034 Y408.755239 Z-0.125000
G01 X196.793147 Y410.627466 Z-0.125000
G01 X196.793147 Y413.435806 Z-0.125000
G01 X198.665374 Y413.435806 Z-0.125000
G01 X200.537601 Y415.308033 Z-0.125000
G01 X202.409828 Y415.308033 Z-0.125000
G01 X204.282055 Y413.435806 Z-0.125000
G01 X205.218169 Y415.308033 Z-0.125000
G01 X207.090396 Y415.308033 Z-0.125000
G01 X208.026509 Y412.499692 Z-0.125000
G01 X209.898736 Y410.627466 Z-0.125000
G01 X210.834850 Y408.755239 Z-0.125000
G01 X209.898736 Y406.883012 Z-0.125000
G01 X208.026509 Y405.010785 Z-0.125000
G01 X207.090396 Y403.138558 Z-0.125000
G01 X209.898736 Y403.138558 Z-0.125000
G01 X211.770963 Y404.074671 Z-0.125000
G01 X210.834850 Y401.266331 Z-0.125000
G01 X208.962623 Y400.330217 Z-0.125000
G01 X207.090396 Y400.330217 Z-0.125000
G01 X205.218169 Y399.394104 Z-0.125000
G01 X204.282055 Y402.202444 Z-0.125000
G01 X203.345942 Y400.330217 Z-0.125000
G01 X203.345942 Y397.521877 Z-0.125000
G01 X200.537601 Y397.521877 Z-0.125000
G01 X198.665374 Y395.649650 Z-0.125000
G01 X196.793147 Y394.713536 Z-0.125000
G01 X195.857034 Y398.457990 Z-0.125000
G01 X197.729261 Y398.457990 Z-0.125000
G01 X198.665374 Y400.330217 Z-0.125000
G01 X200.537601 Y400.330217 Z-0.125000
G01 X200.537601 Y403.138558 Z-0.125000
G01 X201.473715 Y405.010785 Z-0.125000
G01 X203.345942 Y405.010785 Z-0.125000
G01 X205.218169 Y405.946898 Z-0.125000
G01 X201.473715 Y407.819125 Z-0.125000
G01 X203.345942 Y408.755239 Z-0.125000
G01 X206.154282 Y407.819125 Z-0.125000
G01 X208.026509 Y408.755239 Z-0.125000
G01 X206.154282 Y410.627466 Z-0.125000
G01 X203.345942 Y411.563579 Z-0.125000
G01 X201.473715 Y411.563579 Z-0.125000
G01 X199.601488 Y410.627466 Z-0.125000
G01 X198.665374 Y408.755239 Z-0.125000
G01 X198.665374 Y405.946898 Z-0.125000
G01 X197.729261 Y405.010785 Z-0.125000
G01 X196.793147 Y403.138558 Z-0.125000
G01 X194.920921 Y402.202444 Z-0.125000
G01 X193.984807 Y401.266331 Z-0.125000
G01 X192.112580 Y400.330217 Z-0.125000
G01 X190.240353 Y398.457990 Z-0.125000
G01 X188.368126 Y394.713536 Z-0.125000
G01 X186.495899 Y391.905196 Z-0.125000
G01 X185.559786 Y393.777423 Z-0.125000
G01 X183.687559 Y393.777423 Z-0.125000
G01 X181.815332 Y392.841309 Z-0.125000
G01 X179.006991 Y391.905196 Z-0.125000
G01 X178.070878 Y389.096856 Z-0.125000
G01 X179.006991 Y387.224629 Z-0.125000
G01 X180.879218 Y388.160742 Z-0.125000
G01 X181.815332 Y390.032969 Z-0.125000
G01 X183.687559 Y390.032969 Z-0.125000
G01 X184.623672 Y388.160742 Z-0.125000
G01 X186.495899 Y389.096856 Z-0.125000
G01 X189.304240 Y390.032969 Z-0.125000
G01 X189.304240 Y387.224629 Z-0.125000
G01 X187.432013 Y386.288515 Z-0.125000
G01 X184.623672 Y385.352402 Z-0.125000
G01 X182.751445 Y385.352402 Z-0.125000
G01 X180.879218 Y384.416288 Z-0.125000
G01 X178.070878 Y384.416288 Z-0.125000
G01 X179.006991 Y382.544061 Z-0.125000
G01 X176.198651 Y382.544061 Z-0.125000
G01 X174.326424 Y381.607948 Z-0.125000
G01 X173.390311 Y379.735721 Z-0.125000
G01 X170.581970 Y379.735721 Z-0.125000
G01 X169.645857 Y382.544061 Z-0.125000
G01 X171.518084 Y383.480175 Z-0.125000
G01 X173.390311 Y384.416288 Z-0.125000
G01 X175.262537 Y385.352402 Z-0.125000
G01 X176.198651 Y387.224629 Z-0.125000
G01 X173.390311 Y387.224629 Z-0.125000
G01 X170.581970 Y386.288515 Z-0.125000
G01 X168.709743 Y385.352402 Z-0.125000
G01 X164.965289 Y380.671834 Z-0.125000
G01 X164.029176 Y385.352402 Z-0.125000
G01 X162.156949 Y392.841309 Z-0.125000
G01 X162.156949 Y395.649650 Z-0.125000
G01 X163.093062 Y399.394104 Z-0.125000
G01 X164.029176 Y402.202444 Z-0.125000
G01 X164.965289 Y405.010785 Z-0.125000
G01 X165.901403 Y406.883012 Z-0.125000
G01 X167.773630 Y408.755239 Z-0.125000
G01 X169.645857 Y410.627466 Z-0.125000
G01 X171.518084 Y412.499692 Z-0.125000
G01 X172.454197 Y414.371919 Z-0.125000
G01 X174.326424 Y417.180260 Z-0.125000
G01 X176.198651 Y418.116373 Z-0.125000
G01 X179.006991 Y419.052487 Z-0.125000
G01 X180.879218 Y419.988600 Z-0.125000
G01 X181.815332 Y420.924714 Z-0.125000
G01 X187.432013 Y420.924714 Z-0.125000
G01 X186.495899 Y419.988600 Z-0.125000
G01 X184.623672 Y419.052487 Z-0.125000
G01 X183.687559 Y416.244146 Z-0.125000
G01 X181.815332 Y416.244146 Z-0.125000
G01 X181.815332 Y413.435806 Z-0.125000
G01 X179.943105 Y415.308033 Z-0.125000
G01 X179.006991 Y413.435806 Z-0.125000
G01 X177.134764 Y413.435806 Z-0.125000
G01 X175.262537 Y412.499692 Z-0.125000
G01 X174.326424 Y409.691352 Z-0.125000
G01 X172.454197 Y407.819125 Z-0.125000
G01 X170.581970 Y405.010785 Z-0.125000
G01 X172.454197 Y405.010785 Z-0.125000
G01 X174.326424 Y405.946898 Z-0.125000
G01 X176.198651 Y404.074671 Z-0.125000
G01 X177.134764 Y402.202444 Z-0.125000
G01 X179.006991 Y403.138558 Z-0.125000
G01 X180.879218 Y404.074671 Z-0.125000
G01 X182.751445 Y404.074671 Z-0.125000
G01 X185.559786 Y405.010785 Z-0.125000
G01 X184.623672 Y407.819125 Z-0.125000
G01 X182.751445 Y406.883012 Z-0.125000
G01 X179.943105 Y406.883012 Z-0.125000
G01 X178.070878 Y405.946898 Z-0.125000
G01 X176.198651 Y407.819125 Z-0.125000
G01 X177.134764 Y409.691352 Z-0.125000
G01 X179.006991 Y409.691352 Z-0.125000
G01 X180.879218 Y409.691352 Z-0.125000
G01 X181.815332 Y410.627466 Z-0.125000
G01 X183.687559 Y410.627466 Z-0.125000
G01 X184.623672 Y412.499692 Z-0.125000
G01 X185.559786 Y413.435806 Z-0.125000
G01 X186.495899 Y415.308033 Z-0.125000
G01 X187.432013 Y417.180260 Z-0.125000
G01 X189.304240 Y415.308033 Z-0.125000
G01 X190.240353 Y417.180260 Z-0.125000
G01 X192.112580 Y418.116373 Z-0.125000
G01 X193.048694 Y419.052487 Z-0.125000
G01 X190.240353 Y419.988600 Z-0.125000
G01 X191.176467 Y421.860827 Z-0.125000
G01 X193.984807 Y420.924714 Z-0.125000
G01 X194.920921 Y421.860827 Z-0.125000
G01 X196.793147 Y422.796941 Z-0.125000
G01 X198.665374 Y420.924714 Z-0.125000
G01 X200.537601 Y422.796941 Z-0.125000
G01 X202.409828 Y423.733054 Z-0.125000
G01 X201.473715 Y427.477508 Z-0.125000
G01 X196.793147 Y426.541395 Z-0.125000
G01 X193.984807 Y426.541395 Z-0.125000
G01 X190.240353 Y427.477508 Z-0.125000
G01 X188.368126 Y426.541395 Z-0.125000
G01 X185.559786 Y426.541395 Z-0.125000
G01 X184.623672 Y425.605281 Z-0.125000
G01 X181.815332 Y425.605281 Z-0.125000
G01 X180.879218 Y424.669168 Z-0.125000
G01 X178.070878 Y424.669168 Z-0.125000
G01 X177.134764 Y423.733054 Z-0.125000
G01 X175.262537 Y421.860827 Z-0.125000
G01 X174.326424 Y423.733054 Z-0.125000
G01 X172.454197 Y421.860827 Z-0.125000
G01 X171.518084 Y420.924714 Z-0.125000
G01 X168.709743 Y419.988600 Z-0.125000
G01 X169.645857 Y418.116373 Z-0.125000
G01 X165.901403 Y418.116373 Z-0.125000
G01 X167.773630 Y415.308033 Z-0.125000
G01 X165.901403 Y413.435806 Z-0.125000
G01 X163.093062 Y415.308033 Z-0.125000
G01 X161.220835 Y412.499692 Z-0.125000
G01 X164.029176 Y410.627466 Z-0.125000
G01 X162.156949 Y408.755239 Z-0.125000
G01 X159.348608 Y408.755239 Z-0.125000
G01 X159.348608 Y405.946898 Z-0.125000
G01 X157.476381 Y405.010785 Z-0.125000
G01 X160.284722 Y403.138558 Z-0.125000
G01 X159.348608 Y400.330217 Z-0.125000
G01 X157.476381 Y402.202444 Z-0.125000
G01 X155.604154 Y401.266331 Z-0.125000
G01 X153.731928 Y399.394104 Z-0.125000
G01 X157.476381 Y398.457990 Z-0.125000
G01 X156.540268 Y396.585763 Z-0.125000
G01 X154.668041 Y395.649650 Z-0.125000
G01 X151.859701 Y395.649650 Z-0.125000
G01 X153.731928 Y392.841309 Z-0.125000
G01 X156.540268 Y392.841309 Z-0.125000
G01 X154.668041 Y390.969082 Z-0.125000
G01 X151.859701 Y390.969082 Z-0.125000
G01 X151.859701 Y388.160742 Z-0.125000
G01 X153.731928 Y388.160742 Z-0.125000
G01 X156.540268 Y387.224629 Z-0.125000
G01 X154.668041 Y385.352402 Z-0.125000
G01 X151.859701 Y385.352402 Z-0.125000
G01 X149.987474 Y383.480175 Z-0.125000
G01 X153.731928 Y383.480175 Z-0.125000
G01 X153.731928 Y380.671834 Z-0.125000
G01 X156.540268 Y380.671834 Z-0.125000
G01 X156.540268 Y377.863494 Z-0.125000
G01 X153.731928 Y377.863494 Z-0.125000
G01 X151.859701 Y376.927380 Z-0.125000
G01 X153.731928 Y373.182926 Z-0.125000
G01 X156.540268 Y375.055153 Z-0.125000
G01 X159.348608 Y374.119040 Z-0.125000
G01 X159.348608 Y371.310699 Z-0.125000
G01 X157.476381 Y367.566246 Z-0.125000
G01 X162.156949 Y368.502359 Z-0.125000
G01 X168.709743 Y371.310699 Z-0.125000
G01 X171.518084 Y364.757905 Z-0.125000
G01 X169.645857 Y359.141224 Z-0.125000
G01 X166.837516 Y359.141224 Z-0.125000
G01 X164.965289 Y363.821792 Z-0.125000
G01 X164.029176 Y361.949565 Z-0.125000
G01 X159.348608 Y360.077338 Z-0.125000
G01 X153.731928 Y357.268997 Z-0.125000
G01 X146.243020 Y352.588430 Z-0.125000
G01 X143.434679 Y347.907862 Z-0.125000
G01 X149.051360 Y343.227295 Z-0.125000
G01 X143.434679 Y341.355068 Z-0.125000
G01 X141.562452 Y337.610614 Z-0.125000
G01 X138.754112 Y335.738387 Z-0.125000
G01 X138.754112 Y332.930047 Z-0.125000
G01 X135.945771 Y333.866160 Z-0.125000
G01 X133.137431 Y332.930047 Z-0.125000
G01 X131.265204 Y330.121706 Z-0.125000
G01 X129.392977 Y329.185593 Z-0.125000
G01 X129.392977 Y326.377253 Z-0.125000
G01 X127.520750 Y326.377253 Z-0.125000
G01 X126.584637 Y324.505026 Z-0.125000
G01 X124.712410 Y323.568912 Z-0.125000
G01 X121.904069 Y319.824458 Z-0.125000
G01 X120.031842 Y316.080004 Z-0.125000
G01 X118.159615 Y312.335550 Z-0.125000
G01 X119.095729 Y309.527210 Z-0.125000
G01 X120.967956 Y311.399437 Z-0.125000
G01 X121.904069 Y313.271664 Z-0.125000
G01 X122.840183 Y315.143891 Z-0.125000
G01 X123.776296 Y317.016118 Z-0.125000
G01 X126.584637 Y317.016118 Z-0.125000
G01 X124.712410 Y319.824458 Z-0.125000
G01 X126.584637 Y320.760572 Z-0.125000
G01 X128.456864 Y320.760572 Z-0.125000
G01 X129.392977 Y322.632799 Z-0.125000
G01 X132.201318 Y322.632799 Z-0.125000
G01 X131.265204 Y324.505026 Z-0.125000
G01 X132.201318 Y326.377253 Z-0.125000
G01 X133.137431 Y327.313366 Z-0.125000
G01 X134.073544 Y329.185593 Z-0.125000
G01 X135.945771 Y329.185593 Z-0.125000
G01 X136.881885 Y330.121706 Z-0.125000
G01 X138.754112 Y330.121706 Z-0.125000
G01 X141.562452 Y331.057820 Z-0.125000
G01 X142.498566 Y332.930047 Z-0.125000
G01 X145.306906 Y331.993933 Z-0.125000
G01 X146.243020 Y333.866160 Z-0.125000
G01 X148.115247 Y333.866160 Z-0.125000
G01 X150.923587 Y333.866160 Z-0.125000
G01 X151.859701 Y334.802274 Z-0.125000
G01 X154.668041 Y334.802274 Z-0.125000
G01 X157.476381 Y334.802274 Z-0.125000
G01 X160.284722 Y334.802274 Z-0.125000
G01 X163.093062 Y335.738387 Z-0.125000
G01 X165.901403 Y335.738387 Z-0.125000
G01 X168.709743 Y335.738387 Z-0.125000
G01 X174.326424 Y337.610614 Z-0.125000
G01 X180.879218 Y335.738387 Z-0.125000
G01 X178.070878 Y331.993933 Z-0.125000
G01 X174.326424 Y326.377253 Z-0.125000
G01 X172.454197 Y321.696685 Z-0.125000
G01 X172.454197 Y318.888345 Z-0.125000
G01 X171.518084 Y317.952231 Z-0.125000
G01 X169.645857 Y317.016118 Z-0.125000
G01 X167.773630 Y316.080004 Z-0.125000
G01 X169.645857 Y319.824458 Z-0.125000
G01 X167.773630 Y323.568912 Z-0.125000
G01 X165.901403 Y322.632799 Z-0.125000
G01 X164.965289 Y324.505026 Z-0.125000
G01 X164.965289 Y327.313366 Z-0.125000
G01 X167.773630 Y326.377253 Z-0.125000
G01 X170.581970 Y327.313366 Z-0.125000
G01 X171.518084 Y331.057820 Z-0.125000
G01 X167.773630 Y331.057820 Z-0.125000
G01 X164.029176 Y331.057820 Z-0.125000
G01 X160.284722 Y330.121706 Z-0.125000
G01 X159.348608 Y326.377253 Z-0.125000
G01 X162.156949 Y326.377253 Z-0.125000
G01 X161.220835 Y324.505026 Z-0.125000
G01 X162.156949 Y322.632799 Z-0.125000
G01 X159.348608 Y323.568912 Z-0.125000
G01 X158.412495 Y321.696685 Z-0.125000
G01 X156.540268 Y320.760572 Z-0.125000
G01 X155.604154 Y322.632799 Z-0.125000
G01 X156.540268 Y325.441139 Z-0.125000
G01 X153.731928 Y325.441139 Z-0.125000
G01 X152.795814 Y329.185593 Z-0.125000
G01 X147.179133 Y329.185593 Z-0.125000
G01 X144.370793 Y327.313366 Z-0.125000
G01 X139.690225 Y324.505026 Z-0.125000
G01 X145.306906 Y322.632799 Z-0.125000
G01 X143.434679 Y320.760572 Z-0.125000
G01 X140.626339 Y319.824458 Z-0.125000
G01 X138.754112 Y318.888345 Z-0.125000
G01 X136.881885 Y317.016118 Z-0.125000
G01 X137.817998 Y315.143891 Z-0.125000
G01 X135.945771 Y314.207777 Z-0.125000
G01 X134.073544 Y314.207777 Z-0.125000
G01 X133.137431 Y312.335550 Z-0.125000
G01 X136.881885 Y311.399437 Z-0.125000
G01 X138.754112 Y311.399437 Z-0.125000
G01 X140.626339 Y312.335550 Z-0.125000
G01 X142.498566 Y310.463323 Z-0.125000
G01 X141.562452 Y308.591096 Z-0.125000
G01 X142.498566 Y305.782756 Z-0.125000
G01 X139.690225 Y306.718869 Z-0.125000
G01 X138.754112 Y308.591096 Z-0.125000
G01 X136.881885 Y307.654983 Z-0.125000
G01 X135.009658 Y309.527210 Z-0.125000
G01 X133.137431 Y309.527210 Z-0.125000
G01 X132.201318 Y308.591096 Z-0.125000
G01 X128.456864 Y309.527210 Z-0.125000
G01 X122.840183 Y305.782756 Z-0.125000
G01 X123.776296 Y300.166075 Z-0.125000
G01 X119.095729 Y299.229962 Z-0.125000
G01 X117.223502 Y298.293848 Z-0.125000
G01 X118.159615 Y301.102189 Z-0.125000
G01 X118.159615 Y303.910529 Z-0.125000
G01 X119.095729 Y306.718869 Z-0.125000
G01 X116.287388 Y307.654983 Z-0.125000
G01 X114.415161 Y303.910529 Z-0.125000
G01 X110.670708 Y300.166075 Z-0.125000
G01 X110.670708 Y292.677167 Z-0.125000
G01 X116.287388 Y294.549394 Z-0.125000
G01 X119.095729 Y295.485508 Z-0.125000
G01 X120.031842 Y291.741054 Z-0.125000
G01 X120.967956 Y288.932713 Z-0.125000
G01 X118.159615 Y288.932713 Z-0.125000
G01 X115.351275 Y286.124373 Z-0.125000
G01 X121.904069 Y286.124373 Z-0.125000
G01 X126.584637 Y287.996600 Z-0.125000
G01 X126.584637 Y290.804940 Z-0.125000
G01 X126.584637 Y294.549394 Z-0.125000
G01 X130.329091 Y293.613281 Z-0.125000
G01 X130.329091 Y290.804940 Z-0.125000
G01 X133.137431 Y291.741054 Z-0.125000
G01 X135.009658 Y291.741054 Z-0.125000
G01 X135.009658 Y288.932713 Z-0.125000
G01 X134.073544 Y287.996600 Z-0.125000
G01 X131.265204 Y287.996600 Z-0.125000
G01 X132.201318 Y286.124373 Z-0.125000
G01 X130.329091 Y282.379919 Z-0.125000
G01 X134.073544 Y282.379919 Z-0.125000
G01 X135.945771 Y279.571579 Z-0.125000
G01 X139.690225 Y280.507692 Z-0.125000
G01 X141.562452 Y280.507692 Z-0.125000
G01 X142.498566 Y282.379919 Z-0.125000
G01 X144.370793 Y280.507692 Z-0.125000
G01 X145.306906 Y282.379919 Z-0.125000
G01 X147.179133 Y283.316033 Z-0.125000
G01 X149.051360 Y283.316033 Z-0.125000
G01 X150.923587 Y284.252146 Z-0.125000
G01 X152.795814 Y284.252146 Z-0.125000
G01 X154.668041 Y285.188259 Z-0.125000
G01 X155.604154 Y286.124373 Z-0.125000
G01 X157.476381 Y283.316033 Z-0.125000
G01 X159.348608 Y285.188259 Z-0.125000
G01 X161.220835 Y286.124373 Z-0.125000
G01 X163.093062 Y286.124373 Z-0.125000
G01 X164.965289 Y286.124373 Z-0.125000
G01 X165.901403 Y284.252146 Z-0.125000
G01 X167.773630 Y286.124373 Z-0.125000
G01 X168.709743 Y287.060486 Z-0.125000
G01 X170.581970 Y288.932713 Z-0.125000
G01 X171.518084 Y290.804940 Z-0.125000
G01 X168.709743 Y290.804940 Z-0.125000
G01 X166.837516 Y289.868827 Z-0.125000
G01 X164.965289 Y288.932713 Z-0.125000
G01 X163.093062 Y289.868827 Z-0.125000
G01 X161.220835 Y288.932713 Z-0.125000
G01 X158.412495 Y287.996600 Z-0.125000
G01 X156.540268 Y287.996600 Z-0.125000
G01 X153.731928 Y288.932713 Z-0.125000
G01 X151.859701 Y287.996600 Z-0.125000
G01 X150.923587 Y287.060486 Z-0.125000
G01 X148.115247 Y286.124373 Z-0.125000
G01 X149.051360 Y288.932713 Z-0.125000
G01 X146.243020 Y287.996600 Z-0.125000
G01 X145.306906 Y286.124373 Z-0.125000
G01 X143.434679 Y285.188259 Z-0.125000
G01 X141.562452 Y285.188259 Z-0.125000
G01 X139.690225 Y285.188259 Z-0.125000
G01 X138.754112 Y283.316033 Z-0.125000
G01 X135.945771 Y284.252146 Z-0.125000
G01 X136.881885 Y286.124373 Z-0.125000
G01 X137.817998 Y287.996600 Z-0.125000
G01 X139.690225 Y288.932713 Z-0.125000
G01 X142.498566 Y287.996600 Z-0.125000
G01 X143.434679 Y289.868827 Z-0.125000
G01 X145.306906 Y290.804940 Z-0.125000
G01 X147.179133 Y290.804940 Z-0.125000
G01 X149.051360 Y291.741054 Z-0.125000
G01 X150.923587 Y291.741054 Z-0.125000
G01 X151.859701 Y292.677167 Z-0.125000
G01 X153.731928 Y292.677167 Z-0.125000
G01 X155.604154 Y290.804940 Z-0.125000
G01 X157.476381 Y292.677167 Z-0.125000
G01 X158.412495 Y290.804940 Z-0.125000
G01 X160.284722 Y291.741054 Z-0.125000
G01 X160.284722 Y294.549394 Z-0.125000
G01 X162.156949 Y295.485508 Z-0.125000
G01 X163.093062 Y292.677167 Z-0.125000
G01 X164.965289 Y292.677167 Z-0.125000
G01 X166.837516 Y293.613281 Z-0.125000
G01 X168.709743 Y293.613281 Z-0.125000
G01 X170.581970 Y295.485508 Z-0.125000
G01 X171.518084 Y293.613281 Z-0.125000
G01 X173.390311 Y294.549394 Z-0.125000
G01 X173.390311 Y297.357735 Z-0.125000
G01 X174.326424 Y300.166075 Z-0.125000
G01 X171.518084 Y299.229962 Z-0.125000
G01 X169.645857 Y298.293848 Z-0.125000
G01 X167.773630 Y297.357735 Z-0.125000
G01 X165.901403 Y296.421621 Z-0.125000
G01 X164.029176 Y296.421621 Z-0.125000
G01 X164.029176 Y299.229962 Z-0.125000
G01 X164.965289 Y301.102189 Z-0.125000
G01 X166.837516 Y299.229962 Z-0.125000
G01 X168.709743 Y301.102189 Z-0.125000
G01 X166.837516 Y302.974416 Z-0.125000
G01 X164.965289 Y304.846643 Z-0.125000
G01 X163.093062 Y302.974416 Z-0.125000
G01 X161.220835 Y301.102189 Z-0.125000
G01 X161.220835 Y298.293848 Z-0.125000
G01 X159.348608 Y298.293848 Z-0.125000
G01 X158.412495 Y297.357735 Z-0.125000
G01 X157.476381 Y295.485508 Z-0.125000
G01 X155.604154 Y294.549394 Z-0.125000
G01 X155.604154 Y297.357735 Z-0.125000
G01 X155.604154 Y300.166075 Z-0.125000
G01 X153.731928 Y300.166075 Z-0.125000
G01 X151.859701 Y300.166075 Z-0.125000
G01 X152.795814 Y297.357735 Z-0.125000
G01 X151.859701 Y295.485508 Z-0.125000
G01 X149.987474 Y298.293848 Z-0.125000
G01 X149.051360 Y297.357735 Z-0.125000
G01 X148.115247 Y295.485508 Z-0.125000
G01 X147.179133 Y294.549394 Z-0.125000
G01 X145.306906 Y294.549394 Z-0.125000
G01 X143.434679 Y293.613281 Z-0.125000
G01 X141.562452 Y292.677167 Z-0.125000
G01 X140.626339 Y290.804940 Z-0.125000
G01 X137.817998 Y290.804940 Z-0.125000
G01 X136.881885 Y293.613281 Z-0.125000
G01 X138.754112 Y293.613281 Z-0.125000
G01 X139.690225 Y295.485508 Z-0.125000
G01 X141.562452 Y296.421621 Z-0.125000
G01 X143.434679 Y297.357735 Z-0.125000
G01 X145.306906 Y298.293848 Z-0.125000
G01 X146.243020 Y299.229962 Z-0.125000
G01 X143.434679 Y300.166075 Z-0.125000
G01 X140.626339 Y299.229962 Z-0.125000
G01 X138.754112 Y298.293848 Z-0.125000
G01 X136.881885 Y296.421621 Z-0.125000
G01 X135.009658 Y297.357735 Z-0.125000
G01 X134.073544 Y295.485508 Z-0.125000
G01 X132.201318 Y294.549394 Z-0.125000
G01 X131.265204 Y297.357735 Z-0.125000
G01 X129.392977 Y297.357735 Z-0.125000
G01 X129.392977 Y300.166075 Z-0.125000
G01 X129.392977 Y302.974416 Z-0.125000
G01 X130.329091 Y304.846643 Z-0.125000
G01 X131.265204 Y305.782756 Z-0.125000
G01 X134.073544 Y305.782756 Z-0.125000
G01 X136.881885 Y304.846643 Z-0.125000
G01 X135.945771 Y303.910529 Z-0.125000
G01 X134.073544 Y302.974416 Z-0.125000
G01 X132.201318 Y302.038302 Z-0.125000
G01 X132.201318 Y299.229962 Z-0.125000
G01 X135.009658 Y300.166075 Z-0.125000
G01 X136.881885 Y300.166075 Z-0.125000
G01 X138.754112 Y302.038302 Z-0.125000
G01 X139.690225 Y303.910529 Z-0.125000
G01 X141.562452 Y302.038302 Z-0.125000
G01 X143.434679 Y302.974416 Z-0.125000
G01 X145.306906 Y302.974416 Z-0.125000
G01 X148.115247 Y303.910529 Z-0.125000
G01 X148.115247 Y301.102189 Z-0.125000
G01 X149.987474 Y302.038302 Z-0.125000
G01 X150.923587 Y303.910529 Z-0.125000
G01 X149.987474 Y306.718869 Z-0.125000
G01 X150.923587 Y308.591096 Z-0.125000
G01 X152.795814 Y308.591096 Z-0.125000
G01 X154.668041 Y309.527210 Z-0.125000
G01 X157.476381 Y309.527210 Z-0.125000
G01 X156.540268 Y312.335550 Z-0.125000
G01 X154.668041 Y312.335550 Z-0.125000
G01 X152.795814 Y311.399437 Z-0.125000
G01 X149.987474 Y311.399437 Z-0.125000
G01 X148.115247 Y311.399437 Z-0.125000
G01 X148.115247 Y308.591096 Z-0.125000
G01 X147.179133 Y306.718869 Z-0.125000
G01 X145.306906 Y305.782756 Z-0.125000
G01 X144.370793 Y307.654983 Z-0.125000
G01 X145.306906 Y310.463323 Z-0.125000
G01 X144.370793 Y312.335550 Z-0.125000
G01 X145.306906 Y314.207777 Z-0.125000
G01 X146.243020 Y316.080004 Z-0.125000
G01 X142.498566 Y314.207777 Z-0.125000
G01 X139.690225 Y316.080004 Z-0.125000
G01 X141.562452 Y317.016118 Z-0.125000
G01 X143.434679 Y317.952231 Z-0.125000
G01 X145.306906 Y318.888345 Z-0.125000
G01 X147.179133 Y319.824458 Z-0.125000
G01 X149.051360 Y320.760572 Z-0.125000
G01 X148.115247 Y322.632799 Z-0.125000
G01 X149.987474 Y324.505026 Z-0.125000
G01 X150.923587 Y322.632799 Z-0.125000
G01 X152.795814 Y323.568912 Z-0.125000
G01 X153.731928 Y320.760572 Z-0.125000
G01 X151.859701 Y318.888345 Z-0.125000
G01 X149.987474 Y317.952231 Z-0.125000
G01 X149.051360 Y316.080004 Z-0.125000
G01 X148.115247 Y314.207777 Z-0.125000
G01 X150.923587 Y314.207777 Z-0.125000
G01 X152.795814 Y315.143891 Z-0.125000
G01 X153.731928 Y316.080004 Z-0.125000
G01 X154.668041 Y317.952231 Z-0.125000
G01 X156.540268 Y317.952231 Z-0.125000
G01 X159.348608 Y318.888345 Z-0.125000
G01 X159.348608 Y316.080004 Z-0.125000
G01 X157.476381 Y315.143891 Z-0.125000
G01 X158.412495 Y312.335550 Z-0.125000
G01 X160.284722 Y313.271664 Z-0.125000
G01 X162.156949 Y314.207777 Z-0.125000
G01 X164.965289 Y314.207777 Z-0.125000
G01 X164.029176 Y311.399437 Z-0.125000
G01 X162.156949 Y310.463323 Z-0.125000
G01 X160.284722 Y309.527210 Z-0.125000
G01 X159.348608 Y307.654983 Z-0.125000
G01 X157.476381 Y306.718869 Z-0.125000
G01 X155.604154 Y305.782756 Z-0.125000
G01 X153.731928 Y305.782756 Z-0.125000
G01 X152.795814 Y303.910529 Z-0.125000
G01 X155.604154 Y302.974416 Z-0.125000
G01 X157.476381 Y301.102189 Z-0.125000
G01 X158.412495 Y302.974416 Z-0.125000
G01 X159.348608 Y303.910529 Z-0.125000
G01 X161.220835 Y304.846643 Z-0.125000
G01 X162.156949 Y306.718869 Z-0.125000
G01 X164.029176 Y307.654983 Z-0.125000
G01 X165.901403 Y307.654983 Z-0.125000
G01 X166.837516 Y309.527210 Z-0.125000
G01 X165.901403 Y312.335550 Z-0.125000
G01 X167.773630 Y313.271664 Z-0.125000
G01 X169.645857 Y311.399437 Z-0.125000
G01 X170.581970 Y314.207777 Z-0.125000
G01 X174.326424 Y315.143891 Z-0.125000
G01 X173.390311 Y314.207777 Z-0.125000
G01 X172.454197 Y312.335550 Z-0.125000
G01 X173.390311 Y310.463323 Z-0.125000
G01 X171.518084 Y309.527210 Z-0.125000
G01 X169.645857 Y308.591096 Z-0.125000
G01 X168.709743 Y306.718869 Z-0.125000
G01 X167.773630 Y304.846643 Z-0.125000
G01 X170.581970 Y303.910529 Z-0.125000
G01 X171.518084 Y302.038302 Z-0.125000
G01 X173.390311 Y302.974416 Z-0.125000
G01 X174.326424 Y304.846643 Z-0.125000
G01 X172.454197 Y306.718869 Z-0.125000
G01 X175.262537 Y306.718869 Z-0.125000
G01 X179.006991 Y309.527210 Z-0.125000
G01 X179.943105 Y315.143891 Z-0.125000
G01 X182.751445 Y318.888345 Z-0.125000
G01 X186.495899 Y321.696685 Z-0.125000
G01 X181.815332 Y325.441139 Z-0.125000
G01 X185.559786 Y328.249479 Z-0.125000
G01 X188.368126 Y324.505026 Z-0.125000
G01 X189.304240 Y326.377253 Z-0.125000
G01 X189.304240 Y329.185593 Z-0.125000
G01 X191.176467 Y331.057820 Z-0.125000
G01 X193.048694 Y334.802274 Z-0.125000
G01 X193.984807 Y331.993933 Z-0.125000
G01 X194.920921 Y326.377253 Z-0.125000
G01 X195.857034 Y320.760572 Z-0.125000
G01 X193.048694 Y317.952231 Z-0.125000
G01 X189.304240 Y316.080004 Z-0.125000
G01 X189.304240 Y311.399437 Z-0.125000
G01 X194.920921 Y312.335550 Z-0.125000
G01 X196.793147 Y307.654983 Z-0.125000
G01 X201.473715 Y306.718869 Z-0.125000
G01 X201.473715 Y311.399437 Z-0.125000
G01 X205.218169 Y312.335550 Z-0.125000
G01 X208.026509 Y313.271664 Z-0.125000
G01 X210.834850 Y312.335550 Z-0.125000
G01 X209.898736 Y310.463323 Z-0.125000
G01 X208.026509 Y310.463323 Z-0.125000
G01 X207.090396 Y308.591096 Z-0.125000
G01 X205.218169 Y308.591096 Z-0.125000
G01 X205.218169 Y305.782756 Z-0.125000
G01 X208.026509 Y305.782756 Z-0.125000
G01 X207.090396 Y303.910529 Z-0.125000
